/* XPM */
static const char *duck_30[] = {
/* columns rows colors chars-per-pixel */
"30 30 155 2 ",
"   c #010101",
".  c #0E0403",
"X  c #070208",
"o  c #00080A",
"O  c #090B0A",
"+  c #110800",
"@  c #330600",
"#  c #400A00",
"$  c #640D00",
"%  c #7B2200",
"&  c #794700",
"*  c #002B47",
"=  c #075873",
"-  c #65755A",
";  c #726E6B",
":  c #A41302",
">  c #B31401",
",  c #E73300",
"<  c #E43C00",
"1  c #A1600C",
"2  c #BA6700",
"3  c #BA7100",
"4  c #EF4700",
"5  c #F25000",
"6  c #FB5406",
"7  c #C26F02",
"8  c #CA7402",
"9  c #CB7800",
"0  c #C97B0C",
"q  c #D17B00",
"w  c #D97900",
"e  c #D27402",
"r  c #F66707",
"t  c #FD6402",
"y  c #FD6F01",
"u  c #F47B0A",
"i  c #BB9F17",
"p  c #DC8600",
"a  c #E18202",
"s  c #E78905",
"d  c #EC9402",
"f  c #ED9801",
"g  c #E39205",
"h  c #F09100",
"j  c #F59C01",
"k  c #F99B05",
"l  c #F4A401",
"z  c #FAA703",
"x  c #F6A800",
"c  c #FBAF04",
"v  c #FCAD08",
"b  c #FAA20A",
"n  c #FEB603",
"m  c #FDBA02",
"M  c #DF9F3E",
"N  c #E29A34",
"B  c #FFC603",
"V  c #FECD03",
"C  c #FED303",
"Z  c #FAD309",
"A  c #FFC710",
"S  c #FDDA20",
"D  c #FDDE2A",
"F  c #FAE645",
"G  c #FCED60",
"H  c #FFF16A",
"J  c #226DAE",
"K  c #2577B3",
"L  c #1C85BF",
"P  c #008EE7",
"I  c #008DF7",
"U  c #0496F3",
"Y  c #0099F3",
"T  c #0399F8",
"R  c #0EA7EB",
"E  c #0AAFEF",
"W  c #15AEE8",
"Q  c #10B0EE",
"!  c #1CB6EE",
"~  c #1EBAEB",
"^  c #04A2F5",
"/  c #03ACF4",
"(  c #01A7FC",
")  c #02ABFC",
"_  c #08AEF8",
"`  c #0AACF4",
"'  c #06B1F4",
"]  c #0CB3F7",
"[  c #0DBEF4",
"{  c #05B2FD",
"}  c #0AB5FD",
"|  c #0DBAFD",
" . c #05BBFC",
".. c #13B3F5",
"X. c #1FB7F6",
"o. c #10B8F7",
"O. c #1ABAF6",
"+. c #14BBFD",
"@. c #1CBEFD",
"#. c #21B2EB",
"$. c #23BEF3",
"%. c #14C0FE",
"&. c #1DC2FE",
"*. c #2FC2F6",
"=. c #22C3FD",
"-. c #2BC5FE",
";. c #23CAFF",
":. c #2CC9FE",
">. c #35C3F5",
",. c #38C4F7",
"<. c #32C9F6",
"1. c #33CDFE",
"2. c #3DCDFC",
"3. c #3AD1FF",
"4. c #5DCCEA",
"5. c #46CBF7",
"6. c #4DCEF6",
"7. c #45CDFC",
"8. c #4CCCF9",
"9. c #58CEFC",
"0. c #43D1FE",
"q. c #4AD2FE",
"w. c #46DCFF",
"e. c #56D0F7",
"r. c #55D5FF",
"t. c #54D4FD",
"y. c #59D2FB",
"u. c #52DAFF",
"i. c #5EDCFF",
"p. c #5AD3F2",
"a. c #6CD2EB",
"s. c #7AD4EF",
"d. c #67D5F6",
"f. c #6FD8F6",
"g. c #63D4FD",
"h. c #69D7FA",
"j. c #62DBFF",
"k. c #64DFFF",
"l. c #63DBFF",
"z. c #68D9FE",
"x. c #6CDAFC",
"c. c #7EDEF6",
"v. c #76DEFF",
"b. c #7ADCFF",
"n. c #74E0FF",
"m. c #77E5FF",
"M. c #8E8D8B",
"N. c #81DCF7",
"B. c #86E2FE",
"V. c #86E1FD",
"C. c #8BE2FE",
"Z. c #86EDFF",
"A. c #8AEDFF",
"S. c #91E9FF",
"D. c #A0ECFF",
/* pixels */
"{ ;.{ ) } | q.} ) ) 1.1.) ) +.} :.| ) { B.+.) { | ' ) ) ;.=.",
"' ) | t.@.) ( | A.&.) ) ' } _ ' ) } i.} ) } A.| { } 7.' ) ) ",
") } ) +.) $.B.) ) 0.} 0.) { +.N.} ) ) }  .) ) | &.+.) ) %.9.",
"{ { j.+.0.{ ) +.-.) ) ) | Z.{ ) } r.=.} ) O.' | ) ) 7.2.) ) ",
") { ) } &._ ) ( ) :.+.) ) ) +.#.) ) ) { | ) ) ) ) { } z.' { ",
"/ ) 8.} e.} ) { D.{ { r.-.* i m O &.+.u.} 2.[ %.c.} } ) { | ",
") } } ) ) } ~ ' ) { ) / n C C V 9 j ( ) ) } ..) ( ) ;.} ) ) ",
") } | ) ) { ) | j.) ) V C C C C C C m ( ) ) { } } @.) } 8.z.",
"7.} { q.1.| y.' ) | A H C C C C C C C c } l.} 4.} } n.} ) ) ",
"{ } ) ) { ) ) { { = C C C C C C C C C V o ) ( ) } { ) <.) ) ",
"&.{ x.3.} ) ) ) | w         Z Z         8 | ) ) | | ) ) @.| ",
"{ -.) ( } 7.} e.) a M.      b v ;       e { r.d.} { 5.<.) ) ",
") ) ) ) ) | ) } ) l .     1 t 6 &       p ) ) } ) { ) { | ) ",
"] 2.' 0.} { -.' @.` C k < r u y 5 , j V R { 0.{ | | x.| } q.",
") ) } $.) ) ) {   ) g V t # > : @ 4 V d /   { ) ) } ) { ( ) ",
") ) { } ) ) { E F   V 8 d % t t $ d 7 m X D W ) ) @.} ) ) :.",
"| =.} { x.7.} s S C C C C l d f l C C C C C h =.6.) { t.) ) ",
") ) ' +.) ) } l C 8 D G C C C C C C C C q C j ' ) ' ) } +.r.",
") +.m._ ) w.' + n V Z C C C C C C C C C C n . ) a.{ ! ) ) ) ",
"6.} { +.) 8.) ( 7 m C C C C C C C C C C m 2 ^ ,.( y.' &.{ ' ",
"( ) @.>.) l.( ^ M n B C C C C C C C C m n N / :.} ) ) ) / ) ",
"l.q.) ) &.1.X.1.P 0 x n m C C C C m n z 3 I 0.) s.=.| y.{ u.",
"( ) ] +.+.) { h.) C.U K - f f f f J L T V...+.` ) } ) &.) ( ",
") ) Q { } j.' ) } ) ) C.B.i.U Y i.b.S.{ ) N.} ) 8.) ) ) } } ",
"{ } @.) ) ) ) } ) { S.v.=.} g.C.*.} 2.) { ) { ( ( { 5.r.) ' ",
"( ) } ) ) | ! ' k.' ) ) i.} ) ) ) } | ) ) >.} f.| ) ( ) } ) ",
"{ :.{ p.) ) ) ) ( { +.q.) { q.{ x.} t.{ ( { g.) { q.) ) r.| ",
"{ ) ( ) { @.) ) { 1.{ ) ) ) =.@.) ( ) ) y.} ) } ) { ] { ) ( ",
") +.) ' ) +.+.| -.) ) } { :.) ( ' 0.} ) ( ) +.} { } ..) o./ ",
") ) ( ) { ) ) ( ) | } } ( ) { -.{ ) ) +.) ) =.@.@.{ ) +.) ) "
};
