/* XPM */
static const char *duck_31[] = {
/* columns rows colors chars-per-pixel */
"31 31 156 2 ",
"   c #020201",
".  c #0A0300",
"X  c #060800",
"o  c #00000B",
"O  c #090009",
"+  c #150000",
"@  c #1A0400",
"#  c #000E17",
"$  c #310400",
"%  c #0A697F",
"&  c #4F4E4C",
"*  c #DC2C02",
"=  c #E53100",
"-  c #F54D04",
";  c #F55700",
":  c #FB5000",
">  c #F85A03",
",  c #C67302",
"<  c #CA7701",
"1  c #D37805",
"2  c #FD6402",
"3  c #FE7000",
"4  c #FD7B01",
"5  c #DE8300",
"6  c #C58B1F",
"7  c #E58C00",
"8  c #EA880B",
"9  c #EB9401",
"0  c #ED9902",
"q  c #E79B0B",
"w  c #EB9D0B",
"e  c #F09602",
"r  c #FA9705",
"t  c #F39D01",
"y  c #D2A913",
"u  c #F6A301",
"i  c #F9A102",
"p  c #F9AA05",
"a  c #F5B702",
"s  c #FDB502",
"d  c #FEBA01",
"f  c #C78924",
"g  c #CEB920",
"h  c #FAA025",
"j  c #FCC200",
"k  c #FDCB02",
"l  c #FFCD0E",
"z  c #FED303",
"x  c #FCD314",
"c  c #FBE24A",
"v  c #FBE84E",
"b  c #FBED62",
"n  c #1F7488",
"m  c #0079E2",
"M  c #007EEC",
"N  c #168CBE",
"B  c #29A5DB",
"V  c #0085EE",
"C  c #008CED",
"Z  c #0493EF",
"A  c #028DF2",
"S  c #0091F4",
"D  c #11A6EA",
"F  c #13A8EC",
"G  c #06B6EF",
"H  c #1AB3EF",
"J  c #07A6F7",
"K  c #02ABF7",
"L  c #0AAFF1",
"P  c #01A7FC",
"I  c #02ABFD",
"U  c #09ADFF",
"Y  c #05B3F5",
"T  c #0AB4F4",
"R  c #0EB8F6",
"E  c #05B2FD",
"W  c #0AB5FD",
"Q  c #0CB9FE",
"!  c #13B4F4",
"~  c #1BB6F6",
"^  c #10B8F7",
"/  c #1BBCF7",
"(  c #12B6FB",
")  c #13BBFD",
"_  c #1BBEFD",
"`  c #2ABDF1",
"'  c #14C1FF",
"]  c #1DC2FE",
"[  c #2EC6F5",
"{  c #24C3FD",
"}  c #2AC3FC",
"|  c #2AC6FF",
" . c #2BC4FC",
".. c #2DC8FE",
"X. c #2BCAFF",
"o. c #35C6F3",
"O. c #33C6FA",
"+. c #31C9FB",
"@. c #33CBFD",
"#. c #33CDFF",
"$. c #33CAFE",
"%. c #3BCDFE",
"&. c #3DCAFB",
"*. c #3FD0FF",
"=. c #3CD6FF",
"-. c #52C6EF",
";. c #5AD0EE",
":. c #43CAF7",
">. c #47CFF7",
",. c #40CBF6",
"<. c #4ECFF7",
"1. c #42CBF9",
"2. c #45CFFD",
"3. c #44CEFD",
"4. c #4BCDF9",
"5. c #54CEF3",
"6. c #58C9F3",
"7. c #4CD1F4",
"8. c #4FD0F7",
"9. c #41D0FA",
"0. c #41D0FF",
"q. c #46D4FF",
"w. c #45D3FF",
"e. c #4AD4FF",
"r. c #4BD0FD",
"t. c #57D1F6",
"y. c #5FD1F3",
"u. c #52D5FF",
"i. c #56D5FE",
"p. c #53D4FC",
"a. c #58D3FC",
"s. c #5CD4FB",
"d. c #51D9FF",
"f. c #5FDAFC",
"g. c #58DCFF",
"h. c #5CD9FD",
"j. c #74D8EF",
"k. c #6DD4F2",
"l. c #62D3FD",
"z. c #60D7FF",
"x. c #63D6FD",
"c. c #60DDFE",
"v. c #6ADAFE",
"b. c #75D7F0",
"n. c #71D7F8",
"m. c #71DCFC",
"M. c #77DFFC",
"N. c #73DAFC",
"B. c #7FDFF8",
"V. c #7FDFF8",
"C. c #6EE2FF",
"Z. c #72E0FF",
"A. c #82DEF7",
"S. c #80E4FD",
"D. c #83E0FF",
"F. c #8AE3FA",
/* pixels */
"E ] W I ( E 2.Q I I Q f.E I I ) W $.E I W S.Q I E V.E I K { { ",
"_ I ( a.{ E I E s...U I W #.E E E I Q 9.W E Q l.] I Q *.} I I ",
"I E I ) I Q S.E I ) ! 1.E I W O./ I P U ] Q I I Q C.W I K Q a.",
"{ E ;.W Z.W I Y R I I I E } ) I I u.i.E I W e.] { K E 5.,.I K ",
"I I I W ] I I K I U Y I E U R E E E I U ( K I E ) Q I I E I I ",
"E I ( E e.W I K ) ( E %.] ) H v N ] E _ Q W h.W ) C.Q W I E Q ",
"W g.I I I Q m.<.E I I I F . z k x . B E I I E i.( I ] ~ I I I ",
"W I E Q I W K I Q I I   z z z z z z z o E E I I E %.E I I 8.Q ",
"0.E E q.*.Q ] { K E # z x z z z z z z k   W >.d.( I W x.^ K E ",
"( I I U I P E W Q U l b z z z z z z z z s E I I W b.) ] Y I K ",
"U I E M.I I E E E E @ X X X z z z X X X . I E / I E I _ I W W ",
"I +.W I { / K E Q O   X       .   &         1.U G W =.E T W W ",
"U E P I ] U E E I   .       5 g 7           I E I W P I ( I I ",
"W E K E &.Q r.U Y | z .   1 - 4 * 8     d K ] h.Q ' I Q n.a.U ",
"Y E v.Q U P I E E I s z 2 h 2 ; > 3 : z 9 I E I P E ` Q I I E ",
") Y K I  ._ E I y   a 5 6 + = * * $ f , i   k I W #.I K E E I ",
"I I R v.W I W o.c z z z < 9       9 , j z k z % U Q ` s.U } W ",
"] { E I W v.E . z z z b z z s s s z z z z z z @ W W I I W Q E ",
"] I W I W U ! . z e z b z z z z z z z z z p z @ w.I E Q r.I W ",
"W y.L ! E _ K r.u w z z z z z z z z z z z 0 t n I u.Q E E ) P ",
"W I I U U $.U (   d z z z z z z z z z z z s o K 8.I D ( I I { ",
"I I ,.E E { I j.V i d z z z z z z z z d d 9 M A.I k.I K E r.W ",
"E ( I I I E x.I v.S r t d s s s d s d t 9 A N.I _ I E x.W I E ",
"I I ) Q c.E I  .J I -.C m q q w q w m Z 6.] K t.I K E I I U K ",
"T E 4.E I W { I E ^ K I N.D.) E E V.p.I I n.~ I Q c.Q I I x.^ ",
"I W ) ] I I I h.E I E F.&.W { F.k.( X.E ^ E W K K I E w.E I I ",
"P I W I I W Q I Q u.I P ) s.I K I Q W U I E &.( N.E P P I E I ",
"E } E / E I U E P P E a.E K E Y g.W Q x.W I Q Y I E c.I I W E ",
"I I I P I { I E I [ E I E K U { Q P I I E  .I I W K { Q E I P ",
"E { E } U E Y E 2.U I E I I W I U 4.q.I I P I ) W I { ) I Q K ",
"U I P I E W I P I E ^ ) I P U ) ! I I E { K I O._ } E U ' I I "
};
