/* XPM */
static const char *duck_24[] = {
/* columns rows colors chars-per-pixel */
"24 24 120 2 ",
"   c #010101",
".  c #0A0301",
"X  c #000A04",
"o  c #452300",
"O  c #577D6E",
"+  c #9F680D",
"@  c #9F671D",
"#  c #F45102",
"$  c #F85900",
"%  c #C17000",
"&  c #D37A06",
"*  c #D47D09",
"=  c #FD6402",
"-  c #FC6A05",
";  c #CD8000",
":  c #E48E00",
">  c #E9890E",
",  c #ED9500",
"<  c #F39F00",
"1  c #F5A200",
"2  c #F9A304",
"3  c #F7AC03",
"4  c #FCAD03",
"5  c #FCB503",
"6  c #F3BC00",
"7  c #FDB801",
"8  c #D3922C",
"9  c #E29724",
"0  c #F4A42B",
"q  c #FCC103",
"w  c #FDCE02",
"e  c #FED303",
"r  c #FED509",
"t  c #FBE02F",
"y  c #FDEB61",
"u  c #FAF168",
"i  c #1672A5",
"p  c #517E83",
"a  c #0078E0",
"s  c #1485AD",
"d  c #0186EC",
"f  c #008DF1",
"g  c #008EF8",
"h  c #0194F3",
"j  c #07A0EC",
"k  c #04AEEB",
"l  c #1DB0E4",
"z  c #03ABF3",
"x  c #0BACF2",
"c  c #01A7FC",
"v  c #02ABFD",
"b  c #06B3F7",
"n  c #0CB3F4",
"m  c #05B2FD",
"M  c #0AB5FD",
"N  c #05B9FE",
"B  c #0CB9FE",
"V  c #12B5F3",
"C  c #14B8F7",
"Z  c #14B7FA",
"A  c #13BBFE",
"S  c #1CBFFE",
"D  c #2BBAF2",
"F  c #34BDF3",
"G  c #17C4FF",
"H  c #1CC2FD",
"J  c #2BC2F7",
"K  c #24C4FC",
"L  c #2BC7FB",
"P  c #2DCAFE",
"I  c #32C6FB",
"U  c #3EC6FA",
"Y  c #34CAFE",
"T  c #3BCBFD",
"R  c #37D0FC",
"E  c #43CAFA",
"W  c #47CEFB",
"Q  c #42CEFF",
"!  c #41CEFC",
"~  c #42CDFA",
"^  c #46D0FE",
"/  c #46D0FF",
"(  c #44D2FF",
")  c #49D0FF",
"_  c #4CD1FE",
"`  c #4DD1FF",
"'  c #4BD3FE",
"]  c #50D1FB",
"[  c #50D3FF",
"{  c #51D2FC",
"}  c #53D6FF",
"|  c #54D7FF",
" . c #56D4FC",
".. c #5CD1FD",
"X. c #58D6FE",
"o. c #5BD6FF",
"O. c #59D8FF",
"+. c #61D7FF",
"@. c #6AD7FF",
"#. c #62D9FE",
"$. c #7AD9F7",
"%. c #73DBFF",
"&. c #7DDCFC",
"*. c #7FDDFF",
"=. c #63E0FF",
"-. c #66E1FF",
";. c #62E0FF",
":. c #6FE4FF",
">. c #68E4FF",
",. c #77E0FD",
"<. c #77E4FF",
"1. c #72E0FF",
"2. c #7BE3FE",
"3. c #7DE8FF",
"4. c #82DAF2",
"5. c #86E0FB",
"6. c #8CE4FA",
"7. c #93EDFF",
"8. c gray98",
"9. c #FFFEFF",
/* pixels */
"m Y v Z A ) v v / V v M m / v m 6.M v G m v N Y ",
"m v m m v v m m x v m m v v M B v b b v v B v v ",
"L @.v S B M A v c m H :.M 2.M I b M M M P m T m ",
"v v m H v v v m v v v M v m v A v v B A v v m v ",
"P A v V B v &.J v Y k .   i I m v { A N L v v v ",
"v v m P M v v K m 3 e e 4 e : m A N B v v v A b ",
"b M b n ,.C m T 3 u e e e e e < m F V v v O.M m ",
"m v v v v c m v r e e e e e e e v v v m m K m v ",
"S m B C v v b   8.    . . 9.      b v -.! v n } ",
"P v v v B | v 6       4 2       , v A v c K v v ",
"m m m ! b m M X w   & 0 # >   4   A ..o.v H B M ",
"v m P v v v v k ,   -     $   1 v s v v B b c v ",
"c v M v v m w + w & o = = . * 7 @ w v v =.m v T ",
"H M v M A v e 5 e t e 5 4 e e e e e z M v v L b ",
"H m v v m ] w % y e e e e e e e ; q n B v W v m ",
"_ m N A T E 8 7 e e e e e e e e 5 9 { v x m m M ",
"v m <.v +.U d 2 7 e e e e e e 5 , a D M v m _ m ",
"M K v v m l %.g p 5 5 5 5 5 3 O f 7.m Y m V v m ",
"v v o.M M v 4.v 5.>.f d d h | $.v j v m v v v v ",
"m n v v v m v b &.) m 3.1.m ! z b v v c b Y m m ",
"c m v v ' m N n v M =.v v B M v v / +.+.c v v v ",
"K v m Z m v v v  .v v m _ v m | m 1.v c A M b v ",
"v m v c v E S v v J P m v m v A v H v M m v v A ",
"v v v v v c v H H v c v R v v H v v J A m v v v "
};
