/* XPM */
static const char *duck_16[] = {
/* columns rows colors chars-per-pixel */
"16 16 195 2 ",
"   c black",
".  c #000100",
"X  c #000200",
"o  c #000201",
"O  c #000103",
"+  c #020003",
"@  c #010302",
"#  c #050200",
"$  c #090401",
"%  c #0C0600",
"&  c #020109",
"*  c #2C0B00",
"=  c #FB4E00",
"-  c #C56D03",
";  c #C97505",
":  c #CD7A00",
">  c #FF6800",
",  c #E7641E",
"<  c #F06F1E",
"1  c #D68300",
"2  c #E79100",
"3  c #E89A06",
"4  c #F39400",
"5  c #F29A05",
"6  c #F1A200",
"7  c #F8A200",
"8  c #FEB801",
"9  c #FEBA01",
"0  c #FFB40C",
"q  c #FCC302",
"w  c #FFD001",
"e  c #FCD201",
"r  c #FED102",
"t  c #FDD302",
"y  c #FDD303",
"u  c #FED501",
"i  c #FED403",
"p  c #FAD405",
"a  c #FED404",
"s  c #FFD504",
"d  c #FDE54F",
"f  c #11BBEF",
"g  c #08ABF0",
"h  c #01A7FB",
"j  c #02A6FB",
"k  c #00A7FC",
"l  c #01A7FD",
"z  c #00A8FB",
"x  c #01AAFB",
"c  c #00ABFB",
"v  c #01ACFA",
"b  c #02ACFA",
"n  c #02ADFB",
"m  c #04AEFB",
"M  c #00A9FC",
"N  c #00A8FD",
"B  c #02A8FC",
"V  c #03A9FD",
"C  c #00AAFC",
"Z  c #01AAFD",
"A  c #00ABFD",
"S  c #02ABFC",
"D  c #00A9FE",
"F  c #02A8FE",
"G  c #01AAFF",
"H  c #02ABFE",
"J  c #04ABFC",
"K  c #07A8FF",
"L  c #01ACFC",
"P  c #00ADFC",
"I  c #02ADFD",
"U  c #01AEFD",
"Y  c #03AEFC",
"T  c #00ACFE",
"R  c #01ACFE",
"E  c #00AEFF",
"W  c #03AEFE",
"Q  c #02AFFE",
"!  c #03AEFF",
"~  c #03AFFF",
"^  c #04AEFC",
"/  c #04AFFD",
"(  c #05AFFD",
")  c #05AEFF",
"_  c #04AFFF",
"`  c #09B5F3",
"'  c #0BB5F3",
"]  c #0AB3F6",
"[  c #0EB3F7",
"{  c #05B1FB",
"}  c #04B2FB",
"|  c #06B2FA",
" . c #07B3FB",
".. c #06B4FB",
"X. c #01B1FD",
"o. c #03B0FC",
"O. c #03B0FD",
"+. c #00B3FD",
"@. c #01B0FF",
"#. c #03B0FF",
"$. c #05B1FD",
"%. c #07B1FC",
"&. c #05B3FC",
"*. c #05B0FE",
"=. c #04B1FE",
"-. c #06B1FF",
";. c #05B2FE",
":. c #06B2FE",
">. c #06B3FF",
",. c #07B3FF",
"<. c #03B5FF",
"1. c #04B4FD",
"2. c #07B5FC",
"3. c #06B4FD",
"4. c #05B5FE",
"5. c #07B4FF",
"6. c #08B2FD",
"7. c #0AB1FF",
"8. c #09B3FE",
"9. c #08B6FD",
"0. c #08B4FE",
"q. c #0BB6FE",
"w. c #0CB6FF",
"e. c #0FBBFB",
"r. c #08B9FC",
"t. c #0BBAFD",
"y. c #0FB8FD",
"u. c #0CB9FE",
"i. c #0CB8FF",
"p. c #0EB9FE",
"a. c #0EB9FF",
"s. c #0CBBFE",
"d. c #0FBEFD",
"f. c #11B2F6",
"g. c #10B8F9",
"h. c #13BBFC",
"j. c #13BAFF",
"k. c #11BDFF",
"l. c #15BDFC",
"z. c #15BFFD",
"x. c #18BCFB",
"c. c #1BBFFE",
"v. c #1ABFFF",
"b. c #32BFEC",
"n. c #16C1FF",
"m. c #2AC0F3",
"M. c #24C0F9",
"N. c #24C3FD",
"B. c #27C6FD",
"V. c #26C7FD",
"C. c #25C4FE",
"Z. c #28C4FF",
"A. c #2CC7FD",
"S. c #31C4F8",
"D. c #36C5FF",
"F. c #3AC7FF",
"G. c #34CAFC",
"H. c #3ACBFF",
"J. c #3BCEFF",
"K. c #3AD6FF",
"L. c #42C6F7",
"P. c #45CEFA",
"I. c #41CDFE",
"U. c #41CEFF",
"Y. c #45CFFD",
"T. c #50CFF2",
"R. c #57CFF2",
"E. c #42D0FF",
"W. c #47D0FE",
"Q. c #49D5FF",
"!. c #49D9FF",
"~. c #53D2FB",
"^. c #56D6FB",
"/. c #51D2FC",
"(. c #52D5FF",
"). c #55D4FF",
"_. c #55D5FF",
"`. c #5FD7F9",
"'. c #5BD4FF",
"]. c #58D6FF",
"[. c #5FD7FC",
"{. c #5CDBFE",
"}. c #60D5F8",
"|. c #61DBFF",
" X c #60DDFF",
".X c #62DCFF",
"XX c #6DD9FD",
"oX c #6ED8FF",
"OX c #70DEFF",
"+X c #70E4FF",
"@X c #72E8FF",
"#X c #93DFF9",
"$X c #8AE6F5",
"%X c #8AE4FE",
"&X c #99F7FF",
/* pixels */
"V.r.{ w.9.G.A.x.(.U.U.}.r.oX=.=.",
"V.x r.@X5.T J.d..XD '.=.8._.D p.",
"b T e.D D |.D p.=.D 5.D T m b.O.",
"=./ D !.D T & i 6 . T E./ / N.D ",
"p.p.S.D.D - w s i i 1 R.{.{ ` D ",
"D .Xb 5.O.. . p i . . / 9.{ h.[ ",
"=.j l.=.D . . 4 7 . . D =.D { D ",
"=.^.j =.O.0 > < , = 5 ..l g.8./ ",
"D _.b Z.d w : $ # ; w w =.OX9.V.",
"T p./ Q.w i i w w s w w W.p.` 9.",
"5.x J +X% w w s i i w * F.oXn.k.",
"[.D p.g &X3 9 q q 9 2 '.b c./.5.",
"T Y.<.T 5.D #XT J %XD $Xb T l O.",
"D D T L.`.D T 8./ T =.] f D x l ",
"=.j P.D x T.=.T 5.D ~.f./ O.m.D ",
"h.j V.D O.c.j l.K.O.T l T H.M.D "
};
