/* XPM */
static const char *duck_36[] = {
/* columns rows colors chars-per-pixel */
"36 36 162 2 ",
"   c #010101",
".  c #0B0200",
"X  c #060A00",
"o  c #0C0800",
"O  c #120705",
"+  c #000817",
"@  c #00071C",
"#  c #1E1D1B",
"$  c #652E00",
"%  c #743F00",
"&  c #794300",
"*  c #784903",
"=  c #AF1402",
"-  c #B71803",
";  c #C13003",
":  c #DB3600",
">  c #E73F01",
",  c #B96400",
"<  c #BE6900",
"1  c #E0400E",
"2  c #F14B00",
"3  c #FD5403",
"4  c #C26402",
"5  c #C36E00",
"6  c #C67603",
"7  c #CB7B00",
"8  c #CC7504",
"9  c #D37A03",
"0  c #DC7F00",
"q  c #FC6301",
"w  c #FE6903",
"e  c #FE7102",
"r  c #AB800D",
"t  c #D58400",
"y  c #DB8500",
"u  c #E08500",
"i  c #E38B05",
"p  c #E69200",
"a  c #EC9102",
"s  c #EC9A02",
"d  c #FA9300",
"f  c #F3A004",
"g  c #FEA606",
"h  c #F7AD00",
"j  c #FCAC03",
"k  c #FCB502",
"l  c #F4BE02",
"z  c #FCBB02",
"x  c #FDB008",
"c  c #F5A415",
"v  c #D4BD23",
"b  c #FDA42C",
"n  c #FAAB34",
"m  c #FCC301",
"M  c #FDCD03",
"N  c #FED303",
"B  c #FDD20B",
"V  c #FFD120",
"C  c #FFD72C",
"Z  c #FFE43B",
"A  c #FDF15F",
"S  c #FEEC62",
"D  c #0676D7",
"F  c #007EE9",
"G  c #0081EC",
"H  c #0096EF",
"J  c #008DF3",
"K  c #0490F5",
"L  c #009EF2",
"P  c #1EACEA",
"I  c #01A6F6",
"U  c #0AA7F6",
"Y  c #03ADF6",
"T  c #0CACF3",
"R  c #01A7FC",
"E  c #01ABFC",
"W  c #09AFFE",
"Q  c #12ACF4",
"!  c #04B2F7",
"~  c #0CB1F3",
"^  c #0DB8F5",
"/  c #05B2FD",
"(  c #0AB5FD",
")  c #06B9FC",
"_  c #0CB9FD",
"`  c #14B5F4",
"'  c #1FB5F4",
"]  c #16B9F4",
"[  c #11B7FF",
"{  c #13BCFD",
"}  c #1BBEFE",
"|  c #17B7E9",
" . c #23ADEE",
".. c #25B6F5",
"X. c #24BCF4",
"o. c #2EBFF6",
"O. c #23BEFB",
"+. c #16C1FF",
"@. c #1BC2FE",
"#. c #26C0F4",
"$. c #2BC7F7",
"%. c #23C3FC",
"&. c #2BC5FD",
"*. c #27C8FC",
"=. c #2DC9FE",
"-. c #35C5F7",
";. c #31C7FD",
":. c #36CDFF",
">. c #37CFFF",
",. c #33CBFD",
"<. c #39CAFF",
"1. c #39CEFE",
"2. c #3DCEFF",
"3. c #3BCCFE",
"4. c #34D0FF",
"5. c #3DD2FF",
"6. c #3ED4FF",
"7. c #3BD0FF",
"8. c #42C7F4",
"9. c #43CEF5",
"0. c #4ECDF6",
"q. c #42CEFC",
"w. c #55CFF4",
"e. c #50CFFA",
"r. c #5CCBF8",
"t. c #44D1FF",
"y. c #47D0FE",
"u. c #43D6FF",
"i. c #44D0FE",
"p. c #4BD2FF",
"a. c #4BD3FE",
"s. c #4ADAFF",
"d. c #5AD1F1",
"f. c #56D7FF",
"g. c #52D4FD",
"h. c #5AD3FC",
"j. c #55D8FF",
"k. c #54D9FE",
"l. c #5FDCFF",
"z. c #5BD9FF",
"x. c #6ED3F1",
"c. c #60D1F9",
"v. c #6AD7F8",
"b. c #63D9FF",
"n. c #66DAFF",
"m. c #67DFFF",
"M. c #6BDAFB",
"N. c #76D0F2",
"B. c #73D8F6",
"V. c #79D8F4",
"C. c #7DD6F8",
"Z. c #74DBFC",
"A. c #7ADCFB",
"S. c #62E0FF",
"D. c #76E3FF",
"F. c #7CE2FC",
"G. c #73EBFF",
"H. c #7EE9FF",
"J. c #888785",
"K. c #86E5FD",
"L. c #8BE3FA",
"P. c #8DF0FF",
/* pixels */
"/ / / E / E / y./ / / E / x./ E E / / ! _ E E / L./ E E E ..E E E E ( ! ",
"%./ ( M.( %.E E / Z.&.%.! E / <.%.E ! / / ] 2.( E ( b.#.0./ / y.( %.E E ",
"E E E E E E E _ E E E W g._ E [ E / [ / / E E _ / E E } E ( E / E / / / ",
"/ b._ E E ( H.+.F.E %.( E / q.E ( V._ d.( E ( b.:.) E E _ ` w.( E / 1.` ",
"Y E / z.h.( E E E / ;.+.E / @.f./ E E E ! _ +.E E E &.4.E E / / _ / / E ",
"E / / E / %.=./ E E / *.} / E E / [   / E E E / [ E E E / E / / } y./ / ",
"! E ! _ _ j./ E E _ z./ / _ :._   l m   } ! #.( / { 8./ { P.( %./ E / _ ",
") p.( E E E +.B.p.[ E E ( E Y X B B 6 g o P / E E E { k.[ E ( ,.E E E E ",
"/ E E / %.E %.E E ( ! E (   N N N N N N N N r ! %./ E E / u./ E E / | ( ",
"! g._ _ E _ D./ 6.) ;.} @ M S N N N N N N N M $ / / 1.+.E E E _ _ u.E ~ ",
") E E / 6.! E ` *.E E E z A N N N N N N N N N j ) } ! / l.~ 2.6.! E R E ",
"E ( E E E Y E E E :./   N N N N N N N N N N N z   E E R E _ / E ( *.Y E ",
"} / ( F.9./ E / E / { 9           N N           4 _ E E / D.{ E E / e._ ",
"E =.( E E =.p./ { s./ & J.        0 y   #       % / y._ c.( ( p._ ,.( / ",
"( / R R / { E / / E E k           v v           a E E / E ( E E / [ E E ",
"E E _ / E g.K.! E E (   M         n e .       f O / E _ M.) E / ( v._ E ",
"=.=.( +.a./ E ( 2.@.E _ m M   2 b q w e >   M h  ./ ;./ E ) h.v._ E ! a.",
"E E E ( =.E E E ( U o ! . m 1 q   - =   3 ; M * Y o T E E E ( / ( E E E ",
"E I E / E E E ( / . B X M c j X : q q : X g , M . Z C / Y E @./ E E E ` ",
"E / %.( ` ) _ f./ M N M N N m s u y y y s z N N V B N / ] 1.( ( g.[ ! E ",
"E ( E E E ( @./   N N t N S N N M k k M N N N N 7 N N   E ! E R E _ v._ ",
"} E / E E / E `   B N 8 N S N N N N N N N N N N 7 N z   q.E E { ` _ E / ",
"E i./ j.E E Q / E s h N N N N N N N B B N N N N N j f E E G./ ( E / E R ",
"6./ E E ^ E l.E X.@ < z N N N N N N N N N N N N z 5 + E z.E F./ } / ) %.",
"R E ( a._ E D.E y.J t k z N N N N N N N N N N k k i J Z.O.%.! E / _ ( E ",
"9._ ! E E } ` } I A.K t s z z M N N N N M z k p 9 K B.E E C.%.( { D./ S.",
"E / } E E E E _ c.E Z.L D d s x k k k z x s d D H A./ _ A.E E _ =.E R E ",
"E E E ( 1.p.( E E M.&.W M.9.K G G G G F G J U Z./ E &.O.( / E E E E ( E ",
"&./ $._ E E _ %./ R } ' R E A.K.$./ E &.F.g.E E o.A./ E _ 7.` E E / h.O.",
"E / ( [ E E E E ! / E / ` L.1.( } M.L.<./ %.} / / E ( E R R E ^ q.) E / ",
"R E / E E E ( A.( ( r.E E E ! / E E E E E / } / / q./ ! N./ E R E E E E ",
"E ( =.k./ %.! E E R E E %.! ( ( y.( E _ i.z._ E R E ( m.E =.( ! E / i.q.",
":./ E E / g.( E E E E ( g._ E E E ( X.( E R / h._ g.( / R E E [ ;.` E E ",
"E E / / E E / [ j._ %./ R E -.( E E E { E E E } / +./ R E { } E E E E E ",
"} %.E / %./ 7.( E ( p.E E E R / %.! E _ q./ :.E R E E / / E 2.e./ ( E E ",
"E E E E E E ( E R R E / _ +.E E E / / ( E E E @._ E +./ +.[ E E ( %.E E "
};
