/* XPM */
static const char *duck_13[] = {
/* columns rows colors chars-per-pixel */
"13 13 129 2 ",
"   c black",
".  c #010000",
"X  c #010101",
"o  c #050000",
"O  c #090401",
"+  c #0C1D31",
"@  c #001E42",
"#  c #DD2A01",
"$  c #B17A1F",
"%  c #FC6E02",
"&  c #B7831E",
"*  c #C78F16",
"=  c #EE9B01",
"-  c #F3B000",
";  c #FDB602",
":  c #FFB602",
">  c #FFB605",
",  c #E8A321",
"<  c #FDD001",
"1  c #FCD201",
"2  c #FDD302",
"3  c #FDD303",
"4  c #FFD302",
"5  c #FED403",
"6  c #FED404",
"7  c #FFD504",
"8  c #FFD706",
"9  c #FFC21B",
"0  c #067ED4",
"q  c #087BD8",
"w  c #0699DC",
"e  c #10A2DD",
"r  c #02A9F7",
"t  c #04AFF4",
"y  c #01A7FD",
"u  c #01A8F9",
"i  c #00A9FA",
"p  c #01AAFB",
"a  c #01AEFB",
"s  c #02AFFB",
"d  c #00A9FC",
"f  c #02A8FC",
"g  c #00AAFC",
"h  c #01AAFD",
"j  c #00ABFD",
"k  c #02ABFC",
"l  c #00A9FE",
"z  c #01AAFF",
"x  c #02ABFE",
"c  c #01ACFC",
"v  c #03AEFC",
"b  c #02AFFC",
"n  c #01ACFE",
"m  c #03ACFF",
"M  c #03AEFE",
"N  c #04AEFC",
"B  c #04AFFD",
"V  c #04AFFF",
"C  c #07B2F7",
"Z  c #0EB3F7",
"A  c #02B0F9",
"S  c #06B1F9",
"D  c #04B5F9",
"F  c #04B5FB",
"G  c #07B5FA",
"H  c #03B0FC",
"J  c #02B3FF",
"K  c #04B0FC",
"L  c #06B0FD",
"P  c #05B3FC",
"I  c #04B1FE",
"U  c #07B1FE",
"Y  c #06B1FF",
"T  c #06B2FE",
"R  c #06B4FD",
"E  c #05B6FC",
"W  c #04B4FF",
"Q  c #07B5FE",
"!  c #09B1F8",
"~  c #08B2FD",
"^  c #09B3FE",
"/  c #09B5FD",
"(  c #08B6FD",
")  c #0BB6FE",
"_  c #0CB7FC",
"`  c #0FB6FD",
"'  c #0CB7FF",
"]  c #0CB8FA",
"[  c #08B9FD",
"{  c #0AB9FC",
"}  c #0AB8FD",
"|  c #0EBBFF",
" . c #14B4F0",
".. c #12B4F4",
"X. c #1CB8F3",
"o. c #15BDFB",
"O. c #12BBFF",
"+. c #11BCFF",
"@. c #12BEFE",
"#. c #1BBDFD",
"$. c #26A7E9",
"%. c #20BBFB",
"&. c #1DC0FF",
"*. c #20C0FA",
"=. c #2AC4F8",
"-. c #2ACAFC",
";. c #2DC9FF",
":. c #31CBFF",
">. c #3FCDFB",
",. c #39CCFF",
"<. c #4ECDF8",
"1. c #4FCEFB",
"2. c #4BD0FD",
"3. c #4BD2FF",
"4. c #4CD3FF",
"5. c #4FD8FF",
"6. c #4FD9FF",
"7. c #56D4FD",
"8. c #5FD9FE",
"9. c #61DBFF",
"0. c #7BD9F3",
"q. c #73DBFF",
"w. c #7BDEFD",
"e. c #65E3FF",
"r. c #69E0FF",
"t. c #6EE4FF",
"y. c #71E8FF",
"u. c #84E3FF",
"i. c #80F1FF",
/* pixels */
"C ] ~ q.S -.U ( X.0.*.D U ",
"R @.g 7.g [ g 2.U <.a 2.g ",
"D g  .r.H R 8 U a [ ( g g ",
"=.U t.R O 2 8 5 * 5.i [ U ",
"M i.M H     2     H O.r e.",
"g g 4.i 9   %   , i _ g ~ ",
"! N M & -   # o = $ ,.g M ",
"R U o.2 2 2 2 5 2 2 _ y u.",
"U D t @ 2 8 2 5 2 + g @.Z ",
"| g M w 0 > ; ; q $.e 8.g ",
"9.g M M w.M A H <.g g R ( ",
":.y.g y ( g R ( N 5.N g %.",
";.#.&...N g g _ g M M >.g "
};
