/* XPM */
static const char *duck_11[] = {
/* columns rows colors chars-per-pixel */
"11 11 93 2 ",
"   c black",
".  c #000201",
"X  c gray1",
"o  c #070601",
"O  c #0F0802",
"+  c #DD2A01",
"@  c #C97501",
"#  c #D07A01",
"$  c #BD8320",
"%  c #EB9001",
"&  c #FBAE00",
"*  c #FEB300",
"=  c #FDB700",
"-  c #FFB605",
";  c #C38D33",
":  c #FDD001",
">  c #FCD300",
",  c #FCD202",
"<  c #FDD302",
"1  c #FED403",
"2  c #FED404",
"3  c #FFD504",
"4  c #008FF2",
"5  c #00A9F7",
"6  c #0FAEF2",
"7  c #01A7FD",
"8  c #00A9FA",
"9  c #00A8FB",
"0  c #01AAFB",
"q  c #01ACFA",
"w  c #02ACFA",
"e  c #02ADFB",
"r  c #00AEFA",
"t  c #03AFFB",
"y  c #00A9FC",
"u  c #01AAFD",
"i  c #02ABFC",
"p  c #00A9FE",
"a  c #01AAFF",
"s  c #02ABFE",
"d  c #01ACFC",
"f  c #03ACFD",
"g  c #02ADFD",
"h  c #03AEFC",
"j  c #02AFFC",
"k  c #01ACFE",
"l  c #02ADFF",
"z  c #04ADFE",
"x  c #02B0F7",
"c  c #05B1FB",
"v  c #06B0FB",
"b  c #07B2FA",
"n  c #04B0FC",
"m  c #07B1FC",
"M  c #05B3FC",
"N  c #04B1FE",
"B  c #07B1FE",
"V  c #06B2FE",
"C  c #07B3FF",
"Z  c #06B6FF",
"A  c #09B1FA",
"S  c #08B7FA",
"D  c #08B2FD",
"F  c #09B3FE",
"G  c #08B4FC",
"H  c #08B4FE",
"J  c #09B5FF",
"K  c #0CB7FC",
"L  c #0EB6FD",
"P  c #0EBAFC",
"I  c #0DB8FF",
"U  c #16BBFB",
"Y  c #10B9FE",
"T  c #10B8FF",
"R  c #15BDFC",
"E  c #18BBFC",
"W  c #1DBFFD",
"Q  c #1EC1FF",
"!  c #1FC3FF",
"~  c #20C0FA",
"^  c #26C2FD",
"/  c #25C4FC",
"(  c #2CC6FA",
")  c #2BCAFF",
"_  c #39CEF9",
"`  c #46CDFC",
"'  c #45CEFC",
"]  c #4AD3FD",
"[  c #4BD2FF",
"{  c #4FD4FD",
"}  c #5CD5FF",
"|  c #5AD8FF",
" . c #5DD8FF",
/* pixels */
"j U c ~ S M P j { R j ",
"u ^ 7 M x j 5 u E 0 M ",
"u ( z ) > > = T L u D ",
"L j 0 O 3 1 3 o 0 j j ",
"M Q M &       % c u e ",
"c 6 e   ; + $   e u M ",
"u P [ @ > > 3 # ` W G ",
"u c  .- > 1 > * A u G ",
"u G u u Z 4 Q u u u j ",
"M e u ` | u } 7 _ u D ",
"/ M e j u u G 7 T [ j "
};
