/* XPM */
static const char *duck_82[] = {
/* columns rows colors chars-per-pixel */
"82 82 231 2 ",
"   c #010101",
".  c #0B0201",
"X  c #01040A",
"o  c #070908",
"O  c #140000",
"+  c #1B0A00",
"@  c #1A1408",
"#  c #000817",
"$  c #240800",
"%  c #331400",
"&  c #2A1200",
"*  c #392F00",
"=  c #001029",
"-  c #2D2D2D",
";  c #740E00",
":  c #741002",
">  c #4B3600",
",  c #5C3300",
"<  c #4F4300",
"1  c #6A4D03",
"2  c #00385A",
"3  c #003D67",
"4  c #00465F",
"5  c #00536D",
"6  c #595755",
"7  c #47696B",
"8  c #861100",
"9  c #BF1D04",
"0  c #923C12",
"q  c #923A0C",
"w  c #C41F03",
"e  c #D22B01",
"r  c #DD2B01",
"t  c #D02603",
"y  c #DA3402",
"u  c #CA2C02",
"i  c #E73A01",
"p  c #E12D05",
"a  c #8B5500",
"s  c #86530D",
"d  c #A85900",
"f  c #BE6C00",
"g  c #A86B19",
"h  c #905C20",
"j  c #EB4900",
"k  c #F54A02",
"l  c #F95B02",
"z  c #C06D00",
"x  c #CB7502",
"c  c #C67900",
"v  c #D27C02",
"b  c #DB7B00",
"n  c #FD6301",
"m  c #FD6B03",
"M  c #FE7203",
"N  c #FF7A04",
"B  c #B08F0C",
"V  c #BB9E25",
"C  c #DB8401",
"Z  c #DE8B01",
"A  c #D78806",
"S  c #DE9D01",
"D  c #D69500",
"F  c #DF8F14",
"G  c #E28402",
"H  c #E48B02",
"J  c #E98E03",
"K  c #E28A0C",
"L  c #EC9401",
"P  c #ED9902",
"I  c #E89705",
"U  c #F19B02",
"Y  c #F59A04",
"T  c #F78814",
"R  c #E38F15",
"E  c #DDA004",
"W  c #D8A71E",
"Q  c #EBA702",
"!  c #F3A202",
"~  c #FAA501",
"^  c #FCAD03",
"/  c #F8AC06",
"(  c #EEB907",
")  c #FDB402",
"_  c #FDBA01",
"`  c #F4B605",
"'  c #FBB516",
"]  c #F8AD13",
"[  c #DC972A",
"{  c #DE9D35",
"}  c #E19A28",
"|  c #FE9F27",
" . c #DCA02E",
".. c #FFB13D",
"X. c #F0A930",
"o. c #FEC402",
"O. c #FDCD03",
"+. c #FCCC0B",
"@. c #F7C408",
"#. c #FED303",
"$. c #FED20B",
"%. c #FEDD0A",
"&. c #F9D605",
"*. c #FAC514",
"=. c #FCD715",
"-. c #ECCD01",
";. c #FEE10A",
":. c #FFE90C",
">. c #FCD922",
",. c #F8D72C",
"<. c #FEDD34",
"1. c #F2CF2D",
"2. c #FFE53C",
"3. c #FCE235",
"4. c #AB894A",
"5. c #F5BD46",
"6. c #FFDF40",
"7. c #FDE54B",
"8. c #FCEB5D",
"9. c #FEEC62",
"0. c #FCEE69",
"q. c #176A96",
"w. c #166C93",
"e. c #2675A9",
"r. c #2376B4",
"t. c #0B7BA3",
"y. c #0174DE",
"u. c #0166CA",
"i. c #0179E4",
"p. c #0B83B8",
"a. c #1DA9DC",
"s. c #098BE6",
"d. c #0689EA",
"f. c #008EF3",
"g. c #0484F1",
"h. c #0193F5",
"j. c #039BF5",
"k. c #019CFA",
"l. c #0194F9",
"z. c #09AEEA",
"x. c #1CA8E5",
"c. c #08B1EF",
"v. c #1BB3ED",
"b. c #15B1E9",
"n. c #01A5F6",
"m. c #03ABF5",
"M. c #09AEF4",
"N. c #01A7FC",
"B. c #02ABFD",
"V. c #09AEFD",
"C. c #0AA6F0",
"Z. c #14ACF4",
"A. c #04B2F5",
"S. c #0CB3F5",
"D. c #05B2FD",
"F. c #0AB5FD",
"G. c #06B9FE",
"H. c #0CB9FE",
"J. c #0DB8F6",
"K. c #13B4F4",
"L. c #1BBCF4",
"P. c #11B6FA",
"I. c #13BCFD",
"U. c #1BBDFD",
"Y. c #18B7F6",
"T. c #26B7ED",
"R. c #23BBF4",
"E. c #23BDF9",
"W. c #28BAF5",
"Q. c #32B5EB",
"!. c #15C1FD",
"~. c #1CC2FE",
"^. c #1DC6F9",
"/. c #25C2F7",
"(. c #2AC2F4",
"). c #24C4FD",
"_. c #2BC5FD",
"`. c #27CAFF",
"'. c #2DCAFE",
"]. c #33C6FC",
"[. c #34CAFE",
"{. c #3CCCFD",
"}. c #39C7F8",
"|. c #3DD1FF",
" X c #36D1FF",
".X c #3EC3EC",
"XX c #45CCF6",
"oX c #43CDFD",
"OX c #4BCEFC",
"+X c #4CC9F5",
"@X c #58CEF6",
"#X c #44D2FE",
"$X c #4CD3FE",
"%X c #4CD9FF",
"&X c #46D8FF",
"*X c #54D4FD",
"=X c #5AD5FC",
"-X c #54DAFF",
";X c #5CDAFE",
":X c #5CD3F6",
">X c #6AD5EF",
",X c #63D3F4",
"<X c #63D5FC",
"1X c #6AD6FC",
"2X c #64DAFE",
"3X c #6BDBFE",
"4X c #6AD6F6",
"5X c #73DCFC",
"6X c #7BDDFC",
"7X c #75D8F4",
"8X c #59E2FF",
"9X c #64E1FF",
"0X c #6CE1FE",
"qX c #69E9FF",
"wX c #74E3FF",
"eX c #7CE4FF",
"rX c #7BEAFF",
"tX c #74E4FA",
"yX c #868584",
"uX c #B3B3B2",
"iX c #91DEFA",
"pX c #87DDFA",
"aX c #84E2FE",
"sX c #85EBFF",
"dX c #8BE6FE",
"fX c #93EAFF",
"gX c #99E7FE",
"hX c #89F3FF",
"jX c #98F4FF",
"kX c #A5EFFD",
"lX c #F4F3F1",
/* pixels */
"B.D.D.D.B.B.B.B.B.B.D.B.B.B.B.B.D.F.D.B.B.B.H.F.B.B.B.B.B.D.H.F.D.B.B.B.B.B.B.D.D.B.B.B.B.D.D.D.B.B.B.B.B.B.F.H.I.H.D.B.B.B.B.D.B.B.D.D.B.B.B.B.B.B.B.B.B.D.D.D.D.D.",
"B.D.F.'.{.G.F.D.B.B.B.H.F.B.D.!.'.#XOXH.F.D.B.B.B.B.B.D.I.OX2X|.H.D.B.B.B.B.D.I.~.I.D.D.~.'.{.U.D.B.B.B.D.H.|.wXfX>X!.I.D.B.B.B.D.H.~.5X3XD.D.B.B.B.B.B.B.F.[.{.].H.",
"B.I.`.`.`.$X9XG.H.D.B.B.B.I.`.).D.D.G.=XoXI.F.D.F.H.L.[.[.H.F.F.'.'.H.D.D.H.U.I.D.I.%X2X[.D.F.{.'.D.F.F.I.OXT.I.H.J.;X-XU.H.D.H.I.*X;XH.H.<X).D.D.D.D.D.I./.D.D.F.).",
").~.D.D.D.G.L.3X$XY.D.H.).`.D.B.B.B.D.D.G.wX<X&X[.`.~.D.D.B.B.B.D.G.'.[.'.).D.B.D.D.D.F.D.B.D.D.J.oX#X{.#XF.D.D.B.D.H.H.3X2X&X{.%XF.D.B.F.D.F.#XY.P.].'.U.D.B.B.B.D.",
"I.D.D.B.B.B.D.D.H.[._.U.D.D.B.B.B.B.B.B.B.D.D.I.H.F.D.B.D.D.V.B.B.D.D.D.D.D.D.B.B.B.B.B.B.B.B.B.D.H.'.U.H.B.B.B.B.B.B.D.G.!.U.I.H.D.B.B.B.B.D.D.'.).I.D.B.B.B.B.B.B.",
"B.B.B.B.B.B.B.B.B.B.B.B.B.B.B.D.H.I.D.B.B.B.B.B.B.B.F.J.%X*XH.D.D.B.F.I.F.B.B.D.F.H.H.H.F.B.B.B.B.B.B.B.B.H.F.D.B.B.B.B.B.F.U.H.B.B.D.H.F.B.B.D.F.B.D.F.B.B.B.D.F.B.",
"B.B.D.D.D.B.B.D.I.I.D.B.B.D.H.!.2XdXI.D.B.B.B.F.I.E.*X{.F.G.{.`.H.D.B.B.B.D.F.I.~.sXfX#XI.F.B.B.N.B.B.B.F.H.c.S.H.F.B.B.D.D.B.F.H.H.~.{.~.H.D.B.B.B.B.B.B.S.I.:X*XG.",
"B.F.H.9XH.F.D.B.B.B.F.F.F.D.'.1XF./.5XH.D.B.F.~.[.'.D.F.B.B.D.~.{.K.F.B.B.F.I.6X2XY.F.-X<XH.F.B.B.B.D.H.!.:XsXwX;XH.D.D.B.B.B.B.G.].*X3X9X*XH.D.B.B.B.B.D.{.#XK.J.oX",
"D._.'.F.eX-XF.F.B.D.H.~.3X1X-XI.F.F.F.1XL.J.I.H.D.B.B.B.B.B.B.D.m.!.].!.G.I.3XH.F.D.F.F.H.<X$XF.D.H.I.*X#XH.F.F.M.;X#XI.D.B.D.F.{.}.F.D.D.H.oX_.F.D.H.H._.}.D.D.B.D.",
"~.D.D.D.F.G.<XI.D.I./.=Xc.H.H.D.B.B.D.F.U.$X{.D.D.D.B.B.B.B.B.B.B.D.H.U.1X2XF.D.B.B.B.B.D.F.H.*X=X*X_.F.D.D.B.B.D.D.F.*XoXF.E.[.H.D.B.B.B.B.F.I.OX#X;X#X!.D.B.B.B.B.",
"B.B.B.B.B.D.H.!.5X,XR.H.F.D.B.B.B.B.N.B.D.D.F.).'.^.I.F.B.B.F.D.I.!.[.I.F.D.B.B.B.B.B.B.B.B.B.F.F.F.!.U.D.B.B.B.B.B.B.D.H.%XU.D.B.B.B.B.B.F.D.D.D.D.D.D.B.F.D.F.B.B.",
"B.B.B.B.B.B.B.F.D.F._.U.F.B.B.B.B.B.N.B.N.B.B.B.B.D.F.F.F.B.B.B.D.D.D.B.D.I.H.D.B.D.B.B.D.F.D.B.B.B.B.D.U.U.F.B.B.B.B.B.B.D.F.I.U.D.I.I.F.B.B.B.B.B.D.D.D.D.B.B.D.D.",
"B.B.B.D.D.D.B.B.D.D.D.D.).)._.`.D.D.B.B.N.B.B.F.H.U.9X0XI.F.D.B.B.B.B.B.B.D.I.H.5 X = D.D.B.B.B.B.B.B.B.B.D.I.I.H.F.B.B.B.B.B.B.B.B.B.B.B.D.D.B.F.U.3XsXoXH.B.B.D.F.",
"B.B.B.B.D.D.D.H.;X3X~.F.D.D.B.B.H.F.D.D.D.B.D.I.wX1XR.F.L.*XH.H.D.D.B.F.F.D.B.b.< @.V R.U.!.D.B.B.B.B.F.I.].;X3X9X$XU.H.D.B.B.B.B.F.H.D.D.B.B.F.oXXXS.F.H.[.].I.[.'.",
"D.D.B.B.B.D.I.*XF.H.{.oX!.H.F.D.B.B.B.B.B.F.I.=XK.H.B.B.F.F.-X$X{.I.).U.D.Z.S.  <.6.B T.v.G.~.U.D.F.H.U.=XK.A.F.F.G.=X2XI.H.F.D.H.).3X3XI.F.U.{.D.D.B.B.B.B.D.~.H.D.",
"{.].F.D.H.{.#XH.B.B.D.F.#X:X2XH.H.D.B.F.H.#X0XF.U.).`.U.B.B.D.D.).'.H.D.X 1 > > >.*.B * ,.o D.I.).].#X$XH.F.B.B.B.B.D.I.0X=X~.I.;X0XG.F.=X|.D.D.B.N.B.B.B.B.B.B.B.D.",
"D.'.{.oX#XF.B.B.B.B.B.B.B.F.H.6X3XI.H._.*XI.D.B.B.B.B.F.H.H.B.B.B.# o     >.O.#.+.*.I >.~ .   o o B.D.D.B.B.B.B.B.B.B.B.H.!.3X7XI.F.B.B.D.).].H.D.B.B.N.N.N.B.B.B.B.",
"B.B.D.D.D.F.F.B.B.B.B.B.B.B.B.D.H.4X7X/.D.B.B.B.B.B.D.B.D.D.B.V.X O ^ O.O.#.#.#._ ` #.) x / ) ! g X B.B.D.B.B.B.B.B.F.I.OX$XH.F.B.B.B.B.N.B.F.{.]./.F.D.B.B.B.N.B.B.",
"D.B.B.B.B.B.B.B.D.F.U.]./.F.D.D.F.F.D.D.B.B.B.D.U.]._.I.H.D.B.  / O.$.#.#.#.#.#.#.#.o.C O.#.#.#.) J   m.D.F.H.F.S.K.{.oXD.F.B.F.D.B.B.B.B.B.B.B.B.H.~.).~.H.D.D.B.B.",
"D.F.D.B.D.D.D.D.I./.).B.B.)./.U.D.B.B.B.B.F.H.D.B.B.B.D.D.D.  ^ #.#.#.#.#.#.#.#.#.#.#.#.#.#.#.#.#.) !   B.D.F.U.'.`.D.D.B.B.B.B.D.D.).}.~.D.B.B.B.B.B.B.D.H.rX_.F.D.",
"B.B.D.H.oX5X!.D.B.B.B.B.D.B.D.D.D.B.B.D.H.%X1X XF.D.B.B.n.X ^ O.>.>.$.#.#.#.#.#.#.#.#.#.#.#.#.#.#.#._ ! . n.B.B.B.B.B.B.D.D.D.B.F.I.F.B.I.~.I.D.B.B.F.H.I.2XoX6X4XH.",
"D.D.!.$X!.H.<X%XD.B.B.D.H.`.,XOXH.D.D.I.<XY.F.U.#X_.H.B.3 Q O.O.9.9.#.#.#.#.#.#.#.#.#.#.#.#.#.#.#.#.#._ U . x.D.B.B.D.H.[.3XI.F.B.B.B.B.B.B.B.I.H.H.#X=X=XH.D.D.H.*X",
"D.{.OXD.D.B.F.oX$XI.H.'.#XOXH.#X;X~.U.!.D.D.B.D.D.H.`.z.. O.O.0.9.#.#.#.#.#.#.#.#.#.#.#.#.#.#.#.#.#.#.O.) P # D.D.F.!.#X#XG.$X<XH.F.B.B.B.F.H.`.,X:Xb.F.F.B.B.B.D.F.",
"L.D.D.B.B.B.B.D.F.}.oXR.D.B.B.B.H.*XOXG.B.B.B.B.B.B.B.  _ O.8.0.O.#.#.#.#.#.#.#.#.#.#.#.#.#.#.#.#.#.#.#.O.~ $ Y.I.(.{.D.D.B.D.H.=X2XI.H.F.I./.XXH.D.B.B.B.B.B.N.B.B.",
"H.H.B.B.B.B.N.B.B.D.D.D.B.N.B.B.B.D.G.`.U.I.H.D.B.B.#  .#.2.8.+.#.#.#.#.#.#.#.#.#.#.#.#.#.#.#.#.#.#.#.#.#.) A X D.B.D.B.B.B.B.B.F.I.5X7X,X:XK.F.U.F.D.B.B.N.N.N.B.B.",
"B.D.H.D.B.B.B.B.B.B.B.B.D.D.B.B.B.B.B.B.B.D.D.F.D.D.  _ #.%.+.#.#.#.#.#.#.#.#.#.#.#.#.#.#.#.#.#.#.#.#.#.#._ !   B.B.B.B.B.N.N.B.B.D.D.I.F.V.D.B.B._.}.{.F.D.B.B.B.B.",
"B.B.B.F.H.I.I.D.F.B.B.H.{.]._.F.B.B.D.D.].[.!.B.B.a.Z o.#.#.#.#.#.#.#.#.#.#.#.#.#.#.#.#.#.#.#.#.#.#.#.#.O._ ^ v # D.H.B.B.B.N.B.D.D.B.B.B.B.B.B.B.B.D.V._.U.H.B.B.D.",
"B.B.B.B.B.B.D.H.3X[.I.~.V.B.B.I.H.D.I.).B.B.D.!.P.a.` O.%.;.%.;.;.;.;.;.;.#.#.#.#.#.#.#.#.:.;.;.;.;.;.%.%.+.' Y # D.D.F.I.I.U.F.I.B.D.D.F.D.B.D.U.I.I.B.B.D.A.H.H.D.",
"I.).D.D.D.F./.<XeX;X;XP.D.B.B.B.B.D.B.B.B.D.F.I.w.$ ` +                     #.#.#.#.#.#.                    . L . X H.F.D.F.B.B.B.F.I.7X3XI.H.D.B.B.B.B.D.F.*X2XH.D.",
"B.B.I.~.-X;X-XF.F.F.~.{.'.H.D.B.B.B.B.B.F.I.$X].w.      lXuXyX-                           lXuX6                   X [.[.H.D.B.B.I.'.1XH.D.-X[.H.B.B.D.D.H.|.#XD.oX X",
"B.B.D.!.:XF.F.F.B.B.H.I.XX#X&XD.D.B.B.D.R.$XI.F.w.X X   lXyXo                 O . . .     lX6                 o o X H.oXOXG.D.H._.tXI.H.H.H.=X#XF.D.m.W.].J.F.D.F.`.",
"B.A.'.[.F.D.B.N.N.N.B.B.H.F.'.XX#XA.c.*X9XH.D.B.q., G . yX-                   b ) _ P     yXo                 v F X B.F.~.=X;X2XwXH.F.B.B.D.D.H.XX{.{.[.D.B.B.B.B.D.",
"I._.F.B.B.N.B.N.B.B.B.B.B.B.D.H.I.oX{.H.F.B.B.B.q.1 O.'                     C ` #.#.o.b                     h ^ ] X B.B.D.H.I.I.F.D.B.B.N.N.B.D.F.~.!.U.B.B.B.B.B.B.",
"F.D.D.D.B.N.B.B.B.F.U.U.U.H.D.B.B.D.F.D.B.B.B.B.q.1 +.&.X                   Y         !                     W ~ ' X B.B.B.B.D.D.D.D.F.F.B.B.B.B.B.B.F.H.I.F.B.B.B.B.",
"N.B.B.B.D.B.B.B.B.B.B.B.D.H.(.P.F.B.B.D.H.D.D.B.M.# =.$.W                 G   k M m k   H                 a ) !   K.B.B.B.B.B.D.T.F.B.B.B.D.F.B.B.n.V.D.D.H.F.B.B.B.",
"D.B.B.B.F.H.I.H.D.B.B.H.<X=XqXsX<XF.B.B.B.B.B.I.Y.# =.#.+.+           . G   k T T M l i   A .           @ ! _ U   H.I.B.B.B.H.=XhX1X$XF.B.B.D.D.B.F._.aX,X*XH.F.B.B.",
"B.H.rX].D.B.B.B.F.Y.%X2XH.F.D.F.G.$XL.F.B.I._.B.D.# a ` #.#.@.I F [   O O k ..X.T N M l i $     h K P ` +._ U R o B.B.F.!.#X;XF.F.F.K.=XI.H.B.D.I.3Xa.S.G.I.9X$XF.B.",
"H.'.D.].oXF.D.I.{.;XF.D.D.B.N.B.D.F.oX{.[.).D.B.B.B.# ' O.#.#.#.{ . j k l | ..M m m M M M j i i . 5.$.O.O.) Z o D.B.F.~._.S.F.D.B.B.D.H.9X=XS.2X5XA.D.D.B.B.D.H.oX[.",
"!.D.D.D.H.%X3X1XP.H.D.B.B.N.N.N.B.B.D.F.I.H.D.B.B.B.2 V ^ O.#.#.. m N | | l q 0 q 0 0 q n M M m k . O.#.o.U { X D.B.D.D.F.D.B.B.N.B.B.D.F.H.6X].H.D.B.B.B.B.B.B.D.H.",
"B.B.B.B.B.B.F.I.'.I.H.B.B.B.B.B.N.B.B.F.D.B.X     2 D.# O ) o.O.. i n m k . 8 ; ; ; ; :   i l j e . #.) ~ 1   B.x.      D.D.B.B.B.B.B.B.F.F.F.D.H.F.D.B.N.N.B.B.B.B.",
"H.F.B.B.B.N.B.B.D.P.`.'.U.F.B.B.B.B.D.B.B.v.1.O.^   4     b ^ O.Q o y u   w p p r r r t 9   u u   ] ) ~ v       X ( $.) # B.B.F.D.F.I.F.D.B.B.B.B.B.B.D.P.F.B.B.B.B.",
"B.D.I.U.F.B.B.B.B.B.B.B.I.I.).I.F.D.B.B.m.  $.7.O.. & @._ d c P _ J     y n r r r r e e l e o   G ^ U f a / H % X -.7.O.% A.B.D.U.).P.).`.F.F.B.B.B.B.B.B.B.B.B.D.D.",
"N.B.B.B.B.B.B.D.F.F.D.B.B.B.B.B.D.D.D.D.J.@ 2.2.O.B / O.O.O.~ x v ~ L x   y n n n n n n e . v L ~ v z L ) O.o.) % =.2.#.< v.D.B.B.B.B.D.G.U.5X].F.B.B.B.B.B.D.H.{.).",
"N.B.B.B.B.D.G._.aX4X].F.B.B.B.B.D.F.P.I.  ) 7.#.#.@.Q #.#.#.#.) L x L J G                 v L J x L ^ o.#.#.#.E D <.#.#.)   _.D.D.B.D.H.L.<XI.].1XA.F.B.B.D.'._.F.B.",
"D.B.B.D.D.'.#X#XF.G.9XW.A.H.B.H.(.=X{.M.. #.<.#.#.#.S #.#.#.#.#.O._ ^ U U G Z Z C Z Z C H U P ^ _ O.#.#.#.#.#.S #.#.$.#.#.+ S.`.).F.H.#X=XH.F.F.I.#XW.S.I.U.D.B.B.B.",
").`.D._.#X~.H.F.B.D.F. X2XpXH.#X|.H.D.  J #.>.$.#.#.#.#.#.#.#.#.#.#.#.o.) ! L L L L L P U ) o.#.#.#.#.#.#.#.#.#.#.#.#.#.#.J   D.~.{.$X!.H.D.B.B.D.H.-X;X{.D.B.B.B.B.",
"D.~.-X).F.D.D.B.B.B.B.F.H.H.qX_.F.B.B.  o.#.#.#.#.O.( #.#.#.0.8.3.#.#.#.#.O.) ) ) ) ) ) O.#.#.#.#.#.#.#.#.#.#.S #.#.#.#.#.)   B.F.I.H.D.B.B.B.B.B.B.F.H.I.].R.K.F.B.",
"B.B.B.D.D.D.B.D.'.I.D.B.B.B.D.H.I.F.D.  ^ #.#.#.#.o.( #.#.9.9.8.2.#.#.#.#.#.#.#.#.#.#.#.#.#.#.#.#.#.#.#.#.#.#.S E #.#.#.#.~   F.V.B.F.H.F.D.B.B.B.B.D.F.W.;XqX8X<XJ.",
"I.D.D.B.B.B.H.I.B.V.H.D.B.B.B.B.B.F.$X  Y #.#.#.#./ *.#.#.9.9.8.#.#.#.#.#.#.#.#.#.#.#.#.#.#.#.#.#.#.#.#.#.#.#.D Z #.#.#.O.U   {.OXH.D.B.D.I.U.I.D.I./.,X=XD.F.F.H.oX",
"D.!.~.I.F.F.D.D.B.D.D.V.D.F.V.B.D.<X;X  G _ #.#.O.A *.#.#.9.8.#.#.#.#.#.#.#.#.#.#.#.#.#.#.#.#.#.#.#.#.#.#.#.#.D A O.#.O.) H   D.%X=XF.V.B.B.B.D.I.OX_.P.D.B.B.B.D.D.",
"B.B.D.H.#X6X6X-XF.V.B.B.D.B.B.$X1XY.B.p.$ P o._ ! c O.#.#.=.#.#.#.#.#.#.#.#.#.#.#.#.#.#.#.#.#.#.#.#.#.#.#.#.#.O.c ! _ ) P O t.B.B.A.4X9XI.B.I.).R.A.V.B.B.B.B.B.B.B.",
"B.D.D.:XsXF.H.rX/.M.B.D.D.B.F.eXI.V.B.Y.  H ^ ^ Z c #.#.#.#.#.#.#.#.#.#.#.#.#.#.#.#.#.#.#.#.#.#.#.#.#.#.#.#.#.#.v Z ) / H   #XF.B.B.F.rX&XH.I.D.D.B.B.D.J.R.D.B.N.N.",
"m.%X$XH.F.D.F.H.wXeXR.F.D.V.oX3XF.B.m.0XT.. ~ Y x _ #.#.#.#.#.#.#.#.#.#.#.#.#.#.#.#.#.#.#.#.#.#.#.#.#.#.#.#.#.O./ z Y U & x.).9Xn.B.B.I.sXW.B.D.B.B.D.F.[.{.].V.B.B.",
" XU.F.D.B.B.B.B.F.H.].P.B.;X=XY.B.B.wXW.n.= g f ! _ o.#.#.#.#.#.#.#.#.#.#.#.#.#.#.#.#.#.#.#.#.#.#.#.#.#.#.#.+._ ) Y f g # Z.B.E.;XB.B.B.L.eXB.D.H.I.I.I.D.B.D.'.'.B.",
"D.D.D.B.B.B.B.B.D.D.D.D.B.3X3XD.B.I.aXB.F.h.  L ~ _ o.o.#.#.#.#.#.#.#.#.#.#.#.#.#.#.#.#.#.#.#.#.#.#.#.#.#.O._ ) ^ ! H X f.5X).D.*X).B.B.;X=XB.D.D.D.B.B.B.B.B.D.I.).",
"B.B.B.B.B.F.D.H.wX'.F.B.B.!.3X{.N.F.2X*Xn.f.  v ! ) _ _ o.#.#.#.#.#.#.#.#.#.#.#.#.#.#.#.#.#.#.#.#.#.#.#.O._ _ ) U J G   g.W.aXF./.U.B.[.=XI.B.B.F.B.B.B.D.H.F.D.F.H.",
"D.B.B.B.D.~.oXoXb.;X{.D.B.B._.;XB.B.U.3X'.j.i.  C ! ) _ _ _ #.#.#.#.#.#.#.#.#.#.#.#.#.#.#.#.#.#.#.#.#.o.) ) ) P L G   i.l.'.5X_.B.B.D.2XE.B.B.B.B.B.D.F.H.2X*XH.D.B.",
").H.F.F.!.].'.F.D.F.{._.D.B.D.OX_.B.B.oX7XP.h.y.  A U / _ _ _ _ #.#.#.#.#.#.#.#.#.#.#.#.#.#.#.#.#.O.) ) ) ) U L C   y.f.n.3X}.B.B.D.#X2XF.B.B.B.B.D.H.S.+XOX$X$XG.D.",
"!.;X<X$XP.B.D.B.B.B.F.F.U.F.B.'.;XU.B.N.{.6XE.l.i.u.Z L U ) _ _ _ _ _ O.#.#.#.#.#.#.#.#.#.#.O._ _ ) ) ) ~ L L v u.g.h.F.5XOXm.N.B.I.5XoXF._.$XF.H.~.#X3XF.D.D.F.=X{.",
"D.F.G.).`.D.B.B.B.B.B.B.B.D.D.D.[.1XD.B.B._.3XOXk.f.i.7 L L U ) _ _ _ _ ) ) ) ) ) ) ) _ ) ) ) ) _ _ ^ U J J 7 i.g.j.E.3X#XB.B.D.I.7X{.B.B.F.I.;X,XoX[.F.D.B.B.D.D.H.",
"B.B.B.D.D.I.F.B.B.B.F.F.B.B.B.B.D.oX1X*XB.N.I.2X6X=Xj.g.i.} [ L U P U ) ) ) ) ) ) ) ) _ _ ) ) P L L Y } [ y.d.d.j.aX6X*XD.B.).3X6X].D.B.B.B.F.H.H.'.U.D.B.B.N.N.B.B.",
"N.N.B.B.F.I.U.H.F.I.wX=XI.F.B.B.B.D.S.0X1X'.B.B.T.+X6XaX}.h.g.r.e.r.Z Y P P L L P P P L P P P 4.e.e.e.d.j.Z.<XpXgX3XK.F.B.I.@XiXD.B.B.B.B.F.B.B.B.B.I.).!.B.B.N.N.N.",
"N.B.N.B.B.B.B.H.-X,XjXjX+X*XI.F.H.B.B.V.{.5X:X'.B.n.W.wX5X7XoXB.k.f.d.s.d.s.d.s.s.s.s.s.s.s.s.d.f.k.B.XX7X7XiX].V.B.B.B.).4X|.F.H.D.B.D.B.B.B.B.B.B.B.B.m.I.F.B.B.B.",
"D.B.B.B.B.B.F.{.OXM.D.D.D.F.oX$XG.B.B.B.B.D.OX=XU.I.B.N.V.{.aX6X<XH.N.B.N.B.k.l.h.h.h.k.k.k.j.n.).5X,XfXoXF.n.B.B.D.H.=X3X~.B.B.D.).#XD.D.B.B.B.N.N.N.B.B.B.B.D.F.H.",
"'.H.F.B.F.I.*X{.D.B.B.B.B.D.D.H.].'.F.B.B.B.F.H.U.H.B.B.N.B.B.D.).3XaXaX2X'.I.V.B.B.V.D.`.=XeX6X*XU.V.B.B.B.B.F.T.3X4X;XB.B.B.B.F.A.L.-X-XH.D.B.B.B.B.B.D.H.2X4XI.D.",
"F.{.%XD.-X$XM.D.B.B.N.B.B.D.D.B.B.F.I.H.D.B.B.H.9XeXhX8XH.D.B.B.B.B.V.F.P.F.D.B.B.B.V.D.D.F.m.F.B.B.B.D.).;X0XwX5X.XS.V.B.B.F.H.D.B.D.F.z.OX].D.D.D.F.H.{.*XD.F.OX'.",
"B.D._.2X$X~.H.D.B.B.B.B.B.B.B.B.B.B.B.D.F.D.B.B.D.F.[.=X6XeXC.C.M.M.n.B.B.I.$XQ.Q.W.M.M.B.n.B.F.I.%XoXI.I.W.U.F.D.B.B.B.D.H.F.B.B.N.N.B.B.D.[.{.S.F.oX5XqXH.F.D.F.U.",
"N.B.B.B.F.B.F.I.!.]._.F.B.B.B.B.B.F.!.wXdX).F.B.B.B.B.D.F.oXgXfX9X&X'.H.B.V.).wXkXkXkXgX&X`.I.I./.I.B.B.D.I.:X=X%XF.D.B.B.B.B.B.B.B.N.B.B.B.F.F.#X;X_.D.D.B.B.N.B.B.",
"N.B.B.B.B.B.B.B.n.m.n.I.D.B.B.B.F.v.1Xv.P.2XY.D.B.B.B.B.B.D.D.D.D.D.D.H.D.B.B.D.F.F.H.H.F.F.D.B.B.B.B.S.[.[.P.F.}.oXJ.D.B.B.B.F.P.F.B.D.H.F.B.D.D.F.F.F.B.B.N.N.B.B.",
"N.B.B.B.B.F.D.B.B.B.B.B.B.B.D.G.9X5XF.F.F.F.9X=Xc.F.B.B.B.B.B.B.B.D.F.D.F.B.D.B.B.B.B.B.B.B.B.B.V.V.I._.D.D.B.D.D.D.oXoXD.V.F.H.4X4XH.D.B.B.B.B.N.B.B.B.B.B.B.B.B.B.",
"N.N.B.B.D.~.rXU.F.B.B.B.F.F.{.=XY.F.D.B.B.B.F.G.3X-X).D.B.B.B.F.D.wX6X5X=XJ.V.B.B.B.B.B.B.H.P.6X^.D.B.B.B.B.B.B.B.B.D.S.|._.P.fXI.F.2XK.D.B.B.B.B.D.D.B.B.B.B.H.F.D.",
"N.B.B.H.oX$Xb.5X].H.F.I.`.].{.D.D.B.B.B.N.N.B.D.F.P.{.{.~.U.D.^.=XF.F.F.m.#X].B.B.B.B.D.D.2X2XS.1X;XH.B.B.B.N.N.B.B.B.D.F.'.5XF.H.F.D.<X=XH.D.F.I.F.F.B.B.H.oXoX{./.",
"B.D.~._.J.D.D.D.@X4XP.D.B.B.B.B.B.B.H.D.B.N.N.N.B.B.D.B.F.U.=X*XA.D.B.B.D.D.-X*Xv.F.F.*X*XL.F.F.H.T.=X/.D.B.B.B.B.B.D.H.*X=XF.B.B.B.D.D./.#X_.D.B.B.B.B.H.{.{.F.F.'.",
"D.`.I.D.B.B.B.B.D.D.$X_.H.V.B.D.F.F.B.B.B.B.B.N.B.B.B.m.Z.*X#XH.B.B.B.B.B.B.F.F.#X;X;X].D.F.B.B.B.F.F.U.=XD.A.D.D.D.I.$XY.F.B.B.N.N.N.B.D.F.I._.H.D.I.v.oXD.B.B.B.B.",
"/.D.D.B.B.B.N.N.B.F.F.R.#X[.U.F.B.B.B.B.B.B.B.B.F.'.8X#X{.H.D.D.F.D.B.B.N.B.B.D.H.I.H.F.B.B.N.N.N.B.B.F.I.OX1X;X2X@XOXF.D.B.D.D.B.B.B.B.B.D.D.I.'._.[.'.D.B.B.B.B.N.",
"B.B.B.B.B.B.B.B.N.B.B.B.D.D.`.I.U.D.B.D.B.B.B.).].[.I.D.D.B.B.B.B.D.B.B.N.B.B.`.'._.~.I.B.B.N.N.N.B.B.B.D.D.H.L.'.I.F.B.B.B.B.B.F.F.B.B.B.~._.'.F.D.B.B.B.B.B.N.N.N.",
"N.B.B.B.B.D.'.S.B.B.B.B.N.B.B.B.D.H.[.*X=XH.I.I.B.B.B.N.N.B.V.D.).]._.D.V.D.F.B.B.B.D.F.I.H.B.B.B.B.B.B.I.~.U.F.D.D.~.~.D.B.B.N.B.B.F.I.!.H.B.B.B.B.N.B.B.N.B.B.B.B.",
"B.B.B.D.`.]._.].).V.B.B.N.N.B.D.~.].F.D.H.#XD.B.B.N.N.N.B.B.F.H.D.D.D._.~.D.B.B.B.N.B.B.B.D.H.oX[.D.F.F.D.B.B.B.N.B.B.D.I.U.U.I.D.F.D.B.B.D.D.D.B.B.B.B.B.D.U.U.I.F.",
"H.U.).`.F.B.D.D.I.'.).D.B.D.~._.I.F.B.B.D.H.{.{.M.B.B.B.B.D.B.B.B.N.B.D.F.).I.D.B.B.B.B.F.{.oXF.F.`.[.D.B.B.B.N.N.N.B.B.B.B.D.B.B.B.B.B.D.E.%X=X'.D.D.B.F.D.B.B.B.B.",
"D.F.m.D.B.B.N.N.B.D.J.).).).J.D.D.B.N.N.N.B.D.D.{._.D.D.).`.B.B.B.N.N.B.B.F.H.U.J.F.D.|.#XP.D.B.B.D.F.).I.D.B.B.N.N.N.N.B.B.D.D.B.B.B.F.{.K.F.D.F.`.P.F.B.N.B.B.B.N.",
"B.B.B.B.B.B.N.N.B.B.B.D.B.D.F.B.B.B.N.N.B.N.B.B.D.F._.).H.D.U.D.B.N.N.N.N.B.B.D.I.~.$X].F.D.B.B.N.B.B.D.~.U.U.H.B.B.N.B.D.`.'.).U.D.U.).H.D.B.B.B.D.H.U.~.B.B.B.B.N.",
"B.B.B.B.B.B.B.B.B.B.B.B.B.B.B.B.D.B.B.N.N.B.N.B.B.B.D.B.B.B.B.D.F.D.B.B.B.B.B.B.B.B.B.B.B.B.N.B.B.B.B.B.B.B.D.H.H.D.B.D.I.B.B.B.D.I.D.D.B.N.B.B.N.N.B.B.B.H.H.D.B.B."
};
