/* XPM */
static const char *duck_22[] = {
/* columns rows colors chars-per-pixel */
"22 22 108 2 ",
"   c #020101",
".  c #0C060A",
"X  c #2D0D00",
"o  c #351600",
"O  c #000C29",
"+  c #001025",
"@  c #EE4003",
"#  c #C37101",
"$  c #C7790A",
"%  c #D37500",
"&  c #DB7C04",
"*  c #F66304",
"=  c #F86505",
"-  c #FF6A02",
";  c #DF870C",
":  c #FC800E",
">  c #EE9701",
",  c #ED9801",
"<  c #F19903",
"1  c #E99B1D",
"2  c #FAA306",
"3  c #F5A800",
"4  c #FBAE01",
"5  c #FEB504",
"6  c #FDBB02",
"7  c #D1BB31",
"8  c #FBB82C",
"9  c #FEC302",
"0  c #FECF02",
"q  c #FDD303",
"w  c #FBD008",
"e  c #FFEE1E",
"r  c #FFE136",
"t  c #FFED5B",
"y  c #F7E962",
"u  c #247CAA",
"i  c #2175B3",
"p  c #0AA4EE",
"a  c #19B2EC",
"s  c #03ACF6",
"d  c #0AACF3",
"f  c #01A7FD",
"g  c #02ABFD",
"h  c #03B1F5",
"j  c #0CB2F4",
"k  c #05B2FD",
"l  c #09B5FE",
"z  c #07B9FC",
"x  c #0DB9FE",
"c  c #12B3F4",
"v  c #1AB6F2",
"b  c #10BDF7",
"n  c #12B5FB",
"m  c #13BAFD",
"M  c #1CBEFC",
"N  c #20BEED",
"B  c #31B7EC",
"V  c #25BFF5",
"C  c #24BFFC",
"Z  c #14C2FF",
"A  c #1BC1FD",
"S  c #22C3FE",
"D  c #3FCCF7",
"F  c #3CC6FE",
"G  c #34CCFD",
"H  c #3DCEFF",
"J  c #3CCCFE",
"K  c #3DCAFD",
"L  c #46CEF8",
"P  c #42CFFD",
"I  c #40CEFC",
"U  c #4BCEFA",
"Y  c #55CEF9",
"T  c #45D3FF",
"R  c #4BD0F9",
"E  c #4AD3FF",
"W  c #49D7FF",
"Q  c #4ED6FF",
"!  c #48DAFF",
"~  c #4FDBFF",
"^  c #4CD8FC",
"/  c #52D2FF",
"(  c #56D4FD",
")  c #55D4FF",
"_  c #51D6FF",
"`  c #59D7FF",
"'  c #5ED4FC",
"]  c #5FD6FE",
"[  c #5EDCFF",
"{  c #5CDDFF",
"}  c #62D2F7",
"|  c #6CD3F2",
" . c #67D5FA",
".. c #69D7FA",
"X. c #65DAFD",
"o. c #68DAFC",
"O. c #6FDAFC",
"+. c #6FD9FF",
"@. c #6ADEFF",
"#. c #6CDCFF",
"$. c #76DAF4",
"%. c #74DCF9",
"&. c #74D8FC",
"*. c #76DDFC",
"=. c #70D8FF",
"-. c #7BDFF9",
";. c #64E0FF",
":. c #82DDF8",
/* pixels */
"k h g l W x g V P g l g J g x X.g x O.g k G ",
"g g g g m g g / k x g x k g x g l g k k g l ",
"m G l j g @.x g g M x g v ' g n l k g U R g ",
"g k d Z m g k | g g x h g g j j g g g k ^ k ",
"z k g l ) G g l g   q w   k g g C k k l f g ",
"g O.g g k x b g 0 q q q q 9 g g k m m g Z  .",
"k g l k x A g 5 y q q q q q 3 m g #.a m g g ",
"g k -.g l g z       q q       l M g l Z g m ",
"G g f k ;.c f       1 8       n { k g ! k g ",
"g x g ) J g s q     - @     6 x g &.g g o.g ",
"g z S g g g + X e :     - 7 o O k g k x f g ",
"f g n g k   0 q # % = * & # q r . g l x f K ",
"m k g l l 9 q q t q 5 5 q q q q 5 l g f m x ",
"g :.g k $.; 5 q q q q q q q q 6 $ S g J g g ",
"k g g p g g 4 q q q q q q q q 2 F d L m g S ",
"h G k g C %.  5 6 q q q q 5 4   *.k k g ` v ",
"f m l l g ..g E i < > , > u F B m s g g Z f ",
"D ^ k g j g M g g g k k s g g =.g k } g k Y ",
"g g g g N k x g g k l g g k k { g A g g k g ",
"k k T g g g g l _ g P l l Q g g ' g k g k k ",
"g l g g x Q Z f j z l k g g A Z g g Z g g g ",
"g g g j g g g S g f g G g g S f m s c g Z g "
};
