/* XPM */
static const char *duck_71[] = {
/* columns rows colors chars-per-pixel */
"71 71 229 2 ",
"   c #010101",
".  c #0B0300",
"X  c #040901",
"o  c #0A0802",
"O  c #01030B",
"+  c #040B0C",
"@  c #1A0400",
"#  c #000813",
"$  c #001208",
"%  c #230400",
"&  c #300C00",
"*  c #3D2C00",
"=  c #000727",
"-  c #00132A",
";  c #001832",
":  c #00253C",
">  c #002736",
",  c #00282E",
"<  c gray21",
"1  c #460300",
"2  c #543704",
"3  c #653904",
"4  c #733E00",
"5  c #6F4308",
"6  c #043B56",
"7  c #003B64",
"8  c #075873",
"9  c #5C5857",
"0  c #63746C",
"q  c #597870",
"w  c #AD1401",
"e  c #B61802",
"r  c #D82B01",
"t  c #DC3500",
"y  c #DB3A04",
"u  c #C43203",
"i  c #E32D02",
"p  c #EF3B02",
"a  c #895800",
"s  c #925B0B",
"d  c #8A6A01",
"f  c #BB7A19",
"g  c #AE7619",
"h  c #AA7D2A",
"j  c #EB4401",
"k  c #EE4907",
"l  c #F24D00",
"z  c #F54902",
"x  c #FB5902",
"c  c #C66C02",
"v  c #CA7701",
"b  c #CD7A01",
"n  c #C17100",
"m  c #D37D02",
"M  c #DA7D00",
"N  c #FC6201",
"B  c #FD6A02",
"V  c #F56708",
"C  c #FD7202",
"Z  c #F67807",
"A  c #C77523",
"S  c #56807E",
"D  c #648072",
"F  c #A3901C",
"G  c #BEAE1B",
"H  c #D58402",
"J  c #DC8401",
"K  c #D68408",
"L  c #CD8000",
"P  c #E48C01",
"I  c #EA8E01",
"U  c #E08500",
"Y  c #EC9501",
"T  c #EE9A01",
"R  c #EB9609",
"E  c #F19A02",
"W  c #F99F01",
"Q  c #FA901A",
"!  c #CCAD0B",
"~  c #FCA502",
"^  c #F4AA03",
"/  c #FCAB02",
"(  c #F7A909",
")  c #FDB502",
"_  c #F6BB00",
"`  c #FDBA02",
"'  c #F9B406",
"]  c #FFB616",
"[  c #F5A80F",
"{  c #D8972E",
"}  c #CA9839",
"|  c #FF982C",
" . c #DFAF2A",
".. c #FDA328",
"X. c #FCAB33",
"o. c #E8BF29",
"O. c #FDC303",
"+. c #FDCC03",
"@. c #FFCC0A",
"#. c #F9CB06",
"$. c #FED303",
"%. c #FDD209",
"&. c #F9D409",
"*. c #F6CA14",
"=. c #FCD51B",
"-. c #E8C11E",
";. c #FAD928",
":. c #FFDC32",
">. c #FFE439",
",. c #FDE549",
"<. c #FDEC5D",
"1. c #FFF05F",
"2. c #FDED63",
"3. c #0074DC",
"4. c #0469C4",
"5. c #017BEC",
"6. c #027AE3",
"7. c #1896BF",
"8. c #16A4D6",
"9. c #0183EB",
"0. c #018BEE",
"q. c #0181E3",
"w. c #089AE8",
"e. c #028CF1",
"r. c #0285F1",
"t. c #0193F3",
"y. c #019AF7",
"u. c #0CACEC",
"i. c #05A7EB",
"p. c #19ADEA",
"a. c #09B1EE",
"s. c #13B2ED",
"d. c #1BB3EB",
"f. c #1CB9EE",
"g. c #01A3F1",
"h. c #03ACF6",
"j. c #0AAEF5",
"k. c #01A7FC",
"l. c #02ABFD",
"z. c #08AEFB",
"x. c #0AA5F1",
"c. c #04B2F6",
"v. c #0CB3F4",
"b. c #05B2FD",
"n. c #0AB5FD",
"m. c #06B9FD",
"M. c #0CB9FD",
"N. c #09B9F6",
"B. c #14B6F4",
"V. c #14BAF4",
"C. c #1BBBF4",
"Z. c #11B6FA",
"A. c #13BBFD",
"S. c #1ABDFC",
"D. c #1BB5F3",
"F. c #1DA1F4",
"G. c #29B8EC",
"H. c #39BFEC",
"J. c #24BCF5",
"K. c #23BEFC",
"L. c #28BCF3",
"P. c #34BCF5",
"I. c #27AAEB",
"U. c #0CC2FF",
"Y. c #15C1FE",
"T. c #1DC2FE",
"R. c #2CC3F6",
"E. c #23C3FD",
"W. c #2BC5FC",
"Q. c #25C9FF",
"!. c #2CC9FF",
"~. c #21C0F7",
"^. c #34C3F4",
"/. c #32C5FC",
"(. c #34CBFE",
"). c #3BCCFD",
"_. c #3BC7F5",
"`. c #3DD1FF",
"'. c #4CCDF6",
"]. c #43CDFC",
"[. c #4CCDFA",
"{. c #43C5F6",
"}. c #53CCF4",
"|. c #51CFFA",
" X c #59CFFC",
".X c #5CCEF4",
"XX c #44D2FE",
"oX c #4BD3FE",
"OX c #4DDBFF",
"+X c #49D5FA",
"@X c #5DD2F6",
"#X c #53D3FD",
"$X c #5AD4FC",
"%X c #53D9FF",
"&X c #5CDBFE",
"*X c #53D2F6",
"=X c #5FCBEF",
"-X c #63D2F6",
";X c #6BD9F6",
":X c #64D5FC",
">X c #6BD6FB",
",X c #63DAFE",
"<X c #6CDBFD",
"1X c #69D7F6",
"2X c #73DCFD",
"3X c #7BDDFC",
"4X c #78D9F7",
"5X c #69D0EF",
"6X c #56E1FF",
"7X c #64E2FF",
"8X c #6CE3FF",
"9X c #6BEAFF",
"0X c #75E3FF",
"qX c #7AE4FF",
"wX c #7AEBFF",
"eX c #76E9FF",
"rX c #868686",
"tX c #93908F",
"yX c #B1B0AF",
"uX c #83DBF4",
"iX c #85DDF9",
"pX c #83E4FE",
"aX c #8DE4FD",
"sX c #8BEDFF",
"dX c #82E9FF",
"fX c #93F2FF",
"gX c #98F7FF",
"hX c #A2F8FF",
"jX c #F5F4F3",
/* pixels */
"b.b.b.b.l.k.l.l.z.z.k.k.k.b.n.n.b.k.l.M.n.l.l.k.b.n.M.M.l.k.k.l.l.l.b.b.b.l.b.b.b.b.l.l.l.l.z.b.M.M.b.z.l.l.b.z.l.b.b.l.l.k.l.k.l.l.b.b.b.n.b.",
"l.b.V./.!.n.b.k.l.b.A.b.b.S.XX&XK.M.b.l.k.l.z.b.A.].:XXXb.l.k.k.l.n.S.T.n.b.~.(.).A.b.l.l.b.M.#XaX3XC.A.b.l.l.z.M.T.3X>Xb.l.l.k.k.l.b.(.].(.M.",
"l.S.Q.b.E.,XR.n.b.l.l.A.E.b.b.b.#X:Xd.M.b.n.V.R.(.n.b.n.(.(.n.b.A.S.b.c.E.].n.b.M.E.].b.n.).+XM.n.M.V.$XG.M.n.(.:XA.b.M.8X].n.b.z.!.!.n.b.n.E.",
"E.M.b.l.b.M.R.$XOX(.E.m.b.l.k.l.b.M.V.<X$X(.T.b.b.k.l.l.n.b.S.M.n.b.l.b.b.n.l.l.l.b.m.oX#XM.n.l.l.z.n.M.T.3X$X/.v.n.l.b.M.C.XX&X(.n.z.k.k.l.b.",
"l.l.l.l.l.l.l.b.b.b.z.l.k.k.b.l.k.l.z.b.b.z.b.M.S.S.n.l.z.n.b.b.z.b.l.n.z.z.z.l.l.k.l.n.n.n.n.k.k.k.l.l.b.b.n.n.l.l.z.l.l.b.b.M.M.l.z.k.l.l.l.",
"k.l.b.b.b.l.b.A.A.b.l.l.M.A.sX'.n.l.k.k.b.A.XX).S.n.).A.b.l.k.b.n.b.M.T.aX4XM.b.l.k.k.k.z.n.M.M.M.n.l.k.b.b.n.A.M.S.C.n.M.b.k.k.k.l.b.A.#X,Xn.",
"k.n.M.8Xm.n.k.k.l.n.b.m.!.>XM.9Xv.n.l.n.E.(.n.b.l.b.b.E.B.b.l.l.n.A.2X,Xn.M.,XM.b.l.k.b.M.T.#XsX#XY.n.b.l.k.k.n.(.#X,X&XoXM.b.k.l.b.A.|.v.N.`.",
"b.W.!.c. XA.n.l.b.M.S.,X$XA.n.n.qX&Xn.A.M.b.l.k.k.l.l.b.b.R.~.n.J.,XM.n.z.n.M.-X$Xb.n.S.'.N.M.b.n.V.#XM.b.l.b.(.s.b.b.b.n.,X%Xn.n.E.].M.b.b.b.",
"K.n.n.b.n.|.,Xm.XX#X(.M.M.b.k.l.n.M.`.`.(.b.l.l.k.k.l.k.b.A.&X:XM.M.b.k.k.k.b.b.M.E.@X(.M.n.z.k.l.b.n.B.).XX`.A.b.l.l.k.l.n.C.>X,XC.b.l.k.k.k.",
"l.l.k.k.l.n.A.0X(.S.n.b.k.k.l.k.k.b.n.n.M.T.A.M.l.k.n.n.T.A.A.M.n.l.l.l.l.l.l.l.b.n.n.A.T.A.l.k.l.k.l.b.M.A.T.b.k.h.n.l.n.z.z.b.b.b.n.n.n.z.l.",
"k.k.l.z.l.l.l.b.n.c.E.Q.l.z.l.k.k.k.k.l.l.A.T.&XS.n.k.l.l.l.l.l.n.A.M.z.l.b.b.b.l.k.k.l.l.l.M.A.n.z.l.l.k.l.b.M.A.b.l.n.n.k.l.b.8X].M.l.l.b.b.",
"k.k.l.l.b.b.M.#XoXA.b.b.Q.T.A.n.b.l.l.n.M.$X;XM.<X#XM.n.l.l.b.n.b.l.- F F ; A.A.b.z.k.l.n.A.Q.$X&X#XA.M.b.l.l.l.b.M.b.b.l.n.V.0XB.b.)./.A.(.(.",
"b.z.l.k.l.A.#Xb.n.oXC.M.n.b.k.k.k.b.n.A.&XN.l.l.b.n.&X%XA.S.T.b.g.8.*.,._ O g.M.S.A.b.M.T.#XM.m.b.M.&X&XA.M.b.M.T.qX2XM.n.L.).n.l.l.l.b.(.M.b.",
"!.!.M.b.Q.).M.k.l.n.!.&X:XM.n.l.n.A.|.oXm.S.Q.S.b.l.b.b.S.A.b.  o. .=.=.Y @ *.  b.n.T.XXE.n.b.l.k.l.b.M.oX$XA.%X#Xb.M.$X(.b.b.k.k.l.k.k.k.l.b.",
"b.n.^.oXA.b.k.k.k.k.k.n.n.R.#XJ.].(.M.b.l.l.k.l.n.n.l.b.l.      ;.$.%.O.v @.~       z.b.b.l.k.k.k.k.l.b.M.C.oXM.b.l.l.b.b.oXS.b.l.k.l.k.k.k.l.",
"k.l.b.b.b.n.z.k.k.l.z.k.l.n.A.XXM.b.l.k.k.l.b.z.z.b.l.u.  ^ +.$.$.$.$.O.+.+.b ` ` E   O b.b.l.l.l.z.n.).).A.n.l.l.k.k.k.z.b.m.).E.z.l.k.k.l.k.",
"b.l.l.k.k.k.l.l.E.W.R.Q.!.M.n.z.b.k.k.l.A.T.b.A.A.b.g.X O.$.$.$.$.$.$.$.$.P $.$.$.$.) } 6 l.M.M.S.Q.R.n.b.l.b.n.l.l.l.l.l.k.l.l.b.M.M.b.b.n.k.",
"k.b.n.b.L.b.b.b.l.l.l.z.b.n.b.l.l.b.c.eXV.b.l.l.j.#  .O.$.$.$.$.$.$.$.$.$.$.$.$.$.$.$.` ] O l.b.b.b.l.l.l.l.k.z.T.E.W.E.K.l.l.l.l.b.8X3XiXB.n.",
"l.b.Y.:Xp.,X!.b.l.l.n.A.9X).b.b.b.@X7Xb._.#Xn.b.x.[ O.*.2.$.$.$.$.$.$.$.$.$.$.$.$.$.$.$.` E - l.l.l.b.n.Q.oXM.b.l.l.k.l.k.M.A.M.!.wXM.M.M.G.#X",
"c.).oXb.b.M.].].M.A.oX].M.XX:XY.Y.b.n.l.b.b.E.b.O +.%.2.,.$.$.$.$.$.$.$.$.$.$.$.$.$.$.$.+.) @ j.b.n.U.+XXXb.}.J.n.z.k.l.n.A.R.sXs.b.l.l.l.b.b.",
"A.n.b.l.k.k.b.M.].oXb.l.l.b.v.&XC.z.l.k.k.k.l.  ` +.2.1.$.$.$.$.$.$.$.$.$.$.$.$.$.$.$.$.$.+./   M.Q.].M.b.l.b.%X>XU.n.M.n.,XXXn.l.k.k.k.k.k.k.",
"M.A.l.k.k.l.k.l.b.b.k.k.k.k.l.b.n.S.A.M.b.l.7.P $.>.<.$.$.$.$.$.$.$.$.$.$.$.$.$.$.$.$.$.$.$.) K # b.b.l.k.k.k.n.m.^.<X#X).n.M.T.n.l.l.k.k.k.k.",
"k.b.M.M.l.l.k.k.l.l.b.b.l.k.k.l.l.b.n.b.b.b.8 ` $.&.$.$.$.$.$.$.$.$.$.$.$.$.$.$.$.$.$.$.$.$.` E + l.k.k.k.l.l.k.l.n.M.n.b.l.k.b.J.).n.k.k.k.z.",
"k.k.k.l.M.A.A.b.M.E.XX(.W.S.l.l.Q.).T.E.A.c.  O.$.$.$.$.$.$.$.$.$.$.$.$.$.$.$.$.$.$.$.$.$.+.` ( X b.n.Z.l.k.l.b.b.l.l.l.l.l.l.h.b.b.T.A.n.l.z.",
"A.j.l.k.l.b.P.3XXXN.z.l.k.z.n.b.l.l.b.b.b.  c O.                  $.$.$.$.$.                  ~ c   z.b.n.E.A.b.b.n.H.d.n.n.A.A.M.z.b.N.d.A.l.",
"l.l.S.T.{.#Xj.M.b.].~.n.b.l.k.k.l.b.A.#X/.      jXyXrX<                       jXyX9                 (.V.M.l.l.n.Y.>Xj.v.OXS.b.l.l.b.).].j.].!.",
"k.b.b.].%XM.n.k.z.n.Z.*X[.a.b.n.M.%X#XA.n.      tXrXX               f f f     tX9                   M.`.XXV.M.6XuXM.M.b.A.<X%Xn.A.oXh.m.b.n.c.",
"b.!.(.b.z.l.k.k.k.k.h.b.b.C.$XqX>XM.b.l.l.  ] g                     O.$.+.&                   A R   l.b.b.W.2XP.c.l.k.k.l.b.v.).V.b.l.l.k.k.l.",
"A.b.n.l.k.k.k.l.n.A.T.A.b.l.c.c.b.l.k.k.k.  ) ~                   M #.#.#.J                   Y Y   l.k.l.l.b.z.b.n.n.k.k.l.k.b.A.A.b.k.k.l.k.",
"l.k.k.z.b.k.k.k.k.k.l.A.A.M.b.l.l.n.M.b.l.  / $.^               P   Z Z V   J               H ) P   k.k.k.l.l.b.n.l.k.l.b.l.k.k.l.b.n.M.l.l.k.",
"b.k.k.k.b.A.M.l.l.b.A.$X-X>X!.z.l.k.l.z.n.b.  +.#..           M X l X.C B p . m             ) /   b.b.l.k.l.u.fX-XA.b.k.b.n.z.z.E.pX-Xm.z.k.k.",
"z.M.p.z.b.l.l.b.M.].[.b.n.b.).oXn.l.b.W.Q.n.  ~ $._ d a 5   5   z Q X.C C B t X 3   4 a d ' ` I   n.n.T.A.oX8Xn.A.7X$Xb.b.k.b./.wXV.A.&XW.m.l.",
"M./.b._.).b.A.].XXb.b.l.k.k.n.A.].(.Q.b.l.l.z.2 O.$.#.-.  j l V ..| N B B B C x j p   ! +.+./ h c.c.b.T.R.b.n.l.k.b.M.#X Xf.>XpXb.l.l.b.A.XX(.",
"b.b.b.n.v.<X[.M.b.z.l.k.k.k.k.l.b.b.b.b.l.l.k.X T ` $.! V C ..C l   X X X   z C C B x * $./ Y O c.l.l.b.c.b.k.k.k.k.l.n.n.I.V.M.l.k.k.k.z.b.b.",
"l.k.k.k.k.b.n.!.W.j.l.l.k.k.k.k.b.z.l.$ o   z.u.  ^ O.G j B N k   e e e w w   k x z u * ` E   I.l.  o o b.z.b.l.l.l.b.M.n.n.b.b.b.z.k.k.k.k.l.",
"n.A.S.h.l.l.l.l.b.E.XXE.A.l.b.z.l.l.7 ;.&.2     ` & ( ` 5     1 y i i r r r r &     3 ) E % E . O o =._ 6 l.l.b.Q.(.Q.b.l.l.l.l.z.b.n.b.l.k.l.",
"k.k.k.h.n.l.b.n.b.l.l.k.l.b.n.b.b.b.  >.&.^   / #.@.[ b / I X % t N N N N x t % X I ~ m R ) +.) X I >.$.  b.b.n.l.l.b.v.T.M.b.n.k.k.k.l.b.b.!.",
"k.k.k.k.l.n.M.<XW.M.z.k.k.k.n.M.A.  ) ,.$.$.b $.$.$.+.( m E Y J           .   m Y Y v T ` $.$.$.b #.>.$./   A.z.l.b.n.A.#XL.;XE.n.z.b.T./.a.b.",
"b.l.l.b.A.].).M.B.@XM.m.l.M._.,XD.X $.:.$.$.+.$.$.$.$.$.O.) T E U J J J J J J E T / ` $.$.$.$.$.O.$.%.$.$.+ j.S.n.A.oX$Xn.n.n./.J.M.S.n.b.l.k.",
"E.).L.).).M.b.k.b.M.].iX%X[.Z.n.: P $.;.$.$.$.$.$.%.%.$.$.$.+.) ~ Y Y Y T E T ) +.$.$.$.$.$.$.$.$.$.$.$.$.H O n.XX#Xn.M.l.k.k.n.W.#XV.l.l.l.k.",
"l.b.b.b.n.l.k.k.l.b.l.b.m.S.n.b.: ` $.$.$.$.H $.%.;.2.<.$.$.$.$.+.O.O.O.O.` +.$.$.$.$.$.$.$.$.$._ $.$.$.$.)   l.b.M.l.l.k.k.k.l.l.n.T.-X@XA.n.",
"l.l.l.k.l.l.c.E.A.l.k.k.k.l.n.n.> ~ $.$.$.+.v $.$.2.2.<.$.$.$.$.$.$.$.$.$.$.$.$.$.$.$.$.$.$.$.$.m $.$.$.$.E   v.l.l.n.A.n.z.k.l.n.(.|.M.m.#XXX",
"n.T.T.k.l.n.l.l.z.n.n.b.z.k.s.qX, P #.$.$.^ b $.$.2.2.+.$.$.$.$.$.$.$.$.$.$.$.$.$.$.$.$.$.$.$.$.b / $.$.` P O XX0Xl.l.l.l.b.n.].3XB.b.k.l.b.m.",
"k.l.M.Y.).0Xn.l.M.M.l.b.l.b.5XE.: J ) $.$.v ` $.$.2.:.$.$.$.$.$.$.$.$.$.$.$.$.$.$.$.$.$.$.$.$.$.` b +.` / n O b.T.$XM.l.l.z.W.).n.z.l.k.l.l.b.",
"l.l.m.3X[.A.-XM.z.l.l.l.z.#XT.z.j.X W ) ` n $.$.$.$.$.$.$.$.$.$.$.$.$.$.$.$.$.$.$.$.$.$.$.$.$.$.+.M ) ) P   x.l.z.A.;Xv.n.E.n.z.l.b.b.l.l.k.k.",
"v.#XoXb.b.b.b.8X@XS.b.n.,X<Xl.l.,XG.  / R H +.$.$.$.$.$.$.$.$.$.$.$.$.$.$.$.$.$.$.$.$.$.$.$.$.$.O.^ K E X b.p.G.l.k.n.0XoXz.b.l.A.Q.s.(.B.b.k.",
"A.b.b.b.k.k.l.b.b.n.k.@X).n.k.#XP.k.S.. b ) ` $.$.$.$.$.$.$.$.$.$.$.$.$.$.$.$.$.$.$.$.$.$.$.$.` ` ) M o F.(.l.&Xg.k.k.A.#Xl.b.S.l.l.l.l.M.W.b.",
"k.l.k.l.l.l.b.b.b.l.k.oX<Xl.l.sXi.A.t.  T T ` ) $.$.$.$.$.$.$.$.$.$.$.$.$.$.$.$.$.$.$.$.$.$.` ` ) ~ P   e.].oX!.J.k.b.>XE.k.b.z.k.k.k.k.l.b.T.",
"k.k.k.k.b.n.B.&XL.m.k.b.wX#Xk.).4Xg.t.= { T ) ` ` @.$.$.$.$.$.$.$.$.$.$.$.$.$.$.$.$.$.$.%.` ) ) ) Y { = e.g.3XQ.z.b.$X7Xb.k.k.b.b.n.n.b.n.z.l.",
"E.M.b.b.T.(.c.b.c.).z.l.c.*XS.l.).3Xl.t.5.@ T Y ` ` ` O.$.$.$.$.$.$.$.$.$.$.$.$.$.$.$.` ` ) ) Y E s 5.e.l.4X].k.l.).;Xb.l.l.l.l.M.6X=X[.#Xn.b.",
"Y.&X].(.!.b.l.k.z.b.E.n.k.(.2Xn.k.(.2XE.t.5.b Y T ) ` ` ` ` @.$.$.$.$.$.$.$.$.$.+.` ) ) ) / Y E b 3.t.b.>XoXl.l.Y.>X).b.K.E.n.M.(.G.M.b.M.#X/.",
"b.n.c.S.T.k.k.k.k.k.l.b.b.b.#X,Xl.l.Q.<XoXy.5.4.T Y E ) ` ) ) ) ) ) ) ) ) ` ) ) ) ` ` / E P I 4.6.t.E.<X+Xl.l.n.qX).z.l.n.C.&XqX(.n.l.k.b.b.M.",
"k.k.z.b.M.A.n.z.b.n.z.k.k.l.b.7X2Xb.k.A.>X2XI.y.q.q q T T E ) ) ) ) ) ) ) ` ) ) ( T T P 0 D q.0.w.}.3X Xz.l.R.aXP.b.k.k.l.M.n.Y.S.b.k.k.k.k.l.",
"k.k.k.l.M.S.M.M.Y.2Xf.n.b.k.l.b.%X1X!.k.l.l._.3X+Xy.0.6.6.S T E E T T T E T T T T 3.3.9.0.g.XX<X>XJ.b.l.l.M.$Xn.l.k.l.b.n.l.k.l.b.A.M.k.k.k.k.",
"k.k.l.l.k.l.n.oX~.n.A.oXE.n.n.k.l.M.<X,XR.h.k.b.,X2X[.x.y.9.9.r.9.9.9.9.9.9.9.9.9.e.t.g.}.3X2XA.l.k.k.l.Q.,XM.n.n.b.b.l.k.k.k.k.k.k.l.n.z.l.b.",
"b.l.l.k.l.M.].A.b.b.b.b.M.|.(.z.l.l.z.n.b.b.l.k.k.n.oXpX4XuXiX:X^.l.y.y.y.y.S.}.4XuXiXpX^.b.k.k.k.b.>XpX}.n.k.l.E.].$Xb.l.l.k.k.k.k.l.b.m.n.b.",
").].b.b.V.'.M.b.k.k.l.z.b.b.v.W.M.l.l.l.A.].>Xb.l.k.k.h.w.h.z.b.b.b.b.z.k.b.c.n.j.n.l.l.l.k.l.R.>X,X(.n.b.l.l.M.b.M.M.@X].b.z.l.k.n.:X-XqX|.n.",
"b.M.%X@XOXb.b.k.k.l.k.b.l.k.l.l.b.n.l.k.k.b.A.wX<XaXl.l.l.k.l.n.A.OXu.u.z.l.z.l.l.c.b.oXA.Q.%XQ.b.l.z.k.l.n.M.l.k.l.l.b.n.&X).b.oX2XS.n.n.n.`.",
"k.l.l.l.b.n.S.T.R.~.b.k.k.k.b.M.eXiXT.n.l.k.l.l.b.K.fXfXXXQ.M.n.z.E.0XgXhXgXOXT.A.A.A.l.b.b.A.@X#XM.b.l.l.l.k.k.k.k.k.l.z.n.n.&X!.b.l.l.l.l.l.",
"k.k.z.b.k.k.l.k.l.l.b.l.l.n.R.sXd.n._.,XA.b.l.l.k.l.l.l.l.b.b.b.k.n.n.z.l.l.b.l.l.k.k.b.T.(.S.b.b.].(.n.z.l.b.S.T.A.b.b.l.k.k.k.l.b.l.k.k.k.l.",
"k.k.k.k.n.n.b.l.k.k.k.l.n.V.&XM.b.l.b.n.#XL.b.l.k.k.l.z.A.&X:XA.n.k.l.l.k.k.k.z.n.M.M.M.b.l.k.k.k.b.A.).M.n.v.dX>X).n.z.k.k.k.k.l.k.l.n.b.l.k.",
"k.k.l.b.A.,X,Xn.b.l.A.W.).(.b.z.k.k.k.l.b.Q.].!.M.b.b.C..Xn.b.#X).b.l.k.k.l.b.A.,X<X&Xb.l.k.k.k.k.k.z.b.A.Q.$Xs.n.(.#Xm.b.k.b.A.M.k.l.n.E.R.n.",
"l.b.c.R.R.c.S.#XA.M.M.l.l.b.l.l.k.k.k.k.k.l.b.b.E.S.E.7Xh.l.b.b.b.#Xn.M.b.M.&X&Xm.n.m.pXA.b.l.k.k.k.b.M.A.,Xb.l.k.b.n.&X[.b.b.l.k.b.n.[.b.b.).",
"b.Q.W.b.l.k.b.b.].oXc.z.l.b.A.n.b.z.l.k.k.k.l.n.m.#X$XM.k.k.k.k.k.n.(.XXoXoXb.n.k.k.l.n.,XoXn.z.b.n.A.OX*Xn.k.k.k.k.l.b.M.oXQ.b.M.oXv.n.k.k.b.",
"W.b.b.k.k.k.k.l.n.n.XX).S.b.k.k.k.k.k.k.l.n.(.).).M.b.b.b.k.l.k.k.l.n.M.A.n.b.k.k.l.k.l.b.A.+XXX#X$X+Xn.b.l.b.l.l.k.k.k.l.n.A.(.(.V.l.k.k.k.k.",
"l.l.k.k.k.k.k.k.k.k.b.l.n.A.A.b.b.b.l.b.T.W.n.b.b.z.k.k.n.b.k.k.k.l.E.(.T.S.l.k.l.l.k.k.l.l.b.A.M.Y.m.l.l.k.l.n.b.l.l.b.~.W.M.b.z.l.l.k.k.k.k.",
"k.k.k.k.b.(.D.l.l.l.l.k.k.l.M.).,X@Xn.A.b.z.k.k.k.k.z.V./.(.W.b.c.b.l.k.k.l.A.A.l.l.l.k.l.A.S.b.l.b.n.T.A.l.k.k.l.n.S.M.b.l.l.k.k.k.k.l.E.Z.k.",
"n.z.b.Q.Q.b.M.W.A.b.l.z.b.Q.(.v.b.n.v.XXn.z.k.k.k.b.n.l.l.l.b.Q.W.b.b.l.k.k.n.Y.#X[.).T.b.k.k.l.k.k.k.z.l.A.A.M.z.l.l.b.A.<X,Xb.l.n.M.S.l.l.M.",
"b.E.Q.b.l.l.l.b.Z.W.S.E.Q.A.b.k.l.l.b.b._.(.M.b.b.l.l.k.k.k.l.b.n.E.A.b.b.n.oX#Xb.n.b.~.!.b.l.k.k.k.k.k.k.l.b.l.l.l.n.!.].b.b.XXM.z.l.k.k.k.l.",
"l.l.l.k.k.k.k.k.k.l.b.b.n.l.k.k.l.k.k.k.l.b.T.E.E.T.A.l.k.k.k.k.k.l.b.S.E.).b.b.l.l.k.k.b.T.~.M.l.k.k.k.b.T.(.T.b.A.E.b.b.l.k.l.Y.E.l.k.k.k.k.",
"k.k.k.k.k.k.k.k.k.k.k.l.k.z.b.k.k.k.k.k.k.l.z.l.k.k.l.b.b.l.l.k.k.k.k.l.l.l.l.l.k.k.k.k.l.l.k.b.M.b.l.b.A.b.l.l.A.b.b.l.k.k.k.k.l.z.M.M.b.l.l."
};
