/* XPM */
static const char *duck_100[] = {
/* columns rows colors chars-per-pixel */
"100 100 246 2 ",
"   c #010101",
".  c #0B0201",
"X  c #0C0A03",
"o  c #02030A",
"O  c #020B0D",
"+  c #080908",
"@  c #130200",
"#  c #1D0100",
"$  c #170B02",
"%  c #000613",
"&  c #01091A",
"*  c #1A140A",
"=  c #2D0400",
"-  c #240700",
";  c #310700",
":  c #311200",
">  c #00112D",
",  c #2F2F2E",
"<  c #002435",
"1  c #513102",
"2  c #6D3B01",
"3  c #703700",
"4  c #441600",
"5  c #764200",
"6  c #7A6411",
"7  c #003D66",
"8  c #002A46",
"9  c #004668",
"0  c #4B706F",
"q  c #727271",
"w  c #525051",
"e  c #A91301",
"r  c #B71702",
"t  c #BF3B14",
"y  c #C21D01",
"u  c #C72704",
"i  c #DB2B01",
"p  c #D62A00",
"a  c #DA3302",
"s  c #E32D02",
"d  c #E63903",
"f  c #846100",
"g  c #B86802",
"h  c #AB6B17",
"j  c #935D18",
"k  c #ED4503",
"l  c #F74902",
"z  c #FA5903",
"x  c #C46D02",
"c  c #C47301",
"v  c #C97501",
"b  c #CC7A01",
"n  c #C77509",
"m  c #D47C02",
"M  c #D77803",
"N  c #C26313",
"B  c #CA7A17",
"V  c #FC6301",
"C  c #FC6C01",
"Z  c #F76200",
"A  c #FD7201",
"S  c #F97A05",
"D  c #EE7202",
"F  c #C5560F",
"G  c #B58910",
"H  c #DD8501",
"J  c #D88803",
"K  c #D18C12",
"L  c #E38400",
"P  c #E48C01",
"I  c #E68906",
"U  c #E69201",
"Y  c #EC9501",
"T  c #ED9A01",
"R  c #EA9909",
"E  c #F19604",
"W  c #F29B02",
"Q  c #F49A09",
"!  c #EF9414",
"~  c #EBA600",
"^  c #F4A402",
"/  c #FBA402",
"(  c #F5AA02",
")  c #FBAB02",
"_  c #F8A70A",
"`  c #FDB402",
"'  c #FDBA02",
"]  c #F9B605",
"[  c #F3AF14",
"{  c #CA8E23",
"}  c #F49D26",
"|  c #D8A72D",
" . c #F7A82A",
".. c #FDAA33",
"X. c #F5B428",
"o. c #EDC903",
"O. c #FDC502",
"+. c #F5CE00",
"@. c #FDCD03",
"#. c #FECD0A",
"$. c #F5C606",
"%. c #FED303",
"&. c #FED20A",
"*. c #FEDC0A",
"=. c #FDDC03",
"-. c #FAC618",
";. c #FBD416",
":. c #FEE10A",
">. c #FFE90C",
",. c #FFE110",
"<. c #FDDA23",
"1. c #FEDC2A",
"2. c #FDDD37",
"3. c #ECD135",
"4. c #FFE239",
"5. c #FEE133",
"6. c #FEE748",
"7. c #FDED5D",
"8. c #FFE652",
"9. c #FEEC62",
"0. c #FEEB68",
"q. c #FCF064",
"w. c #1674BA",
"e. c #0174DC",
"r. c #0179D5",
"t. c #066ED1",
"y. c #017BE4",
"u. c #017EEA",
"i. c #2393BB",
"p. c #219EC8",
"a. c #1CAAD9",
"s. c #0083EC",
"d. c #018BEE",
"f. c #0384E9",
"g. c #0897EA",
"h. c #018DF2",
"j. c #0194F4",
"k. c #019AF5",
"l. c #019CFA",
"z. c #0596F4",
"x. c #1792F9",
"c. c #08ABEB",
"v. c #17ABE9",
"b. c #0BB1EE",
"n. c #1AB2EB",
"m. c #15B3EC",
"M. c #02A5F5",
"N. c #03ACF5",
"B. c #0BACF3",
"V. c #01A7FC",
"C. c #02ABFC",
"Z. c #0BADFC",
"A. c #0CA4F7",
"S. c #13ADF2",
"D. c #10A7F8",
"F. c #05B2F5",
"G. c #0DB4F5",
"H. c #05B2FD",
"J. c #0AB5FD",
"K. c #05B9FE",
"L. c #0CB9FE",
"P. c #0DB9F5",
"I. c #13B5F4",
"U. c #1AB4F3",
"Y. c #14BAF6",
"T. c #1BBAF5",
"R. c #12B6FC",
"E. c #13BCFD",
"W. c #1ABDFC",
"Q. c #19B7F9",
"!. c #25B8EE",
"~. c #35BDEC",
"^. c #23BDF5",
"/. c #23BEFB",
"(. c #27BAF5",
"). c #32B9F1",
"_. c #1C81D1",
"`. c #15C1FE",
"'. c #1CC2FE",
"]. c #1FC0F7",
"[. c #2BC3F6",
"{. c #24C3FD",
"}. c #2BC5FC",
"|. c #25C9FF",
" X c #2DCAFE",
".X c #24C1F6",
"XX c #34C4F5",
"oX c #3AC6F6",
"OX c #33C6FB",
"+X c #34CBFE",
"@X c #3BCCFD",
"#X c #3AC7F8",
"$X c #34D0FF",
"%X c #3CD1FF",
"&X c #3FC7ED",
"*X c #44CCF6",
"=X c #4BCCF5",
"-X c #43CDFC",
";X c #4BCEFC",
":X c #46C6F5",
">X c #53CEFA",
",X c #56CDF5",
"<X c #44D2FE",
"1X c #4BD3FE",
"2X c #4DD9FF",
"3X c #49D5FB",
"4X c #5CD2F6",
"5X c #54D4FD",
"6X c #5AD5FD",
"7X c #55DAFF",
"8X c #5CDAFE",
"9X c #54D3F6",
"0X c #50C5E9",
"qX c #63D2F5",
"wX c #63D5FC",
"eX c #6BD6FA",
"rX c #64DBFD",
"tX c #6BDAFD",
"yX c #69D6F4",
"uX c #73DCFD",
"iX c #7ADCFC",
"pX c #76D8F7",
"aX c #71D2EA",
"sX c #5CE2FF",
"dX c #64E1FF",
"fX c #6CE3FF",
"gX c #75E3FF",
"hX c #7CE3FF",
"jX c #7CEBFF",
"kX c #73EAFF",
"lX c #79F3FF",
"zX c #888686",
"xX c #9C9998",
"cX c #ACABAA",
"vX c #A4A09D",
"bX c #83DEFC",
"nX c #83DEF7",
"mX c #83E3FE",
"MX c #8CE4FD",
"NX c #84EAFF",
"BX c #85E7FA",
"VX c #94E8FE",
"CX c #89F2FF",
"ZX c #9AF2FF",
"AX c #CFCECE",
"SX c #EFEEED",
/* pixels */
"C.H.H.H.H.C.C.C.C.C.C.C.C.C.C.C.C.C.C.H.J.J.H.H.C.C.H.L.L.H.C.C.C.C.C.J.J.L.J.H.C.C.C.C.C.C.C.C.H.H.C.H.C.C.H.H.H.H.H.C.C.C.C.C.C.C.H.L.L.L.J.L.C.C.C.C.C.H.C.C.C.H.H.C.C.C.C.C.C.C.C.C.C.H.H.H.H.H.H.H.",
"C.H.H.H.H.F.H.H.C.C.C.C.C.L.L.C.C.C.H.E.1X-XF.H.C.C.H.H.C.C.C.C.C.H.H.G.uXqXY.J.H.C.C.C.C.C.C.H.J.E.J.H.H.H.H.'.Y.F.H.C.C.C.C.C.C.J.J.N.mXBXF.L.H.C.C.C.C.C.C.H.H.H.hXG.H.C.C.C.C.C.C.C.C.H.J.H.#X XH.H.",
"C.C.H.G. X-X8XOXH.C.C.C.C.H.J.L.L.H.'.}.L.H.5X8X{.L.C.C.C.C.C.H.H.c.-X1XH.H.*XOXH.C.C.C.C.C.C.J.W.W.{.{.H.$X+X#X*X6X7XH.C.C.C.C.L.E.gX5XJ.jXpXeXL.H.C.C.C.C.J.J.b.uXmXyXgXG.J.C.C.C.C.C.C.{.$XOX1X-XOX$X",
"C.L.Y.{.J.K.1XtXwXP.L.H.C.C.C.H.E.{.K.H.H.J.L.>XtX7XJ.J.H.J.L.E.%XOX+XL.J.J.L.W. X{.'.H.J.L.E.E.H.C.N.'.<X+XL.H.L.W.{.@XL.L.H.L.1X1XQ.L.L.L.<XOX6XQ.L.J.H.L.T.5X6XW.J.P.wX>X<XL.H.H.H.L.+X+X XL.H.J.J.'.",
"{.{.'.J.C.J.L.L. XtX7XOXE.P.'.{.E.H.C.C.C.C.H.H.L.E.*XrX9X7X}.{.J.H.H.C.C.C.C.H.L.E.P.@X}.P.J.H.C.H.H.H.L.H.C.C.C.H.J.L.1X1X7X-X.XL.H.H.C.H.L.J.L.rXtXtX6X1XOXE.L.L.C.H.J.P.].-X-X1X+X+XJ.H.C.C.V.C.C.H.",
"E.H.H.H.C.C.C.H.H.J.L.+X@X{.`.H.H.C.C.C.C.C.C.C.C.H.J.J.E.L.L.J.C.C.J.H.C.C.C.C.H.C.C.L.H.H.H.H.C.C.C.C.C.C.C.C.C.C.C.H.L.}.+XW.L.C.C.C.C.C.C.C.H.J.W.E.^.E.L.H.H.C.C.C.C.H.H.J. X+X}.C.H.C.C.C.C.C.C.C.",
"C.C.C.C.C.C.C.C.C.C.C.C.C.C.C.C.C.C.H.H.L.L.H.C.C.C.C.C.C.C.C.H.E.Y.+X8X@XL.H.H.C.L.J.L.C.C.C.C.H.L.L.L.L.H.C.C.C.C.C.C.C.C.C.C.H.L.H.H.C.C.C.C.C.H.L.L.Q.H.C.C.C.H.L.C.C.C.C.H.L.L.L.J.C.C.C.C.H.H.H.C.",
"V.C.C.C.C.C.C.C.C.H.E.L.C.C.C.C.C.C.J.P.b.I.L.C.C.C.C.C.C.C.H.H.fX6XdX7XNX1XL.H.C.H.H.R.L.H.C.H.J.E.G.n.I.E.L.C.C.C.C.C.C.C.C.C.H.L.L.L.H.C.C.C.C.C.L.L.W.W.L.L.H.L.E.L.H.C.C.C.C.C.C.H.H.C.C.H.H.L.H.H.",
"C.C.C.H.J.H.C.C.H.L.W.E.E.L.C.C.C.P.7XpXVXMXW.J.C.C.C.C.L.J.^.<Xm.W.L.L.P.@X-XQ.H.C.C.C.C.C.H.J.L.tXZXiXuXwXL.L.C.C.C.V.C.C.C.C.L.{.hXtXI.L.H.C.C.H.C.C.C.H.L.L.L.#XiX-XL.H.H.C.V.V.C.C.C.C.H.Y.8XhX6XI.",
"C.H.J.$XwXfXL.L.C.C.C.C.C.L.J.L.J.+XuXL.P.L.pX-XL.H.C.L.'.{. XL.L.L.C.C.H.H.L.#X@XG.J.C.C.L.E.'.uXW.G.L.E.>X7XI.L.H.C.C.C.J.L.E.tX6XQ.L.>X7XG.J.H.C.C.C.C.C.L.+X&X6XL.E.5XI.K.H.C.C.C.C.L.E.@X>XE.L.G.=X",
"H.|. X}.H.oXbX#XJ.H.C.H.H.L.W.rXtX6XL.J.L.J.L.eX>X+XK.E.P.L.H.C.C.C.C.V.C.C.C.H.G.[. XW.G.E.NXrXP.L.H.C.L.L.E.rX4XW.L.H.L.E.}.-XT.L.H.J.L.^.1X;XL.J.H.C.H.L.#X[.I.L.H.J.L.@X;X7XL.H.J.L.].;XXXL.H.C.C.H.",
"'.J.L.L.H.L.G.6XwXL.L.E.`.<X=XJ.L.L.H.C.C.C.H.L.Q.[.1X@XJ.L.H.C.C.C.C.C.C.C.C.C.H.L.H.'.tXuXc.L.H.C.C.C.C.C.J.L.L.7X7X5X1X#X<XJ.L.H.C.C.C.J.L.L.5X<XL.H.'.+XL.L.H.C.C.C.C.L.L.W.1X5X1X-X/.E.H.C.C.C.C.C.",
"C.N.H.C.C.C.J.G.@X8XtXjX6X7XL.J.H.C.C.C.C.C.V.C.J.H.K.OXOXOX{.'.J.H.C.C.C.H.H.L.'.%X7X2XJ.L.H.C.C.C.C.C.C.C.C.C.H.L.L.L.`.'.'.L.H.C.C.C.C.C.C.H.H.}.-X1X$XJ.C.C.C.C.C.C.H.H.H.H.H.J.L.H.H.L.L.L.H.C.C.C.",
"C.C.C.C.C.C.C.H.L.W.oX-X{.{.E.H.C.C.C.C.C.C.V.C.C.C.C.H.J.F.C.E.E.L.H.C.C.C.H.L.P.J.H.L.L.L.L.C.C.C.C.C.C.C.C.H.H.L.L.C.L.H.J.'.W.H.C.C.C.C.C.C.C.L.J.L.'.E.J.C.C.L.E.H.C.C.C.C.C.H.H.H.C.H.L.L.L.L.C.C.",
"C.C.C.C.C.C.C.C.H.H.H.L.J.'.'.L.H.C.C.C.C.C.C.C.V.V.C.C.C.C.C.H.J.L.L.C.C.C.C.C.H.H.H.C.L.L.L.L.C.H.C.C.C.H.C.L.H.C.C.C.C.C.C.C.'.E.L.H.C.C.C.C.C.C.C.H.H.E.E.E.E.E.L.L.C.C.C.C.C.C.H.H.H.H.H.C.C.C.C.H.",
"C.C.C.C.H.L.L.C.C.C.H.H.J.H.H.L.{.{.'.J.H.H.C.C.C.C.C.C.H.H.E.OXwXtX~.L.H.H.C.C.C.C.C.C.C.H.L.L.E.&     H.H.H.C.C.C.C.C.C.C.C.C.H.J.`.E.L.J.H.C.C.C.C.C.C.C.C.C.C.C.C.C.C.H.H.H.J.W.Q.rX<X^.Y.C.H.H.H.K.",
"C.C.C.C.C.H.H.H.L.'.5XgX5XP.L.H.H.C.C.L.L.H.H.H.H.H.C.J.E.'.8X(.L.L.{.5XsXL.L.H.H.C.C.L.L.H.C.H.  3.$.%.  E.W.'.J.C.C.C.C.C.H.J.E. X8X5XrX8XT.E.L.H.C.C.C.C.C.H.H.L.H.H.C.C.C.L.-XrX1XL.H.+X+X+XE.}.#X X",
"H.H.C.C.C.C.H.L.;X;XJ.K.b.1X;X'.L.L.H.C.C.C.C.C.C.H.L.E.,XeXE.H.C.C.J.H.U.8X=X}.J.E./.W.H.J.L.o [ 6.6.'   K.N.E.W.E.J.J.L.L.J.Q.<XG.N.J.H.H.8X4X5XW.P.L.L.H.E.'.^.pXuXL.L.E.W.-XB.F.H.C.C.C.H.J.%X{.J.H.",
"#XU.B.C.C.H.m.1X2XE.L.L.L.G.2X7X4XG.L.C.C.C.C.C.H.H.I.rXsX8XT.G.N.C.H.L.J.L.@X7X-X@X XJ.a.    o o.4.6.'       p.`.W.W.{.Y.W.5X>X1XL.L.H.H.L.E.E.lXuX<X-XJ.H.n.jXpXjXjXtXN.`.E.H.L.H.H.C.C.C.C.H.H.L.L.H.",
"H.}.}.Y.H.-X;X+XJ.H.C.C.C.H.L.K.OXyXgXL.J.H.H.J.+XOX1XE.J.L.L.{.Q.W.L.C.C.H.J.L.L.E.H.H.  ] O.I <.;.,.W c O.@.  H.F.H.`.}.{.{.L.L.C.C.C.C.C.H.H.L.L.7X4XuXuXrX).L.L.K.K.*XR.J.H.C.C.C.C.V.C.V.V.C.C.C.H.",
"H.L.P.$X<X`.J.H.C.V.C.C.C.C.C.C.J.L.`.tXrX7X@X1XXX XL.J.C.C.C.C.C.C.J.J.L.C.C.C.C.        <.%.%.&.+.#.c @.<./         > H.J.H.H.C.C.C.C.C.C.C.C.H.P.-X#X5XL.E.L.H.C.C.J.L.$X<X{.L.H.H.C.V.V.V.C.C.C.C.C.",
"C.C.C.H.J.J.H.H.H.C.C.C.C.C.C.C.C.C.L.E.rXgX8XE.H.J.C.C.C.C.C.H.H.C.C.H.H.C.M.    R ` +.@.%.%.%.%.] ( %.+.( v ] ` ] ^   o N.C.H.C.C.C.C.C.C.H.H.E.<X-X2XL.H.C.C.C.V.C.V.C.H.J. X X+X{.H.C.C.C.C.C.C.C.C.",
"H.C.C.C.C.C.C.C.C.C.H.H.H.}.[.{.L.H.H.L.J.J.H.H.C.C.C.C.H.H.'.}.W.E.L.H.C.B.  ) +.%.@.%.%.%.%.%.%.%.%.%.` m @.%.%.%.%.` L X % H.H.L.L.L.H.E.+XXX-XH.L.H.C.L.H.C.C.C.C.C.C.C.C.C.C.H.J.{.W.E.L.H.H.H.C.C.",
"H.H.H.C.C.C.C.C.C.C.L.W./.{.{.{.{.[.'.H.C.C.C.C.C.C.C.L.L.L.E.C.L.L.L.H.G.9 f ' %.%.%.%.%.%.%.%.%.%.%.%.~ ~ %.%.%.%.%.O.( G 6 & H.H.L.L.{.{.{.W.H.H.C.C.C.H.L.H.C.J.Q.L.C.C.C.C.C.C.C.C.L.L.L.L.J.L.H.C.",
"C.L.L.H.C.L.N.K.H.C.L.L.C.C.C.C.C.H.L.L.C.C.C.C.C.H.J.b.m.L.C.C.C.C.H.Z.i.. ( %.%.%.%.%.%.%.%.%.%.%.%.%.%.%.%.%.%.%.%.%.' T J 1 9 C.L.L.L.H.H.C.C.C.C.C.C.C.C.E.'.{.-X{.W.C.C.C.C.C.C.C.H.E.n.8XhXdXL.H.",
"C.C.H.H.L.5XbX*XL.H.C.C.C.C.C.C.C.J.H.C.C.C.C.H.E.E.7XtX:X>XH.C.C.C.M.o @ ( %.7.9.;.&.%.%.%.%.%.%.%.%.%.%.%.%.%.%.%.%.%.%.' ' X.. > C.C.C.C.C.C.C.H.H.L.H.C.L.L.E.C.C.C.E.E.E.J.C.C.C.L.7XmXwXE.W.hXuXP.",
"H.H.H.{.=XL.J.-XwXY.J.H.C.H.J.L.-XwX-XL.J.H.L.-XtX6XL.J.J.{.@X XJ.F.o [ $.$.6.0.9.&.%.%.%.%.%.%.%.%.%.%.%.%.%.%.%.%.%.%.%.%.%.] ) $ & H.H.C.J.H.L.<XwXrXE.L.C.C.C.C.C.C.C.C.H.L.E.L.L.-X^.N.L.H.H.J.H.5X",
"H.+X@X1XH.H.C.J.H.<X*X XL.E.OX1X;XL.1X5XdX'.W.`.L.H.H.C.C.H.H.{.'.c.o %.%.;.0.9.%.%.%.%.%.%.%.%.%.%.%.%.%.%.%.%.%.%.%.%.%.%.%.@.` # % C.H.L.E.`.<X$XL.H.1XwXL.L.H.C.C.C.H.L.P.{.wXmX5XL.H.C.C.C.C.C.H.J.",
"+X XQ.L.H.C.C.C.C.L.[.<X<X5X%XB.H.L.H.B.#X5X@XL.H.C.C.C.C.C.C.H.H.  R @.1.6.q.2.%.%.%.%.%.%.%.%.%.%.%.%.%.%.%.%.%.%.%.%.%.%.%.%.O.Q $ 7 L.{.*X*XS.L.H.J.L.@X6X7X$XL.H.L.L.E.P.jXXXQ.H.L.C.C.C.C.V.C.C.C.",
"K.J.J.H.C.C.V.V.C.H.L.J.J.L.L.H.C.C.C.L.L.L.<X+XQ.R.C.C.C.C.C.H.M.O ' %.2.q.q.%.%.%.%.%.%.%.%.%.%.%.%.%.%.%.%.%.%.%.%.%.%.%.%.%.O.( - 7 H.|.Y.L.L.C.C.C.H.L.L.dXaXuXJ.P.wXrXwX*XG.J.H.C.C.C.V.V.V.V.C.C.",
"L.E.E.C.C.C.C.V.V.C.C.C.H.H.C.C.C.V.C.C.C.H.H.L.`.E.E.L.H.C.C.F.  Y %.%.8.7.%.%.%.%.%.%.%.%.%.%.%.%.%.%.%.%.%.%.%.%.%.%.%.%.%.%.%.` H + a.H.C.H.C.C.C.C.C.C.L.L.L.W.tX5XE.P.L.J.W.+X}.H.C.C.V.V.V.C.C.V.",
"C.C.H.L.L.C.C.C.C.C.C.C.C.C.C.H.H.C.C.C.C.C.C.C.C.H.L.J.H.H.H.c.  ' %.&.*.%.%.%.%.%.%.%.%.%.%.%.%.%.%.%.%.%.%.%.%.%.%.%.%.%.%.%.%.' ^ X p.C.C.C.C.C.C.V.V.C.C.C.C.J.L.L.H.C.C.C.C.L.J.+X+XE.H.C.C.C.C.H.",
"C.C.C.C.H.L.E.E.J.L.H.C.C.J.L.@X X{.L.C.C.C.H.H.+X+X+X'.H.H.C.  H O.%.%.%.%.%.%.%.%.%.%.%.%.%.%.%.%.%.%.%.%.%.%.%.%.%.%.%.%.%.%.O.' ) m   J.L.L.C.C.C.V.V.C.H.H.H.C.C.C.C.C.C.C.C.C.C.H.{.}.{.L.C.C.C.H.",
"C.C.C.C.C.C.C.C.L.{.rX7XW.].{.M.C.C.E.L.H.H.E.{.N.C.C.H.'.'.H.  ] @.*.:.:.*.:.:.=.:.:.:.:.%.=.%.%.%.%.%.%.%.%.>.:.:.:.:.:.:.:.*.*.$.[ T   Z.H.C.L.E.E.Q.W.L.E.H.C.H.J.L.H.C.C.H.W.W.L.C.C.C.H.H.L.L.L.H.",
"E.R.B.C.C.C.H.H.}.gXBXhX2XF.H.H.C.C.C.L.L.L.H.C.C.C.C.H.L.H.  x ( $                         ;.%.%.%.%.%.%.+.                        + Y x   C.H.H.H.{.{.W.L.C.C.C.J.~.v.J.H.L.E.W.E.E.J.C.C.H.B.n.U.L.C.",
"H.W.W.'.H.J.E.7XwXL.L.{.}.1X/.H.C.C.C.C.C.C.C.V.C.C.H.G.+XOX        SXAXAXq ,                 + + + X + + o   SXzXcXw                 o     {..XH.H.C.C.C.C.C.L.J.fXiXtXrXI.L.C.C.C.C.H.H.G.{.-X6XrX2XJ.",
"C.C.C.C.E.7X8XXXL.H.C.H.H.R.@XOXG.L.H.C.C.C.C.C.L.L.^.5X^.E.        SXAXAXzX,                                 SXxXq ,                       .X{.<XL.H.H.C.H.E.<X~.rXJ.L.2XtX1XJ.H.C.C.H.W.@X+XE.H.W.{.@X",
"C.H.H.J. XG.L.L.H.C.C.C.C.H.H. X1X-X@XH.J.H.L.E.7X=X2XL.L.C.  2 2   zXvXq                       M H H H       zX* +                   : 2   H.J.G.<X1X$XL.`.4XfX8XL.L.C.J.G.I.1X XL.L.[.+X}.J.H.C.C.H.H.",
"C.L.b.@XW.L.H.H.C.V.V.V.V.C.H.L.L.W.1X;XXXm.XX5X7X<XL.H.C.C.  L K X xXcX,                     1 ( ' ' ] 5     vX                      2 M   C.H.L.E.4XyXrX8X8X{.E.H.C.C.H.H.J.L.*X1XOX+XL.H.C.C.C.C.C.H.",
"E. X}.H.H.C.C.C.V.V.V.V.C.C.C.C.C.H.L.`.1X1X;X`.J.J.C.C.C.C.  ` %.X.                        M ` %.%.%.%.) M                         j W Y o V.C.C.J.L.J.E.L.L.C.C.C.V.C.C.Z.C.H.L.|.{.E.C.C.C.C.C.C.C.C.",
"L.H.H.H.H.V.V.V.V.V.C.H.H.W.'.W.L.H.C.C.H.H.J.H.C.C.C.C.C.M.  ` +.,.                        E -.. . . . -./                         | ) U   M.C.C.C.C.H.H.H.C.H.H.L.H.C.C.C.C.C.C.H.H.L.P.J.C.C.C.C.C.C.",
"C.C.C.C.C.H.C.C.C.C.C.C.C.C.C.H.P.E.E.H.H.C.C.H.L.L.L.H.C.V.  ) +.=.|                     K # : N N N F # - {                     { [ ` P + M.Z.C.C.V.C.C.L.L.L.L.C.C.C.H.C.C.C.C.V.C.C.H.L.L.L.C.C.C.C.",
"C.C.C.C.C.C.P.E.L.J.C.C.C.C.L.E.7X8XuXW.L.L.C.C.C.C.C.C.H.L.C.  &.#.] .                 . P @ @ A A C z @ . E                   @ W ` )   N.H.H.C.C.C.C.L.{.hXrX+XL.H.C.H.H.L.H.C.C.H.E.uXmX{.L.C.C.C.C.",
"L.J.H.C.C.H.H.H.H.L.H.H.H.L.@XtXgXJ.E.qXhX{.J.C.C.C.C.J. X}.#X  ) %.%.%._             K I   k z ..D S A k i   I !             I ` ` ` Y   J.W.E.W.H.L.P.6XrXK.}.:X5XE.J.C.C.C.H.L.W.'.BXNXhXgX6XL.K.C.C.",
"C.L.^.jX{.H.C.C.C.C.L.Y.Y.1XdXL.L.L.L.H.#X1XT.J.H.H.E.{.B.I.C.  H ] %.%.@.-.R I m     . # l ......D S A C d d - .     M I R _ ] @.` T L   Z.H.C.L.E.1X;X7XJ.J.L.L.I.5XE.L.C.C.H.E.lXhXS.L.L.L.@X2X+XL.C.",
"J. XXXdX<X<XL.H.J.P.<X7X<XE.L.H.C.V.C.H.L.K.@X-X#XOX{.H.C.C.C.C.o ^ @.%.%.O.` L   k k l z ....} C A A A A A A d d d d   Y ] ' O.%.` P   C.C.J.J.'.OX<X$XL.L.C.C.H.H.K.6XqXI.L.(.eX-XL.J.C.C.C.H.W.1X<X X",
"`.H.H.H.J..X1XuXeX7XY.W.B.H.C.C.C.V.V.C.C.C.H.K.'.W.H.L.C.C.C.C.o K ` %.%.%.%.  V A A }  .S V z z z z z z z C A C C V l   o.%.%.@.T ! o C.H.H.C.L.L.H.H.C.C.C.C.C.C.H.J.L.uXiX6XL.L.H.C.C.C.C.C.H.H.N.E.",
"H.H.C.C.C.J.L.OX;X'.E.L.C.C.C.C.C.C.C.V.C.C.C.H.C.H.H.B.N.M.N.Z.% X Y ` @.%.@.  C A S } A l                 l A C C V k   o.@.&.) U @ O C.C.N.N.N.H.H.C.C.C.V.C.C.C.C.C.L.L.L.E.L.H.C.C.C.V.V.V.C.C.H.H.",
"C.C.C.C.C.C.C.C.H.L.}. X XH.C.C.C.C.C.C.C.C.C.L.H.H.C.O   +   H.N.o   ^ O.O.@.o d C Z C l   y r r r r e e e   k z l l u o o.O.` Q o + D.N.        H.C.C.C.H.C.C.C.C.H.L.L.H.L.H.C.C.H.H.C.C.C.C.C.C.C.C.",
"L.E.L.C.C.C.V.V.C.C.H.F.G.OX X{.E.C.C.C.C.C.H.C.C.C.+ 3.O.&.  A.O . X X Q ` +./   p a u   u d s s s i i p y y   t u y . _ ` ' / 1 +     M.  O.&.] o H.C.C.L.H.J.J.{.J.H.C.C.C.C.C.C.C.H.L.J.H.C.C.C.C.C.",
"C.L.L.W.W.J.H.H.C.C.C.C.C.C.H.W.W.'.E.H.H.H.C.C.H.o X.&.5.@.$   . $.' j 3 v / ` P     = a z i d d s s i i i z u #     P ) W Q g g / U @     ;.8.+./   C.C.H.W..X X+X}.{.J.H.H.H.C.C.J.C.C.C.C.C.C.C.H.H.",
"V.C.C.C.V.H.C.C.H.H.L.L.C.C.C.C.C.C.C.J.L.L.H.H.H.% 3.4.6.%.T   ` O.+.O.#.^ v b ) U [   . i V V V V V V z V u . . J P ) b x g ^ ` O.O.`   P 4.4.%.O.o H.H.J.C.C.C.C.C.J.'.T.I.L.L.H.C.C.C.C.C.C.H.J.G.}.",
"V.V.C.C.C.C.C.L.L.8XCXlXL.L.H.C.C.C.C.H.H.L.L.L.O { &.6.2.%.@.v @.%.%.%.#.#.[ I v W W P h = - ; = = = = ; ; = h P Y Y v P ^ _ ' @.%.&.O.v %.4.;.%.@.( o L.J.C.C.C.C.H.R.5XiXnXuXW.J.H.C.C.C.H.L.@X@X@XL.",
"V.C.C.V.C.C.H.E.9XrXMXNXrXE.H.C.C.C.C.H.P.F.-X^.O | #.6.;.%.%.c %.%.%.%.%.%.' U c W U Y H @ @ . . . . . . . @ H Y U Y g U ) ` O.%.%.%.%.c %.4.&.%.%.( o *XL.C.C.C.H.L.1XqXI.L..X4X[.L.H.C.L.`.}.}.R.L.C.",
"H.C.C.C.C.L.5X=XI.J.H.L.P.6XuXH.J.H.P.tXNX7XG.> h <.%.1.&.%.%.@.@.%.%.%.%.%.%.%.O.( ` T E P L H H H H H H H L T Y ) _ ' %.%.%.%.%.%.%.%.@.%.&.#.%.%.%.} & }. XY.J.G.-Xn.L.C.C.L.P.<XrX7XP.E.E.H.C.C.C.C.",
"{.{.'.H.}.<X].E.J.H.C.H.H.J.1XtXnXP.-X<XW.L.H.o E -.%.1.&.%.%.%.%.%.%.%.%.%.%.%.%.%.%.O.` / Y Y Y Y Y E E E W ` O.%.%.%.%.%.%.%.%.%.%.%.%.%.%.%.%.%.%.H   J.'.@XoX3XW.L.C.C.C.C.H.L.L.5X-XU.H.C.C.C.C.C.",
"J.'..X-X{.L.J.J.C.C.C.C.C.C.L.L.P.eX'.J.H.C.C.  $.@.%.%.%.%.%.` %.%.%.%.<.9.7.5.%.%.%.%.%.@.` ` ` ` ` ` ) ` O.%.%.%.%.%.%.%.%.%.%.%.%.%.%.%.%.%.%.%.%.`   C.L.L.E.L.H.C.C.C.C.V.C.C.H.L.E.}.W.K.K.H.J.C.",
"C.H.H.H.J.L.H.H.C.C.C.C.C.H.H.H.H.H.'.E.J.H.C.  ] @.%.%.%.%.%.H +.%.%.7.9.9.9.6.%.%.%.%.%.%.%.%.%.%.%.%.%.%.%.%.%.%.%.%.%.%.%.%.%.%.%.%.` %.%.%.%.%.` /   C.C.H.J.P.L.C.C.C.C.C.V.C.C.C.L.{.{.qX5X$X`.L.",
"C.C.C.C.C.C.H.H.L.E.{.'.L.C.C.C.C.C.C.L.L.L.L.  ^ ` %.%.%.%.O.v @.%.%.7.9.9.7.%.%.%.%.%.%.%.%.%.%.%.%.%.%.%.%.%.%.%.%.%.%.%.%.%.%.%.%.%.m %.%.%.%.%.) W   Y.H.C.C.C.L.L.E.E.E.C.C.C.H.J.*XrX1XK.K.2X4X-X",
"E.'.'.H.C.C.C.J.H.C.C.C.C.L.L.C.C.C.C.C.J.J.1X  P ( %.%.%.%.Y v +.%.%.7.9.0.$.%.%.%.%.%.%.%.%.%.%.%.%.%.%.%.%.%.%.%.%.%.%.%.%.%.%.%.%.%.v ) %.%.%.' _ L   <X<XY.H.H.C.C.C.E.E.E.J.L.L.1XI.J.H.H.H.J.H.+X",
"H.E.'.W.W.L.J.J.J.C.C.L.L.L.C.H.H.C.H.G.CX8X/.  m ( ` %.%.' x n +.%.%.7.9.9.%.%.%.%.%.%.%.%.%.%.%.%.%.%.%.%.%.%.%.%.%.%.%.%.%.%.%.%.%.%.J v O.@.O.) Q v   H.{.7X6XY.H.C.C.C.C.H.{.sX-XJ.H.C.C.C.C.C.C.H.",
"C.C.C.H.E.W.MXhX^.J.H.H.H.H.C.C.C.C.^.CXwXOXC.8 5 ! ( O.O.( b O.%.%.%.1.1.&.%.%.%.%.%.%.%.%.%.%.%.%.%.%.%.%.%.%.%.%.%.%.%.%.%.%.%.%.%.%.O.m ) O.' ) Q 3 < H.C.R.).gXXXJ.C.H.J.{.@XW.H.H.C.C.C.C.C.C.C.C.",
"C.C.C.H.%X6XQ.H.eX7XF.H.C.C.C.C.C.H.6X6XG.H.C.C.+ { ) ' ` W v @.%.%.%.%.%.%.%.%.%.%.%.%.%.%.%.%.%.%.%.%.%.%.%.%.%.%.%.%.%.%.%.%.%.%.%.%.+.b W ` ` W P o C.C.C.C.H.`.tXL.H.E.E.L.H.H.Z.C.H.H.H.C.C.C.V.V.",
"H.J.J.+X6XL.J.J.J.*XwX1XE.J.H.H.C.'.wXL.C.C.C.-XO j P ^ T c ( %.%.%.%.%.%.%.%.%.%.%.%.%.%.%.%.%.%.%.%.%.%.%.%.%.%.%.%.%.%.%.%.%.%.%.%.%.%.^ c W E M 4 + @XE.C.C.C.C.E.tXE.H.H.C.C.C.C.H.W.5X-XW.H.C.V.V.",
"+X8X1X XL.H.C.V.H.H.K.7X7XOXE.C.E.7X@XC.C.C.-X;XH.%   H n Y ` ' @.%.%.%.%.%.%.%.%.%.%.%.%.%.%.%.%.%.%.%.%.%.%.%.%.%.%.%.%.%.%.%.%.%.%.%.` ` U x m     C.C.5X XC.C.C.L.;X5XZ.C.H.H.H.H.'.'.L.H.{.OX'.C.C.",
"W.F.H.K.H.C.C.C.C.V.H.H.L.L.C.C.wX@XL.C.C.C.6X'.M.C.d.. m / ' ' %.%.%.%.%.%.%.%.%.%.%.%.%.%.%.%.%.%.%.%.%.%.%.%.%.%.%.%.%.%.%.%.%.%.O.' ' ` W m . x.*X+XC.H.;Xc.C.C.C.E.wXM.C.C.E.'.E.C.C.C.C.C.E.}.{.H.",
"H.H.H.H.C.C.C.V.C.C.H.J.H.H.C.C.tXrXH.C.C.+XmXM.R.R.d.  E / ' ' O.O.%.%.%.%.%.%.%.%.%.%.%.%.%.%.%.%.%.%.%.%.%.%.%.%.%.%.%.%.%.%.%.@.' ' ` ` / P o h.).tX(.H.6X).C.C.C.8X1XB.C.H.H.H.C.C.C.C.C.C.H.E.'.{.",
"C.C.C.C.C.C.C.C.J.J.H.L.H.C.C.C.}.tX@XM.C.W.wX^.C.V.h.  m W ' ' ' ' %.%.%.%.%.%.%.%.%.%.%.%.%.%.%.%.%.%.%.%.%.%.%.%.%.%.%.%.%.%.%.' ' ' ` ^ P H   h.g.,XeXH.OX#XH.C.W.hX XC.C.C.H.C.C.C.C.C.C.C.C.J.L.`.",
"C.C.C.C.V.C.K.H.<X5X6XgX8XH.C.C.C.).uXC.C.C.!.mX/./.j._.@ L E ^ ' ' ' ' O.%.%.%.%.%.%.%.%.%.%.%.%.%.%.%.%.%.%.%.%.%.%.%.%.%.%.O.' ` ` ` T P I @ r.h.z./.uX{.N.C.C.L.gXXXC.C.C.C.C.H.H.C.L.E.H.J.L.H.C.C.",
"H.H.H.C.C.H.I.+X<XE.J.}.<X-XN.C.C. XNXB.C.C.L.CXtX6Xj.s.> { / W ] ' ' ' ' #.#.%.%.%.%.%.%.%.%.%.%.%.%.%.%.%.%.%.%.%.%.%.%.#.#.' ` ` ] ) W E { > s.d.v.wXCX}.C.C.C.G.ZXL.C.C.C.C.C.C.C.H.I.*XwX5XG.J.J.C.",
".X(.!.J.H.}.@XT.L.H.H.J.J.+X{.J.C.H.,X0XS.C.C.<XpXpX!.j.y.o ! E T ( ] ' ' ' ' @.%.%.%.%.%.%.%.%.%.%.%.%.%.%.%.%.%.%.%.@.' ` ` ` ' ` W Y E m & y.d.g.pXaX@XC.C.C.M.*XyXH.H.H.C.C.C.C.J.!.7XdXL.L.;X:XOXH.",
"`.7XwXrX1XL.H.H.C.C.C.C.C.H.J.E.H.C.OX4XNXW.C.V.@X:XuXW.j.y.t.M Y Q T ` ` ' ` ' ' ' ' %.%.%.%.%.%.%.%.%.%.%.%.%.@.' ' ' ' ` ` ` ) Y T Y B t.y.g.J.iX:X1XC.C.H.L.b.pXoXL.}.8X-XJ.L.+X2X7XL.L.H.J.L.1XqX@X",
"C.H.L.H.{.{.H.C.C.C.C.C.C.C.C.C.H.H.H.@XgXtXJ.C.C.M.{.tX>XS.j.s.t.0 Y Y W T ` ' ' ' ' ` ` ` ` ` ` ` ` ` ' ' ` ` ` ` ' ' ' ) ) W P Y 0 t.y.d.V.'.tX@XC.Z.C.H.E.gXyX-XC.C.J.H.L.6XqXrX+XJ.H.C.C.C.H.H.J.L.",
"C.C.C.H.J.J.E.E.C.C.C.C.C.C.C.C.C.C.C.H.L.-X8X7XC.V.C.W.rXuXiXV.h.s.y.r.U E T T T T T ` ` ` ` ` ` ` ` ` ' ' ' ` ` T T T Y Y Y E w.y.u.f.l.C.bXmX;XC.C.Z.C.N.uX4X@XH.C.C.C.C.H.L.kX;XOXH.C.C.C.V.C.C.C.H.",
"V.V.C.C.H.H.C.H.L.L.C.H.H.J.L.H.C.C.C.C.H.J.4XtX(.{.C.C.C.L.pXiXv.#Xj.d.e.e.R T E Q E T Y T Y Y T Y Y Y Y Y Y T Y T E Q E K r.e.h.j.V.Z.tXmXmXwXJ.C.C.C.OXuX XH.H.C.C.C.C.L.L.L.L.E.E.'.H.C.C.C.V.V.C.C.",
"V.C.C.V.C.H.W.W.P.J.L.Y.OXtXtXW.J.H.C.C.C.C.H.^.uXuX@XV.C.C.C.OXpXhX1XV.l.s.y.u.y.0 Y T T W T T Y W T T T T W T W J r.e.y.s.s.j.l.<XiXuXwX/.G.H.C.C.{.I.7XE.C.C.C.C.C.H.J.H.C.C.C.C.C.H.E.E.P.C.C.V.V.V.",
"C.C.C.V.C.C.C.C.H.L.1XkX}.L.L.@X1XE.L.L.C.C.C.H.W.I.rXrX@X XC.V.R.n.eXnXNX;XC.k.h.d.s.s.s.s.s.s.s.s.s.s.s.s.u.s.f.s.h.h.l.Z.B.;XiXpX).G.C.V.C.C.C. XqXfXJ.C.L.L.H.H.C.C.C.C.C.C.C.C.C.C.C.C.C.L.C.C.C.C.",
"H.C.C.C.C.C.C.H.L.@X;X/.H.H.H.J.J.-X=XH.H.C.C.C.V.C.C.;X,X;XW.C.M.V.Z.@X,XMXiXrXJ.V.V.C.V.C.l.l.j.j.j.j.l.k.l.l.k.V.V.}.tXqXVXMX@XH.M.C.C.H.L.L.6XrX).W.C.C.H.'.!.-XL.H.C.C.C.C.V.V.V.V.V.C.C.C.H.L.L.L.",
"W.H.H.C.C.H.L. X7X7XL.L.H.C.C.C.H.J./.@X XW.C.C.C.C.C.H.L.J.H.C.C.C.V.C.J.S.#X6XiXMXMXbXeXOXZ.C.k.j.k.k.M.C.{.5XiXbXiXiXOX!.v.B.C.C.C.C.H.!.hXNXgXS.H.C.C.C.H.P.'.sX6XQ.J.H.C.C.C.V.C.C.H.L.K.[.jXOXL.H.",
"OX1X@XH.H.K.2X5X1XL.H.C.C.V.V.C.C.J.J.J..X{.W.L.C.C.C.C.E.E.-XwXJ.C.V.C.C.C.H.C.v.v.v.n.m.E.H.L.H.H.C.C.H.H.J.U.v.!.!.B.C.C.C.C.C.C.{.'.eXtX0XoXL.H.C.C.C.J.L.L.J.K.L.5X>XY.H.C.C.C.C.C.L.5XyXwXhXeX;XJ.",
"J.J.G.;X7X5XE.L.C.C.C.C.V.V.C.H.H.C.C.C.C.C.C.H.L.L.C.V.C.C.H.T.pXiXNXH.C.C.C.C.C.C.C.C.J.H.H.H.C.H.C.C.C.C.C.C.C.C.H.C.H.C.C.H.{.1X@X}.H.C.H.C.C.C.L.J.L.H.C.C.C.C.H.H.K.%X-X XJ.J.J.L.1X1XE.L.H.L.J.+X",
"C.H.H.M.H.L.'.'.J.L.C.C.C.C.C.C.C.C.C.C.C.C.H.L.L.L.H.C.C.C.C.H.H.v.eXiXVXbXiX5X+X{.{.H.C.E.5X1XwXMXMXMXpXtXOX'.H.H.L.{.%X*X+XE.C.H.J.L.H.C.C.C.C.H.C.H.C.C.V.V.V.V.V.C.H.J.J.@X-X7X-X5XK.J.H.C.C.C.H.L.",
"V.C.C.C.C.C.C.C.L.E.W.}.{.W.L.C.C.C.C.C.J.J.`.eXmXiX'.L.C.C.C.C.C.H.H.J.U.OXoX(.W.W.E.L.H.C.L.L./.-XOX;X-XOX{.E.E.E.E.J.C.C.C.C.L.E.1X-X1XL.H.H.C.C.C.C.C.C.C.C.Z.V.C.C.H.H.L.J.W.OX[.J.C.C.C.V.V.C.C.C.",
"V.C.C.C.C.C.C.C.C.C.M.M.C.L.E.J.C.C.C.L.E.n.tXc.B.G.rXT.L.H.C.C.C.C.C.C.C.H.H.H.L.C.H.L.H.C.H.H.H.L.H.L.L.E.L.L.H.C.C.C.C.C.C.G.+X+XR.H.#X*Xc.G.C.C.C.C.C.L.R.L.J.C.J.L.H.C.C.C.H.L.L.L.C.C.C.C.V.V.C.C.",
"V.V.C.C.H.C.C.C.C.C.C.C.C.C.C.C.C.C.H.I.fX8XH.K.L.L.J.7X+X(.H.C.C.V.C.C.C.C.C.C.C.J.H.H.H.C.H.H.H.C.C.C.C.C.H.C.C.C.C.C.C.P.E./.J.H.H.H.J.F.<X+XJ.H.C.C.C.E.1X>X;XL.H.C.C.C.C.V.V.C.C.C.H.H.H.C.C.V.C.C.",
"V.V.V.C.C.L.L.K.L.L.C.C.C.C.C.C.C.L.1X6X~.J.H.C.C.C.C.L.<X4X5XJ.C.C.C.C.V.C.C.J.E.6XyX7XL.L.C.C.C.C.C.C.C.C.C.H.L.L.L.L.J.L.L.C.C.C.C.V.C.H.H.E.@X XL.L.L.rXpXuXpX6XJ.H.V.V.V.C.C.C.C.C.C.C.C.H.H.C.C.C.",
"V.V.C.C.H.L. XrX8XU.L.H.H.C.H.E.E.@X+XK.H.H.C.C.V.V.C.H.L.L.}.<XY.J.H.H.H.H.L. X8XI.F.L.5X{.J.H.C.C.C.C.C.L.L.E.wXmXrX*XL.H.H.C.C.C.V.V.V.C.C.C.J.`.}.(.-X-XJ.L.H.+X5XL.H.C.C.C.L.L.L.H.C.C.C.H.J.J.J.L.",
"C.C.C.C.H.@X+XL.L.7X4X[.J.L.L.{.}.H.J.C.C.C.C.C.C.V.V.C.C.C.C.H. X+X.X'.E.H.#X7XJ.H.L.H.H.*X5XQ.L.L.H.C.H.L.L.6X<XE.J.7X7XW.L.L.H.C.V.V.V.C.C.C.H.L.[.~.dXL.C.H.H.L.%X7XL.H.H.J.C.C.C.C.H.H.L.-X*X5XoX@X",
"C.C.H.{.{.F.J.J.H.J.5XkX;XL.H.C.C.C.C.C.C.C.L.H.C.C.V.V.V.C.C.C.H.C.L.E.8XyX5XL.H.C.C.C.H.J. X<X;Xc.L.J.H.5X5XL.H.L.L.L.I.=XrX@XJ.C.C.C.V.C.C.H.L.5XwXrXJ.C.C.C.C.H.J.G.-X@X+XH.C.C.C.C.J.<X@XT.H.H.F.W.",
"H.'.}.}.H.C.C.C.V.C.J.R.T.7XJ.H.C.C.H.L.L.L.C.H.C.C.C.V.V.V.C.C.H.L.K.5XCX7XL.H.C.C.C.C.C.C.H.L.W.1X7X9X1XW.H.J.C.C.C.C.J.L.P.@X7XJ.J.H.H.J.L.K.1X8XH.L.C.C.V.V.V.V.C.H.H.+XOX}.L.H.H.L.-X/.H.C.C.C.C.H.",
"}.'.J.H.H.C.C.C.C.C.C.H.H.L.-X;X+XL.L.H.C.C.C.C.C.C.C.C.C.C.L.J.@X=X5XQ.E.C.P.H.C.C.C.C.C.C.C.C.J.L.P.E.H.G.H.C.C.C.C.C.C.C.H.H.OX1X:X^.L.'.6X*XP.G.H.H.H.C.C.C.V.V.C.C.C.H.H.L. X@X X@XH.H.C.C.C.C.C.C.",
"H.H.H.C.C.C.C.C.V.V.V.C.C.J.H.B.G.{.'.C.C.C.C.C.C.C.C.C.H.H. X#XR.H.H.H.H.C.C.C.H.C.C.C.V.C.C.C.'. X+X{.L.C.C.C.V.V.V.C.C.C.C.C.H.L.^.T.6X-XG.L.H.C.C.C.C.H.L.C.C.C.C.C.H.}.{.}.Y.C.H.H.C.C.C.C.C.V.V.V.",
"C.C.C.V.C.C.C.C.C.C.C.C.C.C.C.H.C.H.E.E.P.J.C.H.H.C.C.H.{..X{.J.J.H.C.C.C.C.C.C.J.H.C.C.V.C.H.E.{.c.N.N.W.R.C.C.C.C.C.C.C.C.C.C.C.J.L.L.E.E.P.J.C.V.C.C.C.C.L.J.H.C.C.H.W. X{.H.J.H.H.C.C.C.C.C.C.V.V.V.",
"V.C.C.C.C.C.J. X@XH.C.C.C.C.V.C.V.C.C.L.L.L.@X7X8X7XK.E.H.J.C.C.C.V.V.C.C.C.L.{. XOX XG.H.C.H.H.C.C.C.C.C.H.E.L.C.C.C.C.C.C.C.N.E.'.L.H.C.J.L.E.'.C.C.C.C.V.C.C.C.L.E.E.H.C.C.C.C.C.C.V.C.C.C.C.B.M.C.C.",
"C.C.C.C.H.{.+X+X[.[.I.E.H.C.C.C.V.C.C.'.$X XL.J.L.Y.1XH.Z.Z.C.V.V.V.C.C.H.J.L.H.C.H.F. X'.H.C.C.C.V.V.V.C.C.C.J.L.1X-X@XH.L.H.L.H.C.C.C.V.V.C.C.H.E.E.W.W.E.H.H.J.H.C.C.H.K.H.C.C.C.C.C.C.C.H.W.W.W.E.L.",
"L.H.C.J.{.|.C.C.H.H.W. X.XH.C.C.H.H.{.}.J.H.C.C.H.H.J.@XF.L.C.C.C.C.Z.C.C.C.C.C.C.C.C.C.L.}.J.H.H.C.C.C.C.C.L.W.;XE.L.H.[.J.H.H.C.C.C.V.V.V.C.C.C.C.C.C.H.E.H.C.C.C.C.J.L.7X=X1XE.H.H.C.H.L.E.C.C.C.C.C.",
"H.'.{.}.C.C.C.C.V.V.H.N.F.}.{.{.{.{.H.H.C.C.V.V.C.C.C.J.-X+XOXL.C.C.H.H.H.C.C.C.V.V.V.C.C.H.|.{.'.C.H.H.J.L.1X9XH.J.H.H.H.}.+X{.J.C.C.C.V.V.V.V.V.C.C.C.H.H.C.C.C.C.J.@X:XU.L.H.}.@X}.H.C.C.C.C.C.C.V.V.",
"C.H.H.C.C.C.C.C.V.V.C.C.C.C.E.+X'.L.C.C.C.C.C.V.C.C.C.C.H.H.{.}.{.{.{.{.{.L.C.C.C.V.V.C.C.C.C.C.{.{.{.'.-X6X2XH.C.C.C.C.C.C.H.W.'.'.L.C.C.C.V.C.C.C.J.Y. X[.J.H.H.L.{.-XJ.C.C.C.H.J.|.}.J.C.C.C.C.C.V.V.",
"C.C.C.C.C.C.C.C.C.C.C.C.C.C.C.C.C.L.L.C.C.C.C.V.V.V.V.C.C.C.H.H.{.{.L.C.H.E.L.C.C.C.C.C.V.C.C.C.H.H.F.F.B.J.J.C.C.C.C.C.C.C.C.C.C.'.'.E.L.C.C.C.C.L.[.'.F.N.E.`.E.E.E.H.C.C.C.C.C.C.L.H.'.W.E.C.C.C.C.V.",
"V.C.C.C.C.C.C.C.C.C.C.C.V.C.C.V.C.C.H.H.H.C.C.V.V.C.V.V.C.C.C.C.H.C.C.C.C.C.H.J.H.C.C.C.C.C.C.C.C.C.C.C.C.C.C.C.V.C.C.C.V.V.V.C.C.C.H.J.L.J.C.C.H.E.C.H.C.C.H.L.W.H.H.C.C.C.C.C.V.V.C.C.C.L.L.L.H.C.C.C."
};
