/* XPM */
static const char *duck_9[] = {
/* columns rows colors chars-per-pixel */
"9 9 65 1 ",
"  c black",
". c #DD2A01",
"X c #FDB103",
"o c #FCB501",
"O c #FCB600",
"+ c #FDB602",
"@ c #FEB801",
"# c #FFBE00",
"$ c #FFCF00",
"% c #FFCC07",
"& c #FED102",
"* c #FCD202",
"= c #FDD302",
"- c #FED404",
"; c #FFD504",
": c #FFD10B",
"> c #FEEE67",
", c #00A7FA",
"< c #02A6FB",
"1 c #01A6FF",
"2 c #00A9FA",
"3 c #00A8FB",
"4 c #03ADFB",
"5 c #00AFFB",
"6 c #04AEFB",
"7 c #00A9FC",
"8 c #01AAFD",
"9 c #02ABFC",
"0 c #02ABFE",
"q c #01ACFC",
"w c #00ADFC",
"e c #02ADFD",
"r c #03AEFC",
"t c #01ACFE",
"y c #00ACFF",
"u c #01ADFF",
"i c #02ADFF",
"p c #02AFFE",
"a c #05AFFC",
"s c #04AFFF",
"d c #06B3F7",
"f c #09B0F6",
"g c #05B3FA",
"h c #07B2FA",
"j c #07B5FA",
"k c #05B1FD",
"l c #07B3FD",
"z c #04B1FE",
"x c #06B4FD",
"c c #09B4FA",
"v c #08B4FC",
"b c #09B5FD",
"n c #08B6FD",
"m c #08B5FF",
"M c #0BB5FF",
"N c #0CB7FF",
"B c #0BB8FF",
"V c #0EBAFC",
"C c #12BAFB",
"Z c #20C2FF",
"A c #24C5FC",
"S c #24C4FE",
"D c #47CFFF",
"F c #6BDBFF",
"G c #6CD8FF",
/* pixels */
"04g0snk00",
"esnj&eVgA",
"ed0>;&Dee",
"e4e & e0<",
"eZ:o.X%fk",
"n0$&&;#e1",
"CcF@ooGe2",
"00BxneeN2",
"Aenk<nke6"
};
