/* XPM */
static const char *duck_17[] = {
/* columns rows colors chars-per-pixel */
"17 17 213 2 ",
"   c black",
".  c #030000",
"X  c #020300",
"o  c #000401",
"O  c #060501",
"+  c #000004",
"@  c #000005",
"#  c #060407",
"$  c #00040A",
"%  c #7F2409",
"&  c #624710",
"*  c #9D310D",
"=  c #DD2A01",
"-  c #9B6A0B",
";  c #CB7707",
":  c #D37D02",
">  c #FB7900",
",  c #DD8B00",
"<  c #E88100",
"1  c #E38900",
"2  c #ED9D00",
"3  c #F49401",
"4  c #F09802",
"5  c #F2A203",
"6  c #F5A800",
"7  c #FCA80A",
"8  c #EFB900",
"9  c #FBB500",
"0  c #FDB602",
"q  c #FEB703",
"w  c #F8B800",
"e  c #FEBD03",
"r  c #F0BC08",
"t  c #F9B91B",
"y  c #FBC000",
"u  c #FCC101",
"i  c #FAC903",
"p  c #FECF03",
"a  c #FED102",
"s  c #FFD102",
"d  c #FDD302",
"f  c #FDD303",
"g  c #FED403",
"h  c #FED404",
"j  c #FFD504",
"k  c #FAD92A",
"l  c #FADF2E",
"z  c #0287EE",
"x  c #008EEB",
"c  c #008EF2",
"v  c #059BFA",
"b  c #0CAEEC",
"n  c #10ABED",
"m  c #19AFEC",
"M  c #14B2EF",
"N  c #01A7FB",
"B  c #01A7FD",
"V  c #01ABF8",
"C  c #00ABF9",
"Z  c #00A9FA",
"A  c #00A8FB",
"S  c #00AAFA",
"D  c #01AAFB",
"F  c #00ABFB",
"G  c #00ADFA",
"H  c #03ADFA",
"J  c #03ADFB",
"K  c #02AEFA",
"L  c #02AFFB",
"P  c #00A9FC",
"I  c #00A8FD",
"U  c #02A8FC",
"Y  c #03A9FD",
"T  c #00AAFC",
"R  c #01AAFD",
"E  c #00ABFD",
"W  c #02ABFC",
"Q  c #00A9FE",
"!  c #00A9FF",
"~  c #01AAFF",
"^  c #02ABFE",
"/  c #01ACFC",
"(  c #00ADFC",
")  c #03ACFD",
"_  c #02ADFD",
"`  c #03AEFC",
"'  c #02AFFC",
"]  c #01ACFE",
"[  c #01ADFF",
"{  c #03ACFF",
"}  c #02ADFF",
"|  c #00AFFE",
" . c #03AEFE",
".. c #04AEFC",
"X. c #04AFFD",
"o. c #04ADFE",
"O. c #04AFFF",
"+. c #05B4F7",
"@. c #0EB2F1",
"#. c #07B3FB",
"$. c #01B6FB",
"%. c #06B4F9",
"&. c #04B5FB",
"*. c #00B1FD",
"=. c #03B0FC",
"-. c #03B3FC",
";. c #02B2FD",
":. c #04B0FC",
">. c #04B1FD",
",. c #05B1FD",
"<. c #06B0FD",
"1. c #06B2FC",
"2. c #05B0FE",
"3. c #04B1FE",
"4. c #05B0FF",
"5. c #06B0FE",
"6. c #07B1FE",
"7. c #06B1FF",
"8. c #07B1FF",
"9. c #06B2FE",
"0. c #07B2FF",
"q. c #06B3FF",
"w. c #07B3FF",
"e. c #02B7FC",
"r. c #03B7FF",
"t. c #04B4FF",
"y. c #04B6FE",
"u. c #07B7FF",
"i. c #0BB1FB",
"p. c #0AB5FB",
"a. c #0BB6FB",
"s. c #08B4FC",
"d. c #09B5FD",
"f. c #0AB5FD",
"g. c #08B6FD",
"h. c #08B5FF",
"j. c #0AB6FE",
"k. c #0EB6FF",
"l. c #0BB8FD",
"z. c #0DB8FD",
"x. c #0DBAFC",
"c. c #0DB8FE",
"v. c #0CB9FE",
"b. c #0EB9FF",
"n. c #0CBAFF",
"m. c #0FBAFF",
"M. c #0FBBFF",
"N. c #0CBDFF",
"B. c #0EBDFE",
"V. c #0FBCFF",
"C. c #16B1F3",
"Z. c #1ABDF6",
"A. c #17BDFB",
"S. c #11B8FC",
"D. c #12BBFE",
"F. c #17BAFD",
"G. c #11BDFD",
"H. c #17BFFD",
"J. c #14BDFE",
"K. c #14BDFF",
"L. c #1CBAF9",
"P. c #19BCFD",
"I. c #1BBDFD",
"U. c #1BBFFE",
"Y. c #1ABFFF",
"T. c #17C0FF",
"R. c #1AC0FA",
"E. c #1CC4FF",
"W. c #20C2FF",
"Q. c #23C6FF",
"!. c #24C4FE",
"~. c #24C4FF",
"^. c #27C6FE",
"/. c #27C6FF",
"(. c #28C1FB",
"). c #2BC7FF",
"_. c #30C6F8",
"`. c #33C9FC",
"'. c #30CAFE",
"]. c #31CBFF",
"[. c #33CFFF",
"{. c #3AC8F8",
"}. c #3CCBFF",
"|. c #39CEFF",
" X c #3DCCFF",
".X c #3CD1FC",
"XX c #4AC9F4",
"oX c #4BCCF4",
"OX c #44D0FF",
"+X c #4BD2FF",
"@X c #49D4FD",
"#X c #4DD4FF",
"$X c #4DDBFF",
"%X c #51D0F9",
"&X c #53D3FF",
"*X c #55D3FF",
"=X c #53D5FF",
"-X c #5CD3FD",
";X c #5CD7FF",
":X c #5ADAFF",
">X c #5CDCFF",
",X c #6ED5F4",
"<X c #69D8F4",
"1X c #69D7FA",
"2X c #76DEFF",
"3X c #6DE1FF",
"4X c #6AE4FF",
"5X c #78E4FF",
"6X c #999594",
"7X c #83E4FF",
"8X c #85EBFF",
"9X c #86EAFF",
"0X c #86EDFF",
/* pixels */
"!.V.R ;.V.Z.c.6.%.r.6.!.H.{.4X%.$.",
"d.H 6.oXR $X@X] 8Xk.6.8XH p. X] 2X",
"] H W.R R M o.] 6.6.D p.R H.6.m ] ",
"}.] R 7Xc.] H # i O d.R H.c.+.] D ",
"Q.3Xc.6.u.T.l j g g s 6..X] R OXi.",
"D #.|.R `., g j g j g : R 6.D ] o.",
"[.R 6.b c.<     5 6X  ; E.=X;._.R ",
"6.R +X;X;.t + $ >   + 1 d.c.6.1Xr.",
"I.R `.6.& o w * = % 6   - I.] 6.] ",
"%XD @.;.s r k u 5 y s 8 s (.R u.6.",
"u.<XR n 2 p s s s s j j 7 H 6.R D ",
"D G.D o.c e s s g j j 9 z `.D.D 6.",
"6.D D F.R v 4 q q q 3 x 6.0X] d.N ",
"l.c.D !.R &X6.-Xo.#X] XX6.c.*X] ,X",
"N d.R C.6.6.] V.D 6.c.D R.5XB D ] ",
"6.B L.R R >X6.B A.R ] :X6.R 6.] R ",
"o.N ).] ] I.R o.I.D.d.N D R d.!.R "
};
