/* XPM */
static const char *duck_19[] = {
/* columns rows colors chars-per-pixel */
"19 19 89 1 ",
"  c #010001",
". c #04020C",
"X c #7F250B",
"o c #952E0F",
"O c #DD2A01",
"+ c #F94304",
"@ c #F45503",
"# c #FC7700",
"$ c #D48400",
"% c #DD8200",
"& c #EB8A00",
"* c #EB9301",
"= c #ED9903",
"- c #F89E00",
"; c #FCAB04",
": c #FFAF0B",
"> c #F3B500",
", c #FDB502",
"< c #FFB901",
"1 c #FEBD09",
"2 c #FDCC04",
"3 c #FDD303",
"4 c #FFDB34",
"5 c #FFE742",
"6 c #007CE8",
"7 c #3198B7",
"8 c #2697CF",
"9 c #0083EF",
"0 c #0292F1",
"q c #019EFA",
"w c #1AB3ED",
"e c #07AFF6",
"r c #01A7FC",
"t c #01ABFD",
"y c #0CB4F3",
"u c #05B2FD",
"i c #09B5FD",
"p c #07B8FC",
"a c #0DB9FD",
"s c #12B7F9",
"d c #14BDFE",
"f c #1BBDFC",
"g c #2AB3E9",
"h c #21B8EF",
"j c #20BEFF",
"k c #12C1FC",
"l c #1CC3FE",
"z c #22C3FE",
"x c #2DC5FA",
"c c #2EC9FE",
"v c #3ACBF7",
"b c #30C6FB",
"n c #31CBFF",
"m c #37C9FC",
"M c #36C9FF",
"N c #39CDFB",
"B c #3FCDFB",
"V c #38CCFC",
"C c #3ECFFE",
"Z c #42CAFC",
"A c #46CDFC",
"S c #43D5FF",
"D c #4FD0FA",
"F c #48D3FE",
"G c #4AD3FF",
"H c #4ED5FF",
"J c #5DD3F7",
"K c #5AD5F7",
"L c #50D1F8",
"P c #56D5F8",
"I c #56D4FA",
"U c #56D3FF",
"Y c #57D7FE",
"T c #58D3FF",
"R c #58D6FF",
"E c #50D8FF",
"W c #5BDDFD",
"Q c #61D5FA",
"! c #62D7FA",
"~ c #64D9FC",
"^ c #66DBFC",
"/ c #64D8FF",
"( c #65D9FF",
") c #60DFFF",
"_ c #68DBFA",
"` c #6BD9FE",
"' c #74DBFA",
"] c #8EE7F9",
"[ c #80EEFF",
/* pixels */
"fatz!tVnulbiN~uKuuw",
"utuluufptzutattktt~",
"tpdttataattittdtuui",
"eYaat)uE857yadi[tti",
"utultui3333,uutzttf",
"utFtat133333;BudZtt",
"tulutu  .3.  tfudti",
"dttiat   3   tdtuit",
"WtFudu3&@#+&,ukiaiS",
"ftiut2><oOX:-4tMttt",
"ipiA 333,*,333 DtUt",
"liai 233333332 huut",
"itiad$3333333%tttts",
"JuuMr0=<333,*0t'iLc",
"rtgitx~q996q`tjuttt",
"ufttit_Tt]fvuttrCHt",
"t!tztudPPtairt~zutR",
"tttluluttcttuittltr",
"uruurixttziudrxitft"
};
