/* XPM */
static const char *gothic_floor_17[] = {
/* columns rows colors chars-per-pixel */
"17 17 239 2 ",
"   c #6B0101",
".  c #6F0100",
"X  c #6E0200",
"o  c #6F0200",
"O  c #710100",
"+  c #720000",
"@  c #730301",
"#  c #750101",
"$  c #760000",
"%  c #770100",
"&  c #770101",
"*  c #770002",
"=  c #750302",
"-  c #780001",
";  c #7A0000",
":  c #7B0000",
">  c #7B0100",
",  c #7A0201",
"<  c #790102",
"1  c #780202",
"2  c #7C0200",
"3  c #7C0201",
"4  c #7C0002",
"5  c #7F0102",
"6  c #7E0003",
"7  c #7E0204",
"8  c #800000",
"9  c #810000",
"0  c #810100",
"q  c #820000",
"w  c #830100",
"e  c #830101",
"r  c #800301",
"t  c #810102",
"y  c #820203",
"u  c #870000",
"i  c #870100",
"p  c #860001",
"a  c #840202",
"s  c #880000",
"d  c #8A0000",
"f  c #8B0101",
"g  c #880200",
"h  c #880201",
"j  c #880002",
"k  c #880203",
"l  c #8D0000",
"z  c #8C0200",
"x  c #8E0201",
"c  c #8C0202",
"v  c #8A0204",
"b  c #900000",
"n  c #910100",
"m  c #910101",
"M  c #920001",
"N  c #900201",
"B  c #910003",
"V  c #930102",
"C  c #920202",
"Z  c #950101",
"A  c #970100",
"S  c #950002",
"D  c #970102",
"F  c #960202",
"G  c #970303",
"H  c #910204",
"J  c #940404",
"K  c #990100",
"L  c #9B0101",
"P  c #990002",
"I  c #9F0100",
"U  c #9F0001",
"Y  c #980402",
"T  c #9C0403",
"R  c #A20000",
"E  c #A30001",
"W  c #A00200",
"Q  c #A10200",
"!  c #A00201",
"~  c #A00203",
"^  c #A40001",
"/  c #A60000",
"(  c #A00501",
")  c #A60402",
"_  c #A70405",
"`  c #A90000",
"'  c #AB0102",
"]  c #AD0000",
"[  c #AC0001",
"{  c #AD0101",
"}  c #AE0001",
"|  c #AE0200",
" . c #AF0301",
".. c #AE0002",
"X. c #AC0202",
"o. c #AF0303",
"O. c #B30101",
"+. c #B00201",
"@. c #B40000",
"#. c #B40001",
"$. c #B70000",
"%. c #B70100",
"&. c #B40202",
"*. c #B00402",
"=. c #B90000",
"-. c #B80201",
";. c #BA0200",
":. c #BC0000",
">. c #BD0100",
",. c #BE0200",
"<. c #BF0200",
"1. c #BE0201",
"2. c #BC0203",
"3. c #C00000",
"4. c #C30100",
"5. c #C30300",
"6. c #C10002",
"7. c #C30302",
"8. c #C40001",
"9. c #C70100",
"0. c #C50200",
"q. c #C60300",
"w. c #C20503",
"e. c #C60400",
"r. c #C40304",
"t. c #C60204",
"y. c #CB0000",
"u. c #C90200",
"i. c #C90103",
"p. c #C80203",
"a. c #CD0301",
"s. c #CE0300",
"d. c #CD0102",
"f. c #CA0401",
"g. c #CA0306",
"h. c #CA0405",
"j. c #CD0505",
"k. c #CE0606",
"l. c #D20200",
"z. c #D30300",
"x. c #D60200",
"c. c #D50302",
"v. c #D10400",
"b. c #D10401",
"n. c #D20500",
"m. c #D00403",
"M. c #D20502",
"N. c #D30603",
"B. c #D60501",
"V. c #D40404",
"C. c #D90501",
"Z. c #DA0501",
"A. c #D80700",
"S. c #D90502",
"D. c #DF0601",
"F. c #DC0703",
"G. c #DE0704",
"H. c #D10D00",
"J. c #D80800",
"K. c #DE0D00",
"L. c #D80804",
"P. c #D90804",
"I. c #DA0904",
"U. c #DC0804",
"Y. c #DD0804",
"T. c #D4020B",
"R. c #D91600",
"E. c #D21E00",
"W. c #E20800",
"Q. c #E10F02",
"!. c #E60C00",
"~. c #E30804",
"^. c #E90D00",
"/. c #E51200",
"(. c #E41002",
"). c #EF1200",
"_. c #EE1300",
"`. c #E91700",
"'. c #E81207",
"]. c #EC1304",
"[. c #E51F04",
"{. c #EC1A01",
"}. c #F51303",
"|. c #F21A01",
" X c #FA1907",
".X c #F51E0A",
"XX c #FA1E08",
"oX c #F12C00",
"OX c #FB2E00",
"+X c #EE3600",
"@X c #E73801",
"#X c #F13102",
"$X c #F33B05",
"%X c #FB3A03",
"&X c #F93F02",
"*X c #F83A06",
"=X c #FE3C07",
"-X c #FC3F07",
";X c #FF3A09",
":X c #EB4800",
">X c #F64704",
",X c #F94F01",
"<X c #FD4B0F",
"1X c #F45600",
"2X c #F95203",
"3X c #FC5300",
"4X c #FF5707",
"5X c #F75A00",
"6X c #FC5C00",
"7X c #FD550A",
"8X c #FB6300",
"9X c #FD6301",
"0X c #FA6500",
"qX c #F96600",
"wX c #F96D00",
"eX c #FA6D01",
"rX c #F86E01",
"tX c #FF6805",
"yX c #FF6E07",
"uX c #FF630F",
"iX c #FE7201",
"pX c #FA7701",
"aX c #FD7500",
"sX c #FF7304",
"dX c #F97801",
"fX c #FC7C01",
"gX c #FC7F01",
"hX c #FD7308",
"jX c #FF7C0A",
"kX c #FF6E14",
"lX c #FF681A",
"zX c #FF7012",
"xX c #FF7D16",
"cX c #FA8700",
"vX c #FE8005",
"bX c #FC8800",
"nX c #F88F00",
"mX c #FF840E",
"MX c #FF9C17",
/* pixels */
"w.5.(.% h eXp K 5Xu.% ..MXz K 7Xh ",
"S.U 9 S.m.z 0X1., 1.gXO.$.9 ).) 9.",
"o k.nX..3 u.J., Y mX%Xh z d.d.U p ",
"% V.1XD *.9 ^ ,XS.C 9 G.kX9 9 R.dX",
"@X=.3 e.1.k.z.=.H.K , hXg.zX..<X, ",
"^ 9.  z.U.9 uX% 3 gX~.' _ v }.h t.",
"m.K xX=.9 f.I.F.bX....'...vXK *X#X",
"D C 9 0Xm.1.h ..S.9 p ..(.D h Q.^ ",
"jXp 5.U.h =XD 5.$X+X3 oXJ ;X5.>X3 ",
"9 8Xh.{.z $.:XD 9 $.iXC O u.u.C 6X",
"m.O.% C ].=.C ).m.F.% d.m.|.o O d.",
"K.C , 2X.XD , W.[...9 U.m.t.z.$.c.",
"3 `.tXh O c.4XR z 1.pX' 9 O B.9., ",
"C OX.. Xh $.1.9 % h eXT % T.u.yXH ",
"aX7 C 9 XX9.9.9.R 9Xh m.cXR R 3 eX",
"R ).C &Xu.O , O.E.K R U =X^., 5.1.",
"D p lX, K !.$.I.z 3Xm.I.o 9 sX( z "
};
