/* XPM */
static const char *gothic_floor_34[] = {
/* columns rows colors chars-per-pixel */
"34 34 129 2 ",
"   c #6F0101",
".  c #740101",
"X  c #7C0101",
"o  c #840101",
"O  c #8C0101",
"+  c #930101",
"@  c #9B0101",
"#  c #A40101",
"$  c #AC0101",
"%  c #B40101",
"&  c #BB0201",
"*  c #C40201",
"=  c #CC0302",
"-  c #C10F00",
";  c #CC0801",
":  c #D30401",
">  c #DB0501",
",  c #D10801",
"<  c #DC0A01",
"1  c #DD0908",
"2  c #CD1100",
"3  c #DC1300",
"4  c #E20702",
"5  c #E30C02",
"6  c #EA0D02",
"7  c #E70C08",
"8  c #F00E02",
"9  c #E31300",
"0  c #ED1302",
"q  c #E51E00",
"w  c #EC1C01",
"e  c #F11401",
"r  c #F31C02",
"t  c #F11F08",
"y  c #E52100",
"u  c #EB2500",
"i  c #E12800",
"p  c #E42900",
"a  c #EE2900",
"s  c #EC2B00",
"d  c #EC2D00",
"f  c #E42508",
"g  c #EA2F0C",
"h  c #F02400",
"j  c #F52500",
"k  c #F62500",
"l  c #F72701",
"z  c #F32202",
"x  c #F72C01",
"c  c #F42B03",
"v  c #FB2E03",
"b  c #F92901",
"n  c #F72809",
"m  c #E13000",
"M  c #E93A00",
"N  c #F33700",
"B  c #F63701",
"V  c #F33100",
"C  c #F93704",
"Z  c #FD3501",
"A  c #F63C00",
"S  c #F43C00",
"D  c #F83A00",
"F  c #FB3D03",
"G  c #F5330F",
"H  c #FF3C08",
"J  c #E14200",
"K  c #EE4F00",
"L  c #F64001",
"P  c #F54400",
"I  c #FB4403",
"U  c #F74A00",
"Y  c #F44C02",
"T  c #FA4A01",
"R  c #FB4F05",
"E  c #FA4C02",
"W  c #FF440C",
"Q  c #FB490B",
"!  c #ED5C00",
"~  c #F65100",
"^  c #F65500",
"/  c #F85102",
"(  c #FA5002",
")  c #FB5700",
"_  c #F95204",
"`  c #FC5204",
"'  c #FC5403",
"]  c #F65901",
"[  c #F85A03",
"{  c #F95C00",
"}  c #F85D00",
"|  c #FE5E00",
" . c #FF5B04",
".. c #FF5907",
"X. c #FC5E05",
"o. c #FB5C02",
"O. c #FF5709",
"+. c #FF530C",
"@. c #FF590B",
"#. c #FF4C11",
"$. c #FF5B12",
"%. c #F56200",
"&. c #F86300",
"*. c #FF6304",
"=. c #FD6706",
"-. c #FC6402",
";. c #FA6B03",
":. c #FE6C03",
">. c #FF650A",
",. c #FE6C0C",
"<. c #FB7000",
"1. c #F87200",
"2. c #FA7300",
"3. c #FD7402",
"4. c #F97D00",
"5. c #FF7E02",
"6. c #FF7806",
"7. c #FC7A02",
"8. c #FF750F",
"9. c #FF7A0E",
"0. c #FF7A0C",
"q. c #FF6315",
"w. c #FF7011",
"e. c #FF7A12",
"r. c #FF8004",
"t. c #FB8302",
"y. c #FA8A00",
"u. c #FC8B00",
"i. c #FF8913",
/* pixels */
"X & <.& % $ . + o @ v > + . . o * y.4 @   O . % 5 *.: @ @ G s : X . ",
"* ` * X o $ 5 + # : ~ ) & + & 0 L = 5.: # $ : ( s = O X . # 6.u.> $ ",
"$.0 # + . . $ w i 3 @ * N 5 -.* X O * 9.0 k R * f = O o # 0 4 @ ; 4.",
"@ < { * # $ 6 r ; o O # _ 4 $ o . # o & <.> & X + % 3 & h 5 + X X $ ",
". + > r.< n i.& O % + 7 y & . X O + * ..C & O O X O & O.x % X o X X ",
"@ X o : r k % o # o % : u : + O + * < 8 & 4 % o O & { 4 B > $ + . # ",
". o O = e.: o + X * : O * u 0 = <.U < $ O & H q > | * o + * =.0 = k ",
"@ + > ( * T < # $ # X . o $ r A = @ O X X o # > X.* + @ X X $ < [ & ",
"4 4 w.$ o + : q % # $ + # : D $ = = + o o o & r m ..6 & o # 5 ;.& o ",
"..E > O O . # w Y y 5 < 5 :.* X @ g < @ o & < > $ * T :.> 0 _ : + O ",
"@ ..= + X X + q r.: @ % =.6 + X . @ - = % 3 q.@ @ X + * 6.> @ o + X ",
"@ > :.= @ o > U : $ . @ ' : @ . X $ : h t.0 $ X . o O & *.> # + . # ",
"e > # 4 5 : :.# o % % = K =.4 @ : >.0 & $ A u # O # : 3.* > E 4 # = ",
": O X @ : 4.> @ . O * | % % e > @.% + X X & w < % < 5 % X + % d 4 4 ",
"@   # . + % -.> & = 5.& @ X $ : < + . o @ O # 0 3.r @ X X o @ 1 0 # ",
"= o X $ X o = y.7.{ * X + . o & E * @ % $ . O > : : > o O @ 6 %.% X ",
"0.= O o O * X.& @ * Q & o O + * 6 < * & . + = 0.# # t * O * ,.4 O + ",
": =.* @ = U 0 + . + < 0 % % = R q.= z : @ & V < + X @ I * F 9.S $ X ",
"X : [ e -.> 5 O X @ + > t.=.6 & + o $ :.< 3.= O X X X & 7.> # : ) & ",
"# + 5 6 $ # + 7 % + * T 6 6 + . X X $ 5 e = : @ o O * 7.= o o o & [ ",
"O > :.% X O   O % I ) * # : < @ O = M 6 # O 4 < $ % w * X o X o o * ",
"6 3.& X % o @ > 3 e $ O . + * H : 6.< + . X + = @.,.Y * + X @ o = { ",
"< 4 @ . X X * +.] % X . + o + 6 J : + . X X + 4 I * & %.> o X % +.: ",
"@ 9 > + o * y.: * T : @ O # 6 4 & c ` $ o % 6 s = O + & | 4 < &.: O ",
"o # 0 e = ;.: O o @ ; w : #.= @ X O % 9 = q.= $ O @ . O & 3.p : O o ",
"X . $ r.&.e + o . X + : @.e $ . X O o & 8.z % o X @ o + > ] $ o O O ",
". + < x % < < $ O . X * : $   @ . O O O = > + X + o + = I w > & + o ",
"+ : -.% o @ < ~ , + % x = $ . # . @ o & [ 3.> # o % > ) & o ; r ; + ",
"5  .% X + X O = 5 6 *.: W Z = O o # : { * % > P > F e # X + o $ T 4 ",
"< r # + . @ X # = 3.& o + = [ * $ 5 Y & o O O = 3 5 @ o . $ X + > r ",
"# 6 5 $ o X % 6 ! * o % X + & ^ 3 >.% @ @ o @ & 3 V < # X   + & ' % ",
". @ 5 b & & ( > I * o o X o @ b <.c & O O O $ #.0 & 7 r % # > ( * X ",
"+ O + = 7.` % O $ W 4 @ @ $ 0 > % ; >.= @ : R = @ X + * ' y 3 & o O ",
"X o o @ ,.* X X o @ ..& # > 5 @ X O & E > ..= # + X X o * 2 $ X X o "
};
