/* XPM */
static const char *gothic_duck_100[] = {
/* columns rows colors chars-per-pixel */
"100 100 252 2 ",
"   c #020101",
".  c #0A0201",
"X  c #0C0C0C",
"o  c #080907",
"O  c #140000",
"+  c #1B0001",
"@  c #100E0E",
"#  c #1D090C",
"$  c #1A0E10",
"%  c #141314",
"&  c #1A1415",
"*  c #1A1618",
"=  c #1B1B1B",
"-  c #181818",
";  c #11110F",
":  c #240000",
">  c #2B0000",
",  c #28060D",
"<  c #310000",
"1  c #3C0000",
"2  c #33050E",
"3  c #3A0708",
"4  c #240B12",
"5  c #2B0B12",
"6  c #2F0710",
"7  c #3B0511",
"8  c #340913",
"9  c #3B0913",
"0  c #350611",
"q  c #221718",
"w  c #1E201F",
"e  c #1F1F21",
"r  c #242424",
"t  c #2C2C2C",
"y  c #2A2628",
"u  c #322D2C",
"i  c #3E2924",
"p  c #2E332E",
"a  c #36322D",
"s  c #2E2E31",
"d  c #332F34",
"f  c #2D3232",
"g  c #333333",
"h  c #3A3A3A",
"j  c #393436",
"k  c #580502",
"l  c #430512",
"z  c #4B0613",
"x  c #420814",
"c  c #4D0914",
"v  c #540514",
"b  c #5B0514",
"n  c #560719",
"m  c #480B08",
"M  c #650101",
"N  c #6C0101",
"B  c #630C01",
"V  c #6D0C00",
"C  c #740101",
"Z  c #7C0101",
"A  c #79070A",
"S  c #6B1403",
"D  c #601100",
"F  c #741402",
"G  c #7B1B02",
"H  c #751606",
"J  c #670517",
"K  c #73061B",
"L  c #780519",
"P  c #6C220B",
"I  c #443834",
"U  c #6E383D",
"Y  c #4B443E",
"T  c #434141",
"R  c #4A4948",
"E  c #555353",
"W  c #5A544F",
"Q  c #625A56",
"!  c #7D7A79",
"~  c #706A68",
"^  c #69615E",
"/  c #840101",
"(  c #8B0101",
")  c #88090B",
"_  c #930101",
"`  c #9B0101",
"'  c #970B0A",
"]  c #8C1408",
"[  c #971B04",
"{  c #870518",
"}  c #970418",
"|  c #991312",
" . c #A30101",
".. c #AB0101",
"X. c #AB060A",
"o. c #B40201",
"O. c #BC0301",
"+. c #BC0B01",
"@. c #B40806",
"#. c #A91605",
"$. c #BB1901",
"%. c #A50719",
"&. c #B4081C",
"*. c #B91718",
"=. c #892702",
"-. c #942201",
";. c #9E2308",
":. c #9F3302",
">. c #A52A01",
",. c #B32B03",
"<. c #BC3503",
"1. c #B13213",
"2. c #B10E24",
"3. c #C40301",
"4. c #CB0501",
"5. c #C40A01",
"6. c #CC0A01",
"7. c #C90808",
"8. c #D20601",
"9. c #D90602",
"0. c #D40A02",
"q. c #DB0C02",
"w. c #D30B09",
"e. c #DA0D09",
"r. c #D3050B",
"t. c #CC1200",
"y. c #C71701",
"u. c #D41301",
"i. c #DC1201",
"p. c #D31C00",
"a. c #DC1C00",
"s. c #DA150A",
"d. c #C4091E",
"f. c #E20D01",
"g. c #E50706",
"h. c #E31402",
"j. c #E91601",
"k. c #E41B01",
"l. c #EB1C02",
"z. c #E61609",
"x. c #F01E05",
"c. c #C92404",
"v. c #D52300",
"b. c #DB2200",
"n. c #DC2C00",
"m. c #D32C00",
"M. c #C83A03",
"N. c #DD3300",
"B. c #D63A00",
"V. c #E42301",
"C. c #EB2402",
"Z. c #E32C01",
"A. c #EC2C00",
"S. c #EA2D09",
"D. c #EB230A",
"F. c #F12402",
"G. c #F02C01",
"H. c #F32D08",
"J. c #E43401",
"K. c #EC3402",
"L. c #E43C00",
"P. c #EB3B02",
"I. c #EA370A",
"U. c #F33303",
"Y. c #F33C02",
"T. c #F4390A",
"R. c #EF3611",
"E. c #DC172B",
"W. c #CD1227",
"Q. c #E72738",
"!. c #DE2535",
"~. c #B7500F",
"^. c #B75822",
"/. c #D64704",
"(. c #D65009",
"). c #E44200",
"_. c #ED4302",
"`. c #EC4C01",
"'. c #E94809",
"]. c #F34302",
"[. c #F44C02",
"{. c #F5450C",
"}. c #F44B0A",
"|. c #FA4906",
" X c #ED5400",
".X c #ED5C00",
"XX c #E05C0A",
"oX c #F45402",
"OX c #FA5403",
"+X c #F45C01",
"@X c #FA5C03",
"#X c #F5520A",
"$X c #FB540C",
"%X c #FC5C0B",
"&X c #FD5B11",
"*X c #FA5513",
"=X c #F64914",
"-X c #EE6201",
";X c #EB6801",
":X c #F56301",
">X c #FA6402",
",X c #F56B01",
"<X c #FB6C03",
"1X c #FD640B",
"2X c #FE6C0B",
"3X c #F5660B",
"4X c #F57301",
"5X c #FB7402",
"6X c #F67C01",
"7X c #FB7B02",
"8X c #FE730C",
"9X c #FE7B0B",
"0X c #FE6314",
"qX c #FF6B14",
"wX c #FF7414",
"eX c #FE7B12",
"rX c #FB791A",
"tX c #8D3947",
"yX c #AC374A",
"uX c #C43D4E",
"iX c #877E76",
"pX c #867B6F",
"aX c #F68301",
"sX c #FC8302",
"dX c #FC8B02",
"fX c #FF820C",
"gX c #FB8C05",
"hX c #FD9402",
"jX c #FF9A03",
"kX c #FF920B",
"lX c #F89803",
"zX c #FE8315",
"xX c #FA8718",
"cX c #FF9214",
"vX c #FC9126",
"bX c #FB932C",
"nX c #86817D",
"mX c #9E9389",
"MX c #8A8684",
"NX c #B8AB9C",
"BX c #ADA29C",
"VX c #B6ADA3",
"CX c #BEB2A4",
"ZX c #B5B2AD",
"AX c #BBB6B2",
"SX c #C4B6A8",
"DX c #C3BCB6",
"FX c #CCC4BD",
"GX c #D3CFCD",
"HX c #FDFCFD",
"JX c #FFF9F0",
"KX c #E0D9D1",
/* pixels */
"Z Z ( _  .o.3.i.h.oX'.O._ _ ` ( / / ( Z C Z / ( Z Z / _ O.h.j.7X7X9.0.O...( ( Z Z / Z / _ _ ` ..4.4.q.[.:X>XO.o._ / / / Z / ( / / Z / (  .O.9.9.G.sX[.h.h.O.f.O. .( ` 3.o.4.4.Y.2X<Xq.3.` ` / Z Z C C Z ",
"Z Z / _  .o.3.L.L.OX=X3._ _ ` _ / ( Z Z Z Z Z Z Z C ( _ @.i.z.5X6X4.5._ _ / / C Z Z Z ( ` ( ` o.4.4.i.[.+X+XO..._ Z Z / C / / / ( Z / (  .O.0.0.K.sX|.h.s.o.z.o.` / ..O.X.O.O.Z.8X,X9.3. .` / Z Z Z C Z ",
"( (  .O.4.8XdXoX@X3.5. ./ /  .O...`  ._ ( ( / / ( _  .o.3.h.h.sXsXi.4.o.@._ ( Z / ( / ..O.3.3.8.:X:XoXoX:X:Xu.q.O. ._ / / Z Z ( _ `  .o.8.q.[.,X.XF.9.3. .` / Z Z Z Z / ( ` ` O.OXoX>Xi.4.3... ./ ( / Z ",
"( ( O.O.t.9XdX3.O.O..._ / Z ( ..O.6.7.( ( _ / / ( _ ..O.4.1X1XsXsX1X1Xf.u.` _ / / ` ` O.3.3.5.3.<X>Xo.O.a.P.fXcX6.X.` ( ( Z Z  .` o.o.3.0.a.3X6X6.0.O.` ( ( C Z / ( / Z Z ( ( ..6.3.7X[.+.O.O.o.` _ ( _ ",
"o.O.4.`.7XJ.q.3.3... .( / C Z _ `  .0.k.3.O. . .o.4.6.+X+X>X:Xh.Z.:X>Xq.0.5. ._  .O.3.8.l.$X+X@XA.4.O.O.q.P.fXhXq.4.O.` ` _ _ ..o.0.8.f.+X,X:XoX0.0.o._ ( / C C C ` _ C N / ( ` 3.8.+X>XsXdXK.4.3.3. . .",
"q.0.[.9X,X6.O.` _ / / ( Z Z Z Z / _ ..3.Y.Y.4.4.q.k.C.7Xi.5.o...o.q.6.gXzXq.3.O.8.h.h.+XoXJ.s.3.@..._ ( o.4.6.[.[.|.i.4.3.o.3.q.q.C.Z.<X}.q.6.q.q... .( Z C Z / Z Z Z ( /  ...O.{._.:Xq.0.e.`.hX Xq.0.9.",
":X:XdX5X%X4.o.` _ Z Z C Z / C Z Z `  .3.P.P.w.4.f.<X#X2Xa.3.O. .o.0.q.7XzXq.3.O.9.oX+XZ.v.p.0.3... .( _ o.4.5.[.>X1Xl.4.8.3.3.h.p.7X-X].Z.8.3.0.q... .( C C / / C / Z ( /  ...3.}.[.:X0.4.9.|.aX X>Xy.t.",
",X,XaX,X>X9.3.o. ._ ( Z N Z / C C / `  .6.i.<X6XsX-Xp.3.O.` ` ( / 4.O.a.v.,X_.[.aX+XOX0.4.3.o.` / / Z Z _  .O.4.i.b.,XF.C.i.i.,X2X1XN.0.3.` _ ( q.0.q... .( / Z / _ ` ....3.5.>X+XOX4.o.` ` 3.4.z.:XhXhX",
"4.5.h.5X5X0.O.O.` _ _ Z N Z / / / / ` ..3.4.4XgX6Xh.0.3.` _ ( Z _ @.O.z.v.<X5XaXOX0.4.4.o. ._ ( C C C / _ ` ..4.h.a.,X4X5X7XaX5X7Xl.q.0..._ _ _ ..0.h.O.@._ / / / _ _ 8.3.t.t.@X5.5.5._ _ _ O.9.0.6.A.[.",
" . .3.C.A.sXl.8.3.o. .` _ _ / _ _ ..O.4.G.A.dXu.h.4.3.` ( / C Z `  .@.4.0.dXkXC.4.O.O.` _ ( / C / Z ( _ / /  ...3.4.l.lXjX+X+Xh.h.4.O.` ` Z Z Z ( ` O.h.z.O. ._ ( ..3.h.h.,X5Xq.O.O.` _ Z C ( ` ..O.3.3.",
"` _ o.3.8.oXdX8X_.9.0.o. ._ ` @.o.q.u.1X<X2Xb.6.6.O.5._ Z Z C _ ..7.s.S.}.N.5.4.o.` ` / ` / Z Z ( Z C / / ( _ ` ..3.q.aX7Xf.h.4.4. ._ / / N C C / Z ` o.o.l.6.O.O.q.k.7X7XN.v.O. ._ / Z Z Z / / _ ( ` ..",
"/ / ( _ ..3.].7X>X0.8.O.o.o.o.O.3.9.q.:X:X,Xi.4.4. .O.o._ ( Z  .o.w.0.9X7XG.3.3...`  .Z _ / C Z ` ( C Z / /  . .3.6.h.sXsXf.f.3.5...` ( Z M N N / C (  ...0.0.4.O.4.l.dXaXh.q...` _ C Z C C _ ( Z Z _ ` ",
"N Z ( _ o.3.6.k.Y.:X<Xq.8.8.0.z.k.sXzXY.4.4.3...` ( ` .._ / /  .8.6.Y.gXcX0.0..._ Z Z ( Z _ ( Z ` / / / o.o.O.3.k.V.:XoXoX6.3. .` / Z C ( C N C / / Z ( _ ..j.U.{.sXgXf.i.O.o._ / Z C C ( _ / ( N N Z / ",
"C C Z C ( _ ..O.O.u._.7XN.}.S.rX7X).'.O.3.5.` ( / Z Z ( o.....O.$X:XoX:X8XA.4.4.` / Z Z Z ( ( ` / /  .` ` 3.4.q.2X2X).K._.K.I.o.o.` _ Z ` Z / ( Z Z _  ...3.0.}.<X,X+Xx.k.3.3. .` _ Z / _ _ ( / C C /  .",
"_ _ Z Z ( _  .O.3.0.A.5X+X,X2X7XaX0.0.3. . ._ _ ( Z Z _ .. .o.3.+XkX+X:X@X].4.3.O. ...Z / ( _  ./ _ .. . .o.0.i.4X9XH.R.K.T.Y.O.o. .( / C ( _ ` ( Z _ o.O.3.8.}.,XoX@XJ.P.3.3.o.`  .( _ C C C Z ( / _ o.",
"(  .( Z Z / Z ( ` 3.0.f.oXhX:XP.q.4.O.` ( / _ (  ./ Z / ( ..o.0.>X#Xq.8.4.<X'.q.O.....( ` O. .` ..A ] A 6.q.{.[.:X0X3.......C.V.C.o.o.` / Z / / _ ..O.4.3.].:XZ.h.O.3.OXoX+X+X4.3.3. ._ Z C C / _ _  .5.",
"C ` ..` ( N N Z Z _ O.3.B.4Xz.4.4._ ( / N N C Z _ / / ` o.5.w.%X9.6.o.o.O.h.7X5XT.F.C.i.6.o.o.O.0..   + n.7X,XsX0.6.o.( ( ` ..V.Z.[.{.6.3.` ` ` 4.6.D.2X1X[.6.o..._  .O.o.K.P.1XJ.D.8.O. ...`  .3.3.5.].",
"Z _ ..@.Z Z N Z Z _ ..3.m.6Xz.q.5.` _ / N C Z Z ( / ( ` O.4.0.+X0.3.o...O.j.eX7X|.C.F.q.0.O.o.3.  j j   +X6XJ.C.9.8...( ( _ ..u.u.OX}.0.3.......3.3.].<X<XK.8.o...( ` ..o.8.q.>XL.C.3.3....._  .3.3.4.oX",
"C Z ` ..( Z Z ( ( ..4.q.7XjXC.8.4.o._ _ / / C C / _ ` O.h.K.Y.h.O. .` / ( 5.6.8.4X6.0.O.k.C.Y.  h r t j   oX6.4.O.O... ...( (  . .O.t.[.oX4.4.4.[.6XA.q.0.3..._ / / Z _ ( o.o.4.%XoX4XY.4.9.4.q.t.6X8X_.",
"Z Z Z / ` _ (  . .8.&XeX[.`.%X}.}.4.O.O. .` Z / _ X.O.s.5... .o.' | A _ _ ..4.4.+X%X:.> : : : r t j g t ; + + : : N o.` ` _ _ _ ( #.%.#.$X+X6XdX.XJ.8.0.w.` ( / C C N Z Z ` ` ..o.o.0X2XOXz.4.R.oX8X&X3.",
"/ / C C `  .( ....9.>XsX}.[.+X<X:X8.3.O. . ._ _ ( o.0.k.o. .`  .       .`  .3.4.oX,XP         j t h j t %         O 3. .` ` ` ( / .     7.+XsXdXoXk.4.o. ._ / C N M M Z C ( ( ` 3.3.f.+X+X:XjXaX+X].4.3.",
"` ` C C / O.O.0.8.U.hXA.3.3.6.q.i.>Xv.9.3.O.` _  .h.s.` ( ` _   %.O   ....8.C.K.    r R R T   t g g g =   t t     q     ..` _ _ _   . {   6.%X>Xq.q. ._  . ./ C M N Z _ _ C C ( _ _ 4.f.z.7X<X6.3.4..._ ",
"O.3._ / `  .4.f.i.+X@X4.3.....3.O.Z.oX5X3.4.3...4.l.O._ _ ` )   !.7     o.3.+   T ! ! E g g t - g g g = t y     g t t - o 1 ....    + &.  | #X5Xk.3.O.` ` ( / Z C N Z _ ` N N / _ _ ..q.f.5X%Xq.4..._ ( ",
"4.6._ _  .0.i.zX$X&X$X4.O._  .O.3.i.$X<X6.4.3.3.q.+. .` _ O.'   !.1 +   O.| + o T nXMXE h g g = g g g = g r     g g t = o 3 *...  O 1 d.  1.%X,X%X4.5.5.5._ ( ( / ( / C Z _ ( / ..O.q.i.a.dX&X0.7. ._ ( ",
"3.3.o. .3.8.C.<X@Xq.4...( ( Z / _ O.6.6.:X:Xf.6.3..._ ..3.4.|   %.W.{   k   t E iXh j j g g g g s g g g y % s g g j g g r X   C.  2.E.}   ^.|.}.3X].9.3.3...` ` _ _ Z C C ( (  .O.3.8.,X5X].4.O._ _ Z Z ",
"5X5XF.0.C.5X7Xh.4.3...( / Z Z / /  ...3.k.k.sX+XT.3.4.s.I.S.1.  } W.Q.n   t T T g g g g g j g g g g j g g g g g j j g g t r w   z E.&.{   ;.4.O.q.OX[.+X%Xh.3.O.3._ .._ _ O.O.e.=X=X2X`.4.8.3./ / C / / ",
"L.L.OXq.C.7X5X8.4.O._ / N C N / / _  .o.4.3.I.>X1Xa.4.k.@X`.~.  L &.&.{ .     g g g g g g g g j g g g g g g g g j j j g t     o { &.%.L   ] 7.o.O...+.>X@X|.4.3.o. ..._ ` 5.3.q.2X>X,Xa.4.4...` Z C C Z ",
"4.7.:XdXdXh.8.3. .( / N Z / / Z C ( ` ( o.o.q.V.dX5X:X,Xk.3.'   J %.} E.} J c   t g g g g g g g g g j j j j g g j j j g   l K %.E.} } J   A X.( _ o.o.3.5.[.>XoXP.q.4.3.3.1X7X<X_.C.4.4.o..._ / _ _ _ / ",
"4.3.t.jXhX8.8.` / C C N Z / ( Z C ( ( ( ( _ O.8.dX4X1X8.O.O.]   z K L } d.} {   t g g g g g g g g j j j j j j g g g g g   K } d.%.L b v   | 5...` _ ( 3.3.3.v.).>X@XfXr.4.3X6Xz.4.3.4...Z Z ` C ( ..o.` ",
"`  .6.,X,XC.4... ._ / Z N N / Z M M ( .. . .0.K.sX,Xh.8.O. ._ O.  b v { } { K   g g g g g g g g j j g j j j j g g g g g   K } } } b v   o. .` ( C / / _ _  .O.3.b.+XdX3X:X[.T.3.3..._ _ C N Z ( Z Z _ / ",
"( / O.J.`.:X9.3.5.` ` / Z Z Z C N N ( / ..o.0.i.7X.X0.o.( (  .o.  v v b J L J   g g g g g g g g g g j j j j g g g g g g   b J L b b v   o.` ` Z C _ / C Z ( o.O.O.3.V.gXfXU.R.3..._ / / N N N ` _ Z C N ",
"( ( o.F.C.gXi.3.3... ._ / Z N / / (  . .4.4.A.5X+X_.0..._ ( (     , l b J .   t g g g g g g g g g g g g j g g g g g g g s     b b l +     ..` C _  .Z C Z / ( _  .4.i.+X:X8.8.` / ( C ( C N C _ O. .C C ",
" . .3.Y.{.4X5X%X#X8.3.o._ ( C ( _  .3.q.oXoX,Xa.k.].OX8... .O.  r         y t g g g g g g g g g g g g g g g g g g g g g g t r       @ =   _ Z Z ..6./ C C Z ( _ ` 3.q.6X7X0.0.o.` ` ( ` Z Z N / 4.8.O.O.",
"....3.].{.5X7X+X@X4.0.5.o...` ( _ ..4.q.oXoX4Xh.h.].oX0.o. .o.  R r r t t j s g g g g g g g g g g g g g g g g g g g g g g g t t r = = r   _ Z C  .4.( Z C Z / ` o.4.a.7X9Xq.0.8.O.o.( ( / C N / _ ( O.O.",
"3.5.k. XoX4.3.h.].5Xu.0.4.6. .o.o.0.u.<X].].8.6.O.3.a.OX4.'   r R y t t t g g g g g g g g g g g g g g g g g g g g g g g g g g t r r r r -   A ` ( C / ( ( _  .o.5.0.oX:X@X>X<X6.O.3.o. ./ / / ( Z / ( _ ",
"0.w.,X5.y.4.5.3.5.q.eXaXg.4.4.4.4.0.L.6X8.4.8...` 3.8.$X+X[   t I t g g g g g g g g g g g g g g g g g g g g g g g g g g g g g g g g t r =   A ` / C Z ( (  .O.3.Z.:X:XO.O.b.oX<Xo.O.3.4.O.o./ / Z ( _ _ ",
"7X7X,X3.3...` 3.O.0.8X6X<X<Xl.q.q.hXcXC.4.4. ._ ` ..3.9.+X~.  T g g g g     g s t   g g g g g g g g g g g g g g j g   g g g     g g g g r   ) ..` _ / ( O.O.0.0.:XqXh.O.O.3.5.,X:X@XK.8.3.3..._ ....O.O.",
"8X5X8.3.@.( ( (  .o.6.4.0.q.,XgX5X+XN.0... .> .       O.0.P   T t g g g X o r t t o g g g g g g g g g j g g j j j g o t g t   % t g g g r   N O. .      O 1 @X@XJ.0.O._ _ ..o.3.6.4.+XoXN.N.4.5.0.4.O.5.",
"q.f.O.` _ Z N Z Z ..@.3.q.q.4XhX,X+Xn.f.....o         | 0.O   h g g g g g r       g g g g g j g g g g j j j j j j g t       r t g g g g t   < 3.)           :XP.j.3.o.( / ` o.O.0.4.n.n.<X:Xq.4.q.j.,X<X",
"` ` ( Z / C C C N _ ( ( o.o.6.<X<Xq.F       = E u % I   U.O   g g g g g           g g g g g j g j g g j j j j j g g g           t g g g t   < 6.  Q . t y X       O _ / Z ( / Z ( ` O.O.8.k.:X8X8X4Xb.8.",
" . ./ Z Z C C C C ( _ (  ...0.,XeX  & u u u - %     %   Z..   g g g j     HXGX    o X g j j j g j g g j j j j j j X   HX        X g g g t   > Y.  X     % = q = q q   + / ( / Z _ _ O.O.8.h.,XkXaXk.8.4.",
"/ / C N N Z C / / C _ Z _ o.3.    r -     X % - % %   3.i.+   t g g g   h HXHX        g j g j j j g g j g j j j g     HXMX        g g g t   > :XJ.  % % % % X o o % = %   : / N C C Z _ O.4.aXv.0.o.o.( ",
"`  .Z C N / / ....C / Z _ ) ] % = r @ O # # % - - *   0.K.O   t g g g     o =         g g g g g g s g g g g g g g     o           g g g r   < n.@X  = - % % $ .     - = - : ) C Z / ( ..0.S.5X+.4.o. ._ ",
"` ` / Z N Z Z o...C Z  . .    = =   4 7 l 6 - % % =   9.U.O   r g g g     .           g g g g a a a u a g a g g g         y       g g g r   1 0.oX  = % % % 4 0 6 2   % * =   Z ( ( _ ..0.A.;X+.3.` ( ( ",
" . ._ _ _ /  ... .Z ` ..  - =     l b c x 4 % ; % =   t.i.+   e t g g   7 l .   v     j g g g G .X.X.X.XG g g g g   . 7     v n   g g t =   1 0.9.  = X X % $ 9 z v l ,   @ =   X. .o.o.<X4Xq.6. .( Z C ",
"o.o.` ( / / _ Z ( _  .  * =   c v J J 7 5 - 4 $ . %   #._.p.a.  y t g t   } %.&.{   t g g i G rXbX;X4XxX<XG I g g t   { %.&.&.  t g s y   O.3.O.' o =   @ , % 5 7 J J z z 0 - *   O.4.4.4X5X4..._ ( C C ",
"6.6.o._ ( / C / ( ..  - ; 8 z K K K v 5 q 4 9 $   X -   t.i.k.  r t g t t . . . . g t s P =.rXB ;X5X8X-XM 3X=.P g t g . .   . j t t r =   a.+...  - %   # 8 4 4 5 v K K L b , X -   0.i.8X-X3...( Z Z C ",
"8.8.3.o...` ( ( ` o.  X       J K L l 5 = 5 9 4 . X =   5.k.F.  = t g p s o     o t d g ] [ vXF ,X<X,X,XS ,X;.G s g g         f g t t =   h.....  = %   # 8 4 4 5 l L K n       %   g.h.>X'.o.` Z N N C ",
"sXgXq.3.5._ / _ _ (   ) _ ( 6.< . J 8 & 4 8 v 6 8   ; -   c.k.  = r y uXU tXg t g t u -.xXvX3X/.2X4X8X8XM.(.3X<X=.s p g g g tXU yXq = -   A.V   - %   , 6 c 5 & & 8 K   > ( ( ..*.  4X4Xh.i. ./ Z Z C C ",
"qXwXOX+.@.4..._ ( N ( ` ..o.0.M > c % 5 8 b J z 2 0   % =     P.. w w y d j g g t -.(.zX3X;XvXxXrX3X3X3X,X,X.X:X,XXX=.g g g g u r = X   O.  X - %   8 6 7 b n 8 4 & n : 1 ..o.4.h.k.5X5X4.4.` _ _ C _ ` ",
"q.q.,X,X>X4.3._ _ Z Z ( O.O.4.I.].7 * 5 2 b J 7 7 8   % - = @ O . X = y g g g g g -.(.8X8XeXvX-X/././.'.8X,X:X,X2X(.-.d g g g t r = X   +   = = -   2 8 7 J b 2 5 & 7 X.o.o.o.4.rXfX5X5X3.3.` ( ( / ( ( ",
"o.o.8.P.<Xf.4.o.o._  .O.8.4.[.fXdX  & x b K J l 7 v 0           X     = r r t t r H >.,./.M.>.B B k k k k >.M.M.,.>.G y g t r r =     X           9 c 8 7 b K b x 5   4.8.h.V.>X9X6XdX#XoX.X4.o.` ( C Z ",
"` ` 3.3.t.>X<Xq.q.5.4.0.2X2X6X X`.  8       z l l J z   t g h t   y R   - = r r r % X m F F D M.B.B.B.B.M.S S F k   X r r r = -   Y o   = r = -   l J 9 l z       8   7.8.:X:XJ.6.4.3.u.9X5Xh.4.4.o._ _ ",
"_ _ O.3.i.>X>Xq.q.3.3.q.5X,X<X`.|.  , . . . z l l J 2   y h h t X q a o   = r r r = X m S S ,.<.M./././.<.<.F H . X - r r r =     a X o r t r =   7 v x x z   . . 0   ,X5X>XoXq.8.3.3.q.wX5Xk.8.4.o.` _ ",
"N N (  .o.4.k.>X>XP.gXaXG.h.4.0.4.    O.h.j.  9 v .   T ! j h g t = = X X   o = r r r -   + [ -.-.-.-.[ [ -.:   - r r r =     o X - = r t h h j r   . v x   A.V.R.    k.a.3.4.O...` ( o.4.8.<XsXL.q.3.4.",
"C C ( _  .4.4.>X:X6Xa.h.4.3.4.....( 6.8.oX[. ..   g T ! h g g g g t r   % % ;     = = = = =                 = w = = =     X X X   = t t g j t h h r     : X.3.OX+X0.5Xi.h.O.o._ _ _ ( _ O.o.4.0._.<X3.6.",
"( ( C Z _ O.3.<X5X8Xu.f.4..._ ....` ` ` 3.O.u.<   ! ! j s g g g g g g e   = AXDX%     X = - = = = = = = = = - = %     X ZXFXX   = t t s g g g g T g r   : 5.}.Z.n.4.6.4.3.` ( C C N M Z ` ..3.4.t.b.sXsX",
"Z / C /  .O.4.6XdXj.f.3...` (  . ./ ( _ o.o.6.+   nXMXj g g g g g g g r X @ DXVX-       o X = = = = = = = = = X       % BXFXX = = s g s g g g g h j t   : 5.OX6.8.3. .( _ ( / Z Z C C Z ( /  .4.4.a.aXsX",
"Z Z _ ` 3.q.G.5XK.q.e...` ( / C C  ._ ( ....  t t h T g g g g t j j g g X ~ ~ & o - - ~ ; X                 X - Q ; ; X - ! ~ o s g s s t g g g g j j = %   8.O.O.` _ ( ( C C N Z / ` / C Z ` ` o.3.0.K.",
"( _ ..8.f.<X<Xj.0.O.` _ Z C N _ ( Z C N ( (   t h g g g g g g t j j j j s o   X   - - KX= X % % % W ^ X ; % % % KX- %   X   o t g g g g r g g g g g g r =   o.` _ Z Z N N / _ C ( ( / _ C N Z / _ ` 3.3.",
"( ( ..8.f.5X5Xl.9.o.` ( C N N ( _ C Z N / /   t h j g g g t r y g g g g g X - =       MXo o - -   W Q   ; % X o nX      = % % g g g g g r r g g g g g r =   o.` _ Z C N N _ _ C ( _ / ( Z N C / ( _ 4.3.",
"3.4.q.L.5Xk.h.4.O.` .._ / Z N Z Z _ ` / ` `   t g g g j g - = g j j j g g g g g t =             NXNXCXmX            = r g g j j j j g g t % t t g g g r =   3. ._ / ( N N C C / Z Z N N C Z ( _ ..O.6.U.",
"8.6.<X[._.r.4._ _ Z / ` / Z C / / C ` O.o.o.  r t g g g r % r g g j j g g g g g g g t y = = o DXJXSXSXFXVX. = r r t g g g j j j j j j g t = % r g g t r -   q.O.o. . .Z C Z Z ( .. .C C C Z ..o.0.i.N.6X",
"<X<XjX`.].4.3.` _ Z / ( .. ._ Z Z N ` o.o.O.  r t j g g t - r g j g g g g g g g g g g t r r   SXSXSXCXmXmX  r r r g g g g j j j j j j g g = X t g g g r -   q.3.O._ / Z Z C C Z X.( / / ` _ o.3.0.P. X5X",
"}.#X6X0.0.o.o.( ( N / / / / Z Z Z Z (  .4.4.  r r t g g X t t g g g g j j j g g g g g g g s   VX  SXCX  CXX t g g g g g j j g g g g g g s = X ; s s y = -   +XO.3.O. .( _ Z Z Z C N / ( X.X.8.8.Y.5XqXq.",
"0.9.+Xu.q.O.../ Z N N Z C / N C Z ` ` 4.8.8.  - = r t t X t t g g g g g j j g g g g g g g g   pXCXmXiXCXpXo t g g g g j j j g g g g g g t w X o t y r = %   >X<Xb.q.9.....` _ _ Z Z / _ O.4.4.v.,Xq.3.o.",
"8.6.OXL.].4. ._ / C C Z C Z / _ ` _  .0.G.A.  r = t t t X t t g g g g g j j j g g g g g g s w o NXCXNXNXX r g j j j j j j j j g j j g g t r X o t y r = *   u.}.[.].9.5.3.` (  ./ / ( ..5.6.].oX1X9.3.o.",
"o.o.q.sX9X3.3._ ( ( / C M M Z ` ` ..O.q.,X5X7X+   = t r   r r t j g g g j j g g g j j j g g y   iXI Q pX  t g j j j j j j j j g j j j g t r X o r r =   : O.8.k.5X5X5X8.9.o... ./ / ..3.q.i.gX9Xf.3.@._ ",
"_ _ 4.>X+Xk.4.O...` _ ( Z / (  ...q.q.G.sXaX8.>   - = = o r r r g g j j j j j j g j j j j g g t         t g g j j j j j j j j j j j g t r = o o = = =   O _ ..O.3.i.7XOX|.q.0...o.O.0.a.[.5XdX9X0. .( ( ",
"/ ( 3.4.4.>Xh.4.O._ _ / / /  .O.8.C.J.6XG.h.0.>   * = = o r r y s g g j j j j j j j j j j j g g s t t t g g g j j j j j j j j j j j t y r = X o = = =   + _  .@.3.4.q.aX6Xq.6.0.8.9.>XfXfXoX4.6.O...( ( ",
" . ./  .3.*XsX[.q.O...` ` ` 0.h.h.9X9XsX0.0.O. .X.  = = X = = t y g g j j j j j j j j j j j j j g g g g j j j j j j j j j j j j j j t r r - X X - X   ) ( / Z ( _ ` 3.h.i.5X8Xf.V.%XaXa.q.8.4.@._ Z C C ",
"( ( / ` O.0.sX7X%X9.6.` _ _ q.qXfXaXwXl.6.0. .`  .`     - = - r r y t j j j j j j j j j j j j j j j j j j j j j j j j j j j j j g t t r = - - -     C Z Z C ( / / _  .q.q.{.).cX8X7X0Xu.q.w. ._ ( / Z C ",
"C Z / /  .4.C.2X6X9.q.4...o.0.8XdXV.k.4...../ C / ` C   - = = r r y t g j j j j j j j j h h j j j j j j h h j j j j j j j j j t t t r r = - - -   k C Z Z C Z C C C / O.O.f.b.jX5X5Xq.4.o...( / C Z Z C ",
"N C  .( / o.0.%XOX].V.0.4.4.5X5X>X4.4.o._ ` ( ( N Z N N   = - = = r r t t t j j j j j j h h j j j j j j h j j j j j j j j g t t t r r = = - X   M C Z Z Z C N N Z _ ` _  .3.O.6Xe.q.o. ./ ( N C Z N C / ",
"N C  .` / ` 4.q.q.5X7XhX5X7XsX+X[.i.7._ / / ( ( N C Z ( / .   = = r r t t t g g j j j j j j j j j j j j j j j j j j j g g t t r r r = = -   : k k Z Z ` _ N M N C ( ` o.o.k.b.:Xe.0.o..._ / N / Z Z N C ",
"C / / Z / _ ..9.q.dXaXjX7X7XaX+X[.6.6.o./ / C C / _ _ C C     - = = = r r r r r t g g g j j j j j j j j j j j j g g g y r r r r r = = - =   : k M / Z / / / C Z (  ...4.9.b.m.:X3.3._  .( ( C N / ( C Z ",
"N Z Z C ` _ _ 3.3.jXlXU.4.4.0.V.2XC.u.3. . .Z / ` _ Z N M N C   = = = = r r r r r r r r r r r r r r r r r r r r y r r r r r r = = = = =   N N N M C C C Z ` ( / ( ..3.i.i.7X5X:XZ.6.3...( _ Z C / / C / ",
"Z Z Z C C  .o.q.z.5X4Xq.8.o.O.q.q.5XwXa.3.3.` / _ Z N M Z / ` /       = = = = r r r r r r r r r r r y y r r r r r r r r r = = = =       C N C Z C M N C N Z _ _ ..8.q.:X,X4.4.q.%X+X0.3.o. ._ ( / C Z / ",
"` _ _ (  .6.0.K.`.C.C.4._ ( _ ..o.0.t.4X#X*XO.X.X./ / C _ / / _ ' X.@..     o - = = = w r r r r r r r w r r r = w = = = -         ` ( _ Z _ / / Z N Z ( ( ` O.3.4.K.,Xk.a.3.3.3.b.Y.6XS.3.4..._ / / C C ",
"_ _ ( ( ` 0.q.:X<Xl.C.3.` ( _ o.o.8.5.5X+X+XO.O.o./ / C ( Z Z _ ` @.3.      X * = = = = = = = = = = = = = = = = = - = = -          .` _ / _ Z Z C N Z / _ ..3.4.8._.4Xi.h.3. .3.V.K.aX{.5.4...` / ( C C ",
"Z Z ` 3.3.q.V.4XZ.4.4.` ( Z Z _ _ o.O.0.oXoX[.4.4..._ / ( _  ...4.i.i.,.#.#.S                                             ] [ #.#.6.3.o. .( ( / C / ( ..o.4.h.#X:X_.q.O.O._ ( ` O.3.9.:X@X}.8.3._ _ Z Z ",
" . .O.j.l.dXaXf.3..._ ( Z C / Z Z _ ` 3.q.i.<XgX+X8.8.O...O.3.0.A.5X5X<X:Xb.o.O. .` ` _ _ Z Z C M M M Z ( ( _ ( _ `  .#.$.I.b.%X%X6X Xh.4.o...` (  .3.0.0.OX7XP.C.6.o._ ` ( Z (  . .3.9.[.7Xk.0.4.o.` ` ",
"`  .O.j.z.sXzXq.4.+._ / N N N / / / / ` 6.6.{.%X+X6.4.O.o.3.3.Z.1X>XwXN.J.Z.y.$.O....._ ` C Z Z M M N Z _ ` ` ......c./.y.o.O.3.O.wX`.V.5.4.O.o._ o.3.v.n.:XqX+.5.w._ ( ( / Z Z ( _ ..6.I.qXZ.6.6.o.` ` ",
"8.0.F.aXsXA.q.4...( Z N C C / / ( ( / _ ....4.0.5X<X+Xj.i.7XsX7XoX5.0.4.4.Y.8X<X9.o.o.( Z C Z / M M N C Z ( o.O.N.v.>X,Xi.3.3.O.O.q.=X:X[.1Xa.0.4.0.}.5X9XoX8.3.o.` ( Z Z C C C Z Z ( o.3.8.@XsXkXY.4.4.",
"8.0.C.dXgX0.6.` ` / / C / C / _  .O.( Z ( _  .3.q.&X2Xk.h.7X7X`.0.6.6.` o.4.I.J.@X4.8.o..._ ( Z Z Z ( _ ..O.3.q. X+Xk.3.o._ _ / /  .4.4.%X5Xp.0.5.6.<XJ.n.4.O. .( / ( N C / N C C C ( ( o.4.u.qXkX].4.4.",
"5X5XjX@X+X0.8._ ` / / Z N N Z / / _ Z C ( / ` 5.0.&X:XjX5Xk.h.8.3...` ` ` 4.0.0.:X4.4.....( Z N C Z / (  .O.3.@XU.0.4.3. ._ Z Z / ` o.3.9.OX5X5X7XjX>Xq.0.O. .( / Z / Z ` _ _ / C N N ( ` o.q.l.@X5X:X:X",
"oX%X9X7X5Xi.o. .( Z ` ` _ Z ( C C Z ( ( / / ` ..0.0XdX:Xh.8.4.O.` _ ( / ( _ O.O.OX>X>XC.5.O.O.` ( ( ..O.0.+X X[.8.4...` ( / _  ... . ...O.4.k.l.,X%Xq.3.O.` / C C M M N N C Z o.( ( Z Z ( _ o.8.`.6X:X:X",
"q.q.q.8XsXH.3.3. ._ ` ( C C N / / C Z Z `  .o.8.h.1X6X0.3.` ` / ( ( / ( /  .`  .O.6.4.+X<X_.q.3.O.O.0.K.8X+Xp.6.o...( Z / N N / Z C Z / _ O.4.3.7XrX8.` _ / / / / C C N N N C Z Z C / (  .@.0.D.oX5X0.6.",
"..6.0.wX7XU.4.3...( ` Z N N N C Z C C ( ` ` i.z.n.1X4Xq.3.` ` / / ( ( / Z _ `  .O.4.4.@X:X_.h.O.3.O.0.P.6X+Xt.q.O. ._ Z Z C N C Z C Z / _  .4.3.6XeX4.o. .( Z / ( ` / / Z N C Z C Z Z _  .O.0.H.oX,X0.8.",
" .` O.s.u.dXh.e.8.O..._ Z C M / / ` ` o.9.9.l.z.5XoXh.3.` / / 4.Z ..../ Z ( ( /  .O.O.4.k.1X5XC.q.i.:XsXl.8.3.O.` ` / ` ( ( ( N N _ _ _ o.6.0.4.dXcXY.0.0.3. .` _ _ ` C C  .( C / /  .O.3.4.].>X}.0.O. .",
"( ( ` O.o.4.,X#X9.o.o.` / / C / /  . .o.9.9.kXkX`.v.4. .( Z C ( Z Z / / / / ( Z / _ _ ..4.q.l.>X5XdX3X].4.3. .` / / C N / Z / C N C ( ` o.4.i.z.-X-X@X0.8.3.o.` _ Z / C C  ._ Z _ _ ` O.u.i.6X5.0.3.` ` ",
"/ / _ ..o.8.q.2X2Xh.s.4.....( `  .4.4.q.[.[.dXgX<X).8...( Z Z C C Z / C Z C C ( / / / _ ..3.9.5X5XoXi.q.3.( _ ` / Z N M C ( ` ( ( _ ..o.4.h.1X,X:XoXoX7X9XOXq.4.3. .` ( / ( / _ ..o.4.f.].4Xl.3.O.` Z Z ",
"Z C C Z ` o.4.$XoX8X*X0.o...( `  .8.0.+X4X7X0.3.a.+XS.3. .( / / N ` ` / Z N C ( / / / ` 3.4.q.aXkXoXoXC.3.o.` _ Z C N M Z _ ( Z / _  .O.q.7X>XJ.4.O.4.m.c.OX2X5.3.o.` ( ( _ / ` O.9.j.4X5XoX4.3._ ( _ N ",
"( / ( / C _ ..3.3.<X7XsXl.q.O.6.8.9XfXkXu.u.6.6.3.v.1X1Xi.3.O.` / Z C _ ` C Z ( ` o.o.4.q.8X5XoXoXP.[.<X$Xh.4.5..._ / Z N / /  .o.4.h.C.9X[.t.4.3.@.o.3.3.6.7XsXgXk.8.O.O. .` 4.4.k.8X[._.p.o._ / Z Z ( ",
"( / ( ( C _  .3.3.6.t.7XC.q.O.6.0.aXdX$X9.0.o...O.3.J.,Xq.O.O. ./ / N ( / N Z / ` O.o.3.h.eX4XA.q.q.b.<X@Xj.4.4..._ ( N N Z ( ....4.i.C.7Xk.4.4..._  .O.O.O.3.#X+X'.'.4.3...o.7.4.J.6XU.q.0...( ( / C ( ",
"( _ C C ( C _ `  .4.4.q.lXgXoX<XsXD.x.4. . ._ _ _ O.O.q.>XZ.A.3. .( ( _ ` ( `  .O.q.f.<X@XJ.0.O.`  .O.3.h.,X X[.4.3..._ _ `  .9.0.l.%X7X9.3...` / C Z ( _  .4.0.q.:X6XK.U.0.q.:XsX X9.3.o. .( ( C M C / ",
"Z Z C Z / N C _ _ ` 3.4.p.b.aX8XJ.0.i.o.( _ ( / (  .o.4.t.<X>Xa.3..._ ` ` `  .7.0.8X5XOXe.9.3.` ( (  .3.3.a.oX5Xa.6.O. .( ` o.D.S.aX).u.8. ._ _ ( C Z C Z _ ..o.o.3.8.<X,X2X>XsX:Xu.q. ._ ( Z Z C C Z ( ",
"N N ( / C ( N C ( _  ...0.q.dXrX0....._ ( ( / Z C / / ` o.4.P.>X4.O.O.` _ ..o.3.[.`.`.4.3.O. .( Z C ( _  .3.5.Y.5X%Xq.o.o.o.3.8X8XK.t.3..._ / / N C Z ` / C / ( _ O.3.Z.J.sXdXl.6.O..._ ( / Z C /  .C C ",
"/ Z C Z Z Z Z / Z ( ( ..3.3.5X&X0.O.@._ / / C Z / Z _ ( o.3.5.&XP.I.3.O.o.4.5.J.1X5.5.4...` _ Z C N / ( ` O.O.O.0X&X_.y.O.O.+.8X8X6.3.O.` / Z Z Z C C Z C / ( / Z _  .4.4.8X7X4.4...` / ( / Z C C Z Z / ",
"/ / C Z / C _ _ N / / ` O.5.4X'.4. .` ( Z C C Z C C Z ( _ ..o.4.+X%XP.3.3.4.6.:X+X5.3..._ ( ( C C N Z Z ( ` ..o.O.O.:X@Xi.a.5Xi.f.O.o.` / / C N C C N C C / _ Z C ( _ o.3.8X4X3.3. ._ C Z ( Z C N N Z ( "
};
