/* XPM */
static const char *gothic_duck_155[] = {
/* columns rows colors chars-per-pixel */
"155 155 256 2 ",
"   c #020202",
".  c #0B0101",
"X  c #0C0C0C",
"o  c #080707",
"O  c #140000",
"+  c #1B0000",
"@  c #140C0D",
"#  c #0F0E11",
"$  c #170E10",
"%  c #141414",
"&  c #1A1415",
"*  c #1B1B1B",
"=  c #191818",
"-  c #0F1110",
";  c #240000",
":  c #2B0000",
">  c #27070D",
",  c #3B0201",
"<  c #350306",
"1  c #240B11",
"2  c #2C0B12",
"3  c #2B0712",
"4  c #330612",
"5  c #3C0611",
"6  c #330912",
"7  c #3B0913",
"8  c #211518",
"9  c #2F231B",
"0  c #1F1F21",
"q  c #261F20",
"w  c #242424",
"e  c #2B2B2B",
"r  c #282628",
"t  c #322D2E",
"y  c #3A2C25",
"u  c #2D322E",
"i  c #35312E",
"p  c #2E2F31",
"a  c #332E32",
"s  c #333333",
"d  c #3B3B3A",
"f  c #3B3736",
"g  c #2D3232",
"h  c #1D2120",
"j  c #490503",
"k  c #570603",
"l  c #440613",
"z  c #4B0513",
"x  c #450915",
"c  c #540514",
"v  c #5B0414",
"b  c #570916",
"n  c #531103",
"m  c #650101",
"M  c #6C0101",
"N  c #670A05",
"B  c #740101",
"V  c #7C0101",
"C  c #770907",
"Z  c #6A1401",
"A  c #781702",
"S  c #6B051A",
"D  c #660517",
"F  c #760419",
"G  c #492618",
"H  c #750E21",
"J  c #472B23",
"K  c #433D3B",
"L  c #5C3538",
"P  c #702C1F",
"I  c #47423D",
"U  c #734300",
"Y  c #413F40",
"T  c #444343",
"R  c #4B4948",
"E  c #524B46",
"W  c #595757",
"Q  c #55514C",
"!  c #625855",
"~  c #7A7877",
"^  c #6E6964",
"/  c #646055",
"(  c #3F3A41",
")  c #840101",
"_  c #8B0101",
"`  c #87090A",
"'  c #930101",
"]  c #9B0101",
"[  c #9A080A",
"{  c #871A04",
"}  c #921F01",
"|  c #9D1802",
" . c #880517",
".. c #980518",
"X. c #991614",
"o. c #A30101",
"O. c #AC0201",
"+. c #A70708",
"@. c #B30201",
"#. c #BC0201",
"$. c #BC0A02",
"%. c #B70707",
"&. c #AA1703",
"*. c #B61901",
"=. c #A80519",
"-. c #B6071C",
";. c #A01C17",
":. c #892304",
">. c #942202",
",. c #9B2505",
"<. c #95360E",
"1. c #A82B01",
"2. c #B62A00",
"3. c #AC3201",
"4. c #B63801",
"5. c #B02714",
"6. c #8D1025",
"7. c #AD1326",
"8. c #B52034",
"9. c #C40301",
"0. c #CB0501",
"q. c #C40A02",
"w. c #CC0A02",
"e. c #C80808",
"r. c #D20601",
"t. c #DA0602",
"y. c #D40A02",
"u. c #DB0C02",
"i. c #D80B09",
"p. c #C41200",
"a. c #CC1300",
"s. c #CB1B01",
"d. c #D41300",
"f. c #DC1301",
"g. c #D41B00",
"h. c #DB1B00",
"j. c #DA1209",
"k. c #C40B1E",
"l. c #E20E02",
"z. c #E50E07",
"x. c #E31402",
"c. c #E91601",
"v. c #E41B02",
"b. c #EA1C03",
"n. c #E51809",
"m. c #F31E08",
"M. c #D42300",
"N. c #DB2301",
"B. c #DC2C00",
"V. c #D72A03",
"C. c #C93801",
"Z. c #DA3701",
"A. c #C92604",
"S. c #E42301",
"D. c #EB2302",
"F. c #E42C01",
"G. c #EC2C02",
"H. c #E72709",
"J. c #F22D03",
"K. c #F22605",
"L. c #E43400",
"P. c #EC3302",
"I. c #E43A01",
"U. c #EC3C01",
"Y. c #EA350A",
"T. c #F13402",
"R. c #F23C02",
"E. c #F53A09",
"W. c #EE3911",
"Q. c #DA182A",
"!. c #D2162B",
"~. c #DA2437",
"^. c #E42033",
"/. c #91460B",
"(. c #D94802",
"). c #CA450F",
"_. c #EC4201",
"`. c #EC4C01",
"'. c #E94505",
"]. c #F34301",
"[. c #F34C02",
"{. c #FB4B0B",
"}. c #F64807",
"|. c #ED5301",
" X c #EE5B00",
".X c #E55901",
"XX c #F45402",
"oX c #FA5403",
"OX c #F45C01",
"+X c #FA5C03",
"@X c #FB530B",
"#X c #FC5C0B",
"$X c #F4530A",
"%X c #FA4B14",
"&X c #FD5812",
"*X c #EE6601",
"=X c #F56301",
"-X c #FA6402",
";X c #F56B01",
":X c #FA6C02",
">X c #FD640B",
",X c #FE6B0B",
"<X c #F56809",
"1X c #F57301",
"2X c #FB7302",
"3X c #F67B00",
"4X c #FB7C02",
"5X c #FE740B",
"6X c #FE7B0B",
"7X c #F77809",
"8X c #FF6413",
"9X c #FF6B13",
"0X c #FC6719",
"qX c #FF7313",
"wX c #FF7B12",
"eX c #FB7716",
"rX c #ED6F12",
"tX c #F75422",
"yX c #E36022",
"uX c #923A45",
"iX c #AD384B",
"pX c #CE3648",
"aX c #847D78",
"sX c #84796E",
"dX c #C74152",
"fX c #F68300",
"gX c #FC8302",
"hX c #FC8B02",
"jX c #FE830B",
"kX c #FB8C06",
"lX c #FD9303",
"zX c #FD9B02",
"xX c #FF930A",
"cX c #F69500",
"vX c #FF8413",
"bX c #FF8A12",
"nX c #FC851A",
"mX c #FF9217",
"MX c #FD8B25",
"NX c #FB9A30",
"BX c #FFA005",
"VX c #8D837A",
"CX c #FF9E43",
"ZX c #918C89",
"AX c #A59D95",
"SX c #A3978C",
"DX c #B2A69A",
"FX c #BCB2A6",
"GX c #B4ABA3",
"HX c #C4B6A9",
"JX c #C8BDB2",
"KX c #D1C7BC",
"LX c #E4DED9",
"PX c #FAFAFA",
"IX c #EEE9E8",
"UX c #DDD6D3",
/* pixels */
"V V V _ _ ' o.o.@.#.9.f.f.N.XXXX$.9.9.' ' ] ' ' ) ) ) ) _ V V V V V _ ' _ ) B V ) _ ' #.9.u.c.c.4X4X4Xy.r.y.#.#.@._ _ _ V B V V ) V ) ) ) _ ' ' o.O.@.w.w.i.f.}.:X=X=Xq.#.#.o.' ' ) ) ) ) V V ) _ ) ) ) ) V V _ _ ' o.@.@.u.t.J.T.gXhX[.T.b.c.#.9.l.l.O.o.O.' ] ] 9.#.o.0.w.P.R.R.;X;Xt.t.t.9.] ' ] ) _ ) V V B B B V ",
"V V V _ ) ' o.o.@.#.9.f.x.g.XXXX@.#.#.] ' ] ' ' ) ) ) ) ) V V V V V V ) ) V B V ) _ ' #.#.u.c.b.4X4X4Xr.r.w.O.O.o.) _ _ V B V B V V ) _ ) _ _ ' o.O.@.w.0.y.f.}.:XOXOXq.#.#.o.' ' B V ) ) V B ) ) ) ) ) ) V V _ _ ' o.#.#.u.t.J.P.gXgX}.T.c.c.#.#.l.l.O.] ] ' ] o.#.#.o.0.w.P.U.R.=X=Xy.t.y.#.] ] ' ) V ) V V B M V V ",
") ) V _ _ o.#.#.$.9.9.6X5X,Xg.a.@.%.$.' ' o.o.O.] ' _ _ V V V V V V B B V _ V B V ] ' o.o.9.r.w.;X4XgX9.9.9.] ] ' _ ) ) B B ) B V V _ _ ' _ ' ] %.9.9.0.0.v.L.OX2XOXOXq.9.#.O.' ] ) ) ) V B V ) ) _ _ ' _ ) V ' ' ] o.w.w.t.u.E._.fXfXd.r.r.w.O.O.o.o._ _ _ ) o.+.] ] _ ] o.#.#.@.2X6Xd.u.r.#.@.O.' _ ' ) V V ) B V V ",
"_ _ _ o.o.#.0.j.vXhXlXOXOX#X9.9.@.o.] ) ) _ o.O.9.@.o.o.o.' ' ' _ _ ) V ) ) ' ' o.@.@.e.0.f.x.x.gXgXgXf.0.0.#.#.@.' ' ' B V _ ) _ ) [ O.@.9.9.9.w.r.w.-X-X+XoXXX=X=X-X].d.y.w.#.#.] ' _ ) _ V V V ) _ _ ] ' ' o.o.#.r.t.u.>X:XlXOXG.D.t.0.9.o.] ] ) _ V V V V ) V ) _ _ ' ' #.#.#.$XXX-X;X,Xx.0.9.%.O.O.] ) ) _ ) V ) ",
"_ _ _ O.O.9.0.v.wXgXhXOXOX&X9.9.@.o.] ) V ) o.O.#.@.#.9.e.' ' ' _ _ ) V ) _ _ ' o.O.@.$.0.f.x.c.gXgXfXh.e.r.#.@.O.' ' ' V ) ) ) ] ] O.O.O.#.9.9.w.e.a.=X-XOX|.XXOX=X+X].d.t.y.#.#.' ' _ _ _ B B B ) ' ' o.] ] 9.9.w.w.u.u.#X=XxXOXG.G.y.9.9.o.] ] _ _ V V ) V V V ) _ _ ] ' @.#.9.XX[.;X;X,Xl.0.9.@.O.%.] _ _ _ ) V _ ",
"' ' ] 9.0.W.I.].bXlXxX9.0.9.@.@.' _ ' ) V B ) _ %.@.y.y.w.' _ ' ' ] ) V _ ' ' ' O.#.#.9.w.|.-X;XjXjX6X;X;X;Xu.u.i.o.O.o.) ) _ _ ] o.#.e.#.w.a.w.s.a.M.,X,XM.$.$.w.y.d.5XhXcXmXw.9.] o.o._ _ ) V ) _ O.O.#.9.q.0.9.9.w.[.[.nXhXF.y.r.0.@.o.' _ ) ) B B V B V _ _ _ V V V ) ) ' o.o.r.0.qX4XvX#Xs.a.#.#.0.@.o.] ' ' ' o.",
"@.@.#.r.w.qX4X;XP.u.l.9.9.9.O.O._ ' ' ) V B V ) ] O.0.0.r.b.b.9.#.$.o.o.o.O.@.9.w.w.}.}.}.+X-X#Xv.h.G.-X-X-Xt.t.u.@.@.O.' ' o.O.9.9.0.r.r.b.@X=XOXOX#XP.S.9.#.#.w.u.y.OXjXcXmXu.t.#.#.$.] ] ] ' ' ' O.O.y.r.y.j.u.}.XX-X;XOXOXN.t.y.0.@.o.] ' ) ) V B B B B ' ' _ B B B V V ] ] ] w.w.#X+XOX-XgXhXL.Y.r.0.9.0.9.o.o.o.",
"@.@.#.r.w.wX4X;XL.u.l.9.9.9.o.o.' ' _ V V B V ) ' ' o.O.w.b.b.#.#.#.o.o.o.@.#.w.r.q.OX+XOX>X=X#Xv.f.G.-X=X=Xl.u.y.0.0.O.] ' O.O.#.9.d.0.w.D.#X=XOX+X#XF.h.9.#.@.9.y.t.+XjXhXbXu.l.#.#.#.o.o.' ' ' ] O.O.0.y.y.d.d.@X+X;X;X=XOXN.y.y.0.@.] ' ' ) ) B B V B B ' ] ' B B B ) ) o.] ' w.r.#XOXOX;XhXhXU.T.y.9.9.9.#.O.o.o.",
"u.y.i.[.XX2X2X9.w.9.9.o.' ' ) ) V ) _ V V V V ) V ) ] ] o.#.9.R.R.R.w.w.0.y.y.v.D.F.3X4Xi.q.#.@.O.o.O.@.d.w.hXgXvXt.t.0.#.#.r.r.x.x.#XOX+XoXL.x.9.9.e.O.O.] ' ' ] @.9.r.w.].[.[.[.n.f.z.0.9.@.#.#.9.u.d.x.D.b.=X;X[.].i.y.y.u.E.f.#.o.o._ ) ) B B V ) ) ) B V V V _ _ _ o.o.#.#.$.[.[.-X=X}.u.i.j.E.`.;XhX6Xt.t.r.y.r.",
"a.a.a.OXOX2X;X9.0.9.9.o.' ' V V B M B V V V V V V V ' ] o.#.9.}.R.E.w.w.9.u.N.#X[._.4X4Xt.9.#.#.o.] @.O.y.y.fXgXbXt.t.0.#.9.r.0.T.P.+XOX+XXXL.x.0.9.#.@.O.] _ ' o.@.#.w.w.[.`.;X;Xc.c.x.9.9.#.#.#.0.u.f.5X2X2X=X;X[.].i.r.i.y.T.y.#.o.o.) _ V B B ) V ) V M V V V _ ) _ o.o.#.#.#.XX[.OX=X].u.y.y.Y.[.=XhXjXF.].y.r.y.",
"#X=X=XfXgX|.L.0.w.0.o.' ' _ V V M M M V V ) B M M B ) ) ] @.@.N.P.P.M.s.q.u.M.;X-Xw.9.#.9.%.@.O.] _ o.+.w.y.2X4X5Xg.g.a.p.p.V.V.XX$XN.y.r.9.e.#.9.%.%.O.o._ ) ' ] O.O.q.w.N.V.-X-XI.U.U.t.f.u.j.f.f.b.h.3X3X4Xt.r.w.0.e.e.e.w.G.x.w.@.O._ _ V B B V ) V B B ) V V ' _ ' O.%.#.9.9.>X5XL.L.F.w.w.r.H.P.'.<X$X=X:XlXlXlX",
">X;X;XgXgX;X-Xy.t.r.9.@.o.o.' _ V V B M B ) ) V B B ) ) ' o.o.w.f.h.2X;X4XgXgX*X-Xy.0.9.@.o.] ] ' ) ) ' #.#.F.L.I.;X;X[.[.|.hXgXOXXXN.r.r.9.9.$.o.] ] ) ) V V ) _ ' ' O.9.0.0.f.f.1X;X2XD.D.u.u.f.U.OX XqXqX5Xt.y.9.0.O.] ' ' d.y.f.0.0.O.] o._ ) ) V V V ) ' ] ' O.O.O.9.0.OXOXOX$XXX0.0.9.O.] ] @.9.#.r.y.-X=XlXlXlX",
"q.#.$.z.n.:X2XF.t.w.9.@.] o.] ' _ V V M B V V V _ ) ) ) ] O.o.0.0.q.,X;XgX4XwXu.u.#.0.e.@.] ' ) B ' ' ' 9.#.x.x.h.:X;X,X4X6XOX=Xi.y.0.0.w.9.@.o.] ] ' V V V V V _ ' ' @.#.0.0.f.x.,X:X:X,X2X6X4X4XjX2X4Xb.b.b.r.r.#.@.] ' ' ' @.@.w.u.x.#.#.%.' ' ) V ) V _ ' ' ] #.$.@.0.e.+XOX-X+XXX0.9.9.@.' ] O.#.#.r.0.r.0.a. X X",
"9.q.e.x.x.2XwXI.B.B.0.0.%.%.] o.' _ ) ) ) ) ) ) _ _ ' ' O.q.e.0.0.w.hXhX_._.}.y.r.$.@.O._ ' ) V B ' ] ] ] O.r.w.w.kXhXgX4X4Xg.h.0.9.9.@.$.] ' _ _ ) ) B B B V _ _ ' _ ' ] @.9.f.u.].[.}.lXhXhXgXfX4X2X2Xu.f.x.r.e.] ] ) ) ) ) o.O.e.j.v.9.9.9.] o._ _ _ ) ' o.O.@.l.x.f.qX5X4X#XOX0.e.$.o.o.) ) V _ ' ] q.q.0.q.y.].{.",
"$.#.$.9.9.D.G.jXgXgXb.r.9.9.@.@.] ] ] ' ' _ ) ) ' ' O.@.#.w.0.u.G.I.hXkXx.x.x.w.9.O.] ' _ _ B V ) ) o.] O.@.w.w.w.lXhXkXG.G.0.r.#.#.O.o.] ' _ _ V B V ) V V ' ' ) ) ) ] o.O.@.9.9.b.b.b.lXzX1XOXOXf.x.x.0.0.0.] o.' ' ) V V V _ _ ' o.#.f.x.x.9.#.o.o._ ' ] #.9.0.l.u.c.:X<X4Xi.r.#.#.O.] ' _ B B ) _ ' o.O.9.#.9.9.0.",
"o.o.o.#.#.y.d.bXhXkXb.r.e.e.9.9.%.o.o.' ] o.) ) ] ] #.#.9.w.0.u.G._.hXlXx.x.x.9.O.' ' ' _ ) B V _ ) ' ' O.O.w.w.w.lXhXhXD.b.w.0.O.] _ _ _ ' _ _ V B V ) V V _ ' ) ) ) ] ] ] ] O.O.x.b.b.xXxX;X}.{.u.l.l.9.e.e.' ' ' ] ) V B V _ _ ' o.@.x.x.v.9.9.o.o.O.O.#.u.y.y.I.B.L.2X2XwXy.r.#.@.o.] ' _ B B ) _ ) _ ] o.o.9.9.w.",
"' ' _ @.@.w.r.P.}.[.hX3XOX&Xu.t.e.#.#.o.] ] ] ] 9.9.t.u.y.-X=X;X*X-Xn.u.0.0.q.#.9.o.] ' V V V ) ' o.@.O.t.u.P.U.[.P.G.9.0.w.O.O.] o._ ) _ ' ) B V V ) ' _ V B V ) ) ) ] ] ] o.@.%.n.f.x.4XgX_.l.l.x.9.9.o.o.O._ ) V B M m B M V V V V _ ] +.o.y.y.u.f.9.#.0.n.c.b.4X4X6XD.v.#.@.O.' ' ) ) ) V V V ) _ ) _ ) ) V ' ] ] ",
"_ _ _ ] ' @.$.d.h.M. X4X X#Xt.t.0.#.#.O.O.O.o.] 9.9.y.y.u.-X;X;X;X:Xf.u.0.0.q.O.$.O.] ] ) ) V ) _ o.@.#.t.u.U.'.|.P.G.0.9.0.O.O.] o._ V ) ' ) B V V ) ] ' ) B V ) V ) ] ] o.o.%.#.c.c.v.jXgXU.l.x.x.9.9.@.O.O._ ) V V M m M m V ) V V _ ' o.o.y.i.f.u.#.9.0.v.b.b.gXgX6Xx.b.#.@.O.' ' ) B V V B B V ' _ _ V V B ' ] ] ",
") ) ) _ _ ' O.9.9.0.V.$X[.#XB.F.g.#.9.9.0.9.9.#.0.r.V.V.B.=X,XZ.Z.B.w.r.%.o.] ' ' O.@.O.' _ ) ) ' O.#.9.u.y.jXgXbXu.y.w.@.O.] ] ) _ ) ) ) _ ) B B M V O.o._ V V V ) ) o.O.$.#.y.y.P.F.P.-X:XB.r.w.@.o.o.] ' _ V ) V B m m M B V V V V V ) ' ] @.@.K.K.N.g.B.9XbXvXN.N.B.9.0.%.] ] _ ) V B B B B B V ) ) ) B M B ) ) ' ",
"M M V ' ' ' @.9.9.w.r.v.S._.;X:X>Xf.x.r.r.r.y.r.v.b.gXgXjXU.R.0.0.0.#.#.o.o.' ) ) @.@.o.' _ ) _ o.O.w.w.U.R.hXhXmXr.y.u.o.O.' _ V V _ _ ) ' ' ' V V ) ] ' ) ) ) ] @.@.O.#.9.9.c.v.=X=X=XXXXXF.w.9.o.o.] _ ) V M B _ _ B B M M V V _ ) V ) _ _ O.O.c.c.].R.4XxXkXhXl.j.f.#.#.] ' ' V V V B V B ' ' _ ) _ ) M M M V V _ ",
"M M M B V V _ ' ] #.w.n.v.].:X;X1XhXgX0.r.r.r.y.@X[.gXgXhXR.U.0.0.0.%.#.o.] ' _ _ ] ] O.#.o.o.o.O.@.r.r.U.R.hXhXmXt.r.e.O.O._ ' V B ) _ ) ' ' ' ) V ) ' ) V _ ) ] @.O.o.#.9.9.c.x.-X;X;XXXXXG.0.9.#.%.#.' ) ) B M _ ' B B B B V V ) ) ) ) ' ' @.@.c.n.]._.gXhXlXlXl.u.l.r.#.' ' ' ) ) V B V B _ ' _ _ _ V M M M V V ' ",
"_ V B V V V _ _ ' ' ] #.#.e.y.r.L.4X4XOX-X#XP.P.gXgXu.t.f.9.#.O.o.o.' ' _ ) V V V ' ' ] O.O.O.#.0.#.|.-XOX X-XOX-X]._.0.w.0.o.o.) V V V V ) ) ) ] o.' ) _ ] O.o.o.' @.9.r.u.t.;X;XP.G.G.J.T.].E.U.f.@.@.%.o.] V V _ ' ) V ' ] ) V V V ' o.O.O.#.#.r.r.;X;X-XXXOXOXb.D.v.#.9.#.O.o.' ] _ ) _ ) _ _ _ _ V _ B V ) V ' @.",
"' ] ' V V V _ _ ' ] ] @.9.9.r.r.L.5X4X:X:X6XjX4XgXgXu.t.u.9.9.O.o.o.] ' ' _ _ V V _ ' ] O.O.O.#.9.w.OX=X-XOXOX#X#X].].w.9.0.9.9.O.O._ ) ) ' ' _ ] ] ' ) _ ] o.o.o.O.O.#.y.u.f.1X1XF.H.H.H.Y.W.E.T.g.#.@.o.o.' V ) V B _ ' ' ] ' ) V V ] %.#.9.#.9.r.w.;X:XOX$X#X+X[.XX#X0.9.#.9.$.] O.] ' ] ' B B M B B ) ' ) ) _ ] #.",
"_ o.O._ ' ) V ) ) ) V ' ' ] $.9.r.u.f.nXcXxX-X-Xx.t.0.9.#.' ] ) _ ) ] ' ' o.o._ V _ ) ) _ O.%.0.r.w.-X=Xf.y.r.r.r.-X=X,Xu.t.9.9.o.O.' ' ' @.$.O.] ] o.@.O.@.9.@.#.w.r.u.%XXX@X=X=X9.9.9.O.O.O.@.S.].D.S.#.@.@.] o._ ) V V ) ) _ o.o.o.#.9.0.0.].].OX=Xx.v.9.#.9.9.OXXXXXOXOXY.r.r.9.9.O.o.] _ V B M B V ) _ ' ' ] @.0.",
") o.o.' ' ) ) ) ) ) ) ' ' ] #.9.t.f.u.bXlXxX=X-Xl.u.#.9.e.' o._ _ ) ' ' ' o.o.) V ) ) ) ' o.@.q.y.w.-X;Xy.y.y.w.9.;X;X,Xu.l.#.#.O.o.] ] ] O.O.O.] ] o.@.k   o   +.w.y.u.}.XXXX=X=X#.9.9.o.O.O.O.S.].S.b.9.@.#.o.] _ ' V V ) ) _ ] $.#.#.#.9.9.].].-X-Xn.h.$.#.9.9.#XoXXXOXoXY.w.r.0.9.O.o.o.' V V B B V V ' ' ' o.%.0.",
"B ) ] O.O.[ _ ) M M M V V V ' ] #.9.9.9X1XhXu.u.9.0.] ' ' ) ) B B M B B ) ' ' ) V ' ] o.#.q.w.{.#XoXr.0.#.@.@.#.#.x.x.4X1X1XE.Y.K.D.v.f.n.e.%.O.$.#.9.y.N       N.F.>X6X;X4XeXr.r.#.@.O._ _ _ o.O.O.S.L.R.}.}.u.w.#.9.o.] ] ] %.r.w.t.H.L.,X,X].].w.r.@.O.@.' o.o.#.@.9.F.P.>X>X,XD.v.0.0.0.#.O.O.] ] ' o.#.9.9.e._.{.",
"B V ' O.O.O.V V B m M V B V ' ' @.9.9.9X2XhXf.f.9.9.] ' ' ) ) B M B V B V ' _ _ ) ] ] o.@.9.r._.XXOXr.r.#.#.O.@.#.c.c.4X4X4X].].K.K.b.u.u.0.#.O.#.9.C   o s s   O XX2XgXOXoX&Xr.r.@.@.O._ ) _ ] o.O.H.G.U.XXXXr.r.e.#.o.o.o.o.#.w.0.r.}.XX:X:XR.T.0.r.O.O.] _ ] ] O.O.#.t.r.#X;X-XD.D.w.0.9.#.O.O.] ] ' O.#.9.9.9.XXXX",
"B V ' #.#.%.V B V M M V V V ' ' #.i.u.eXkXhXr.x.9.@.] ] ' ) ) M B ` ) ) ) _ ) ) ) ] ] o.#.q.y.].OXXXr.y.O.@.O.o.O.u.v.$X5X5X+XXXS.D.b.v.b.0.9.@.9.9.C   o s d   +  X2X4XB.v.n.r.r.O.O.@._ _ ] o.O.O.@.@.M.XXXXj.u.9.9.O.O.9.e.0.a.q.a.[.XX:X:Xh.h.r.r.O.O.] _ ' _ O.@.@.0.r.#X>X-XXXOXw.9.w.9.9.$.o.O.$.O.#.0.0.y.7X3X",
"V B V ' ' O._ _ V V V _ _ _ O.O.w.u.f.gXlXgXD.D.w.0.@.@.] ' _ ) ) ) B B V ) ) ' ] #.#.9.x.F.U.D.x.f.#.#.' ] ) ) _ #.9.0.r.w.2X2Xr.r.9.#.0.b.D.T.Z   X f s w e s w   , ].w.r.w.#.#.o.O.o.o.O._ _ _ ' o.o.@.#.#.[.}.$X[.r.w.0.0.b.-X4XgXP.l.u.u.9.9.O.o.) ) _ ) V V ' ' ] O.@.0.w.r.XX$X2X1XOXT.r.r.0.w.w.t.i.3X3X4XR.R.",
"V B V ' ' o._ _ B B ) _ _ _ @.@.w.f.f.3XzXgXJ.D.0.w.@.@.] ' ' ) ) ) B B V ) ) ' ] @.#.0.x.G.U.S.x.x.#.9.] ] ) ) ' #.#.0.y.y.2X1Xr.w.0.9.9.c.D.R.Z   X s e w e s p   : ].q.r.0.#.#.o.O.o.o.o.' _ _ ' o.o.@.#.9.[.[.XXXXy.0.0.0.D.=XgXgXP.t.t.t.#.#.o.O.) ) _ ) V V ' ' o.@.@.9.0.0.+X$X2X2XOXP.y.r.r.0.0.u.h.4X3X4XR.].",
"V V V B B ) o.o.] ' _ O.O.O.r.w.=XgXgX].[.}.OXOX=X-Xr.r.9.#.@.] o.o.V ) ) _ ' %.#.v.v.d.@.O.o.] O.O.; ; ; : ] o.' o.] 9.9.0.XX`.-X.X            o s s e e f s e w =               +.9.9.o.o.] ] ' ] _ _ ] : , ; : a.f.OX-XkXfXkXXXG.c.r.w.9.9.' ' ) _ B B V M M M V V V _ _ ] ] ] 9.9.q.w.#XOX-Xv.d.$.p.`.XX'._.$.9.0.",
"V V V B B V ] O.o._ _ O.O.O.r.w.*XfXgX[.[.].OX+X=X=Xr.r.w.#.@.o.o.o.) ) ) _ ' %.0.b.x.y.@.O.o.] o.o.        ' o.' ] ] #.0.w.XXXX;X-X            X s s e s s s e w X               %.9.9.] o.] ] ] ] _ _ ' .       r.r.=XOXkXhXkXXXD.b.0.w.@.O.' ' ) ) B B V M m m V V V _ _ ] ] ] 9.9.i.t.&XOX=X=X1XzXBXgX5XR.}.0.0.9.",
") ) ) V B ) ] O.o.' _ O.O.O.y.y.5XL.I.#.#.#.w.w.-X=X#X&X%Xi.r.o.] ] ] ] _ _ ' s.v.v.v.w.#.O.o.o.: ; 6.8.    _ ' _ o.o.9.9.9.O + O O ( T R T T   o e e s s s w * %   e e f f o   @ : ; : + o.O.O.O._ ) ) o..   6.F ; ; r.w.xXlX.Xw.r.f.#.@.] ' ) ) V V B B V M M M V V B _ _ _ _ _ 9.9.w.w.Y.R.}.OX1XzXzXgX,XS.G.r.9.9.",
"] ] ] B B B ) o.#.@.#.y.y.r.P.F.bXD.G.9.9.9.r.r.u.f.=X;X&Xy.y.#.#.#.' ' ' ] @.u.f.o.] ' _ ' ' _   o =.!.    o.O.O.w.r.f.P.T.      o K R R T T   X e e s s s e * X   w s w       X         @.O.] ' ] ] ' o.    !. .    w.t.5X;X#Xu.u.u.] ] ' o.o.o.) _ M m M M V V ' ' _ B B ) ) _ ' ' %.w.y.l.f.3X4X2XR.r.e.0.e.@.' ' ",
"@.@.%.' ' ) ] ] ] 9.9.u.i.h.#X+XXXf.y.9.9.9.0.e.r.y.:X-X#X_.].#.9.9.$.9.o.9.r.b.9.] ' _ ' ] o.,   uX~.~.    , ' @.0.0.C . ; Y T ZXZXW W Q s d e w = w s s s w = w e p w X   w s e w e % % + O ) o.O.o._ ,     ~.=.H   j r.,X:X8Xv.y.0.O.o.] o.' ' ) ) B B B B V V _ ] _ M M ) _ ) ' ' O.9.i.l.u.2X1X=Xh.r.w.#.%.o.' ' ",
"@.#.#.' ' V ] ] O.e.e.f.u.d.=XOX}.w.w.#.o.' o.O.9.#.c.n.N.:X;X9.w.0.9.9.O.w.w.b.#.' ' ' ' ] o.+   pX^.~.      C @.9.9.m     T T aX~ W Q Q s s s e = * s s s e = e s e w     w t s e e * =     ` O.#.O.C       ^.-.6.  + i.5X2X8Xb.0.9.9.O.] o._ ) ) ) B B B M B V _ ' _ M M V ) V ' ] o.@.i.l.u.2X2X+Xu.r.w.o.o.' ' _ ",
"0.0.e.] ] ' o.9.r.l.p.jX:X-X}.}.W.w.0.%.o.' o.o.#.#.u.f.M.-X:Xp.g.s.0.9.0.i.f.@.] ] ] ] ] @.e.+   pX~.pX, :   ` q.k k : - & R T ~ ~ W R W s s s e = w s s s e = e s w w   X e s s s e * w X o j k B %.`   : , ~.-.6.  O F.>X-X-X>Xp.q.9.9.9.0.' ] _ ' _ _ ' _ ) V B B ) ' ' ) _ _ @.#.r.t.N.h.B.vX8X&Xi.e.$.] o.' _ _ ",
"0.9.9.#.$.o.9.0.r.x.F.2X=X-Xt.r.e.O.@._ _ _ ' _ #.#.w.0.w.XXXX:X=X=Xf.f.0.9.9.O.' o.O.O.9.9.e.+   ..=.~.-. .  ;.a.    # W W ~ VXY f s s s s s s s s s s s s s s e e % % s s s s s s s s s w w o   O D.5.  7.Q.....6.  . [.[.].-X;X_.].t.0.0.9.O.@.] o.] ] ] ' V ) B B ) _ _ _ o.o.9.9.r.r.9X:X2X].w.r.r.@.' ' ' ) V V ",
"#.9.q.@.%.@.9.0.r.f.B.;X=X-Xr.r.9.O.O._ _ ) B B _ _ O.@.@.0.w.>X=X-Xf.h.9.9.9.o.] O.O.@.9.9.y.+   6.-.~.=. .  + + o   # Q W ~ ~ d s s s s s s s s s s s s s s s s e X w s s s s s s s s s w w       k n   7.Q.=.=.6.  O $X@.9.0X>XXX|.F.w.9.0.O.O.o.o.] ' ] ' V V B B V _ ' ] o.o.9.9.e.r.8X;X,X].r.r.r.@.] ' ' V V V ",
">X2X:Xm.D.r.b.9X2X2XeXc.r.0.9.@.o._ _ ) ) B V V ) ) o.o.o.9.9.j.b.S.gXgX[.{.J.9.y.r.j.f.Y.F.H.+   H .. .Q.^.b <     s d Y d s s s s s s s s s s s s s s s s s s s s s s s s s s s s s s s e e w w     > v Q.Q. . .F   + f.9.#.j.u.{.[.}.OXOX=Xx.l.9.9.$.#.] ] O.o.' ' ] #.#.#.j.h.%X%X>X:X X`.0.r.0.9._ _ ) V V ) ) ) ",
"<X2X2Xb.K.y.D.5X4X4X5Xf.w.w.9.@.' _ _ B B M B B ) ) ' ' ] 9.#.u.b.F.gXfXXX}.J.t.r.v.b.G.-XXX_.O    ... .^.^. .k   o     Y T s s s s s s s s s s s s s s s s s s s s s s s s s s s s s s s e t   o     z  .Q.Q. ...F   O f.9.#.i.u.}.XX[.=X-X-Xx.x.0.9.#.@.] ] o.o.' ' o.9.9.9.u.u.-X-X2X:XXXR.w.w.0.9.' ' ) V B V V ) ",
"h.n.d.4X2XF.L.5X4X2X9Xw.9.9.] ' ) ) ) B B B M M V V ) ) ] o.O.0.#.9.t.u.,X2XgXA.w.tX>X>X+X#X].O   b D  .=.=.=.=.v >     s e s s s s s s s s s s s s s s s s s s s s s s s s s s s s s s s e e     ; D 7.7.....D D b   O +.o.' o.@.O.O.$.#X#X$XoXOXq.w.#.#.] @.0.e.] o.@.9.e.q.}.E.=X=X2X;XB.r.r.0.@.o.] ' V M B B B V ",
"9.w.9.=X=XhXhXF.x.y.y.9.o.] ' _ B B B ) ) _ ) ) B V _ _ ] _ _ @.@.@.u.u.E.,XhX1XOX=X;X>Xc.w.e.+   c S  .....Q.Q... .D v     e s s s s s s s s s s s s s s s s s s s s s s s s s s s s s s     v F ..=.Q.Q.....D D D   . O.] ' ] ' O.O.@.9.9.9.[.[.-X=XU.U.y.y.0.9.9.9.y.#X-X3X;X;XD.D.0.0.0.0.@.O.' ' _ V _ ' ' _ _ V ",
"9.0.9.=X=XhXkXL.x.u.r.#.o.o._ _ V B B ) V _ ) ) B B _ _ ] _ _ O.@.#.y.y.E.2XhX3XOX:X;X$Xf.y.e.;   z c j F  .Q.Q.....D D     e e s s s s s s s s s s s s s s s s s s s s s s s s s s s s s     D D =.=.Q.!.F F z c c   : @.] ' ' ' O.@.@.9.9.9.].[.-X=XU.].G.N.9.0.9.9.w.&X;XgX:X=XD.D.0.0.0.0.O.o.' ' _ V ' ' ] o.' ) ",
"@.#.#.r.i.1X3XV.v.x.w.] _ ' V V V B B B V ) ] ] ) M B B V _ ' _ o.o.9.i.J.hXlXgX[.w.w.9.#.#._ O   l z c F F =...k.k.....    e s s s s s s s s s s s s s s s s s s s s s s s s s s s s s s     ....k.-.....F F z c 5   O o.@.O.) V ) ) V ' ] o.O.O.#.#.d.g.OX=XgXgX}.'.oX5XxX6Xx.x.9.9.9.#.@.O.V V ) _ ) B _ o.o.9.] ) ",
"] ] O.w.w.1X:XS.D.D.w.O.o.] ' ' V B V M M M ) ) V M M M ) O.@.' o.o.r.u.T.hXhX;Xx.0.w.9.#.O.' ] %.O   c v v ....=.=. .6.    e s s s s s s s s s s s s s s s s s s s s s s s s s s s s s s     ....-.=. . .v v v   O #.O.o.' _ V B ) ) ) ' ' _ o.o.#.#.f.f.OX;XgXgX-X=X6X}.[.r.9.9.@.O.' ] ' ' B M V V _ _ V V ) ] ' V ",
"] ] O.r.r.*X:XS.D.S.0.@.o.[ _ _ V V V M M M ) ) V m M M ) ' _ _ o.O.r.r.u.hXhX=Xx.r.0.#.] o.] ] O..   c c c  . .F F F F     s s s s s s s s s s s s s s s s s s s s s s s s s s s s s s s     F S F  . .F v v v   + #.O.o.] _ V B ) ) ) ' ' ' o.o.#.@.9.#.9.g.[.`.1X2X6X$X[.r.9.9.O.O.' ' ' _ B B V V ' _ V V B _ _ V ",
"_ _ _ @.O.D.S.wXgXgXr.w.9.9.o.o.' _ ' V V V B B V B V V ' _ _ %.0.0.y.r.y.OXOX`.r.0.O.' _ _ ' ' o.O   z c c v v D D F D     s s s s s s s s s s s s s s s s s s s s s s s s s s s s s s s     v D D  .v v v c b   O o.] o.' V V ) o.] ) B B B _ ) ] ] 9.#.9.y.f.f.2X2X`.r.y.e.O.%._ _ ) V V ) M M B B ] o.@.O.' B B B ",
"_ _ ' O.@.D.D.vXhXhXf.9.e.#.o.o.' ' ' ) ) V M B ) ) _ _ ] O.o.9.w.w.G.T.2XkXXX_.r.0.O.o.' _ _ ` N :     l z v v D D     p e s s s s s s s s s s s s s s s s s s s s s s s s s s s s s s s e e     D D v v l l     < N o.@.' B ' ' o.' V M B V _ ) _ _ ] ] #.y.x.x.OX=X}.y.r.@.] ] _ _ ) B _ _ B M B V ' ' 9.@.o.B B B ",
"_ _ _ O.@.b.n.bXhXhXx.9.9.q.9.9.' ' ' ) ) V M B ) ) _ ' o.O.O.9.r.r.P.G.2XxXoX}.y.9.O.%.' _ ' `         l z c c D D     e e s s s s s s s s s s s s s s s s s s s s s s s s s s s s s s s e e     c v v c l 5         +.@._ B ] ' ] ' V B B B ) ) _ _ ] ] $.y.j.f.=X=X_.e.r.O.] ] ) ) V B _ _ M M B B ' ' #.@.o.V V B ",
"] o.O.#.9.R.].bX2X1X4XOX+XB.w.w.@.O.@._ _ _ B ) ' ' o.o.9.u.u.f.XX X1X2Xx.x.D._.oXM.y.0.@.O.@.[     w e             r w s s s s s s s s s s s s s s s s s s s s s s s s s s s s s s s s s s s w e             = =     _ _ V V o.O.0.' ) B B B V V _ ) ' ' @.r.x.u.gXgXOXf.i.e.@.#.] ' ' _ ] ] V V B M V ) e.0.r.#.#.@.",
"] ] O.#.9.].R.gX1X2X3XOXOXU.r.r.@.O.O.' ' ] ' ' _ ' o.o.9.u.u.f.XX X1X1Xn.n.S.].OXs.y.0.@.O.@.X.  o e w o           w e s s s s s s s s s s s s s s s s s s s s s s s s s s s s s s s s s s s w w             = *     ` _ C ) ] o.w.] _ V V B V V ) ) ' ] $.w.x.x.fX4X>Xx.y.#.@.#.' ' _ _ ' ] V V M M V ) ' ' _ #.9.%.",
"#.9.9.y.y.4X4XqXqXwXeX5XwX5X9X9Xu.y.t.r.w.@.] ' ' ' u.i.i.w.f.vXjXvXw.w.w.y.y.a.#XI.g.q.9.#.0.;.    R R w w e e e s s s s s s s s s s s s s s s s s s s s s s s s s s s s s s s s s s s s s s e s e e w w * w w w     ` ] V B ' +.e.] ' V V B ) _ _ _ @.#.w.N.XX+XOX=X-X>X>XtXw.w.9.9.] _ _ _ ) V M M V ) _ _ _ @.%.#.",
"#.9.9.b.v.|.$Xr.0.9.9.x.f.OX2X2Xt.t.t.0.w.9.o.o.@.@.y.y.i.;X:X_.].}.r.r.w.0.#.#.D.@X+X].e.e.    w w R Q w e e e e e s s s s s s s s s s s s s s s s s s s s s s s s s s s s s s s s s s s s s s s e e w w w w w w % %     ' ' _ _ B B ) _ _ _ ' ' o.] e.9.0.F.OXOX=X+X-X-X=X8Xw.w.e.9.#.@.O.] ) ) _ ) _ ) B ) ) _ ' ' ",
"e.w.$.&X#XXXXXw.0.0.9.0.e.s.4X4X0XqXwXy.w.0.0.e.e.e.i.u.E.4X2Xg.S.h.r.r.@.O.O.9.w.&XXXoX}.tX    e s d T s s s s s s s s s s s s s s s s s s s s s s s s s s s s s s s s s s s s s s s s s s s s s s s s s s e w e = =     [ ' _ ) V B V _ _ _ [ ] %.%.e.w._.$X-X=X*.a.p.s.XX-X$X$X9.#.#.#.%.@.+.+._ ) ) _ V _ _ _ ' ' ",
"w.y.p.;X:X0.9.#.@.@.] 9.#.#.y.y.3X4XhXY.V.g.u.z.t.u.hXhXzX-XOXw.r.r.%.O.] ' o.9.9.u.u.F.OX.X    e e I T s s s s s s s e s s s s s s s s s s s s s s s s s s s s s s s s s s s s s e e s s s s s s s s s s s s e e = =     ] ] _ _ ) ) _ ' ] ] @.@.r.r.#X-X=XOX#X#X#.%.9.9.oXOX:X-X+X+X>Xv.r.w.0.0.o.] ' ) ' o.] O.o.O.",
",X4X4X-X;X9.0.#.O.O.] 9.#.#.y.y.1X4XgX-X;X}.b.u.u.u.zXlXlXD.K.r.w.w.o.] _ ] ] O.#.r.y.S.OXeX    T T s s s s s o       s s e s     s s s s s s s s s s s s s s s s s s s s s s s s s     s s s e       w s s s s s * w     +.O.o.o.' ' ) _ O.@.#.#.y.r.>X=X-XZ.f.x.#.%.9.9.9.,X;X-X=XOX#XG.y.w.#.#.O.O.o.' o.O.$.#.#.0.",
",X1XjXy.y.9.9.O.' ' ' ' _ o.@.@.w.0.w.:X-X[.U.h.S.N.cXcXxXt.y.0.O.o.O.o.' ] ' ' o.#.$.0.y.yX    T T s s s s s o       e s s s o   s s s s s s s s s s s s s s s s s s s s s s s s s   o s s s e o     * s s s s s w w     +.@.] ] [ ] ) ' o.@.w.w.H.H.9X-X#XB.9.#.' ' ] O.O.9.e.#.=X+X>X@X@XoX9.@.O.O.o.' O.@.9.@.#.w.",
"M.d.g.#.9.O.] ] ) ) V ) ) ' O.@.0.0.0.y.w.5X2XlXlX2X+XOX&Xt.r.@.o.o.              + #.9.t.N   & d f s s s s s s s e w         p e s s s s s s s s s s s s s s s s s s s s s s s s s e s         e e s s s s s s s e e     V 9.O.O.O               -X+XT.P.r.9.9.#.] ] ) o.O.9.9.9.r.r.w.OXXXOX:X:Xd.u.y.0.t.t.n.>X>X;X",
"h.f.x.#.%.] ' ' ) V M V ) ) O.O.9.9.9.y.y.,X4XzXlX1X+X+X@Xl.l.@.o.O.        X o o O o.9.t.k   * f s s s s s s s s e *         e s s s s s s s s s s s s s s s s s s s s f s s s s s s e         w e e s s s s s s e e     C 9.' ] O o o   o       OXOXv.b.t.9.9.#.' ' ) ] O.9.9.9.0.w.q.[.[.`.-X=Xd.u.y.0.u.t.c.;X;X1X",
"f.u.l.#.9.' ' ' ) V M m M B ) ) ] @.O.r.r.f.v.lXlX1X-X-XyX          = * T Q f K K i   j t.k   * s s s s s s s s * %         o * s s s s s s s s s s s s s s s s s s s s s s s s s s s %           * w e s s s s s e e     ` y.;   W ! i t r r X X           , ' ' B B V ) ) ] ] ' 0.0.9.y.r.p.=X;XP.U.F.r.J.I.1X2X;X:X",
"o.o.o.) ) V V V B B V B B V _ _ ] ' _ #.@.w.r.;X;X,Xy.y.C.        o 8 = R R = & K t   j P.n   * s s s s s s e s                 s s s s s s s s s s s s s s s s s s s s s s s s s s s                 e s s s s s p e     A S.;   ! Q   % w r X X           j _ ' ) ) V _ _ V V B ' ] o.#.#.0.r.b.-X-X;XlXhX4X-X#Xr.r.",
"o.o.o.) ) V V V B B B B B V _ _ ' _ _ O.O.y.r.2X;X7Xo   o p i e t t = % % %     % %   j P.n   * s s s s s s e e   ZXAXZX        s s s s s s s s s s s s s s s s s s s s s s s s s s s ~ ZXo           e s s s s s s e     <.T.+   - -     % % % = 0 8 * * * @     + ) B _ _ V V B ] ' o.#.#.9.r.c.-X;X2XlXkX5XD.t.w.w.",
"] ] ] ) ) V B V B B M V V ) _ ] [ _ _ ] ] 9.$.2X*X7X    o p p e w 8 % % % %     X @ O j T.j   = s s s s s s       UXPXPX            s s s s s s s s s s s s s s s s s s s s s s e   X PXPX                s s s s e e     <.oX< O # - o   % % % % * * * * * X o   + V B ' _ V B V ' ' _ ] ] #.0.r.qX4X3XxXkX9Xy.0.0.0.",
") ) ) B M M M M V V B ) ) V B V _ V V ' ] 9.9.      * w * = o   o o % % % % % %   : #.w.f.j   = e s s s s s     s PXPXPX            s s s s s s s s s s s s s s s s s s s s s s s   X PXPXPX            o s s s s e e     A -XI.L..   % % % % % % X X     % % % = %     . _ ) M M V B V _ ' o.#.9.qXgXgXy.r.9.@.@.' _ ",
") _ _ M B M M M ) V B _ ' ) B B ) V B ' ] 0.0.  o   * w h   o   o X % % % % % %   : 0.r.S.n   = e e s s s s     s PXPXPX            s s s s s s s s s s s s s s s s s s s s s s e   X PXPXPX            o s s s s e r     { OXI.].O   % % % % % % @ X     o X % & %   o . _ ' M m B V V ' ] @.9.q.,XgXgXr.w.w.#.@.] ' ",
"] o.o.V V B M M ) _ _ @.@.] B B _ ' ' O.+.. o w = *     O 3 5 5 2 6 % & % % & =   ; y.f.U.n   # w e s s s s                         s s s s s s s s s p t e e s s s s s s s s s s                         s s s s w w     ` t.@XXX.   * = % % % % 1 1 6 4 3 3     % % * *     C V _ _ ' o.O.@.r.J.2X:X*X#.#.$.] ) ) _ ",
"' ] ' ) ) V M M V ) _ O.O.' B B _ ] o.+.X.    w * *     + 6 5 l 2 2 % % # % = =   ; d.v.E.j   # w e s s s s             ZXo         s s s s s s s s i 9 y 9 9 G y i s s s s s s s             -           e s s s w w     ` r.%X&X.   * = % % % % 1 1 4 6 4 4     & = * *     ) ) ' _ _ o.O.@.w.U.qX,X2X9.9.#.] _ _ _ ",
"' _ _ ' _ _ ) V ) ] o.O.O.] V V o.@.#.    * & X     5 l v v z l 1 $ % % X # = =   ; XXB.y.j   o 0 w e s s p     5 l < O     c c     s s s s s s J A 1.OXOXOX X|.4.A J s s s s s e     5 5       v v x     e s s e * *     ` w.y.y.O   * * X X % % $ $ l l c c 5 l >   X X % 8     O.o.o.@.@.*.=X2Xy.u.i.@.O.] ' V V B ",
"o.o.o.) ) _ _ _ ) _ o.o.o.' V V ] C C     0 * o     l z v v z z 1 1 % % X X = =   : 9.w.d.,   X * * p e e s     5 l < +     v z     s s s s s p J { 3. X X.X X.X4.:.J u g s s s s     5 l .     v c v   o s s p e * * .   ` r.y.t.O   w * X X % % $ $ l x c z l l >     o = 0     ` o.O.O.@.*.:X1Xd.t.t.O.O.] V V V V ",
"@.@.@.' ' ) ) V ) _ ) V _ _ ' ' o.    * = o   l c c S S S S 2 6 % % 1 1 % @ % % o ; &.&.].g.h.k   # e e e s e e   O  ...-.-. .    e s s s s y A >.eXnXNXMX:X7XnX7X;X:.{ J s s s s e   .  .=.-.-.-.    e e s s w r     [ 9.#.#.[ [ O o = % X X > > % % 4 6 D S S D z c l x   % =   . #.9.e.0.p.1X2X0.0.9.] ] ' _ B B B ",
"O.@.@.' ] ) ) V V V ) V _ _ ] _ [ O   * % . z z c v D S D D 2 2 % % 1 3 % @ % % % %   j ].f.f.k   X e e s s s e   O  ...=.-. .o   e s a u p J { ,.jXMXNXMX5XwXvXwX;X,.:.J i s s s s   .  .-.-.=.=.o   e e s e w w     [ 9.#.#.O   = & * % X X > 1 % % 4 3 D S D D c c z z + X &   . @.+.w.r.A.2X2X0.9.9.] ] _ _ B B B ",
"f.w.r.@.#._ ' ) ) ) V ) ) ' O.,   = = X 7 4 z S F F F F z z * & 1 1 7 5 $ $ X @ % %   < 9.y.D.N   X w w p s s e e t           e e e s a J { { wXNXZ } =X;X5X<X=X,.Z rX-X{ { J p s s i t           p e e s e e * *     5.h.o.O..   * * % X @ $ 6 6 1 1 & & z c F F F F H z < 4 o % 8   ; u.x.&X;X*X@.@.@.] ' B B V V V ",
"f.y.d.#.@.o.o.] ] ' ' _ ] ] @.,   *             F F F F l l 8 & 1 1 7 5 & $ X X % =   < 9.w.K.N   X w w s s e u p e .         e e s u g G { } MXCXA A ;X;X2X;X;X:.Z rX:X| { 9 p t s s e           e e p t e p * *     5.v.o.o.O   * = % X $ $ 5 4 1 1 8 8 z z F F F S             =   , t.f.#X=X*X@.@.@.) V M M M M V ",
"4XhXhXt.u.#.9.@.' ' ) ' ' ] ' <                 F F D S 6 6 % % 6 6 c c 2 2 @   X % = X   ` v.h.    * = w e pXdXL L s s s e e e e p P >.3.jXnX=X*X(.(.;X5X2X2X:XrX4.(.(.<X=X1.:.G s s s s s s s i L L iXiX9 w = =     S.F.<   = & % %   o 1 3 z z 2 3 % & 4 4 S D F F                 O ;X;X}.x.f.O.o.o._ V V V B V B ",
"4XhXhXu.l.#.#.O.' ' ) ] ' ' _ ;   O ] ' ' ] r.r.    D S 6 6 % & 6 5 c c 2 2 O   X % % %   V h.S., ; = % w 8 dXiXuXuXuXs s s s t t y Z ,.3.MXMX=X<X(..X:X2X2X2X5X5X(.(..X<X:X1.:.G t i s p s s s iXuXuXiXiXq w % % < : J.G.;   = = % %     > 3 z z 2 3 & % 6 6 S S     ] _ ] o.#.@.+   ; 1X:XU.c.c.O.o.' V V B V B B B ",
"qXgXgX[.+X9.#.%.9.0.O._ ) ) B B _ ' ' O.O.9.r.i.    z c $ 8 2 1 l b D S 5 4 6 2   X % % =   O k T.tX    * 0 w r t s i s s s e t ,.:.6XnXwX*X*XMXMXnXnXMXeX2X:X:X;X;X<X.X=X=X;X;X=X} >.s i s s s u i t w r * =     q.0.+ + & = = %     6 6 3 6 v v z z 1 1 8 1 D S     ] O.o.@.0.9.x.f._.4X2Xq.0.0.O.] ' _ ' _ V ' ' ' ",
"u.u.u.:X;X*XOXg.0.e.o.' _ ) B B _ ' ' O.O.9.y.0.I.U.l l & * 3 2 b v S S 6 5 6 6   X % % = o   , _.{.    * * e e i s s s s s e e ,.,.6XnXwX=X*XMXMXeX<X(.(.(.(.(..X:X:X;X=X=X;X;X;X} } p p s s s s s e w w * *     %.@.    = = % %     7 5 6 6 v D v c > 3 & & 5 7 o.O.] o.o.O.0.w.b.b.'.1X2X9.0.9.o.] ] ' ' ) B ' ] ' ",
"t.t.t.;X;X;X-XB.u.r.0.o.o.] ) ) ] o.o.0.0.0.w.r.`.XX1 > 8 8 4 4 v S S S 5 5 x l > O o X % & % o         X X w w e e e e s s e t >.>.*XOX.X7X7X;X7X(.).3.3.3.3.3.4.4..X;X=X=X(.(..X{ } p e s s e e e r w w X   o         X = % o o @ > x l 6 6 v D D D 4 4 8 1 > > #.#.9.r.0.r.0.r.fXfXlXhXOXN.9.9.@.O.%.) ' ] ' V V V ",
"@.@.#.r.y.,X2X;Xl.t.9.@.@.O.' ' @.#.#.w.0.9.[.XXhXhX    & 8 z z F F D D 5 7 c c 5 O   X             X X     * * w w w e s s w w A A 3.2.2.C.C.2.,.Z N N N k N N k k ,.1.C.C.2.3.3.A A w r s s e w w w * *     X X             o   6 4 z c 4 6 v v S S z z 2 2     w.w.w.u.D.OX-X=X4X3XzXhX|.`.XX|.q.w.w.@.o.' ' B V V ",
"@.@.@.y.t.>X;X;Xl.r.0.@.@.o.' ] @.#.#.w.w.q.[.oXhXhX    8 8 l z F F v D 5 5 c c 5 ;   o             X o o   w w w w r e s s w r A A 2.2.2.(.C.1.<.N Z Z N k N k k N :.1.).C.2.1.2.A Z r e s s e w w w * *     X X           o o . 6 5 c c 6 6 v v F F z z 3 2   . w.w.w.u.D.-X-X XwX6XmXmX XXXOXOXw.w.0.O.o.] ' C V V ",
"' ' ' #.9.y.f.u.-X-X-Xf.u.w.9.9.r.u.i.=X;X4X;X1X[.[..   4 3         z c 5 5 F S z O     e s f s e e     E E     % = * 0 w w w w % & j n N A A Z Z C.C.Z.Z.Z.Z.Z.C.C.A Z Z A n k < X X w w w w w * = %   o I K     = * r w = %     > l D v 5 x z 6         3 6     9.0.a.-X-XXXd.g.r.w.9.e.f.f.2X2XoXc.y.w.w.0.@.' ' ' ",
"' ' _ #.#.0.u.u.-X-X=Xu.u.w.9.9.y.u.i.;X;XjX:X;X].[..   3 1         c c 5 5 S S c .     w d d s e e o   E I       o = * w w w w % % n n n A Z { } C.C.Z.Z.Z.Z.Z.Z.C.,.{ Z A < . O X % e r w w * * o       K I X   w * e w = =     3 z v D l x z 5         6 4     ;X:X2X-X=X[.t.u.0.0.9.#.f.f.2X2X[.v.f.r.0.9.@.] ' ' ",
") _ _ o.o.9.w.y.[.#X+X#X#XG.].R.kX4XjX6X6X XN.S.w.i..       $.v.v.h.+   z c v     s f W ~ T f s e e e e     o X X       = = w w w w = % X   ; } >.} >.>.} } } } >.} } >.;   # % = w w w w * =       o X       * w e e s s f s * w     . z v z   m S.D.v.h.X       1X1X5Xx.v.9.#.#.#.@.] @.0.0.w.r.`.;X=XhXeXy.y.0.9.e.",
"M M M _ _ O.@.#.w.u.N.-X-XB.U.R.lXgXgXD.x.f.w.w.r.w.        9.v.c.b.O   z z z .   p d W ~ T f s s s e s * =   % X       % = w w w w = % -   + >.>.>.>.>.>.>.} } } >.>.,.;   # % = w w w w = =       o X   % = * w s e s f f s w w     . < c z   ) G.G.S.b.      . b.x.f.0.9.9.#.#.o.] _ ] @.@.w.r.$X;X;XhXqXt.t.9.9.0.",
"B M M ' _ O.#.#.9.r.v.-X+X`.OXOX6XqXqXv.x.r.w.0.O.O.j k 0.t.r.}.[.{.+.@..     s T ~ ~ R f s s s s s p s w w o   % % % %         = = * * = * = .                         * = * * * = =         X X X X o X = * e e s s s s f T d s * w o     . #.@.9.].OX+XqXMX/./.n.x.f.9.9.] ' ' ] ] ' ' o.o.0.0.N.B.M.6X,X@X{.9.9.0.",
") ) ) V V ) ' ] 9.9.0.-X=X1X3X1Xz.f.u.0.0.0.0.0.o.o.' _ o.#.9.g.a.g.O.o.      s R ZXaXQ f s s s s s s s w w o   % % % %         * = = * * * 0 o                         = * w * * * =         % X X X   % * w e e s s s s f d f f e w o     . o.O.0.U.=XOXe.w.h.h.y.d.u.9.e.o._ ) V ) V ) _ ) @.#.0.0.0.D.F.:X-XT.T.T.",
"_ ' _ B B V _ _ @.9.9.;X;X3X1X2Xx.l.l.9.@.o.' ' O.O.] [ ] ] ] #.9.#.y.a.    T aXaXf s e p s s s s s s s s s w *   o % R ^ ^ X X   o X = = = = = = * * = = * = = * * * * = w * * X o   o X ^ / aXX o   = % e e e s s s s s s s d T s e w w     $.#.P.[.#X@Xj.w.f.n.0.9.#.] ' _ B V M M M B V V ] O.e.9.0.y.d.[._.5X5X5X",
"_ _ _ B B _ ] ] #.9.r.gXgX5Xc.b.y.0.0.] ] ' ' ' @.@._ ) ' o.o.9.9.@.y.y.O . T ~ ~ s f s s s s s s s s s s s w w o   % ^ FXAX% %           % % = = = = = = = = = * = * * = =           % X AXGXKX$     * w e e s p s s s s s s s f s f r e     0.q.XXXXr.r.#.#.o.o.e.0.O.o.' ) ) ) B M M B V B _ _ ] o.#.0.w.f.f.gXgXgX",
"M B V _ _ o.@.#.w.r.y.jXjX9Xc.c.j.9.9.o.] _ V ) ) ) ] ' ' ) V o.o.o.` C     R ~ ~ s s s s s s s s s s s s s w w %   i AXGXAXX X % % o o       o o o o o o o o o o o o o o       X X X X X AXGXLXI   * w w s p s p p s s s s s s f s s e r     ).).{.{.i.r.9.#.] ] ' ' _ V V B B B V ) ) ] ' ' ) V ' ' ] @.#.y.f.#X8X2X",
"V V V ' ' O.9.0.u.b.G.,XOXF.u.t.9.O.O.' ' _ ) ) B B ] o.] ) _ @.O.O.    f i ^ K T s s s s s s e e s s s s s s s X   ^ AXK f   X % % X X @ X X                           X X * X o % % X X K I SX^ o o s s s s s p e e s s s s s s s s s e * *     w.w.@.@.O.] ' ' _ _ ) V V M M M ) ) _ ] ' V B V ' ] ' o.O.#.9.t.u.OX",
"V V V ' ' @.r.0.g.h.I.;XOXS.t.t.e.O.O.' ' ) ) _ B B ] o.] ) ) o.@.O.    f s ^ Y T s s s s s s e e s s s s s s s o   w *     X X % % * UXPX% X o o o o o           o o o X % LXKXd % % X X o   * *     s s s s s s e e s s s s s s s s s s * *     w.w.%.@.O.' ' _ V V ) V ) M m m V V V V ) ) M V ' ' _ o.O.#.#.r.t.XX",
"' ' ' O.@.y.l.u.:X2X;XS.t.y.@.#._ ' ' V V M B B ' _ V V B M M V ) _     d s R s s s s s s e e e w s s s s s s s s s o   = *     % % e LXIX% % % % % % %   !   X % % % % % % LXLXd % %     * = X X s e s s s s s s w w e r s s s s s s s s w w     O.O.' ' ' B V V M M B ) _ V B B ' ' _ _ ' _ B M B B B ) _ ] ' 9.0.9.",
"_ _ ' O.@.r.l.f.:X:X2Xb.y.y.@.#.' ' _ V V m M M ' ' V B V B M ) ) _     d s T s s s s s s e w w w s s s s s s s s s   o * =         % ZX~ o o % % % X   o SX8     % % - X o ^ VXq         = = X % s s s s s s s s w w w w s s s s s s s s w w     O.@.' ' ] V V B M M B _ ' V B M ' ' _ _ ' _ B B M B B ) _ ' ' 0.9.9.",
"O.@.#.u.i.0X2X2XV.v.d.0.#.#.] ] ] ] ' V V B V ) ) ) ' _ ] ) V _ ] o..   f s s s s s s s s 0 = e s s s s s s s s s s e s s s w e % % @ ZXo X % % % % X   @ E @   X % % %       aXq % X w w e s s s s s s s s s s s e e % % s s s s s s s s w w     9.0.o.o.) _ _ _ B B M V V _ _ _ V V B B B M B B V _ _ O.O.#.@.9.b.{.",
"9.0.r.i.u.,X2X2Xb.c.x.0.#.@.] ] ] ' ] ) V M M B V V ' ] ] ) ) _ ] ]     f s s s s s s s s w = e s s s s s s s s s s s s s s e e = *                 ZXHXFXHXDXSXFX                = = w w s s s s s s s s s s s s e e % % s s s s s s s s w w     #.9.] ] V _ _ _ M B M B B _ _ ) V V B M M M V V _ _ ) O.O.#.#.#.D.].",
"0.9.0.a.w.9X5X,Xv.x.x.@.O.o.' _ ] ] ] ) V B B B ) ) ' ' o.' ] ' o.o.    s s s s s s s s s * = e s s s s s s s s s s s s s s s s e w                 AXFXGXHXDXAXAX        o o     % * e s s s s s s s s s s s s s s e % % e e s s s s p e w w     9.#.' ] _ ' ] ] B M M V V ' ] ' ' _ ) M M M B V ' ' _ @.@.9.#.9.XX-X",
"L.M.M.1X1X].].S.0.0.r.] ' _ V V ) ) ' ' ' ] ' ) V ) M M ] #.#.] #.9..   p e s s s s s s w o w p s s s s s s s s s s s s s s s s s e e e w * * o E FXKXIXKXHXJXJXFXSX/   = * w w e s s s s s s s s s s s s s s s s s s % % = w s s s s s e w w     y.t.#.#.o.] ) ) ) V B B B B V V @.o.' ) ) _ ' _ O.@.@.r.r.f.].R.4X4X",
":X;X:XzXzXU.].S.0.0.e.] ' _ V V _ ) _ O.o.] ' V V V M B ] @.@.o.#.9..   e e s s s s s s e o w s s s s s s s s s s s s s s s s s s s e e e w w   Q HXHXHXHXHXKXAXAXSX/   w w w w e s s s s s s s s s s s s s s s s s s = % * e s s s s s e w w     i.t.#.@.] ' ) V V ) M M B V V ) ' ' ] ) ) _ ] ] o.@.@.y.y.S.U._.4X2X",
";X;X;X4X4Xu.y.u.@.@.] _ _ ) B B _ ) V ' ' _ _ ) V ) B V ) ' ' @.r.y.    e w e e s s s s X = e s s s s s s s s s s s s s s s s s s p s s s s e   aXHXo   ^ GXVX    DXAX  e e s s s s s s s s s s s s s s s s s s s s s = * X % s p s e r w w w     -XOXr.9.9.%.o.o._ _ V M M V ) ) M B V V V V ] ' #.w.r.G.T.OX1X:Xu.u.",
"v.b.D.gX4Xt.y.y.O.@.] _ _ V M M _ _ V B B B M M B B ' ] ] O.O.%.r.y..   w w e e s s s s X * e s s s s s s s s s s s s s s s s s s s s s s s s   VXHXo   ^ FXVX    DXSX  e s s s s s s s s s s s s s s s s s s s s s s * * o X s s e s e e * w     =X+X0.0.9.$.o.O._ _ ' V ) B B B B M V _ ' _ @.@.r.r.w.P.T.$X1X2Xt.t.",
"y.t.y.=XOXf.f.y.$.@.] ) ) V M M B ) V B V ) M M V V ' ] ] @.r.w.r.y.    * * w w s e e e o = r e s s s s s s s s s s s s s s s s s s s s s s s   I VXAXFXJX/ JXFXSXsXE   e s s s s s s s s s s s s s s s s s s s s e e * * o X e e e r w w = =     -X=XOXN.d.y.u.r.O.O.o.] ] _ ' ) ) V ) ) ' ' 9.0.w.w.w.=X;XXXu.e.9.O.",
"y.t.y.+X+XP.P.D.0.9.' V V V M m B V V V V ) B B ) ) o.o.o.#.t.u.J.P.    w * e e s e e e o = e e s s s s s s s s s s s s s s s s s s s s s s s   R aXVXDXFX! FXDXVXsXE   s s s s s s s s s s s s s s s s s s s s s e e * * o o e e r r w 0 = %     -X-XOX$XG.S.t.t.#.9.O.] ] ' ' ) V V _ _ o.o.w.r.Y.].[.=X=X#Xy.9.9.O.",
"@.@.@.l.u.3X3XjX0.9.#.o._ _ _ ) ) V V m M ) ) _ ] o.o.o.@.r.r.u.J.L./.U X # * w w w w w o = w e e s s s s s s s s s s s s s s s s s s s s s s r =   f VX  VX  VXQ   % e s s s s s s s s s s s s s s s s s s s s s w w * * o o w w w w * = X X k N w.r.S.#X3X:Xr.y.0.9.#.O.] ] o._ ) ) ' ' O.O.0.e.}.[.[.f.f.h.9.#.o.] ",
"@.@.#.l.l.3X4XgX9.9.#.] _ _ _ _ V B V m m M ) _ ] ] o.O.@.y.t.b.=X;X4X4X.   w * e e w w o = w e e s s s s s s s s s s s s s s s s s s s s s s e %   i aX  sX  sXI   = e s s s s s s s s s s s s s s s s s s s s s e e * * o o w w w 0 = =     9.9.w.r.b.>X2X:X:X2Xr.w.w.%.#.] o.' ) ) o.o.@.9.r.w.6XhXgXl.l.t.9.@.] ] ",
"o.o.o.y.u.2X1X5Xb.n.0.#.O.O.O.O._ ) V B B V ) _ O.O.y.u.u.K.J.vXgXgX,X9X    * * w w w w o % w w e e s s s s s s s s s s s s s s s s s s s s s s e e $   .       X e s s s s s s s s s s s s s s s s s s s s s s s e w * =   o * * w * = =   . @.@.0.0.0.$.d.g.4X4Xv.b.r.y.t.y.@.o.$.#.y.t.y.0.b.].gXhXhXy.t.y.@.] _ _ ",
"' ' ' 9.9.=X=X,Xb.b.0.9.O.O.' ' _ _ ) V ) _ _ _ o.O.r.y.u.J.G.jXgXwXw.w..   = % * * * * o % w r w e s s s s s s f f f s s s s s s s s s s s s s s e %           o e s s s s s s f s s s s s s s s s s s s s s e e w w = = o o = = = = = =     ' ' O.O.9.9.x.h.4X2X+XOXd.t.y.y.O.o.#.9.y.t.y.J.OX2XhXhXhXt.y.0.O._ _ _ ",
") ) ' 0.9.9.e._.-X,Xf.y.#.#.' ' _ ) ) ) ) ' O.o.w.r.K.D.F.fXfX`.'.U.w.r..   8 & * * = = o = w e e e s s s s s s f s s s s s s s s s s s s s s s s s s s e e e s s s s s s s s s f s s s s f f f s s s s s s s e e w w = = o o = = = = = %     ' ' O.o.9.0.0.0.t.l.4X4XkXx.r.r.r.e.t.l.M.OXOXzX=X[.w.0.w.@.@.@.o._ _ _ ",
"' ' ' #.#.0.9.}.-X,Xf.w.#.9.#.@.o.] ] o.o.] O.o.w.w.K.K.S.fXgXF.c.n.w.e.O.#..   % % = = X % * w e w e e s s s s s s s s s s s s s s s s s s s s s s s s e e p s s s s s s s f f f f f s s f f f f s s s s s s w e e w % % X X % % % %     ] ' ) ) ) ) ] ' 0.w.u.i.gX4X4X2X2Xy.r.w.l.l.h.-XOXlX=X[.0.0.0.#.#.@.) V V V ",
"o.o.] ) ) o.9.N.F.;XhXjXu.t.#.#.o.] ] ] ' +.i.t.c.x.jX4XjXfXgXr.r.y.O.O.] o.    = = = % X % * w e e e w s s s s s s s s s s s f s s s s s s s s s s s s s s s s s s s s s f f f f f f s s s s s s s s s s s s e w w w % % X X = % % X     _ _ ) ) V V ' ' o.o.9.9.l.l.d.5X2X}.l.l.#XOXbXgXvXb.t.r.0.9.@._ ' _ ) V B B ",
"o.o.o.) ) O.0.w.d.-XhXjXt.y.#.#.o.] ] ' ' o.t.t.d.v.gXgX4Xb.b.t.r.r.o.o.o.O.+.[ o - % = X = * w e e e w s s s s f s s f f f f f f s s s s s s s s s s s s s s s s s s s f f f f f f f s s s s s s s s s s e e e w w w % % X X % % X o C ` V ) ) ) ) ) _ _ ] o.9.9.l.l.d.2X2XXXf.h.=X=XjXfXvXb.t.r.0.9.O.' ' _ ) V M B ",
"B B V ) V _ o.%.9.v.K._.4X4Xu.u.y.w.w.@.@.9.y.r.hXhXZ.V.F.0.9.@.o.o._ ' V ) ' ] ) .   X % = = * w w e e w r e s s s s f f f f f s s s f f f s s s s s f f f f f f f s f f f f f f f f s s s s s s s s e e e w w w = * % % % %     + j B ) V V B B B V M M V V ) ' #.#.0.t.b.zXzXzX2X1X8Xl.t.9.O.O._ _ _ B B V V V V B ",
"B B V ) ) _ o.%.0.f.K.[.4X4Xt.t.y.r.0.@.@.9.r.r.kXhXB.D.D.9.0.#.O.o._ V B ) ' ] V .   X % = = * w w r r e e s s s s s s s s s s f f f f s f f f f f f f f f f f f f f f f f f f f f f s s s s s s s e e e e w w w * = % % % %     : j B ) V V B B B V M B V B ) ' #.#.0.x.S.zXzXzX2X1X&Xu.u.9.O.o._ _ _ B B ) V V V B ",
"B B V ' ' _ _ ] @.w.r.P.OX=X].R.r.t.y.w.0.w.2X2X=X-Xr.r.0.@.#.] ] ] ) _ ) V B V B m N ;   % % = = = w w e e e e s s s s s s s s f f f f s s f f f f f f f f f f f f f f f f f f f f f s s s s s s e e e e w w w * = = % %     : m M V _ ' _ ) M M B B B V V ' ] ' ' ' #.9.9.4XgXfXu.t.y.#.#.o.' ' ) V V ) B B B V V V ",
"M M B o.o._ _ ' O.0.r.P.+X=X[.].d.y.y.w.w.y.2X2X=X-X0.w.w.@.@.' ] ] ) ' ) M M V M M M ;   X % = = * * * w w e e e e e s s s s s f f f f s s s f f f f f f f f f f f s s s f f f f f f f s s s e e r w w w w w = * = = % %     : m B M B V V ) B M M m M B V ' ] ' ' ' #.9.w.4X4X3Xu.u.y.#.#.] _ _ B M B B ) B M M V ) ",
"M B B o.O.' _ ) ] $.0.t.t.y.4X4XgXlXzX4X4XgXgXfX[.[.j.f.w.' ' ) ) ) _ ' ) M M B B B V ' V +     = = = * w w e e e e e s s s s s s s s f s s s f f f f f f f f f s s s s s s f f s s s s s s s e e w w w w w w = = = =     , k m k B V V ' ] ] B M m M M M V ' _ ] @.O.r.v.b.lX*X;Xr.r.e.@.@.] _ _ B M V V V V V M M B ",
"B V V _ _ ) ) V _ o.o.r.y.y.fX4XhXzXzX4X4XfXgXgX}.[.r.r.e.O.@.V ) V B B B V V ' ] _ ) B V O     = = = = = = w w w w w w w w e e s s s s s s f f s s s s f f f f s s s s s s s s s s s e e w w w w w w w w = = = % = =     , k k M ) ) V B ) V V V B M V V ) ] ] o.#.#.y.v.b.lX=X=X9.9.%.' ] _ V V B B V V ) _ _ M B ) ",
"M B ) V ) V ' ' ' ] ] w.r.r.cXlXbXP.R.w.#.#.w.w.L.-X}.D.H.9.#.o.] ' B B ) _ ] ] ' V V M M M C b     = = = = w w w w w w w w e e s s s s s s f s s s s s s s f f s s s s s s s s s s s e e w w w w w w w w = = % % o   N N m M k m V ) B M B B ' ' ' ) _ ) ' O.9.9.u.x.9X1X1X X=X;Xv.r.e.%.%.] _ _ V B M M V ) ) B B ) ",
"M M V V V B ] ' _ _ ] #.0.9.cXzXlXP.P.0.9.w.r.r.F.:X_.D.H.9.e.@.o.o.V V _ ' o.' V B B m m M M k     = = = = = = w w w w w w w w w w r r e e e e e e r w r r r r e w e e w e w w w r w w w w w w w w * * * * = % =     N M M m m k B V B M B B ] ] ] ) _ ) ' @.0.9.l.u.9X4X2X X-X-Xb.r.0.%.@.] _ _ V V B B ) ) ) B B _ ",
"V V V V V V V ) o.@.@.t.u.b.3X2X,Xl.u.w.#.9.w.r.u.f.5X1X6Xl.l.9.#.#.] ] ) ] ' V M M M V ) ) ' ` C C         = = = = = * w w w w w w w w w w r r r w w w w w r r e w w w w e w w w w w w w w w = = = = = %         N m M B V ) B B M M M B B M V V ' ' ] o.#.y.t.l.=X=X4XwXwX>X#X#XOXOXy.r.r.9.@.O.' ] ' ' ) ) B ) ) _ ",
"V V B V V V V ) o.@.#.t.u.b.4X2X,Xu.u.e.@.@.#.w.y.y.2X2X4X+XoX9.9.#.] ] ) ' ' V M M m V V ) ] ' ) V         = = = = = = w w w w w w w w w w w w w w w w w w w w w w w w w w w w w w w w w w w = = = = = %         V V B B B V B B M M M M B M V V ' ' ] o.#.u.u.t.=X;XL.w.r.9.u.f.OXOXy.y.w.9.@.o.' ' ' _ ) ) M V ) ) ",
"_ _ ) _ ' _ ] O.@.#.9.u.u.@X'.P.F.w.w.] ] ' o.o.9.9.p.a.s.4XjXp.p.q.$.%.] ] ' V V V B V _ ) ' _ _ _ j j j j O   o     o = = * = w w w w w w w w w w w w w w w w w w w w w w w w w * * = = % =           O j j j j ) V ) ' ) _ B B m M B _ ) ) ' ' O.@.0.0.r.%X;X,XL.F.q.9.0.9.0.0.XX[.9X>Xs.0.9.0.#.o.] ) ) ) V B V V ",
"' ' _ ' ] ' ] #.y.y.t.+X+X4XS.m.c.9.0.] ' ) ' ' @.@.r.0.w.1X2X=XXXB.#.#.#.@.O.) ) B B ) ' V V _ ] ] ] ] #.#.:           = % = = = = * * * * * * * 0 0 * * * * * * * * * * * * * * = = = = = %           : o.o._ _ V V _ ' V V V B M B V _ _ ) ] ] #.#.r.0.F.-X;X:Xf.l.0.0.9.9.9.9.T.P.4X4X|.T.9.0.#.O.o.' _ ) ) B B M ",
"_ ) _ ' ' ] O.#.y.f.f.5X1X9Xb.v.f.$.$.' ' _ _ ' O.O.e.e.w.8X8X&X+X'.9.9.9.9.$.] _ V V ) _ _ _ ' o.+.O.o.0.0.N n n j n j   o         o     o o o o o o o o o o o o o o o     o       o   o     j j n n k M @.@.] o.' ' _ ) V B B V B ) ) _ ] o.9.e.r.r.M.M.[.0X,X,Xf.y.9.$.%.%.$.9.h.h.eXqX=X+Xq.0.9.@.#.] ' ' ' V V B ",
"V V ) ] ] #.9.y.u.c.S.,X2Xn.0.0.$.o.o._ _ V V V ' ' @.@.#.r.r.t.$X-X[.[.0.0.0.O.] ) V _ ' ' ] o.@.@.9.0.f.h.2.2.*.&.&.5.                                                                      | | | &.&.O.w.0.$.%.o.o._ _ _ V V B ) _ _ ] O.@.9.9.x.x.=X-X=Xa.i.i.#.#.@.' ' _ o.o.#.9.i.t.>X:X[.].N.0.w.O.] ' ' V V V ",
") ) ) o.o.9.9.a.d.h.B.>X>Xn.w.w.$.o.] _ _ ) V ) ' ' @.@.@.r.r.t.@X8X5X2X$.w.0.O.o.' _ _ _ ' o.@.#.#.0.r.B.V.*.2.&.&.&.,.O + O + O O O O . O . . . . . . . . . . . . O . . . O O O O O O O + O &.| | &.*.+.$.p.9.#.#.@.] ' _ _ ) V ) _ _ @.0.9.9.9.g.g.=X=X=Xw.r.w.#.#.O.' ' _ ] ] #.9.i.y.0X>X|..XZ.r.r.@.o.' ' ) _ V ",
"] ] o.#.#.x.c.bXhXhXxXu.u.9.#.O._ ' _ V B B ) ) V V ' ' ' 9.9.y.u.y.=X:X2XOX%Xr.0.9.#.@.O.@.9.0.t.u.G.T.2X2X=X=X>XV.N.q.#.#.O.O.] ] ' ' ' ) ) V B M M m m m M V ) _ _ ' ' _ ' ] ' o.o.*.&.*.*.Y.S.d.@XOX1X4XgXn.x.0.9.@.@.o.] ' _ o.%.9.0.r.y.XXOX2X4XK.D.w.i.$.@.' ] ] _ _ B _ ) o.o.9.9.u.y.wX4X4Xb.c.w.w.#.#.] o.' ",
"] ] O.#.#.c.b.bXhXhXbXl.f.9.0.O._ _ _ B B M B B ) V _ _ ] %.$.t.t.u.;X:X2XOX{.r.w.9.@.@.O.#.9.0.y.t.T.U.2X1X=X-XOXV.V.#.#.%.O.O.] ] ' ' ] _ V B B B B m m m B V ) _ ' ] ' ' ' ] ' o.+.&.&.*.*.V.N.f.%X'.,XgX4Xc.c.0.9.#.#.] ] ' ' o.#.#.9.r.y.XXOX2X3Xb.b.y.r.@.%.' ' ' _ ` V ) ) ] o.9.9.u.u.nX4X6Xb.b.w.w.@.@.] o.' ",
"o.O.@.9.#.v.h.vXgXV.x.0.w.$.] _ V V V M M M M M V M V ) V ' ' O.%.O.0.0.r.;X2XC.0.9.#.#.9.w.i.a.OX-XoX|.r.0.r.w.w.T.R.:X;X;Xt.t.#.@._ _ ) B M M ) ) ) m m m B B B B _ ' O.9.#.9.9.q.OX:X=Xf.x.9.9.#.$.#.r.l.t.2X-X|.[.t.r.0.0.O.o.w.r.y._.2X4X|.>Xr.r.@.#.o.' _ _ V V V B B V B B V V _ ' @.#.w.r.g.=X*Xy.r.@.@.o.o.] ",
"r.r.r.D.D.gXjXF.G.h.i.0.O.o._ _ B B M V V ) ) ) ) _ _ _ ) ' ' O.O.O.0.w.y.:X2X:X=XB.x.l.D.OX4XjX6X1XXXXXr.r.w.0.w.U.].,X:X;Xt.t.@.@._ _ ) M B B ) ) ) m m M M B B V ) _ @.#.$.B.B.V.-X;X;Xf.l.9.9.@.$.#.w.t.t.:X-XXX$X8X8Xr.r.0.9.i.E.{.2X2X2XoXXXr.r.@.@.] ] _ _ V ) V B B B B B ) ) ) ' @.@.w.r.d.+X>XhXhX}.E.0.0.w.",
"r.r.r.K.D.gXhXS.D.f.i.0.O.o._ _ B M M ) ) V _ _ _ o.@.@.' _ _ ] ' ] e.0.w.-X5X2X=XB.n.x.b.=X4X4XgXnXr.y.t.r.9.9.r.0.0.OX:X;X+X+X0.0.0.#.O.] ' _ ) _ _ V V ) _ ' ] O.@.9.9.y.y.oXOX>XG.9.0.9.#.] ] ' ] #.e.y.t.9.0.&X;X;X:Xf.u.0.w.t.].[.4X2X4Xw.j.0.r.o.o.] ' _ _ M M V ) V B B B V V ) _ ] o.w.r.r.@X@XhXfX].].w.w.0.",
"a.a.a.B.B.2X=X0.r.r.9.' _ ' ) V V ) V B B M B B ] ] @.#.) V B V _ _ ] ] 0.u.y.&XOX:XzXxX2X5XwXW.r.r.9.#.O.o.' ] o.9.9.t.y.r.-X-X0.w.#.@.@.] ' _ V M M V V ) _ ' ] O.@.9.#.$X#X#X#X8Xr.e.9.o.] _ ) ) V V ' ] o.9.9.r.r.XXXX6X:X4X4XlX*X=XY.u.u.#.#.o.o._ _ ` B V _ V ) ' ' ) ) V V B M B ) ) _ O.@.9.y.i.6XjX].U.r.0.w.",
"2X2X1XzXzX=X+X0.r.r.$.' ' ' ) B ) ) V M B M B B ) ) ' ' V B V V _ ) ] o.0.t.t.&XOX;XzXhX2XP.c.i.r.r.9.#.] o.] ] o.#.9.y.r.w.=XOXr.w.#.@.@.o.' ) B M M V V V _ _ ' O.$.#.#.+XOXP.F.r.w.9.9.o.o._ ) ) ) ) ' ] ] 9.9.r.y.{.[.2X:X4X3XzX=X=XP.u.r.#.#.] o.) ) ) B V ) V _ ] ' _ _ ) ) B M M V ) _ o.O.9.t.t.D.I.2X1X=X=X-X",
"2X2X3XzXzX2X2Xu.x.j.O.o.' _ V _ O.O.' ' _ ) _ V B B ) ) ) _ ' _ ) _ ' ] O.y.r.0XjXjX4X-Xh.y.0.9.#.%.] ] _ _ ) ) _ ' ' $.#.9.OX$X-X-X].D.n.#.#.#.@.] ] _ ' ] @.#.0.r.%X@X{.OX;Xw.r.r.@.] ] _ _ _ ' ] o.@.o.] ] O.O.#.9.0.0.F.B.2X;X*Xh.y.r.9.9.] ] _ _ B B B M M M V V ) V V ] @.O._ _ ) V B B _ _ ] @.r.r.a.4X4X=X=X=X",
"t.t.y.U.R.4X4Xu.x.x.@.o._ _ V _ o.O.' ' _ ) _ ) B B V V ) _ _ _ ) _ ] ' O.r.y.8XhXjXOX_.c.r.0.#.$.%.' ] _ _ ) ) _ ' ' %.$.%.+XOX:X=X_.D.h.#.9.#.#.] ] _ ' ' @.#.0.r.{.+X|.|.h.0.w.0.O.] ' _ _ V _ ] o.o.] o.o.O.O.#.#.0.0.b.b.:X=X-Xt.u.y.9.9.] ] _ ) B B B M m M M m V B B ' o.O._ _ ) V V V ' ' ] @.r.r.a.gXfX=X=X=X",
"t.t.t.f.h.4X2XG.K.E.9.9.o.o.' ' o.o.) V ) B M V ) ) B B V ) V ' ] o.@.@.r.x.b.OXgXwXy.y.9.O.o.] _ _ _ ' V ) _ ) ) ] o.] o.O.#.#.w.q.$XOX-X,X}.j.j.9.$.#.$.#.r.d.B.`.OX-XM.w.9.#.#.] ' _ V ) ) B B ) ' _ V V ) _ ) ' ' #.9.w.w.vX4X6Xw.r.#.o.o._ _ ) ) ) ) B M C B M M M B M V V ) ) B V _ _ _ o.O.$.w.y.D.L.2X4Xh.g.h.",
"r.r.u.y.i.2X2XL.T.E.9.9.O.O.' ] ] ] V M B M M M ) ) B M B ) ) ' ] o.@.@.y.n.D.,X2X>Xt.y.9.o.] _ ) ) ) _ ) _ ) ) V _ ' ] o.o.#.$.w.e.{.OX+X-X'.x.x.9.#.9.#.9.b.U.=X4X=XXXa.t.0.#.O._ ' _ B V B M B B B B B M B ) ) _ ' %.#.0.0.vX4X4X0.w.@.] ] ) _ V V _ ) V B B B M M M M M V V V V B V ) _ ' o.#.9.r.y.P.U.;X2Xt.y.y.",
"O.O.9.y.y.9X9XI.U.I.0.0.#.#.] o.o.' ) B B M M M M M _ ) _ ] ] O.O.@.b.c.v.1X1X;X>X&Xy.e.$.] ' _ ] ' ) ` O.] V V V ) _ _ o.] @.#.0.e.g.N.M.{.>X@X#Xw.f.e.w.w.oX2X;XfX(.N.w.r.r.o.] _ _ ) V _ ) V B B M B ) ) V V V ) ' o.o.w.w.mXfXfXf.h.9.t.t.o.o._ _ ) ) ] ] ' ' ) ) B V V B B M V V ) ) _ ] @.#.9.h.h.#X:X8X,Xr.r.w.",
"o.o.] #.#.f.x.hXhXbXx.u.w.r.#.#.] ' ' V B B m M ) V ' _ ' O.O.9.r.y.b.b.x.1X2X|.b.f.9.O.] _ ) ' 0.q.V B #.@.) V V _ _ ' _ ' O.O.#.#.9.0.0.v.-X2X1XD.D.y.y.d.2XhXB.b.y.w.9.#.O.] ] ) ) ) _ _ _ _ _ ) B B _ ' ' ) ) _ o.$.#.r.r.mXhXcXP.T.r.r.t.9.9.o.O.' ' _ ' ] ] B M ) ] _ B B M ) ) ] [ @.@.9.9.0.].R.;X9Xt.y.#.#.O.",
"] ] ] #.#.x.c.hXhXgX;X9Xr.r.#.@.] ] ] V ) B M M ) ) o.o.] #.@.r.t.r.z.c.v.3X1X|.c.u.0.@.] _ V ' 0.e.V V O.@.) ) V _ ) _ V V _ ) ' ] $.0.w.v.@X;X;X-X=X3XhXgX|.|.a.y.y.r.O.o.] _ _ V B V B ' ' ) _ ) M M _ ' ' ] ' ] @.0.0.x.x.bXhXhXP.R.r.y.y.#.#.o.o.' ' ) ) ' ' B B V O._ B B V ] ] ] ] #.@.j.x.B.3X1X-X>Xy.t.9.o.] ",
"_ ) ) ' ' @.@.9.r.F.;XqXr.r.@.@.O.] o.) _ ) V V ) ) ] o.O.w.0.r.r.r.hXhXhX[.[.B.0.9.] ' ) V B B V ) B B V ) ) ) ) _ ) _ B V ) ) ' ' o.O.@.0.u.b.S.-X-X4XhXjXXX].w.w.w.#.] ] ] ) _ B B B B ) ) V V V B B B B B ] ' O.#.0.0.v.c.-X=XOXOX+Xp.a.g.9.0.#.9.o.o.' ) _ ) C B V ] ] V V V ] ] O.@.#.9.d.d.M.4X1Xy.y.#.#.' ' ' ",
") ) ) ' ' O.@.0.r.h.R.XX;X;Xl.f.9.#.$.o.o.] _ ) ] ] q.e.e.t.t.u.].[.gXkXkX>X-XI.r.9.] ' ) V B B B B B B ) ) V B V M M B ' ' ' ` _ _ ] ] o.#.r.x.f.2X4X*X=X[.h.y.0.9.o.' ' ] ] _ _ B M M M B B ) ' ' ' _ ' _ ) o.] 9.w.c.x.-X;X-X=XOXOX#X4X4X4XOX+Xf.t.9.#.] ' ' ' ) ) V _ _ _ ' ] @.O.9.0.y.l.9X:X5XD.v.9.9.#.] V V ) ",
"V V ) _ _ ' O.$.9.w.y.8X;X;Xt.x.9.9.0.O.o.] _ _ o.o.w.w.0.i.t.F.].[.|.XX|.;X2XI.r.0.9.@.o.' _ ) ) ) B B ] ] ) V V B B B _ ) ) ) _ ) ' ] O.#.r.t.t.1X3X.XXXE.t.y.r.9.@.O.] ' ) B B M M M m B V ' _ _ ) _ ' ' ' #.#.i.u.f.x.,X;X$.w.$.q.d.4X4X4XOX#Xu.t.9.9.#.@.] ] _ ) V ' ] ' ] [ #.#.9.0.i.t.9X2X2XD.b.9.#.O.' V B B ",
") B B V V ) ] o.@.0.w.N.F.B.:X:Xa.i.i.$.@.o.' ' o.o.0.r.r.=XOXkX2X5Xu.y.w.f._.OXP.9.9.@.o.' _ ) ) ) M B o.o.) ) ) M M B _ _ ) V _ ) ] o.O.9.w.t.x.gXgX1XXXXXI.D.w.#.$.@.] _ ) V V m M M m V ) _ _ ) V V _ ' ' #.#.j.u.,X2XI.J.0.0.#.9.9.p.w.q._.`.;X;X9.9.@.@.o.o.' ' ) ' ] ' ] ' r.r.n.c.>X2X;XXXq.0.0.O.' ' ' ' V M ",
") ) V B V ) ' ] o.%.$.x.D.S.,X=XA.N.N.0.0.9.#.#.0.r.9.q.p.=XOXmX5XqXy.y.w.f.U.>XU.$.#.O.@.o.' ' _ _ B V _ _ _ ] ' V B B V ) ) ) o.] @.#.#.q.M.g.U.4X3X;X|.XXR.G.q.@.9.#.#.O.] ' ' ) V V B B B V B ) ' ] O.@.9.9.9.d.d.6X2X_.J.w.0.#.$.9.r.r.y.E.}.3X4X_.`.t.0.r.w.#.#.o.o.o.O.0.w.r.r.h.f.#X4X=X[.w.0.0.o.' ' _ _ ) V ",
"_ _ ) _ _ V B V ' o.o.0.9.9.-X-X4X4X4Xb.y.0.#.#.r.r.I.fXgX[.@Xr.y.y.i.@.@.#.9.h.-X,X-X[.y.9.$.O.] ] ) ) B B ) ) ) M M B ) _ ' ' @.#.e.9.0.u.5X4X2XF.J.u.y.f.@X:X=X=X].x.w.9.9.O.o.) ) V M M M ) ) _ o.O.e.9.0.D.D.4X4XU.b.r.w.e.O.] ' o.@.#.9.r.w.4X4XkXhXG.r.r.r.#.#.o.] ] O.0.0.n.x.4X2XXXG.y.r.0.@.O._ ) _ _ B V ) ",
"_ _ _ _ _ ) B ) ' o.o.9.9.9.w.r.:X4X4Xb.w.w.#.@.w.y.Z.gXhXoXoXy.r.t.e.O.@.$.9.9.L.;X;X[.y.9.#.O.o.+.) ) V M ) ) ) M M B ) ) ' ] #.@.0.9.w.x.wX4X4XG.K.y.y.f.oX;X=X-X].u.w.0.9.O.o.) _ V M M M ) ) _ O.O.q.w.0.D.D.4X4XR.b.w.r.9.O.' ' o.@.#.#.#.#.9.0.OXOX].'.}.'.w.r.9.@.O.e.e.0.H.S.4X4XXXG.t.t.e.O.o._ ) ' _ B V _ ",
") _ ' M B B _ ) V _ _ ] ] O.w.w.u.u.z.lXkXjX$XXX3XgXvXb.N.0.0.9.@.@.' ' ' ] O.#.#.d.d.{.;XY.d.w.9.9.o.o.] ] _ _ ] _ _ ' o.] #.9.l.x.@X:X,X=XI.u.w.#.@.o.O.@.#.#.y.v.#X;XI.S.y.0.0.@.O.] ' ] ' o.o.@.t.t.y.x.v.2X2Xu.u.9.9.O.o._ ) V V V V ) _ o.o.0.w.u.u.OX2X4X4XD.G.y.y.y.y.-X=X6XXXa.w.q.#.@.@.o.) _ _ V V M V B V ",
") _ _ B B B _ ) B ) _ o.] o.w.w.u.u.f.lXcXgXXXOX4XgXwXb.v.0.0.#.O.o.' ' ' ' o.#.#.y.u.}.-X}.D.g.9.9.o.o.) ) _ _ ] _ _ _ o.o.9.#.l.l.#X;X2XOXZ.y.w.#.@.o.o.O.#.9.y.x.@X:XXX[.s.w.0.@.O.o._ ' _ ] o.O.y.r.z.b.b.4X4Xu.u.9.9.o.] _ _ V V V V ) ) o.o.w.0.t.u.XX2X4X4XT.T.t.i.y.t.=X=X4X$Xt.y.0.#.o.o.' _ _ ) V M M B _ ' ",
"V _ ) B B V _ ) M V V ] ' ] ] O.y.r.r._.}.OX3X3XOX8X0Xf.x.9.@.o.' o.' ' _ ' ' O.@.r.w.H.L.XX:XL.r.y.@.O._ _ ' ' ' ' _ ' $.#.w.9.2X1XOXOX&Xu.r.9.0.O.o.' ' o.@.9.9.9.B.U.+X:X%Xw.w.@.#.O.' _ _ ] O.%.x.f.Z.gXgXL._.r.y.@.@.] ] _ _ ) B V B V V ] ] O.O.#.#.#.9.0.r.:X;X-X#X>XoX4X1XOXL.t.t.q.@.] ' _ V _ ) B M M V _ ' ",
"B M M ) _ ) B V _ ) M B _ _ ] ] #.#.%.t.t.M.hXhXu.f.w.#.#.] ] ] _ _ ) ) ) V V ) ' @.@.#.9.a.].+X=XOX9.0.#.#.o.] ] O.O.@.0.0.R.P.,X1Xa.r.w.9.0.#.O._ _ V V V _ ] ] O.9.w.a.XXOX,X}.u.t.9.@.@.@.#.9.r.,X2X,XXXOXw.w.9.@.' ' ) ) B B V B V _ _ V V V ' ' o.o.#.q.w.r.=X=XOX2X4XjXP.F.d.0.9.#.o.] _ ) V V ) B ) ' ' B B B ",
"M M M ) ) V B V _ ) M B ) _ ' ' O.O.o.r.t.M.hXhXr.y.y.@.@.' ' ' _ ) V V V B V ) _ ] o.@.@.e.U.+X=XOX9.9.@.#.] _ ' O.O.O.9.0.[.[._.R.0.r.w.#.$.o.o.) _ B B V _ ' ] O.$.9.#.U.XX4XOXd.u.9.@.@.@.#.#.d.2X1X5XT.P.9.9.#.o.' ' ) ) M m B V V _ ' ) B B ) ) ' ' o.O.#.#.f.f.x.9XkXhXb.x.9.$.@.O.o.] _ ) B V V M ) ] o.V B B ",
"V V B V V V B V ) ) B B V ) ' ' o.o.@.r.y.g.gXjXu.y.i.#.%.' ' ' _ ) B V ` V V ) ' ' ] %.#.9.E.@XOX#X9.9.9.#.O.o.] @.@.#.0.9.`.|.E.R.0.0.r.#.O.' ] _ ) B M V _ ' ] o.%.9.#.E.`.2X=Xa.y.0.@.%.%.@.9.y.5X1X9XT.P.9.0.#.o.' _ ) ) M M B B B ` _ ) V ) ) ) _ _ ] O.@.@.u.y.d.qXkXlXx.n.r.#.@.O.] ' _ ) V V B B V ' _ B V B ",
") ) ) B B V _ V B ) ' _ B M ) ) _ ] ] #.9.s.2X:X9.0.@.o.o.' _ ) V B B B V V B M B ) ) ' ' O.@.#.w.e.OX-XT.U.9.9.9.w.w.u.=X=XOXoX0.9.#.O.O.' _ _ ) B B M m M V V ) ) _ ' O.@.@.#.9.8X-X2XI.x.f.d.:X:Xf.x.r.9.#.] ] ' ) ) ) M M V M B M M B B B ) _ ' _ B B ) ' ' ' #.9.9.&X2X1X#.9.@.] ' _ ) V ) _ _ V B V M B M V _ _ ",
") ) ) B B V _ B M ) ' ' B M ) ) _ ] ] #.9.M.2X1X9.9.O.o.o.' ' ) B B B B B B B M V _ _ _ ] O.@.9.e.w.OX=XU.R.9.9.9.r.w.y.-X=XOXOX9.9.#.O.O.' _ ) ) B B B M B V V _ _ _ o.O.@.@.#.#.8X=X2XU.f.h.s.1X;Xf.l.r.#.#.] ] ' ) ) ) B M B B B M M B M M ) ) ' _ B B ) ' ' ' @.9.9.8X2X1X9.9.%.] ' ' V B ) _ _ B B V B M M ) _ _ "
};
