/* XPM */
static const char *gothic_floor_11[] = {
/* columns rows colors chars-per-pixel */
"11 11 113 2 ",
"   c #6D0100",
".  c #710000",
"X  c #750101",
"o  c #780000",
"O  c #7A0201",
"+  c #7A0203",
"@  c #7D0000",
"#  c #7F0102",
"$  c #820000",
"%  c #820200",
"&  c #830300",
"*  c #820201",
"=  c #820002",
"-  c #850100",
";  c #860200",
":  c #870102",
">  c #840202",
",  c #880200",
"<  c #890103",
"1  c #8A0202",
"2  c #8B0303",
"3  c #8C0000",
"4  c #8D0000",
"5  c #8D0100",
"6  c #8C0200",
"7  c #8D0102",
"8  c #900000",
"9  c #910101",
"0  c #920100",
"q  c #900201",
"w  c #910002",
"e  c #900103",
"r  c #930302",
"t  c #940000",
"y  c #940001",
"u  c #950101",
"i  c #970103",
"p  c #960202",
"a  c #9B0101",
"s  c #9B0103",
"d  c #9E0000",
"f  c #9E0404",
"g  c #A00201",
"h  c #A20300",
"j  c #A10103",
"k  c #A50000",
"l  c #A50100",
"z  c #A60000",
"x  c #A40200",
"c  c #A50102",
"v  c #A70302",
"b  c #A60203",
"n  c #A90100",
"m  c #AE0000",
"M  c #AF0102",
"N  c #AE0202",
"B  c #B30100",
"V  c #B10200",
"C  c #B30003",
"Z  c #B40000",
"A  c #B50000",
"S  c #B60203",
"D  c #B80200",
"F  c #B90300",
"G  c #B80201",
"H  c #BD0100",
"J  c #BE0000",
"K  c #BC0301",
"L  c #BE0201",
"P  c #C10001",
"I  c #C00301",
"U  c #C40200",
"Y  c #C50301",
"T  c #C20605",
"R  c #CD0303",
"E  c #C90400",
"W  c #CB0600",
"Q  c #CE0400",
"!  c #CF0400",
"~  c #D50100",
"^  c #D70601",
"/  c #DB0100",
"(  c #D80400",
")  c #D90501",
"_  c #DA0603",
"`  c #DC0500",
"'  c #DD0800",
"]  c #E10900",
"[  c #E10B00",
"{  c #E60E03",
"}  c #EA0E00",
"|  c #F10E08",
" . c #E41004",
".. c #EF1603",
"X. c #EA1207",
"o. c #EC1A00",
"O. c #F31500",
"+. c #EE2400",
"@. c #EF3100",
"#. c #F43C00",
"$. c #F33B05",
"%. c #FC3A07",
"&. c #F54200",
"*. c #FC4702",
"=. c #FF460F",
"-. c #FC5103",
";. c #FB5702",
":. c #F85B00",
">. c #FA5B00",
",. c #FA6200",
"<. c #FB6E04",
"1. c #FF7B00",
"2. c #F87D00",
/* pixels */
"-.4 y =.n E D *.4 s ` ",
"; X.y P < % +.r D R < ",
"y H l X ! N r P s . ;.",
" .< &.% l + Y d ; { % ",
"+ N B >.N D   #.! % 1.",
"' Z l %.l $.y @.D H r ",
"B ; H >.~ ; O.( ( 4 s ",
",.% o.y l ( + [ l E O.",
"r B h r 4 4 h # r [ r ",
"..# h T 2.Y l H Z f / ",
"r <.< Z ^ l l | 4 } ; "
};
