/* XPM */
static const char *gothic_floor_24[] = {
/* columns rows colors chars-per-pixel */
"24 24 116 2 ",
"   c #6E0202",
".  c #730101",
"X  c #7B0101",
"o  c #840101",
"O  c #8C0101",
"+  c #930101",
"@  c #9B0102",
"#  c #A30101",
"$  c #AC0101",
"%  c #B30101",
"&  c #BB0201",
"*  c #C40202",
"=  c #CC0301",
"-  c #C60108",
";  c #D30401",
":  c #DB0502",
">  c #D50A02",
",  c #DB0B02",
"<  c #DE020C",
"1  c #DE1300",
"2  c #E10602",
"3  c #E30B02",
"4  c #E90C02",
"5  c #E51102",
"6  c #EB1301",
"7  c #EC1A00",
"8  c #F31502",
"9  c #F21C01",
"0  c #F81C03",
"q  c #F41408",
"w  c #F21E09",
"e  c #DC2C00",
"r  c #E92200",
"t  c #F52605",
"y  c #F82603",
"u  c #F92706",
"i  c #F72901",
"p  c #F62D01",
"a  c #F72D02",
"s  c #F82E06",
"d  c #F2250A",
"f  c #EF3506",
"g  c #EB3800",
"h  c #F73500",
"j  c #F53600",
"k  c #F23302",
"l  c #F93302",
"z  c #F03F00",
"x  c #F93D00",
"c  c #F83E01",
"v  c #F53409",
"b  c #E54900",
"n  c #F74500",
"m  c #F74006",
"M  c #F94000",
"N  c #FA4100",
"B  c #F84200",
"V  c #F94301",
"C  c #FC4500",
"Z  c #FA4206",
"A  c #FD4500",
"S  c #F94B02",
"D  c #F84C00",
"F  c #F94E00",
"G  c #FA4C01",
"H  c #FB410E",
"J  c #F4480A",
"K  c #FF4F0B",
"L  c #FA5100",
"P  c #FB5002",
"I  c #FA5302",
"U  c #FE5105",
"Y  c #FE5007",
"T  c #FF5307",
"R  c #FC5502",
"E  c #F75800",
"W  c #F45A04",
"Q  c #F55C00",
"!  c #FD5900",
"~  c #FF5A04",
"^  c #FE5E06",
"/  c #FB5B02",
"(  c #FD5109",
")  c #FF5C14",
"_  c #FF5A1F",
"`  c #F96100",
"'  c #FA6000",
"]  c #FA6200",
"[  c #FF6002",
"{  c #FB6506",
"}  c #FB6202",
"|  c #F76800",
" . c #FA6801",
".. c #FD6801",
"X. c #FD6C03",
"o. c #FF6E05",
"O. c #FA6C00",
"+. c #FF670D",
"@. c #FF650A",
"#. c #FF6D09",
"$. c #FA7202",
"%. c #FD7704",
"&. c #FA7301",
"*. c #F57900",
"=. c #FE7902",
"-. c #F87E01",
";. c #FC7C01",
":. c #FE7A04",
">. c #F48400",
",. c #F88300",
"<. c #FF8305",
"1. c #FC8305",
"2. c #FC8800",
"3. c #FD8902",
"4. c #F98F00",
"5. c #FD8900",
/* pixels */
"* 2.@ 4 O X $ 9 % o + * ..$ o # ; 2.$ o + #.% O ",
",.* O . ; & D = ] & U : & ;.= U 0 p X @ $ D 7 6 ",
"% ! * + 4 0 O O v 3 @ X # % $.& o + 5 * %.@ . + ",
". @ 9 W 2 + @ @  .$ . O $ E & $ X X & +.* @ . X ",
"O X = [ o + * 3 # t ; > h % O , L 4 = O $ ~ ; 4 ",
"O & K = _ $ @ X O $ <.6 + X X o * 4 @ o X # o.: ",
"4.V o X $ x * 3 # 6 & + C X o % :.$ V q & z & X ",
"# ] # . $ V & O 5 : . X @ b = 7 @ $ o $ 7 #   $ ",
"4 : X.& ^ 2 ; O , 8 @ O : V : ; O X # 3 6 : + O ",
"$ X @ > ; O o * , % S L % X X > 3 - 1 % X $ x ] ",
"+ X X O , 9 9 6 X . % y # o = @ * 6 % X o % L # ",
"= O o X 4 : n ; X X O 3 , t o + u & i # X J = + ",
"= { & h = X . & U : -.: $ r & s % O O 1 Z , l $ ",
"X % g * $ & o # { 4 + + o = :.> @ X $ k * # * ) ",
"$ p % .   + C ! # ; % O = e # $ D # 9 & o X . # ",
"2.* o + @ 8 ; O O . & j < X . + @ <. .4 + . * / ",
": ( + + >.: S ; o # @.4 S $ O * @.; # < , * / = ",
"o = 9 6 = X @ = , / % X + d = m & .   O ; ) # . ",
". % p & 2 # . X ] $ o + X o ; & X . + ; x 1 # X ",
"% L % X 3 / O & 7 $ o . + % Q I % O : f @ * ] $ ",
"*.% . + X $ O.2 # w = o = , # @ : 1.* o #   % $.",
"& ] $ . % 4 = o X + 3 5 5 @ @ o $ I 2 # O O 3 3 ",
"o + %.: , $ H % + + 3 3 ! # . = ..# & ] * T * + ",
"+ o # $.+ O & D @ ; : O % D & | % . . @ :.* X + "
};
