/* XPM */
static const char *gothic_duck_71[] = {
/* columns rows colors chars-per-pixel */
"71 71 230 2 ",
"   c #020101",
".  c #0A0101",
"X  c #090209",
"o  c #0C0B0B",
"O  c #080709",
"+  c #140000",
"@  c #1A0200",
"#  c #160D0D",
"$  c #110F10",
"%  c #141414",
"&  c #1C1415",
"*  c #1A1816",
"=  c #191718",
"-  c #1B1B1B",
";  c #17191B",
":  c #2D0104",
">  c #2B090F",
",  c #25060B",
"<  c #3C0000",
"1  c #37080D",
"2  c #230B12",
"3  c #2D0B13",
"4  c #340712",
"5  c #330913",
"6  c #3D0915",
"7  c #3C0512",
"8  c #221818",
"9  c #1F1F21",
"0  c #261D20",
"q  c #242424",
"w  c #2C2C2C",
"e  c #272727",
"r  c #322E2C",
"t  c #32312F",
"y  c #312F30",
"u  c #3A2F35",
"i  c #333333",
"p  c #3B3A3A",
"a  c #3B3737",
"s  c #2E332C",
"d  c #430607",
"f  c #550000",
"g  c #5C0508",
"h  c #440613",
"j  c #4D0514",
"k  c #490815",
"l  c #530514",
"z  c #590515",
"x  c #5C0619",
"c  c #4D1106",
"v  c #650101",
"b  c #6C0101",
"n  c #640B01",
"m  c #68050B",
"M  c #740101",
"N  c #7B0101",
"B  c #6C1604",
"V  c #771703",
"C  c #6A0517",
"Z  c #780618",
"A  c #552616",
"S  c #612004",
"D  c #76210C",
"F  c #46413E",
"G  c #444443",
"H  c #4C4A4A",
"J  c #514948",
"K  c #5D5D5B",
"L  c #655C59",
"P  c #63594F",
"I  c #7D7269",
"U  c #7E7A79",
"Y  c #7C6E63",
"T  c #840101",
"R  c #8B0101",
"E  c #88070C",
"W  c #940101",
"Q  c #9C0101",
"!  c #9A090A",
"~  c #801C03",
"^  c #8D1D00",
"/  c #961800",
"(  c #88061A",
")  c #9C0416",
"_  c #980A16",
"`  c #921010",
"'  c #A30101",
"]  c #AC0101",
"[  c #AB0A0B",
"{  c #A30408",
"}  c #B40201",
"|  c #BB0301",
" . c #B60900",
".. c #BE0905",
"X. c #A81500",
"o. c #B51400",
"O. c #A9051B",
"+. c #B8081C",
"@. c #BE1212",
"#. c #912102",
"$. c #992401",
"%. c #AC2B00",
"&. c #B62502",
"*. c #B23000",
"=. c #8F0B23",
"-. c #A71A2B",
";. c #C40302",
":. c #CB0501",
">. c #C40A02",
",. c #CD0901",
"<. c #CD0608",
"1. c #C50809",
"2. c #D20601",
"3. c #D40A02",
"4. c #DB0C02",
"5. c #D30B09",
"6. c #D40608",
"7. c #CC1400",
"8. c #C81903",
"9. c #D51300",
"0. c #DD1302",
"q. c #D31A01",
"w. c #DC1B00",
"e. c #E20E02",
"r. c #E40F0A",
"t. c #E31401",
"y. c #E91501",
"u. c #E41B01",
"i. c #EA1C02",
"p. c #E3130A",
"a. c #D22400",
"s. c #DC2400",
"d. c #D72C00",
"f. c #C73902",
"g. c #D53800",
"h. c #D63D1B",
"j. c #E52400",
"k. c #EC2402",
"l. c #E42B02",
"z. c #EC2C02",
"x. c #EB2D09",
"c. c #F12C02",
"v. c #F12404",
"b. c #E63300",
"n. c #ED3302",
"m. c #E53B00",
"M. c #EC3B02",
"N. c #E8350C",
"B. c #F43304",
"V. c #F23C02",
"C. c #F63D0C",
"Z. c #F93A08",
"A. c #D91628",
"S. c #C80A23",
"D. c #E71D32",
"F. c #E0162C",
"G. c #DF2334",
"H. c #CB4000",
"J. c #D24100",
"K. c #DF4C04",
"L. c #EC4201",
"P. c #EE4C01",
"I. c #E24B01",
"U. c #F34302",
"Y. c #F44C03",
"T. c #F94D03",
"R. c #F94B0B",
"E. c #F74907",
"W. c #ED5300",
"Q. c #EC5C02",
"!. c #ED5808",
"~. c #F45402",
"^. c #FA5503",
"/. c #F55C01",
"(. c #FA5C03",
"). c #F55409",
"_. c #FB530B",
"`. c #F45D09",
"'. c #FE5C0D",
"]. c #FC4912",
"[. c #FE5412",
"{. c #FF5D11",
"}. c #FB5B15",
"|. c #D96F1B",
" X c #EF6200",
".X c #F56301",
"XX c #FA6402",
"oX c #F56B00",
"OX c #FB6B03",
"+X c #FE650C",
"@X c #FE6B0B",
"#X c #F66E08",
"$X c #F67301",
"%X c #FB7302",
"&X c #F57C01",
"*X c #FB7B02",
"=X c #FD730A",
"-X c #FE7C0A",
";X c #F7740A",
":X c #FE6411",
">X c #FF6B13",
",X c #FF7514",
"<X c #FF7A12",
"1X c #FF751A",
"2X c #903546",
"3X c #AC364A",
"4X c #85786F",
"5X c #827C7B",
"6X c #887E72",
"7X c #F68400",
"8X c #FC8402",
"9X c #FC8B02",
"0X c #FE830A",
"qX c #FF8D0A",
"wX c #FD9203",
"eX c #FD9A02",
"rX c #FF960A",
"tX c #FE8414",
"yX c #FF9415",
"uX c #F9932D",
"iX c #D58E36",
"pX c #84807F",
"aX c #968D84",
"sX c #A5988B",
"dX c #BBAC9D",
"fX c #B4AAA3",
"gX c #BDB3A7",
"hX c #C4B5A5",
"jX c #D2C4B7",
"kX c #F9F7F7",
/* pixels */
"N R W ' ;.0..X8.| W W T T N N T R M T W ;.t.*X2.3.} R N N N T R W ] :.3.Y./.;.] R N T T T T N R Q } 4.z.9Xt.| 4.} ' Q ;.:.:.U.oX4.} Q T N M N ",
"R Q ;.3.@X/.:...Q T ' } ' W R T T W W } :.t.7Xw.:.| W N R R Q ] ;.,.XX/.~..XT.3.| W T N N R W ' <.4.XX.Xz.:.Q T N N T R Q ] | ~.+Xt.;.' T R N ",
"W ;.N.M.rX;.} Q W N T } 3.W W Q N W ] ;.,.XX0XoXOX4.' R R Q ..;.8.7.@Xa.>.3.=X9X;.' R N T ' ;.;.:.E.0X3.:.Q T M M N R T T W ] ,.*X{.8.;.' W Q ",
"} 2.<X.X4.;.' R R N N W ' i.;.} ' } 3./.(./.t.XX.X4.:.Q ] | x.z.XX/.l.;.| 4.'.9Xe...Q W W ] 3.n.(.oX(.3.:.W R M M M Q M T Q Q 3./.oX9X3.;.| ' ",
"OXwXoX:.;.W N M M N M N Q | V.9.:.4.oX%X4.| Q } 4.0X4.| 3.^.(.^.t.;.} Q W } :.T.XXt.;.} | 4.*XXXE.2.3.5.' T M T N b N R ' | | P.oX4.3.W.-X>X3.",
"$XP.$Xu.;.] Q W N M N N T ] :.'.$X8XXX;.} Q R W | t.OX~.8X_.s.:.| Q T T N W } :.t.#Xk.3.q.*Xk.2.;.W W 3.w.| Q R N W W } ;._.XX~.:.[ Q | 2.Q.wX",
";.;.c.7Xj.,.} Q Q W T W ] :.u.9XqXt.;.Q R M T ' ] ,.wXl.:.| ] Q T N T N W T Q ] ;.i.eXQ./.0.:.' W N N R ] t.;.' W Q ;.0.s.*X2.| Q R M R ] ..;.",
"Q ] :._.-X0X3.5.| Q Q | 4.(.oX_.,.,.;.W N N ' ] 0.V.n.<.} Q R Q M M W N N T W Q } 0.*Xe.t.;.' T N v M T T ] 0.0.;.:.y.&Xs.| } W T N N T R T ' ",
"N R W ;.3.d.:X}.:.2.,.0.>XP.>.>.;.Q R } W T ' ,.u.9X2.] W N T T M M ] R T R ' >.0.R./.:.| Q R N N b M T M R ] v.C.>XqXw.| ;.R N M M M R M M T ",
"b M M W 1.3.>XOX8X,.,..X0XN.:.] ' R R R | ' ] 9.L.0X4.} W N T N W T R T R ] } :.s.,X^.w.,.| R N W N N N T Q | t.U.0X0X4.3.} Q R N T W R b M R ",
"Q R N R Q } :.3.9.7XwX<X3.| Q W W Q N W Q ;.,.=XE.w.+X2.3.] Q W ' W Q ' ] >.:.w.-X:.} } M.>.} W N R W W W ;.q._._.} >..X| | 2.;.Q R M M W W | ",
"R W N T M R R :.3.9Xs.4.W T M M M ] N R ] | 9.[.:.:.'.L.;.>.} } Q ' |     :.q.%X_.;.' ' ;.V.| } | T T ] | >.L.'.7.| | ..XXXX:.;.,.] W T ] } ;.",
"N } ] M b M W ] ;.&X4.;.Q T b N N R T Q | 3.(.5.} ] i.%XT.k.i.0.} ;.  i   ~.8Xk.2.] W W ] ,.~.2.;.] } ,.0.OXM.:.] Q W } ,.3.XXl.;.| ' ' | ;.W.",
"M W ' R N R ] ,.t.eXz.:.} W T N M T Q | t.M.t.;.Q T | 3.&X2.:.,.V.  i q a   L.:.| ] ' R R ' | T.~.:.:.Y.7X4.| ] R R N W ' } :._.$XZ.3.:.0.&XV.",
"N M N ] R ] 2.OX7XY./.XX2.| ' W W R ;.w.| Q '     Q ' ;.~.oX      i w i w         | Q W ' T .   ,.XX9X~.y.} W T M N v M R R Q ;.p.^..XeX=Xl.;.",
"Q N N ' } 5.n.eXz.;.:.0.oX2.| } Q ] 0.Q W Q   A.  ] :.c.@   p H O w i i -   i   %     Q W W   S.  3.$X3.3.W Q R M b N R M M R W :.4.*XU.:.;.W ",
";.W T } :.3.XX'.:.Q ] | t.OX:.1.} 2.| W R } . G.  [ :.  F 5XK i w - i i - i q   i w -   ;.!   D.. 4.*Xt.| ] W T M N N N N N T ' | 4.%X4.,.Q R ",
";.} ' :.k.%X3.,.] R M R } <.XX:X0.;.W ] ;.3.  +.( m O H 5Xa i i i i i i i q q i i i i 9 X h.-.O.. Y.s.OXL.;.] Q Q Q N M R W ' ;.3.%XV.2.Q R N ",
"$Xi.3.-X%X4.;.W R N M T W ;.y.=X8Xz.3.y.XXU.. ( D.:   H i t i i i i i i i i i i i i i i   @ F.( . w.| 4.~.XX0.<.| Q ' W ..;.e.XX%XC.:.W T M T ",
":.oX9Xt.2.| R N M T T M R R } ,.4.9X/.oXt.;.  Z ) A.m   w i i i i i i i i i i i i i i   m A.) C . ' R W ] ;.E.XXL.2.:.;.9.0XoXj.:.:.] R W W R ",
"] 3.%Xu.4.' T T N M Q M b Q ' | B.wXY.:.| W . l ( ) )   w i i i i i i i i i i i i i i   ) ) Z l   Q ] M T R ' | <./.9X`.~.d.2.;.' W N T R ] R ",
"Q 2.oXk.:.] R T N b T b b R Q >.4.9Xt.:.Q Q [ l l g Z   w i i i i i i i i i i i i i i   C m z l [ ] R M T R ' | ..;.T.$XY.,.;.' W R M R T M N ",
"R ] i.9Xa.;.} Q W N M N R ] :.3.+X^.3.] W R     j z : i i i i i i i i i i i i i i i i i , g h     } N W W M R R Q ;.0..X3.2.Q R N T b W | Q M ",
"Q | U.9X$X/.:...} R R R ' 4.R.qXm.t./.3.} }   w     % i i i i i i i i i i i i i i i i i =     -   R N ' W N N T W | t.&Xk.3.| W R Q M N W Q ;.",
";.y.W.5.;.t.%X2.4.:.' } 3.oXU.3.2.| u.^.3.  q H w w t i i i i i i i i i i i i i i i i i i q q q %   W R M R W ' | :././.OX@X,.;.} Q T R M T W ",
"m.oX;.} ' | 4.&X9X}.i.4.9XL.:.;.Q W ;.3.`.  w G i i w i i i i i i i i i i i i i i i i w i i i w -   ' R R Q | 3.l./.U.| :.(.OX/.z.:.;.Q Q ' ] ",
"$X3.;.Q R W } :.:.l.*X@X0X3.] ' ` < < | 4.  G i i   O w w   i i i i i i i i i i i   w w O O i t q   ] Q < d h./.(.>.;.W ] | ;.7./.;.} ..| ..;.",
"0.| W W M M R W ;.3.:X$X/.8.E Z O 5XJ   5.  a i i w w   o i i i i i i i i i i i i i O O q i i i w   :.  L p O |.&.@.Q N T W Q :.4.oX+X3.i.b.oX",
"' T N N M b R W W } 2.=X  - e w - O %   n.  i i i w O     i i i i i i i i i i i i w O     w i i w   M.  %   % $ % %   E R N M W | 2.w.OX9Xk.2.",
"T M b b N T M R N [ R   q =   $ % %   ;.w.  w i i   kX      i i i i i i i i i i i O kX      i i w   (.N.  % % o   % -     T b M W } ;.8X3.} R ",
"' N M b T } M T W f o -   > 6 2 % %   3.M.  e i i           i i i i y w i i i i t           i i q   3.^.  % % 2 5 >   % -   N R ' :.M.%X| W R ",
"Q R R N ' ] N Q |   %   h z k % % %   M.4.  9 w i   h   l   i i i ~ Q.Q.!.~ i i w   7   z   i w -   ,.3.  % % % h l h + O -   ' } oX=X4.] R N ",
"} W R N R T W Q   * 1 l C C > % 2 o %   U.4.  w i t =.+.(   i i ~ oXuX=XtXoX^ i i   ( O.=.w i e   ;.|   % O # % 5 C C j j $   } :.$X`.;.Q R b ",
"2.| W R T T }     . . Z Z k * 2 6   %   :.k.  q i y       w t D oXV .X$X.Xn OXB i i       w w -   w.'   -   4 2 & j Z Z .       4.oX] } R M N ",
"7X4.;.Q T R R   Q R 3.X x 5 & 1 j 3 % %   w.+ - 8 3X2Xi i r S uX.XH.@X;X;XJ.K.<XA s i u 3X3X0 % . l.  - % 2 k 4 % 5 C   R W ]   =Xw.} Q N N M ",
"4.OX X;.] W M T W ] ,.M.k - > z C 5   % -   M.  - w i i w $.-X XuX;XK.I.K.@XoX.XOX^ t i i q -   |   - %   5 l z > & 6 ' ' ' :.y.%X:.| Q W b Q ",
"} 2.+XoX;.} W ] | :.Y.9X  8 l Z x h 7         o   - q t q V *.f.%.n n g n n %.f.%.V e i q -   o         4 7 z C l 3   ,.4._.XX7X9X~.).:.' W N ",
"W } ,.4.XX4.;.:.4.OXOXE.  >     j x j   w a w   J   - q q % c V B f.J.g.J.f.B V 1 o q q q   F   - w %   h h k     5   ).XX~.4.:.;.0.%X0.:.} W ",
"M R } | u..XC.wX7Xw.:.,.    y.t.  x   p U a w w   o   % q q -   ^ #.#.^ #.^ $.  - q q %   O   - w a i q   z   z.u.    >Xy.2.| Q ] ;.3.XX,X4.;.",
"N T R ' :..XeXp.4.:.:.] T 6.R.,.!   G pXa i i i q   %     - - - O             q - -     o   - w i i p a q   [ :.(.,.>Xy.;.' R R R ' | :.l.XXB.",
"R M R ' :.8Xt.4.:.Q W } T ' ;.| 0.O U a i i i i i q   fX%     % - - - - - - - -     o fXO - w i i i i a w   1.Y.2.| ' :.Q R N b M T R } :.p.8X",
"N W ] :.c.OX4.3.] W T M ' T ] Q   t G i i i w i i i a r O % O                 O O % O F H i i i w i i i i -   3.| ] W R M M b T Q N N W ] ..3.",
"R ] 2.t.%X4.,.R W M b R N M T W   i i i i q w i i i   -   O * O % % $ P % % %   w O   - o i i i q q i i i q   } W W N b T R M W W R b M R W ;.",
";.4.@XOXr.;.Q ' Q N M N W T Q ]   i i i i - i i i i i i w -         aXsXI         - q i i i i i w % i i i w   :.' N R M M M R M b b T R ] | l.",
"5.OXL.9.:.Q N T W R T T M | ] 3.  w i i q q i i i i i i i i w q O hXkXhXjXsX  - w i i i i i i i t % q i i q   e.| ' R N N N N ' T T R } 2.Z.*X",
"oX*X4.4.} R N R N W T N N W :.9.  w i i O w i i i i i i i i i i O hX  dX  dX  i i i i i i i i i i - o y w q   (.3.;.' R M b T M N R ' 2.V.$X4.",
"4..X0.;.] T b M N N b M Q } :.9.  - w w O w i i i i i i i i i i O Y gXL gXY   i i i i i i i i i w - O w q -   XXXX9.4.] Q W R N T Q :.3.oX5.| ",
"} e.&X<X;.R R T M b T Q ' 3.z.-XiXO q q O q w i i i i i i i i i w O 6X4X4X  w i i i i i i i i i w - O q -   ` 3.j.$X,.:.| R R T Q } 2.T.t.| Q ",
"W ;..XP.:.] W R R T R ' 4.c.8Xs.,.O - - O q q i i i i i i i i i i w       w i i a i i i i i i w q - O - -   W ] ;.t.*X^.2.2.] | 4.x.XX9X5.' R ",
"T | :.+Xw.} ] Q W Q ' 2.k.8Xz.3.2.< % - O q w q i i i i i i i i i i t w i i i a a a i a i i i q q - O % - d R R Q ,.4.*X+X,.2.4..XwXN.:.| W T ",
"Q R ] 2.9X4.| ' Q W 4.t.8Xj.2.,.Q N   % o - w w i i i i i i i i i a i i i i i a a a i i i i w q q % O %   v T N R ' ;.e.%X~.4.XX8Xi.2.] W W M ",
"M T R >.v.8X3.4.:.} 3.9Xj.;.] R N R N   % - q w w i i i i i i i a i a a i a a a a a i i i w e q - % %   f N M b M N T | e.yXeX%X4.;.' R M N N ",
"b ! R Q 2.(.XXa.s.>.&X'.<.} Q T W b b M   % - - q w w i i i i i i i i i i i i a a a i i e q q - - %   g b T N b b N Q W ;.=X&X4.| W T M T b T ",
"N N T N ] 3.+X7XeX&X8XP.,.] T M M T Q M M   = - - q q q w i i i i i a i a i i i i i w q q q - - -   f v T T N N N R ' | r.qX.X:.W W T M N R M ",
"N N T ' ] 3.Q.rXx.:.:.{.T.:.| ' T Q M b b M O = - - q q q q q q w e q q q q q q q q q q q - - -   v T b b b R W W } 4.[.*XW.XX'.3.;.Q R T N T ",
"T N N W | 4.^.1X3.' ;.3.,XXX;.} Q W b b N Q T .   % - q q q q q q q q q q q q q q q q - - *     N N R b b N T Q | :.L.:X:.;.3.+X,.;.| W T M T ",
"W W W | 4..X@Xi.;.W W } 2.%X/.;.;.} T M T T Q Q ;.. . ; * - - 9 q q - - - - - - - - - ;   . ] R T W N M N R } ;.;.b.oXt.;.] :.M.*XM.;.] R T M ",
"T Q ;.7.j.+X2.1.Q R N W } 2.].=X:X:.' R R ' | :.d.&.X.@ + + + + . . . . . . . + + + + : / o...;.| W T N R ;.;.w.:X.X3.| W T Q ;.4.+XW.3.' R T ",
"Q | t.9XtX4.,.R T b b T R ' 3.l.@X~.:.| ] ;.,.I.%X:Xs. .} Q W ! M M v v N ! Q Q Q ' X.o.,. .*X0.| | ] W ;.;.d.-X7.3.Q R T M T Q >.3.-Xw.,.} Q ",
"2.v.7Xc.e.;.T N M N R W W W ] | :.%XXXy.z.*X8XR.,.:.C.oX2.} Q N M T b b N N W } /.(.@X4.| | 4..XT.oX4.:.T.*X(.:.| Q R N N M M N ] } 2./.9XE.:.",
"%XeX.X2.2.W T T N b M T W M R W } 5./.eX%Xt.2.;.Q W ;.3.XX<.| ' R M N N R ] ;.(.z.:.;.Q T T Q ;.2.Y.OX*X(.4.| ' R T N T W Q T b N W } 2.m.%X'.",
"3.L.%Xt.| ' N ' W T T M N R T R Q 2.9X.Xt.:.| W R T W | /.oXL.} | Q R Q | 3..X[.:.] Q N W ' ' ] ;.:.i.oX4.;.Q R M M v b M T } R N N W 2.8.qXXX",
"3.3.%Xn.;.| W Q M M v T b T Q ] | t.*X4.;.W T R T T W ' | ,.E.@X0.;.| ;.V.&X(.2.] W N b M M b R R | ;.&X2.' T N T N M b b M T M T W | :.V.=X3.",
"' | 0.9Xw.:.| ' W M b T W } 2.4.u.$Xt.;.' T ;.M } N R R ] | ;.0.%Xd.3.7.7Xi.2...Q T R T W M W R ] ;.3.9Xn.3.;.' W R Q b Q N M T ' } 2.V.>X4.] ",
"T W ] ,.OX3.:.5.' T N N ' 4.].+X9XY.;.' T b N M T N R T T Q ] ;.i.XX*X0XC.2.| Q R M M M M N M Q :.0.E.XX~.-X3.:.;.Q T M W T N Q :.t.>X-X5.| W ",
"M N N ] 2.oXq.;.;.] R ' 2.U.qXXXE.>Xk.;.' R R b Q N M T T R W } 4.].qX~.t.| } R M b b W W T W | 4.*X@X:.>.&XXX3.;.| Q R W T Q 2.4.P.@X3.' R b ",
"R R T T ' ;.@X%X8X3.| :.&X@X4.:.| ;.XX.X4.| Q T M R M T Q } ;.3.%XP.9.9.oX/.t.:.' T M M T ] :.i.&Xu.2.| Q | 3.*X9Xz.3.| ' ' :.u.$Xn.3.] T T T ",
"R N N N W Q :.3.0.wX).*XL.:.;.] R ' | 7.XX| ;.' Q R R ] | e._. X4.;.] } ..w.oX3.:.] W W ] 3.3.%X9.;.] T T T ' :.4./.*Xk.3.5.oX(.m.;.| R N M M ",
"T M N N N W Q ,.,.T.&X+X0.;.Q ' R W | :.m.OX,.} R W W ] 3.%X/.,.:.] W ' ;.;.M.@X,.| W T ] w.7Xm.3.} Q R N M Q ] | ..<.oX^.+X*Xb.4.} W T M M W ",
"b M N N b N W ] ] 3.9X3.} W R N T M R Q | M./.;.} R ] ;.Y.L.;.;.' R N N R ] | M./.4.} ] ;.%XB.;.] W T v N W M T R Q | 0.j.9Xw.| ] W N N R { M ",
"T N N M W N T T Q ;.oX:.' W N M M M N T Q } ,..XM.;.:.'./.:.| Q T N M M N R Q } ..XXn.u.OXe.| Q T T b M b b T W N T W | ,.%X;.Q W M R M b M R "
};
