/* XPM */
static const char *gothic_trail_56[] = {
/* columns rows colors chars-per-pixel */
"56 56 148 2 ",
"   c #008FEE",
".  c #0190EF",
"X  c #008FF2",
"o  c #0094F4",
"O  c #0897F4",
"+  c #0199F7",
"@  c #0196F8",
"#  c #019CFA",
"$  c #15A9ED",
"%  c #1BA8ED",
"&  c #05A4F4",
"*  c #0AA3F6",
"=  c #04ADF7",
"-  c #09ABF4",
";  c #01A3FC",
":  c #0AA6FC",
">  c #03ABFD",
",  c #0AADFC",
"<  c #10A6F7",
"1  c #1CAEF4",
"2  c #16A4F8",
"3  c #13ADFB",
"4  c #06B2FE",
"5  c #0CB2FD",
"6  c #0BBBFE",
"7  c #1DB0F6",
"8  c #13B4FD",
"9  c #1AB6FC",
"0  c #14BAFD",
"q  c #1CBAFD",
"w  c #20B3F6",
"e  c #21B6FA",
"r  c #2DB7F8",
"t  c #24BDFC",
"y  c #2ABDFC",
"u  c #34BDF7",
"i  c #39BFFB",
"p  c #40BDFA",
"a  c #16C1FE",
"s  c #1EC2FD",
"d  c #24C5FD",
"f  c #24C1FE",
"g  c #2CC1FD",
"h  c #2DC2FD",
"j  c #2EC2FE",
"k  c #2EC4FD",
"l  c #2BC2FD",
"z  c #2FC8FD",
"x  c #33C2FE",
"c  c #34C1FC",
"v  c #33C5FC",
"b  c #35C4FD",
"n  c #37C6FE",
"m  c #33C3FD",
"M  c #39C1FA",
"N  c #3AC5FC",
"B  c #37C9FE",
"V  c #3ECBFE",
"C  c #3ACFFC",
"Z  c #3CCBFE",
"A  c #38D1FD",
"S  c #46C3F6",
"D  c #46C9F7",
"F  c #40C7FD",
"G  c #42C5FC",
"H  c #4AC7F9",
"J  c #41CCFD",
"K  c #46CDFE",
"L  c #43CBFD",
"P  c #4CCAFB",
"I  c #48C9FC",
"U  c #4FCEFD",
"Y  c #4CCDFC",
"T  c #53C8F7",
"R  c #53CBFD",
"E  c #54CEFD",
"W  c #52CDFB",
"Q  c #5DCDFC",
"!  c #47D1FD",
"~  c #46D0FE",
"^  c #4ED2FE",
"/  c #51D1FD",
"(  c #52D3FD",
")  c #56D6FE",
"_  c #55D2FC",
"`  c #58D3FC",
"'  c #5CD2FC",
"]  c #61CFFC",
"[  c #6CD3F7",
"{  c #63D0FB",
"}  c #63D4FC",
"|  c #6AD5FC",
" . c #6AD5FC",
".. c #61DEFF",
"X. c #64D8FE",
"o. c #6CD9FD",
"O. c #73D6FA",
"+. c #7DD3FA",
"@. c #73DAFD",
"#. c #73D8FE",
"$. c #70DCFD",
"%. c #75DBFD",
"&. c #7BDBFD",
"*. c #7ADCFE",
"=. c #7EDEFD",
"-. c #7EDEFE",
";. c #7ADDFD",
":. c #76E2FE",
">. c #76E2FE",
",. c #7BE1FE",
"<. c #84DDFC",
"1. c #89DBF8",
"2. c #84E2FD",
"3. c #8AE5FE",
"4. c #8DE6FD",
"5. c #8DE4FD",
"6. c #8CEAFD",
"7. c #90E7FE",
"8. c #94E3FD",
"9. c #9CE5FC",
"0. c #96E8FE",
"q. c #91ECFD",
"w. c #94EBFE",
"e. c #9DEBFF",
"r. c #A3E7FE",
"t. c #A9E5F9",
"y. c #A1EFFE",
"u. c #A4EBFD",
"i. c #ACEBFC",
"p. c #ADEDFD",
"a. c #B6EDFD",
"s. c #B3EDFE",
"d. c #BBEEFD",
"f. c #ABF2FD",
"g. c #AEF2FD",
"h. c #B0F3FF",
"j. c #BCF6FE",
"k. c #BDF3FE",
"l. c #C2EEFD",
"z. c #C4EFFD",
"x. c #C6F7FE",
"c. c #C4F1FD",
"v. c #CDFAFE",
"b. c #D1F4FE",
"n. c #D3FAFE",
"m. c #E0FCFC",
"M. c #E9FDFE",
"N. c #FFFFFE",
/* pixels */
"# ; # o o # # # o o o ; 8 9 : @ ; | # o o # # o 5 > > ; # + @ o o @ # 8 : # # # %.9 ; o o # # + # + > e # o # # ",
"# # > F ; # # # 8 5 : o # ; > O + # # 5 > o o o # + o ; ; # : # # V ; # # * * 8 ; > : q # o # ; 2.; ; ; + 8 8 # ",
"8 ; # # 5 3.0 8 # o > , > ; o # # , > # # 9 , # # : q.g f.P ; b # # o o # # # # # # ; # > t ) # # o # X # # ; 9 ",
"> x.4.> # o o o + # ; + # # o o o o o o o ; > 9 # > a.> ; # o # k x ; o o o o o o o > ; ( > > # ; @   o o o # ; ",
"o ; ; > K { # # ; 6 ( #.*.I # ; # o @ ; 0 , # d =.> 5 # o o o o o @ # 8 > ; &.; # ; ; ; ; o # 5 5 ; ; # # > E ; ",
"# # o o # > h.A M S 5 o X 5 ..0 a 0 i.y.# # o # # o ; 5 : > :.3 o o + + j.R 8 v.; > ; : > > ; 8 c C 7.; 0.; # o ",
"# o . o ; # ! g g ; # o . o # > v ` =.4 ; . o + # ; > b > > o # ; * l.; ; ; J #.9 ; o # ; ; 8 0 ; 5 0 U ; > o o ",
"o o o o , 8 # o o o # o o o ; > u.*.t s.' # o o o o o o + # ; ; x i.,.<.; ; 8 ; ; b # o o o # U *.# > > t ; # # ",
"# # # > ; o > 5 5 # # # ; y > ; + o 4  .- ^ F ; # ,.o # # # ; ` f > > 9.9.} # > , ; ; # # # o o o o o # ; ; 4 > ",
"# ; ; # # > q ; , 2., l > # o o o + # # > # g } ,.; G 8 , 8 8 : # o # o o # # o o ; > q G y > # # o ; # ; o o + ",
"o s a.q ; b ; o + # # ; ; + o # # ; # # o # + # # # o ; ; # # # # # o o o ; # ; # > 2.b ; f q # # # # + o o o o ",
"f W > 3 ) O.> # # o o o o o ; # # # # ; o # ; , , # o o ; ,.@ o # # , > > > v ` V 5 ; + o # ; v X.; ; 0 5 ; ; q ",
"> ; @ o > ; 9 5 # # o o 0 s.O.b U ; + 5 9 0 8 , # o # # } : R 8 # # o # ; # > 0 7.; # ; o o + > > q ' 4 # ; > > ",
"o o   . # # # + ; f R # r M 4.c.5 8 q # # # o o ; 8 7.; # o # <.9.; > ; # ; t ; ; 5 > # 1 o.& o o # # + # # # # ",
"# # # o o @ > w # # # 8 u F # q d.7.U b 8 o o o o o # + # # *., ; = y ; # o o o o ; c K ; # ; ; o o o o # # # # ",
"l p.0 # ; 0 p # g.# > # ; # b.2.o % # # # l ; # + o o q w.F ; @ # # 0 7.> # # # # o 0 ; > f t # ; ; o # ; > g f ",
"# > ` ,.| Y ; # + ; ; # # ; o > o o o o # ; 6 Q 8 # ; l > # + + > %.9 q x ; ; + # # ; ; , 8 v ; @ # ; ; 0 <.9 ; ",
"o # ; > 5 8 ; o o # # ; ; > f ; ; o o + ; ` > ; > N 0 # @ + + # 5 : # > I 6.q l 4 ( o.4 ; o # 8 5 ; x u.> ; # o ",
"o o o # ; # @ o ; > 0 > 5 #.# 5 K > ; z c ; o @ o > ` 9.' ; # # o # t > o o ; # 8 , > ; # o o ; U q # # o # : # ",
"# # > ^ * ` ; ; > # ; @ > ; + ; ; @ @ o o o # ; # o . # ; : 9 ; 8 > + o o o ; 8 , # # o ; # ; q 5 o ` l # o + ; ",
"> ' F 4 ; > 8.s ; ; # # o + o # ; F ] o + + o o ; 4.; # 0 # : %.; + o + ; > ; + o o # n.> d.4 ; # o o ; t ; ; ; ",
"U ; ; # o o # , c.t.> :.0 > + # o + # 5 K 8 # o # o o o + o.5 ; # # # 8 > ; > , # ; ; N.t.0 J t ; # # # # 5 L 5 ",
"> ; ; 6 c.> u.) , k.b > ; o o o o o # ; # + q > 8.2.> ` , > o o o ; > o . o o ; > u.5.7.; # o 5 a.t > # # # ; 5 ",
"  ; 5 > 8 O # o 8 ; o F ` 8 o o # : F q ; o t ; g > ; ; # ; 9 ; o @ o o o o + 5 > # > : } o + o + o # > # o # @ ",
"# # o o ; # @ @ o # + + # ; > 0 2.R 5 X.d > # o # # 5 + o o o > V 2.y # ; 9 Y # # o o # > > > o o o o # # > 5 4 ",
"4 b 5 5 # # 5 x > # o ; ; 5 > ; ; o o o ; ; 5 > # o o o o ; 8 q # # ; q W 5 # o o o o o @ # # 5 9 > > > #.> ; # ",
"# ; 4 ; %.t # ; o o # ; ; # > > # o # o o o # o o o o > > ; # # > 4 F : ; # 4.> ; ; ; ; o ; y c 5 8 0 4 # o o # ",
"5 9 8 ; 5 > + o ; # 4 > ; 1.H 0 ; + o o + o o o ; # ; # > q ; , ' F ; # o + ; 9 Y 0 ; ; t > # > > 9 4 ; o o # > ",
"# # o o # # 8 > ,.U ; # z.Q d.7.; > 5 9 > # ; e.n 7.v 9 ; o ; > : : # o o ; ; o o o > 5 t } Y 0 ; o o # # # ; 9 ",
"+ + o + + # l 8 ; : 5.[ > # 5 9.:.T N > ] o.' # ; ; 0 N R + o ; # ; 8 9 ; # ; 9 u 1 : , ; # ; # y 8 # # > V y ; ",
"+ # ; + ; o.; # # # ; 5 <.o.; + ; n > ; > > q # o o o o # 8 5 + # o # > l q 0 u.J a.# # + o o > ; > t 5 , # # o ",
"+ :.L > # # + o o o o ; ; ; z > 5 ; # o # ; ; : ; o o + ; , > 0.> # # > X.y.c > ; 2.7.; + > 5 # # # ; # # # # ; ",
"Y ; c > 4 # # : # > o o # , ; ; ; ; ; > 8 ; # o o o o ; > Y 4 5 ,.' F ; # # o %.# o # ; l ; # > o o o ; b J t > ",
"# X o y N F , # # ; ; o o o o o o ; 4.q 8 } > + # # o o ; ; # # + 8 : 9 , # # # o o # o o # # # > p.s =.: # : Y ",
"o o o o > 4 q 5 ; ; ; ; o o o o ; 3.8 ; ; 4 u.; ; # # + # o o # , > # > 8 ; # # ; # o o o ; ; ; ; ` 0 ; # o ; 5 ",
"; # # # o o o o > 8 > > , ! ; ; ; # # o o o ; # 5 ; o o o o ; # # # o o o # ; ; > ; ; ; 4 x o.> ; # @ o # ; > # ",
"; U > ; > ; r.: ; ; # # o # , g > ; + # o o o o + o # # ; ; c | > ; # o o o o ; q =.5 > > + # + ; 9 > 5 > ; # # ",
"+ ; > c > 5.c.q r.# o   . o ; o o # q > # o ; > 8 : 4 r.*.5 > , > 8 x : # # q *.+ ; ; c t + # o o o o # o o o o ",
"# # ; : s s.o ; > } + o + o o o + # # # o ' , 9 : r.} > ; # + # # ; < 4.g.%.2 # o o o ; # q 8 @ o ; ; > W ; # ; ",
"# ; > %.> ; # ; > ; c ; > ; ; > ; ; o +.- 0 E = ; # + ; # o o o o ; 4 | 5 R 8 # o o o o o # ; 8 8 8 8 5 # x p.; ",
"W 9 ; # o # > # o o + # > > k 2.q ; ; , G g q :.;.; > > o o o # # # # o o o o 5 ; # ; # ; # 7 # ; 5 # + # ; , t ",
"; o # ; o o o o ; ; # ; > q > ; > N 8 ; # o # 5 f q ; o # ; > 0 > 9 ; o ; > # o ; + ; > s.6 ; > 8.o + > > ; + # ",
"o o o o # o o o $ ; ; 4 q > # # # 8 9 ; o o @ | > q b ; # # # # + # ; ; ; k 8 o o # q *.0 =.( i.; + ; y o o ; o ",
"# # ; # # ; # , > <.e.; # 7 > o o # ; > 8 # # + o # # U f 5 ; ; 9 p.x 5 ; # # > { 0 8 ; # > E K s.; + # o o o o ",
"# v ` 9.; ; # ; e.> ; q.; 4 o o o o o o + > # o o o o o # ; 4 y Q ; # Q 8.` 9 t t , ; o o q.; # I 0.o.# # # ; k ",
"&.b ; # ^ c J ^ ; + # X 4 # ; q , # ; > ; # 0 j.x 8 ; ; 8 q t # o o o # # 8 ; o o o + ; ; # o o o # ; 5 q 5 > > ",
"> o o o # > 4 ; o o o o o o # ; 5 l t 8 > 4 :.8 > B M + > > # o o : g + 5 > ; # f # # # ; o o o ; ; q 8 x U t 8 ",
"o o # > ; o # ; > # ; # # # # o # # ; C o.5 ; # o > ; 8 # 5 3 o o o + # # # ; k.N b , # o # ; q 9 # # o # > t 9 ",
"; ; o o o o o # ; B e.V t ; > ) 6 5 : # @ > # o o o o + o # + t > # # o ; , 5.# # # t ` 5 # # o o > > + o o # ; ",
"# o o o o # o # I > ; 5 8.t ; ; > 3 o o N # # # o ; o o # ; m.& # # > > # 8 > # o o ; q r.8 ; o o # > > . o o + ",
"5 F 4 # # > q 5 # # o o + # 3 , # o o . o o ; U 0.5 > M.:.s.I N ! ; # ; # o o o o # > ; ; ; > > > + + # > 4 V ; ",
"o ; 2.8.8 k.8.V # # o > 5 ; o o # ; # ; o o o o # : / 5., ; o O.r.t > # o o o ; > > # # # ; , ' 9.D > 8 y i # t ",
"o > 4.:.> # # ; %.8 > o o # > V 1.1.x > # ; ; 5 N ; 4 ; 8 + o o o y o.q > 5 > # o o o o # 8 & # o r 8.` # # o o ",
"# L > ; ; , o # ; ; 5 ; # , M > ; # ; y : # q 9 ; + o # ; : ; # o o o # 9 0.*.8 ; + o # > ; ; o # + ; # y > # o ",
"> + o # ; # o o o o # > 9 0 # o o o o o ; } # o o o o o o o , 8 # + ; y F # # o.*.> 5 ; o o o o o o ; # ; ; q , ",
"+ # ; o o # ; o # + ; ; # # # ; # o o o # o # ; + o # ; # # # # > ; # # # o o # # # ; > > # # o o o o ; ; # # # "
};
