/* XPM */
static const char *gothic_floor_71[] = {
/* columns rows colors chars-per-pixel */
"71 71 187 2 ",
"   c #6E0101",
".  c #740101",
"X  c #7B0101",
"o  c #840101",
"O  c #8B0101",
"+  c #930101",
"@  c #9C0101",
"#  c #A30101",
"$  c #AC0101",
"%  c #A10508",
"&  c #AA0708",
"*  c #B30101",
"=  c #BC0201",
"-  c #B70709",
";  c #BF0208",
":  c #C40201",
">  c #CB0302",
",  c #C40C02",
"<  c #CD0901",
"1  c #D30401",
"2  c #DB0501",
"3  c #D40A01",
"4  c #DC0A02",
"5  c #D20408",
"6  c #D10B08",
"7  c #DE080B",
"8  c #CB1300",
"9  c #CF1800",
"0  c #D41300",
"q  c #DC1301",
"w  c #D51C00",
"e  c #DD1A00",
"r  c #E30601",
"t  c #E90502",
"y  c #E30B01",
"u  c #EA0C02",
"i  c #E70D0B",
"p  c #EA0C09",
"a  c #F10D01",
"s  c #F20F08",
"d  c #E41201",
"f  c #EC1302",
"g  c #E51B01",
"h  c #EC1A00",
"j  c #E21209",
"k  c #ED1009",
"l  c #E81B08",
"z  c #F21402",
"x  c #F21A01",
"c  c #F31B02",
"v  c #F81D00",
"b  c #FA1C04",
"n  c #F71509",
"m  c #F51909",
"M  c #D52300",
"N  c #D32100",
"B  c #DD2201",
"V  c #DD2100",
"C  c #DA2B00",
"Z  c #E52300",
"A  c #E32401",
"S  c #EC2201",
"D  c #E72A00",
"F  c #E42C01",
"G  c #EC2C00",
"H  c #E3270E",
"J  c #EA2E0B",
"K  c #F42200",
"L  c #F42301",
"P  c #F92301",
"I  c #F82601",
"U  c #F92401",
"Y  c #F62800",
"T  c #F72E02",
"R  c #F42C01",
"E  c #F92F01",
"W  c #F92C02",
"Q  c #F5220A",
"!  c #F82208",
"~  c #F52C0B",
"^  c #FB2C0A",
"/  c #E23300",
"(  c #EA3401",
")  c #E33E00",
"_  c #EC3C01",
"`  c #EE310B",
"'  c #F33200",
"]  c #F33402",
"[  c #F93600",
"{  c #FA3302",
"}  c #F73F03",
"|  c #F63804",
" . c #F53C01",
".. c #FB3C02",
"X. c #F63009",
"o. c #FB340B",
"O. c #F53A09",
"+. c #FC3C0B",
"@. c #F42712",
"#. c #E24600",
"$. c #ED4300",
"%. c #EE4D00",
"&. c #EC4B00",
"*. c #F74700",
"=. c #F54400",
"-. c #FA4403",
";. c #F44A00",
":. c #F04D00",
">. c #F64B01",
",. c #FA4A00",
"<. c #F94D01",
"1. c #FB4E02",
"2. c #FA4C02",
"3. c #F74209",
"4. c #FB4309",
"5. c #F44C0B",
"6. c #FE4C0C",
"7. c #EE5300",
"8. c #EF5900",
"9. c #F55501",
"0. c #FA5100",
"q. c #F95500",
"w. c #FC5602",
"e. c #FB5402",
"r. c #F65B01",
"t. c #F95B00",
"y. c #FA5B00",
"u. c #FB5C02",
"i. c #F5510A",
"p. c #FD5109",
"a. c #FF520E",
"s. c #FF560D",
"d. c #FF530C",
"f. c #FE5B0C",
"g. c #FF5C0C",
"h. c #F74610",
"j. c #FF4C14",
"k. c #FF5713",
"l. c #FF5810",
"z. c #FF541A",
"x. c #F56400",
"c. c #FA6000",
"v. c #F86300",
"b. c #FE6007",
"n. c #FC6402",
"m. c #F66D00",
"M. c #F56B00",
"N. c #FC6A03",
"B. c #F96C00",
"V. c #FB6E02",
"C. c #FC6B02",
"Z. c #FF6008",
"A. c #FF6508",
"S. c #FF630B",
"D. c #FF690D",
"F. c #FF6C0F",
"G. c #FF6A0B",
"H. c #F47200",
"J. c #F67600",
"K. c #F67400",
"L. c #FC7402",
"P. c #F67C00",
"I. c #FB7B01",
"U. c #FF730B",
"Y. c #FF7A0B",
"T. c #FF6412",
"R. c #FF6E10",
"E. c #FF6B12",
"W. c #FF7411",
"Q. c #FF7F17",
"!. c #FF7C14",
"~. c #FF721A",
"^. c #FF7F18",
"/. c #F78300",
"(. c #FB8402",
"). c #FF8903",
"_. c #FC8801",
"`. c #FF8D07",
"'. c #FC8B01",
"]. c #FF8508",
"[. c #FF850B",
"{. c #FF8A08",
"}. c #F79400",
"|. c #FD9203",
" X c #F99800",
".X c #FF8214",
"XX c #FF8913",
/* pixels */
"X + # = 2 v.<.: $ $ $ @ O X . O + O O # > T m.:.2 $ # X . . o O o @ : 4 `.Q.r : # o X . X o X + $ $ 1 f v.0.3 : = $ + # = E ' A.P 1 # O X X X ",
"+ : g D _.f : @ O # u j $ + . o X X X $ : x m.f.r * o o X X O @ # : y y.} H.K 3 $ + o X . O + * 1 2 I _.f 2 * # O o # X @ = : { V.u * @ o O X ",
": v F.R.y = # O O O + 4 j * O O o @ * 2 z q.%.D.| > @ O @ @ - - 1 B *.> > g V.x 1 = @ + + # = : 3 q C.x 5 * @ + o o o X O # : 8 ].R 1 = $ + + ",
": ;.b.s.y : @ X + o + $ y y $ + + # = 1 p.w > M w.2 * + $ = : 1 g a.: : = 3 Z Z.1 = # + + $ 1 y 2.w.y.h : $ O o X . @ . O $ > , K.<.x 4 1 < $ ",
"B./.( u : @ O + X X . O $ 1 h 3 : 4 N.2.z > * > X.L.2 = > 8 A.g.6.1 = # # = y n.Y.y < = = 3 U.n.-.u 1 T = @ X X X @ . O $ > z.6...2 h N.g d 4 ",
"2 w.E.u : @ O + X . + . o # 1 6.s.v.y > * @ + @ = h { y O.n.N.2 : $ X o O # = r g <.u 4 y ' <.y > : $ S > # O X o O O # > x ~.X.2 $ $ : 3.n.I.",
"* 2 o.N.e.1 = # O o . O $ > u 4.w.f > * O X O + # 3 C._.F d < = @ + O o X o @ = 2 I I.I.|.{ 2 = @ + O $ K d = # + @ * 1 f =.A > $ O O @ * : y ",
"+ * = f.y.u.2 : = # + $ > u P.N.c 1 # o X O @ # = ;.u.u > : @ + X X . o @ @ o # = u V.z z 2 * + o . X + # : d 1 : = 2 L I.y 3 * @ X . X + + * ",
"X O + # - 2 y...r 1 : 1 W P.y 1 = + # # X X @ = 3 /.u > # @ . X o + + o X + # : u 9.^ 1 < $ O X X   X . o O - l c m G.L.t 1 > @ . X O X X . o ",
". . X O + 5 M L.<.R f T I.N > : @ o o # + + ; > u B.t * + O X X X O X o @ $ : u q.U.R R ^ ; @ X @ + o . O @ * 3 8 u.`.T 1 $ $ O X o O o .   O ",
"O . . o + # > 4 V.M. Xv.y 3 $ @ + X X O # $ 3 A u.V.y = $ @ O o + o o @ = : y (.d : * ` ..4 = + o o O o $ = < A A 2.< 0.1 > 6 - @ @ . . O O # ",
"+ + O O o O # 1 x $.}.I 2 * + o X @ X o # = @.^ > L L 1 * $ + O O O + # = 5 k /.u > * `  .y : # O X o + * 2 w.<.6.r : o.R 4 4 = $ + X X O O $ ",
"o = @ . X . O $ 2 E.P.y = + X . . o . + * h 4 3 * > { e.1 y : * @ $ > y f ] b.x 1 $ @ * = j -.T : $ # : 2 ..u 1 : $ # = 2 b.Z.c 2 : $ @ = = 1 ",
". O O o X O $ > u K.A.1 $ o X O @ O O : d 3 $ # O # : R N.R.a 1 > 4 L.u.Z.^ 2 > $ + O @ @ * y } 2.u > u u.h : $ # o O @ * > >  .n.f 1 > y y I ",
"X . X O @ $ 5 f B.0.q.d 2 * + O . o * d * + o X . o # > z Z q.f e  ./.2 > = $ + O * $ o o O # : y 2.'.V.t : @ o X .   X o @ @ = 2 2.c z S.I.K ",
"+ O o @ * 4 { <.3 : > 2.I 2 = * # @ 3 # O X . X . + o $ > 1 h /.} f > $ @ + + o X + o o O o + @ : 2 J.u : $ @ O o @ X X X X O @ = 2 u.L._ 4 = ",
"- @ # = 4 L.x.1 : # : = I.x.t 2 : 1 * O O O o o o X + * 4 y u.h 4 2 4 = * @ o @ + $ X . X + X + $ 4 _ _ 2 1 * $ # O + X o o O $ : y v.y > : # ",
"3 = = > 0 _.y : @ O o * > / 6.6.d > O + # @ + + o O # > Q 2.9.u = : j > = $ + o o X X . X O @ # > 2 ] J.6.2 : = * $ + o o @ @ > y x.D 1 * # + ",
"y 1 1 3 u.P 1 $ + X X + = 2 n.N.L ; + $ = $ @ @ @ + $ 2 G I...1 * $ >  .e : @ O X . o X X o # : 3 R y.1 r.q.r 3 5 * $ O + $ = > w.A.u = # O O ",
"n.|.M.A.-.1 $ O X O . X + $ 1 1  .2.1 < =.y o.+.: # > a _.8.u * O + # > A h.< + X X o X X @ = k B.w.1 * = 2 -.Y.P.g > * > 2 Z M.T 2 = + o X X ",
"1 R A.Y.y $ O X . X + . . o $ * 4 v.-.e.-.: q o.u > u x.4 y : + X X O # * 6. .= + X o + @ = 2 -.f 1 $ O @ $ = 1 4 M.C.r 1 R *.E.h * O . . X X ",
"# > F A.z : @ O o   + . . o $ * y (.c 2 : # # $ g I q.s > , @ X + O X O @ * ] f : @ # * : 2 v.4 > $ O X o O @ $ * 1 f w.V.v.g.u = @ + X O + X ",
"o # : 3 n.y : # + O   X O $ > > 4.e.4 = + O o o $ d y.1 $ @ o .   X   X O # > L.1 : > 4 4 e.u = @ o + $ o . o O O $ 1 n.f 2 1 $ + o . o = * o ",
"@ * 6 < v.V.I 1 * + X o $ 5 x 3.,.> y $ o . X o @ q 0.5 * $ @ O X . o O # = 3 I.z R I.x.U.u = + o X . . $ o X + @ = y n.c 1 1 * @ + . . + @ # ",
"= y 6.a.q , w.T.4 = @ # > 2.0.a.2 $ > 1 # O O + * 3 v.n 1 : * + O O @ = > 3 6.0.2.1 3 { ] ..1 $ + o X o X + # = : u y.| 6.6.z.3 : $ + o X o + ",
"j g.Z J 4 > f Y.2 > = = y |.3 q > + * 4 $ # + # : a.N.R > 1 : $ + @ $ : 3.w.D.O.> < > d e w.w : # + o O O @ : < : -.' 5 : 6.f.j.1 : # + + # * ",
"d n.1 1 * # : u x.~./ 1 K C.2 1 # o + * 4 < * $ > m. .V.y.] 2 : # = > Q.K.v.x 2 : + $ > : ..0.1 * # + + @ = 1 r.{.m.y : = 2 3 6.2.r = $ = = : ",
"y.5 * # O X + * 1 L.I.].B.f = & o   o + * j 2 < T.=.2 2 j.L.J.g 4 1 <._.C 3 > $ @ o @ $ $ > R 0.Q 2 = = 1 6.H.&.( r = @ + * * > y <.S 2 d T I.",
"1 # + O X . o @ $ > 4 u.N.4 * $ + X o O @ : <.T. .4 * * : 2 m L.Y.L.-.1 = $ @ o X o X O + * 1 Q a.4 > > e S.4 5 > * @ o X O + # : x <.S.x.V.y ",
"@ o . . + X . o + # * 2 g.G 1 : * @ O $ : a 9.p.4 * O o + * > i.r.v.y $ + o X # O . . o o # = 1  .<.u K x.h > * # + . . + X . O @ : A.P.y u = ",
"+ o .   X $ o . o # 1 = 2 n.T I r = $ > u I.r y : @ @ . O + * > C V.4 * + O X X o o + # # O O * > f (.J.c 1 # @ O X + X O o X O $ 1 J.z > > # ",
"$ @ + . X @ + O # @ X + * r B.G.c u 1 P J.u = * + . O . X + # = Z u.I 2 $ + o o O # 1 O o + @ $ * > L.j  .d * @ + X + * O o o # : m e.1 $ @ X ",
"> # O o + X # @ + X X o @ > ^ } /.J.-.u.d = @ @ X O @ . . . o # > 2 e.K > $ @ # * > # X . . X + * 4 *.1 : E 1 = * o X O # # + : r n.u = + + . ",
"u : = @ O X @ o . X o @ : y V.U.2 = 5 2.X.1 * $ O X . X . X o @ $ : 4 /.4 > : y h # O . X O + $ 1 K y * @ > E q > @ o . o @ $ : n.c : @ o @ X ",
"I.=.3 5 * @ O X O @ $ > a v.y y : + * : 0.w.t y * + o O + + + $ 1 1 f 3.D / F ..= O   . X + = 1 h (.> # O $ q R R > # O @ : > d V.t * O X X O ",
"!.v.< 3 = + o X + $ = > e Y.y 3 & o + : y w.e e > $ O @ + @ $ = 1 3 e 1.v._.L. .= + . X X @ = 1 e /.> + o @ 6 ~ ..> = + * > 3 e L.4 * O X . + ",
"1 a.L.4.2 = + @ * 1 1 D P.u : $ @ . X + = 2 p.f.x > * $ = : 1 4 *.n.f.1 > 4 b q.1 $ O + @ ; 2 G q.2 * X . o # * >  .2 : < S ( P.w.R 1 $ @ + X ",
"$ > 4.v.n.4 * : 4 X.].L.f : + O X + O . + = y y } w.2 3 k d u.(.c 2 = # @ = 1 K y > = : : 2 L.t.r * O O o X O @ # y -.r C.$.+.2 < 0.{ > $ $ O ",
". $ = > f 9.y x L.*.y 2 > d $ # O . X @ X + * = 4 R (.v.r.g.u > = $ + X X O # : V.c u x d L.h 1 $ O . X o . o + # = x L.z 1 1 * # >  .e.q 4 = ",
". X + $ >  .n.C.u > : $ @ : h L * O O . O @ * = 1 R J.u 1 2 * @ + o X o . o + * > -. XL.Y.] 1 $ + X O . . X # = > y u.n > $ @ + o # > t Z.r.u ",
"# o X + = y '.u : $ # # o + = : y = @ @ $ : 4 4 2.2.K y * * @ X X O X X X O $ : y P.z 1 1 5 ] 2 * + X X O + = 4 z U.x 1 $ O o o o o # = 3 p w.",
"X O # * 2 ..-.> $ O X . + O # $ : L 1 : 2 x u.g.x 1 2 -.1 1 $ O . . . X + # > f J.x > * * # d | 1 * @ O O $ 1 9.L.h : @ O X   X @ O o # $ = d ",
"O $ > 1 W x.y * + . . + O . o O # = L -.'.e.u d : # $ 1 -.4.t $ + O O # : > v V.u : + O O O * 2 -.y : # # : b D.P.: @ X + o X o X O . o + @ : ",
"* 1 m w.V.2 * + + X . X + O O @ $ > u I.u 1 = * @ O O # : 3 *.f : $ $ > k ;.V.2 = @ O X . X + $ > } E 1 > t q.-.h $ O X   . O # X . + # ; > f ",
": 4 2.u.f.2 * + @ o X X X + @ @ : 4 6..Xy : $ # + X X @ = : 9 4.> = = 1 T.E./ 1 $ O X . X . o # = < 2.2 > K U.2.y * + O . . X = o . + * < y n.",
"u ..P.r.t * O X o $ + X X + $ = 1 z L.z > * + o + . . O # $ : y *.1 2 ^.P.T.1 = + o . o o @ X + # > c v.y.;.9.| u : $ + X O + o @ o # > 3 m } ",
"B.'.u 2 : + . o o o X X O $ : 1 z L.u 1 $ o . . X + X X X o @ : 4.;._.W.y 1 = O o . . X X # o X @ * t I.u 1 w.G.w.y 1 = @ o o   . @ : t _ w.u ",
"2 e. .Q 2 $ O . o   o O $ > 4 3 r.2.f > = @ o X . o + X O + * 1 I [.y | 3.y * +   O @ . X X O $ = y e.f : # : 3 y B.2.2 = @ o O # * y y. .z = ",
"* t A.g.2 2 = @ @ X o @ : u 1.b.x > u 2.: $ + O o . . o @ # : r w.k = 1 ' 4.1 * O . + o o + * > y e.x 1 & o # = : y n.{ 1 = # $ = 1 0.x 1 > @ ",
"+ = 3 6.u.4 * + + O # : x /.K ! 1 $ * Z g 1 * * # + O $ > > f n.y = # $ > Z ,.1 $ O o O O * > u L.W 1 $ O . o + # * r u. .4 > 5 u B.c : * # o ",
"+ @ * > f L.u : @ # > y L.z : = # o + = } q.y 4 > * * 1 g %.V.r = # O + # = y 2.> * # * = 2 K g.u 1 $ + X . X X + @ = y 2.{ t ] V.h > $ + O . ",
"o o + $ > f u.x > > u L.a > # + X O o @ * 1 <.l.c 2 1 g.T.c 5 * + + . . o @ * 4 I y > y y C.+.3 = # O X O +   . X O + * 1 L.(./.u > # O . . o ",
"X X o O $ > h L.s. .N.f 1 $ o O + . . X O $ 1 < 1./.0.n 1 > # O X X o O + o + * 1 w.;.Y.].W 2 * + o . . + * o . . O $ = 1 L.0 y : # o X O O X ",
". @ + o O = y L.S.5.4...1 $ O o X o # O . + $ = 2 P.x 1 * $ O # o X . . . o + + $ : x [.XXy * + X . . O X . o O o # : 4 K u.p.4 $ + X X + $ X ",
"X X O @ * 2 u.G 1 = : g 4.4 = $ @ + X . o X + @ : M.2 $ + + X O # + . O O . # X O # 1 U.U.r * O X . O o . X O @ # < x 0...k ,.+.2 * # O o X O ",
"O o + * > u.A.d = @ * > { g.q 4 : @ o O @ O # = 5 u.> $ + o . o . $ X o o X O O + * p .X.Xx > # + @ # X X + $ : 1 f r.u > : H 6.6.g = @ + o o ",
"+ + $ = 1 v.{ 2 $ + $ > z n.g q > $ + . o @ : > ~ e.: + O o X o X # X X X X @ + $ = d W.W.c 1 * + @ o X o @ * > > h u.u > * < q v.R > # + o o ",
"+ * < 3 <.n.2 * + X o @ = 4 u.A.<.1 $ + O * 1 3 ^ c > # O O . o # . . X + + X # : r u. . .P.c 3 * @ o o # : 2 f K 0.1 = + o @ $ 2 c e.1 = $ O ",
"= 2 A.N.2.4 = @ O   . X + * > 1 { u.2 : = 4 K } B.V.c 2 : = @ O X + . . X + # : u 0.-.: : 1 R w.y > * $ 1 u b.A.p.> $ O X + o + $ > -.2.> 1 * ",
"y <.y.=.2 = + X . + o X X + # * > u 2.u x b.=.D 1 > } ] r t , @ O + o O @ * > x u.u : # # $ : 4 q. .y r +.A.g 3 > $ O X o + o . O $ 1 2.L.{ y ",
"n.J.u 4 * + X . + O O X + . o + # > P C.C.t : = # # : S ].].u : $ O + @ = 1 P n.2 : # o + O @ = 1 R C./.#.r : * # O X X # $ O   . o * t i V.u.",
"y f.4.l > $ + + X . o @ X X O + # > z L.7 * @ O O O @ 3 / ( n.u > * $ = 1 [.V.2 = @ O . o O + @ $ < y I.e > # + O X   . + = # X . O # 2 2 L.f ",
"1 z T.l.t : # # O X . o X O # * : u L.K 3 * + @ X o # > y t ^ w.u : : 3 g (.x y * @ + . . X . + * > u I.A 1 * $ # O . O O + o o o + : f D.U.f ",
"$ : 4 } n.a > # O X   . + * > 2 y y.k : $ + X o * X o + # # > y <.u t 4.L.u 2 = @ o O @ + o @ o @ = 4 y.' 2.4 1 = # O X O . . o @ * y u.p.u = ",
"o @ = : G C.k > * + + @ = 2 +.0.B.T > # O O   . o # X o O O @ : d 2.9.x.Z 1 = @ o . X # $ X o # > y W T > -.y.3.u > # O X o o # * 4 2.2.> : + ",
". X O # : p u.W 2 = $ = K <.G h 1 -.u : # o . . X X X o X + # > I B.Y.' o.4 : % o X O o o + $ : y <.g.> $ = d ( 9.c > $ + + $ > y <.] : # + X ",
"@ o X . + = 2 L.n.r 2 x 9.D : = * > -.B > * + O X + X @ # * 5 4 w.t y > ;.k.u 5 # o . o O $ > f x.M.> $ O @ = > 7 t.a.4 = : 1 | f.6.> $ @ O . ",
"# X X o o @ = 4 p.F.9.e.3 1 $ # + = , 2.e * + + o + o # $ : 1 y.e > 5 = 0 q.g.y * @ O + @ : 4 G T.4 ; # o o @ = = , v.q > > 3 9.n.f : @ O o O ",
"+ X o O . O $ > f P.7.e.2 * + O o # : u <.u * $ @ o + $ > > m.0.2 * @ # = y y.z : # + # $ 1 d V.u > # O o X O # $ > a y.2 4 <.2.y = @ o . . + ",
"  + X . X . o # : H.w 1 $ + X o + . @ = 1 -.y y = @ * 2 3 =.K 1 $ + X X @ * 2 2.+.> = > 1 W u.2 * # O . X O . X o @ = u L.].c 1 * O X o O + . ",
"X . . X o . O # : v.) = + X X X X . X + $ > ^ +.K > 1 w.g.z > $ + X X . o + * > g I u w.t.K > $ + o . X . X o O o o + : 6.g.> # + . + . X . O "
};
