/* XPM */
static const char *gothic_floor_82[] = {
/* columns rows colors chars-per-pixel */
"82 82 198 2 ",
"   c #6E0100",
".  c #740101",
"X  c #7C0101",
"o  c #840101",
"O  c #8B0101",
"+  c #8A0108",
"@  c #930101",
"#  c #9B0102",
"$  c #9C050A",
"%  c #A30101",
"&  c #AC0101",
"*  c #A40308",
"=  c #A90609",
"-  c #B40101",
";  c #BC0201",
":  c #BA0800",
">  c #B30208",
",  c #BB0408",
"<  c #C40201",
"1  c #CC0301",
"2  c #C30A01",
"3  c #CD0A02",
"4  c #CC060A",
"5  c #D30401",
"6  c #DB0501",
"7  c #D40A01",
"8  c #DC0A02",
"9  c #D30409",
"0  c #DC0509",
"q  c #D4090B",
"w  c #DA0A08",
"e  c #CC1400",
"r  c #D41300",
"t  c #DC1200",
"y  c #D71C00",
"u  c #DD1A00",
"i  c #D2110C",
"p  c #DB1A0B",
"a  c #E20602",
"s  c #EA0605",
"d  c #E40B02",
"f  c #EB0C02",
"g  c #E40D09",
"h  c #EB0C09",
"j  c #F10E03",
"k  c #F20F08",
"l  c #E41201",
"z  c #EC1301",
"x  c #E41C01",
"c  c #EC1B01",
"v  c #ED1208",
"b  c #ED1E09",
"n  c #F21402",
"m  c #F51D04",
"M  c #F41E04",
"N  c #F31C02",
"B  c #F81D04",
"V  c #F41108",
"C  c #F01C0E",
"Z  c #F31F0A",
"A  c #D62300",
"S  c #DD2300",
"D  c #D72B00",
"F  c #DD2F00",
"G  c #DD2A00",
"H  c #E42200",
"J  c #E82300",
"K  c #EF2200",
"L  c #EC2401",
"P  c #E02900",
"I  c #E52C00",
"U  c #ED2B01",
"Y  c #EF270D",
"T  c #EC2B09",
"R  c #F02600",
"E  c #F32402",
"W  c #F42302",
"Q  c #FA2503",
"!  c #FA2306",
"~  c #F92503",
"^  c #F62C00",
"/  c #F72C03",
"(  c #F42805",
")  c #F62C04",
"_  c #F42C01",
"`  c #F82E00",
"'  c #FB2E01",
"]  c #F92B02",
"[  c #F62208",
"{  c #F92609",
"}  c #F42C0A",
"|  c #FC2D08",
" . c #E13700",
".. c #E63400",
"X. c #EC3401",
"o. c #EB3F00",
"O. c #ED3B00",
"+. c #E8300A",
"@. c #F73706",
"#. c #F43401",
"$. c #FA3402",
"%. c #F53B01",
"&. c #FA3C02",
"*. c #F7340A",
"=. c #FB350B",
"-. c #F43B0B",
";. c #FD3B0A",
":. c #F73C13",
">. c #E44400",
",. c #ED4200",
"<. c #E44D00",
"1. c #EF4F00",
"2. c #F74100",
"3. c #F44300",
"4. c #FA4402",
"5. c #F64B00",
"6. c #F54B00",
"7. c #F84C02",
"8. c #FB4E02",
"9. c #FB4C02",
"0. c #F44408",
"q. c #FE440A",
"w. c #FE4C0B",
"e. c #EF5400",
"r. c #EE5B00",
"t. c #F55400",
"y. c #FB5100",
"u. c #F85102",
"i. c #FB5501",
"p. c #F95702",
"a. c #FB5702",
"s. c #FC5302",
"d. c #F65B00",
"f. c #FC5803",
"g. c #FF5B06",
"h. c #FB5B02",
"j. c #FE530B",
"k. c #FF590D",
"l. c #FF5F0C",
"z. c #FF5B0B",
"x. c #FC4712",
"c. c #F64D16",
"v. c #FF4F12",
"b. c #FF5617",
"n. c #FF5A12",
"m. c #FF5319",
"M. c #F56300",
"N. c #FA6200",
"B. c #FE6102",
"V. c #FF6005",
"C. c #FF6207",
"Z. c #FC6402",
"A. c #F76900",
"S. c #F66B01",
"D. c #FD6A02",
"F. c #F96D00",
"G. c #FA6D01",
"H. c #FF6D06",
"J. c #FC6B02",
"K. c #FF6308",
"L. c #FF630C",
"P. c #FF6C0C",
"I. c #F57400",
"U. c #FD7101",
"Y. c #FB7400",
"T. c #FF7107",
"R. c #FB7301",
"E. c #F67C00",
"W. c #FF7A04",
"Q. c #FC7B02",
"!. c #FF740B",
"~. c #FF7A0B",
"^. c #FF6513",
"/. c #FF6910",
"(. c #FF6A11",
"). c #FF6C12",
"_. c #FF6718",
"`. c #FF681C",
"'. c #FF7313",
"]. c #FF7D13",
"[. c #FF7E18",
"{. c #F78200",
"}. c #FA8600",
"|. c #FD8302",
" X c #F58A00",
".X c #F98A02",
"XX c #FD8900",
"oX c #FD8A02",
"OX c #FF840B",
"+X c #FF8D0A",
"@X c #F39000",
"#X c #FC9302",
"$X c #FD9800",
"%X c #FF8412",
"&X c #FF831B",
"*X c #FF8918",
"=X c #FF9C11",
"-X c #FF9018",
/* pixels */
"X o @ - 6 k.N.f.1 - - ; & # O X . . @ @ o O % 1 ' / J.6 6 - % O X . . o + o # & < d XX6 a 1 & o O . . o o o O @ & - 5 z V.Z.i.6 - & - @ % & ; ' Z.L ~ 6 % O o X . X ",
"@ # ; E }.F l < # @ O w C < % o X . o o o X % ; c N U.6 8 - O O X . X o @ @ - 5 g l.A.@.m 8 % @ O X X o @ @ % - 5 5 ! .Xr l 9 & @ X o & o o # ; 5.J./.d & # O o X o ",
"@ % 1 E .XP n < # O o i m l & O o X o X X O & < c m F.d d - o O o o @ # # - < 7 J f.K. ./ d & # @ o . o O # & & 6 6 ~ @X8 n 5 & @ X X @ X O @ < ) U.H.f - & % O X o ",
"< < ( i.a 1 < # o o X @ # & c 8 & % @ % % - 5 m /.7.7.i.V.6 - # O & - 1 1 z u.g.2.1 d H.F.m 5 ; ; % @ # & 1 d f u.R.i.N < 1 & O X . . O X X o % 5 Q.Y.5.o.d 6 5 & & ",
"c P Q.d ; % % @ X o # X o O & l { c < 6 6 f 7.L 7 1 < H ,.#.6 < ; 5 a z m 6.5 1 ; # ; 6 d Z./ z d 1 - < 6 ] V.p.l 6 5 ] - > @ X X # # X O @ % 1 N h.2.0 %.g.P.f 6 6 ",
"F.R.N.8 - O O X % o o o . X @ - r ~ 7 d 7 J.5.5 1 1 & 6 6 W.c 8 6 { A.h.u.< < : % O % ; < t |.6.q.g 8 l { Q.@.%.g 7 1 $.; , @ . O o O o # & ; z H.a d 5 c 2.A.F.&X[.",
"6 7 h.f 1 % # O O X . X O X O % - 6 A.J.P.d 1 - % # # ; ; c #.t r h.I l 5 < % @ X o @ - ; 8 z n.7.V a x j.t.d d ; - & c < 1 % O X X O O % & 1 l $.6 6 - & - 1 h.}.|.",
"- ; 8 7.i.5 5 ; % @ O o X O & 1 8 d t.v v 1 - @ X . O # % 6 J.oXXXn 6 ; ; # @ @ O o X O # ; 6 [ ~ W.Q.R.$.6 ; ; # O O & E E c - # @ # - 5 6 n &.5 - & O O @ # < g d ",
"@ % - w f.N.h.6 < ; & % # & 1 f %.Q.B 5 3 % o X o O o & & x h.,.d < & # @ X X . . @ % o X % ; g f R.n v 6 ; # @ o . o @ % - 1 l - ; ; 6 W ,.R.d ; @ # X . . X @ & - ",
"o o # ; : '.!.7 1 < ; & , - 5 l 6.h.c 1 - - o X X X & 1 6 |.z.T 6 - @ o O X # @ o o @ # # - 6 L U W.f 8 8 - @ O X   . o # % & M 1 < ; a R.'.l 8 % O o @ . X X X O # ",
". X O % - w 8 h.&.x 5 < 1 6 _ |.[.a ; @ @ % & X . + - 5 1 XXf 6 1 # o X . o @ # o . O # % < f v.h.#.6 ; & O X . X . . X X O @ & c N n Q.^ ' d < @ . .   O O . . o o ",
".     o @ - & 5 _ 7.Z.d c $.Q.6 w & @ X . X # @ O # < z z A.6 < - O . . X . O X . O % < < f t.w.W _ / r < % o X @ @ o . o @ % - 5 d.N.5.' _ 1 & @ @ o o X o @ . X @ ",
"@ # O X o o o % 1 6 { #X<.2.a - & O o @ @ o o & - - 6 N.L._ W 8 5 & # o o O o @ @ & 1 d z |.z 1 < - &.w.d ; % # o . o @ & - 1 d 4.6 a 1 %.3._ 5 < - % @ X . X O # - ",
"o # , o X X X # ; 1 6 XXc c < # # o . # % . o # : < c < : 1 f.L 6 < % % % O # % - 1 8 %.X.!.d 3 ; % ; 2 ^ < & & O X O # , < 8 h.-.6 6 & < ; 7.I 8 < < & O o o # = - ",
"o # ; . O . . O & ; 8 Q.s d ; @ O . . o o . @ - 1 c d - - 1 #.V.i.d < , & # & < 1 d ~ A.M.N 5 ; & # ; 1 d 4.) 1 < # % < 6 8 %.f 5 & & % ; < a f.n 6 6 < & % # ; 1 5 ",
"X X O o X o O & 1 6 f H.5 5 & o X o # o X @ < l L 8 & @ O % < l W N.f d 5 1 8 !.W.h.$.6 6 < & # @ O # & - d &.g.j.6 1 f g.h.n 1 % O o O # % & < %.K.Z.z 5 5 1 f [ ^ ",
"X . X O # - & 5 f L.F.t.v z 5 - % @ X X o - l < % @ o . . o % - 1 c i.&.f f #. X{.6 < & & @ o & ; - o O @ % < d r 5.+XA.7 8 1 % O X X . X X O # - 7 6 5.W V n W.F.q.",
"o o X o % ; ; 5 6.!.W.A t.5.5 1 : % O O @ ; v = @ O X . . @ @ - < v L.oXQ.#XI.*X[.8 < & % @ o % - > o o @ % < 6 ;.9.#Xd 6 a & O X O O . O o o @ - 3 5 P s.t.|.P.>.x ",
"# @ o @ - 6 a g.i.5 6 < q.9.!.d w ; % % & 8 % O o X . . X @ O # & 1 N +X#X%.z 1 5 & @ o @ X X O @ X o O X O # - 6 8 R.d 1 < & # O o o X o O . X @ & ; 6 j.A.h.6 ; ; ",
"- - % - 6 OXW.n 5 ; & % , < h A.k.d < 1 6 % O O @ @ o X O . @ & ; d N.|.N 6 1 z d < % O o # @ - % X . o @ X O % w d %.R.l z 5 - & # # o X X o @ & < 5 N h.i.8 ; # # ",
"d d 1 d h.H.P.5 & O O O o @ - 6 A A.N < - @ % ; - & # @ O # & ; 5 / &.6 6 & % < 5 %.1 % % o X X . o . o o % ; 8 m j.f.D 6.g.0.f 1 < ; % O O @ % 1 g f A.d d ; @ O o ",
"t x 9 d h.U ! 0 & @ o   o @ > q S ^.j.< < # , 1 ; - % % & # ; 1 6 H.;.l 5 & % < 5 %.< < , # X X X o X o O , 1 `.'.H.p.5 b.l.p.l 1 1 < < # # % < 8 w.h.@.d w , o X o ",
"N.F.oX7.4.5 5 & O X @ O X X @ & ; 5 &.7.9.5 3 2.;.d #.< ; % 1 5 j Q.d 1 - O O & % 1 4.; < # X X X o X o % ; d H.A.r 5 - ; < 6 4.|.S x 1 & ; 1 6 A.t./ 6 ; ; @ o . X ",
"5 7 _ U.d ; & O .   X O o . X o # & 6 H.A.%.i.9.+.< U d l 1 f 0.A.f < % # . X O O % 5 3.q.; # o X o # & < 6 %._ 6 1 - O # % & ; 8 !.A.A.6 5 5 n Z.,.W < @ @ o . O O ",
"& - 1 h.n 1 ; # O o . . # . . O O & d OX|.m a ; & % % c L _ u.h.f < # O X # @ X . @ ; < #.f ; % @ # ; 5 6 h.f 5 - % O X X O O # - 3 1 V i.Z.J.A.d 1 ; % @ O X @ @ X ",
"o @ & 8 K.u 6 < % @ O o X X + & ; 1 q.e.p.6 < % # O o & - J M.e 5 & o X . . X o   X % , q I.3 < ; 3 8 -.j.x < & O O % % o . . O @ % & 5 M.Q.n 6 > # @ X .   o - O X ",
"o o % g J.u s < % O O o . X @ & ; 5 6.u.f.8 - @ O o o % = d d.7 5 % O X . . X X   X % & 1 E.5 1 < 1 a &.i.z ; & O O @ & o   . o O # % 1 Z.I.c 5 & @ @ X   . o ; % # ",
"# # - 6 N.E.H.E 5 - - @ o o & 5 6 N 4.1 5 d & X X . X # # 8 i.3 5 & # @ O . . . o @ - 5 5 Q.z E _ |.N.X.f ; @ O X X . . % o o X # - ; f J.A.N 7 - % % @ . o . O & # ",
"; 5 f 4.d 1 1 x A.6 6 ; % & 1 u.~.7.6 & % < 5 % @ O O & - 7 h.6.z 5 - % @ O o # % < 6 w.i.7.4.7 5 5 ^ s.&.5 & % o X o o X @ @ % < d f h.d d U 7.a 1 1 & @ O o o @ @ ",
"z L.V.7 7 - ; 6 P.t x 7 < < N }.~.6 < O O & 5 < ; & # 1 1 z.i.J.s.8 7 , - @ & - 1 6 g.p.k.t < < - < 5 X.i.-.6 < % @ O + O # & 1 H ^.P.d 1 < 1 4.i.u 7 5 & % # & , < ",
"z P.Z.6 - % % < d Z.A.H 1 6 m U.).6 & o o # - 6 5 - % 1 4 M.&.V.K.$.a 1 ; # - 3 1 ~.h.H c 6 ; & # & 5 J &.s.5 1 % # # O @ % ; 5 d.Q.Y.f < - ; 6 4.i.4.a ; & & ; < 9 ",
"h.1 5 - O X X @ - 5 w R.J z A.f l ; o . . o @ - t l 1 $.r.H.6 5 6 g.t.c 5 < 5 d 7.oXd 1 1 & # o X O & < 1 _ c x < - # % : 1 8 3.OXr a ; # @ @ - 1 8 d 8.8 5 1 ( Q.Q.",
"5 - & O X X . o # & - 5 P.|.f.0 3 & O X . o O # > < %.Z.L.8 - % - 6 n %.] 8 U u.z 1 - % # O X o X X @ % ; 8 ( w.8 w < < 8 8 h.l 1 ; - # X X X O % - < W &.d 6 M.u a ",
"< & @ X @ o X . o # % - 8 8 p.) } 5 - @ @ O & < 6 f h.6 6 - # @ % ; 6 t |.Q.A.8 5 - # o o % o .   X o @ # ; 5 &.6.I f W A.R.N 1 & # # X X o O o @ # & 1 Z.Y.Q.G.e 5 ",
"@ o X   X = % X o o O ; < ; 6 M.~.( a - , % < f 6.|.d ; ; % # o X @ & ; 5 3 F.8 ; & O X X o O O o @ % # @ @ - < c &XQ.R.x c 1 % # o o @ o o @ . X @ % 5 Q.L z 1 % % ",
"# @ o   X - & o . o O ; ; ; 6 J.W._ 6 ; ; & 3 f ,.Q.d ; < @ @ o X @ % < 5 ; H.6 - - O X . . X o o # % # @ O - 1 f OXXXY.z m 1 % @ o X @ o o o . O # & 6 W.x n 1 # % ",
"& & @ X X % # @ @ & & @ O @ - 6 t A.B d f 5 W E.'.f ; @ # X o o . O % % 1 7 h.! 6 5 % o o o o # % 1 O o O # % & 1 '.R.f | w.z - @ X . @ - ; @ o % ; < N i.5 5 % o o ",
"< < % o O X X % % @ O . o o % 1 5 ' |.Q.Q.4.h.f 8 < # o o O # O . X o o - < 7 i.B { ; # # % - < 1 % . X . X O & 6 h.4.9 < 5 _ 5 & @ o X o @ % @ - f a Z.f 5 - @ X . ",
"f d 5 & O o o % X . . X @ # < f l A.8 ; < 1 6.l 8 5 & O O X . X X X o O # % < d {.].5 < < d c 2 % o . X o @ % 1 B g.t < % ; 1 ^ 1 & % o . X o # 5 _.Z.X.1 < % o X X ",
"f l 1 & @ o X @ o X . o @ % < z t A.6 ; - 5 9.#.x 5 - # O X . . X X o o @ % ; d OX~.6 < 1 l b : % O . o o @ & 1 _ ^.f ; # , < / 3 % % o X X o % 1 /.H.m 1 - # O o . ",
"Q.+Xu.6 - @ @ X X o O & 1 1 n Z.^.f ; O O % < f L.h.d < ; % o o O @ @ # - 1 5 f 4.7.{.R.G.@.; # O   X O @ , 5 n XX<.3 # O @ % d E 1 < & O @ = 1 z P.H.d & # o . + o ",
"9 7 u.4.6 ; - @ # & & 5 N N E.V g ; @ o . X # < 5 N u.d v < & % & < 1 1 6 d P.N.z < 6 N B 7.1 & % o O # - 6 W i.a 1 & o . X o % N 4.2.6 : < 3 m U.!.i._ 1 1 & @ o o ",
"& ; 1 p.Z.5 6 - ; 6 8 #.E.Y.l < ; # o @ $ o X # & ; 6 Z.l.6 6 5 5 f V.A.XXd.7 8 ; % & 1 1 U d 5 1 ; ; 5 a | M.6 - - O O O . X O & 3 L q.a d q.h.8 7 1 u./ } 1 & @ O ",
"% - 3 n.R.5 5 - < 7 6 Q.].!.z < ; # X # # @ X @ % - g ;.4.i.5 7 5 c A.F.OXW a 5 ; @ & < 4 N 8 1 1 < 1 6 5 Y.z.6 - % O O @ . X o % < g 4.5 e R.q.a 1 1 j.s.%.< - @ # ",
". % % 1 f h.t.8 c Q.I.4.6 6 < v p & @ . . X # o o @ ; 5 6 / XXA.P.u.a f 1 ; % % O X o # & < H.O.E f n l.R.c 5 & O o . X O X . X # : ; N Y.].N 5 ; % % 1 &.s.h.6 ; ; ",
". . X % < ;.&.h.J.d f 1 & & # < 8 c - @ O O . O O # - 5 5 _ Q.f f 5 - & # @ X o X X X O @ - 1 &.4.#XU.i.#.5 % O X X O . . . o % < 8 d h.n g 1 % @ O o % < 1 h f.t f ",
"% % X O ; f d XXd 3 < & # % o @ & ; d ; ; # # & - < d 5.e.5.W c d - $ O X . O o O X X # % < d H.W.n 5 5 9 #.5 & # @ X o O O @ < j ^.E.z 5 2 & o O o o X # % < a K.i.",
". o @ & 6 ;.4.1.5 & % o X X O O # & < Y Y 3 ; 6 g c g.#.@.5 l 9.5.9 & # o . X X . o @ , < l L.~.~.z 5 1 4 ;.U 3 ; - # O O # & 5 H.'.%.1 # # @ .   X @ @ O O & 1 _ %.",
"X o O - 6 3.o.9.1 % # o X X @ O # % ; E *.5 < 6 d n h.V V 5 6 9.9.5 & % O . . X . O # 1 1 3.W...n 1 - & % 6 %.5 ; ; % O o % & 6 Q.'.n ; % # # . . X # @ o o # ; a 8 ",
"O @ & 5 _ E.F.d - O O . X # o   X X O & - L 4.oX+Xp.f < ; % & < 5 %.a 5 & # O O @ & 1 c N Y.d < < % O O O - 6 5.w.f < % % - 1 N R.< < % o o o o @ X X o . . o # < < ",
"- ; 5 m H.a a - @ @ O . X X O O o @ & 1 1 l Q.f d 5 ; # @ O O # % 5 4.j.z < & % & 5 n F.F.6 ; % # O . . X @ & 1 L &.^ 5 1 6 d u.n - & O X . . X % O . . @ @ % 1 l c ",
"g l =.!.a < < # o @ # * + o . # # = 1 V l W.I 0 ; - @ O O . . O @ - < 7 q.T 5 < 7 V A.6 5 ; # O o . X X X X @ & ; 1 q.w.G ..j.h.d < < % @ o . X # # @ X # % < v n.Z.",
"f z $.Y.a - - O X X O & o X X @ # & 5 n l F.n < < & O O + . . o @ & 1 5 d &.w 5 8 Q.R.6 6 ; @ O o . o O @ X @ % < 1 N h.J.!.t.9.d 1 < % @ O X @ O # # o % % 1 n m.g.",
"A.A. Xd < @ @ . X o X o X o + & & 1 n E.W.f 5 & @ O . X X O X X . o # = < 4.%.#..XN 6 - - O o X .   X O & o X # - ; d Q.d v 5 h.i.d a 1 - & @ o . . X # < < s f.G f ",
"6 6 7.W 1 & & O . o . . + @ & < < d i.7.f.z < % # O o . . o @ @ X O # & < m #X.Xd 4.6 1 : @   o O % . X X o # ; 6 d t.z 1 1 % < z Z.A.4.6 6 ; # O @ % - d d p.z 6 < ",
"< 1 8 V.6 - & O O @ @   # % < 8 d u./ 3 t N I 1 ; & @ o X X X X o # ; < d t.h d < } 4.7 6 & @ X X @ o O @ - 1 8 X.u.c 5 & % O & 1 7 6 A.' ( 5 % O # # 5 i.t.c 5 ; % ",
"% & < c h.5 a ; @ O o # < < n |.+XN 1 1 1 ; 7.z 8 5 - # # o O @ % 5 j a N.8 8 d ; 6 i.5.q.5 % @ O o O # - 1 h W.z.q.6 ; @ @ X # ; 5 3 d h.K.{ 6 < w d K.3.2.z ; > # ",
"@ # - l h.-.*.8 - % # & 1 1 x %X-Xm 1 & % - < 8.I 5 < & % # % # ; 5 z d N.6 < ; % - 8 7.5.6 - # @ O # & 1 1 H.Q.3.( 5 % @ o . o % ; ; 8 f.Z.i.#.d ( @.!.L n 1 % @ O ",
"@ @ % ; z Q.W.f < % % < d f W.f V < # o O # ; &.L.i.d 1 < - - : 6 4.Z.!.a ; % # o # ; 9 a 5.1 ; - % - 5 5 E d.f 6 1 = @ o X X X O @ % ; 6 x 7.%.&.K.H.c 1 1 % O @ . ",
"o X o % 1 k n h.n 1 5 d ).R.j 1 ; % o @ o o # & < 5 u.N m 6 5 5 h.N 1 5 ; @ @ o . X @ & - 8 { d d 1 d %.H.4.6 < & % O X X # @   X X o @ - < 5 R.{.H f 1 % % o . X o ",
"X o X O % 1 < n U.u l Z...V 5 & % o @ X .   X O % & 5 i.r.{.u.V.l 1 % % O X X o o O o o @ - 7 k.f.l Y.h.| 5 ; # O O .   O : & X . X O % ; 5 6 Y.d 1 < % o o X o X X ",
"X o @ . @ % - d |.XXQ.A.I n ; # @ X O X . @ X X O @ - 6 A $Xf.w.n < & % @ . X X . @ o o o # ; 2 ; !.oX..N a & # O X   o O # & o o O # < 6 n m d.6 & % o . . @ & @ o ",
"  O % O O , - d Y...f d 4.&.6 - & @ X o o # O . o O - 6 y Q.n d 1 % X o # o X . . . X @ @ @ & < < n XX7 d & O O .   . O . . . o o @ & < 8 c W h.a ; - @ X X X o . . ",
". . X O - 6 8 h._ 7 1 ; 8 8 5.d 8 ; % O @ X . O o X @ < 2 Z.5 ; % O X . o % @ o . O X # # X @ # % 1 R.1 6 - O o X X O X . X o @ % < 1 m u.g.%._ &.5 6 ; % % @ o X O ",
"# @ @ & 5 V.V.] 5 ; # % < < n h.^.n 1 & % @ o o # # & 6 u i.; - @ @ X o X X # # o . X O O @ % ; ; f U.H n 5 & % @ % @ X X @ # - 1 f f h.f 5 1 < 6 Z.N.N < < % @ X o ",
"o # - 5 =.M.A.6 - % O o # % ; 8 r h.T 1 3 % O O & - 9 _ q.W < - # O . X O # o X X o @ o o # ; 8 w g.%.!.!.c 6 ; % @ X o # & < 6 W z.t.c 6 5 < & < c.P.f.x.:.1 % # O ",
"@ # & 5 4.M.N.6 - # O o # # ; d 7 h.7.5 7 & @ O - - 5 E 7.B 1 - % O . X O % . . . X @ o o % ; w a h.%.Z.E.N 7 ; - @ o O # - ; 6 _ z.7.5 , & @ O & 5 6 N u.u.9 % # O ",
"; < d u.u.6 6 - # O . . X X @ - - 5 / h.V.6 < ; 8 6 E A.H.A.N 8 5 ; % o o X @ o X X X # % < d 9.s.&.< 1 5 ~ h.8 6 < - & < 5 z h.u.1 5 & O O X @ @ % & 1 &.4.4.5 - - ",
"a t 6.N.6 - - @ X . @ O X X o @ # % 1 l t 5.f N H.Z.4.5 5 1 4.7.$.f < & # O @ O o @ % < 5 n h.,.J < % % - < d j.n.l a a d q.h.z 5 & & @ X X X O . O O & 5 6 9._ 5 a ",
"S F J.d < # % O X X o # X X @ X O % < 6 1 f.g.Q.V.j.< - & & < e 5.a 1 & % O o o o # ; l t H.5 1 1 - O @ % : < 5 H Z.d 8 x h.L.v < # # O X o o X . . o @ ; < c K.D x ",
"J.H.E.d - @ @ X . o X o O X @ . X o % 5 1 W F.F.H a < % # % < 3 N W.f d 1 < & # @ ; 1 f.J.J.6 1 < % o o O % - 3 c ^ H.XX=X] d < % O o . X O % @ X . . o & - d F.+Xh.",
"8 8 t.N 1 & & @ @ o   . # # X X o O % 1 1 N W.7 < ; # o X o % & 1 f h.V.f 1 ; - % 5 z R.R.6 ; % # o . X O o @ # < 5 f Q.%Xd < % @ X X   . o O % o .   o & & 6 R.].n ",
"- ; 6 h.f < 1 % @ o X X .   o O @ % 1 f f R.6 - # O o O o X O @ % ; 5 5 f.j 6 5 < z Y.r d ; @ o o . . . . . X X # & 5 t.].m 5 - % @ O X @ @ O . o o X @ < < c 4.5 5 ",
"# & ; f V.f f 1 & O O X . o @ - ; 1 d h.r.f 1 # O o X - - X o @ @ # ; ; d f.X.L u A.f 1 < & # O O # # # o # O @ ; < g h.p.#.i.a < & & O X . o   o @ # ; a d i.d & - ",
"o o # < c W.H.v 1 - & @ # # ; 6 5 &.A.I $.1 % O O o . o o % X X X O % # 1 t @.i.{.u 5 < - # o .   O % = X o # # 1 d ^ / 1 1 i.h.f 1 1 % o X X o # - - 8 #.9.l ; # @ ",
". X X # < r u N.W 4 5 - ; ; b w.j.k.j.s.9.g ; % O o . X o o X o X X # % 1 Z I R.E c 6 ; ; # X . . O o + O % ; 5 c w.N.} ; 1 1 j.s.%.m 1 - % @ % 1 6 d w.f.l.5 % O o ",
"X X X $ , g g h.E.8 a ; ; < _ f.^.N a w.3.z < & @ O X X o X X X O O # = 1 s.%.j.} %.d 1 < % @ X o o X o O & 1 5 L g.n < & & < d z.8.X.5 - % # & < 6 g t.#.m < @ o X ",
"@ = o . @ - - 5 N Q.A.8 c n f.f a ; & < ; 4.4.6 ; ; @ X X @ X X @ & 5 5 d t.6 d < _ d.H f 5 % @ o . O # & 5 n L j.N 1 % O O # ; 5 n.d.h.d f < 5 $.L.Z.c < 1 % # o . ",
"# @ . @ X @ @ & 5 l J.U.7.i.5 - & @ O # & < l 8.t d - # # o @ % - 5 V z u.6 ; - @ - 6 z.h.n < & % # & ; 5 n J.'.1 < % O X X X O & < < f u.g.f 4.t.t d ; # # o . o @ ",
". X # . o X X O # < < H.5 6 - # O o # O O % 1 S 9.7.5 < - @ - , 1 6 U.Q.8 < % # o # - 7 a f.8 5 1 ; 5 l { Q.6 7 - & @ X X $ # X O % & < X.3.Y.J.1 ; - # X o X O o X ",
". X o . o . . o % < < R.5 5 & @ o X O X X # ; 5 w.7.d ; , # - < 5 4.W W 5 & @ @ . O - 1 5 u.6.< 1 ; 5 t $.h.6 6 & # O . . @ O . o @ # ; f l E.[ 5 ; - O X X X O X . ",
"X o   o o O . O # ; < A.< ; @ X X o X X . X @ & 1 1 / W [ 1 5 5 h.z < 1 % @ X X . o @ & ; 1 z $.E l f.L.W 5 & # O .   X . X X o O X o # < < u.1 & # @ . @ O X X o O "
};
