/* XPM */
static const char *gothic_floor_22[] = {
/* columns rows colors chars-per-pixel */
"22 22 107 2 ",
"   c #6E0101",
".  c #740101",
"X  c #7C0102",
"o  c #840101",
"O  c #8C0101",
"+  c #930101",
"@  c #9A0101",
"#  c #A40102",
"$  c #AB0101",
"%  c #B30101",
"&  c #BB0201",
"*  c #C40201",
"=  c #CC0201",
"-  c #D30401",
";  c #DB0501",
":  c #D50C01",
">  c #DC0901",
",  c #DE0E0A",
"<  c #E30503",
"1  c #E30A02",
"2  c #EB0D02",
"3  c #E41200",
"4  c #EE1101",
"5  c #E91101",
"6  c #E61A01",
"7  c #E71D00",
"8  c #EC1D00",
"9  c #EF1D04",
"0  c #EE1800",
"q  c #F21601",
"w  c #F61E05",
"e  c #F21A02",
"r  c #EC2101",
"t  c #EC2B00",
"y  c #E92B09",
"u  c #F52501",
"i  c #F62305",
"p  c #F12C00",
"a  c #F02D00",
"s  c #F52F00",
"d  c #F42E01",
"f  c #F92807",
"g  c #F32108",
"h  c #EF3000",
"j  c #F63100",
"k  c #F23500",
"l  c #F13601",
"z  c #F73502",
"x  c #F53300",
"c  c #F33803",
"v  c #F63C03",
"b  c #F33D00",
"n  c #FA3C0A",
"m  c #F64001",
"M  c #F64200",
"N  c #F84201",
"B  c #F64F00",
"V  c #F74F04",
"C  c #F64B01",
"Z  c #FA4A00",
"A  c #FC4F02",
"S  c #FF4909",
"D  c #FF4B09",
"F  c #F55600",
"G  c #FA5304",
"H  c #FF5206",
"J  c #F45E00",
"K  c #F75F00",
"L  c #F65900",
"P  c #FD5904",
"I  c #FF5B04",
"U  c #FB5E02",
"Y  c #FF530B",
"T  c #F56300",
"R  c #F96100",
"E  c #F86500",
"W  c #FD6500",
"Q  c #FF6604",
"!  c #F76A00",
"~  c #FA6900",
"^  c #FB6D00",
"/  c #FB6D01",
"(  c #FE6D02",
")  c #FF6F02",
"_  c #FF6F05",
"`  c #FC6800",
"'  c #FF660F",
"]  c #FF670A",
"[  c #F67300",
"{  c #FA7001",
"}  c #FA7300",
"|  c #FE7203",
" . c #FA7500",
".. c #FB7600",
"X. c #FF7404",
"o. c #FC7502",
"O. c #FB7B00",
"+. c #FB7E00",
"@. c #FB8200",
"#. c #FC8300",
"$. c #FA8600",
"%. c #FF8307",
"&. c #FD8C03",
"*. c #FF830D",
"=. c #FF820D",
"-. c #FF8809",
";. c #FF8913",
/* pixels */
"* 1 @ 1 . . * > o @ * / $ . + g 4 O X d % O ",
"J O # . 8 : ; ; > / * @ @.< O.& & + # ) 5 } ",
"$ J = # +.* X * < + X # * 2 % . $ * X.% . O ",
"o o - u + @ $ n - o o = 2 l * X % D c * X O ",
". % 5 3 + o % . * Y v * O o $ ) < X X & h ..",
"= _ $ + E % & + - 9 # = X . # P P = o - 1 + ",
"= * X @ # $.= r t @ + * & & R @ O & G 1 + + ",
"& } - o z - o @ - O . & m ~ & . o @ W & o X ",
"= . & =.&   & B > ' > > @ $ a & = V @ = > d ",
"o % X % a & 2 & . * ; O o # + #.w + o O ..* ",
"= X O @ ! & j O X o 1 ; 6 . @ 2 % = . = = + ",
"= < = | @ # + N - T > $ 1 * %.+ . # > 1 l $ ",
"o 2 2 # & % $ Z 1 + O O 1 - y X O 2 = o # 1 ",
"- < + X O = 1 @ # H $ q & . @ H ; q o # + = ",
"-.+ . . - ;.@ . o + &.* . . O : , ] = . - U ",
"@ [ * > = O M * = ` # = * % =.* X + > j = O ",
"+ $ -.q X . . ; 2 # X O & &.; . @ o < : . % ",
"+ W ; = 6 # O f @ o # X # X.- + + = 2 < = O ",
"B % X . # 1 0 ; b $ + % U # * 7 m = . . - z ",
"; = O   $ 3 % o # ; - } + . X $ e # @ o * A ",
"X 1 =.& e C $ X o $ ] 1 O . $ U % F % * D + ",
"+ . # ; . X - & ; i O % 3 - L O @ o 2 - . O "
};
