/* XPM */
static const char *gothic_duck_30[] = {
/* columns rows colors chars-per-pixel */
"30 30 170 2 ",
"   c #020201",
".  c #080102",
"X  c #090907",
"o  c #090708",
"O  c #0E0E0E",
"+  c #160001",
"@  c #1C0203",
"#  c #1B0609",
"$  c #0F0F11",
"%  c #1E0F14",
"&  c #141414",
"*  c #1C1114",
"=  c #191718",
"-  c #1B1B1B",
";  c #270C13",
":  c #2E0911",
">  c #3D0712",
",  c #330A10",
"<  c #242424",
"1  c #282627",
"2  c #2C2C2C",
"3  c #2E2E30",
"4  c #333333",
"5  c #3B3130",
"6  c #393939",
"7  c #460100",
"8  c #4F030F",
"9  c #520006",
"0  c #5A0000",
"q  c #5D0B00",
"w  c #560009",
"e  c #540414",
"r  c #5A0514",
"t  c #640000",
"y  c #6C0101",
"u  c #650E00",
"i  c #750101",
"p  c #7C0102",
"a  c #7A1501",
"s  c #7B1900",
"d  c #640211",
"f  c #6F051B",
"g  c #71051C",
"h  c #413132",
"j  c #794C25",
"k  c #464646",
"l  c #4E4E4E",
"z  c #636260",
"x  c #840101",
"c  c #8C0101",
"v  c #930101",
"b  c #9C0101",
"n  c #850514",
"m  c #890419",
"M  c #9C0518",
"N  c #8D1214",
"B  c #A30201",
"V  c #AB0101",
"C  c #AC0807",
"Z  c #B40202",
"A  c #BC0301",
"S  c #BD0A00",
"D  c #B60A0A",
"F  c #A50318",
"G  c #8F2D3C",
"H  c #C30401",
"J  c #CA0402",
"K  c #C60B00",
"L  c #CC0A02",
"P  c #C60508",
"I  c #D20502",
"U  c #D50B01",
"Y  c #DA0C03",
"T  c #D20408",
"R  c #CD1400",
"E  c #C11E00",
"W  c #CF1D00",
"Q  c #D41400",
"!  c #DB1301",
"~  c #D21900",
"^  c #DC1E00",
"/  c #DF1708",
"(  c #D41D0B",
")  c #E20E00",
"_  c #E31401",
"`  c #E51B02",
"'  c #E91900",
"]  c #CF2300",
"[  c #D12100",
"{  c #DE2800",
"}  c #C53A03",
"|  c #CB3D00",
" . c #DB3300",
".. c #E22400",
"X. c #ED2600",
"o. c #E42A00",
"O. c #EC2C01",
"+. c #F32A0C",
"@. c #E53001",
"#. c #EA3907",
"$. c #F33600",
"%. c #F13303",
"&. c #F13508",
"*. c #FA330A",
"=. c #F43E0B",
"-. c #F23D04",
";. c #ED440D",
":. c #F04301",
">. c #F64B03",
",. c #F34C00",
"<. c #F7410F",
"1. c #F14D0E",
"2. c #F55400",
"3. c #F85301",
"4. c #F45B00",
"5. c #F35D00",
"6. c #F55D03",
"7. c #F95A02",
"8. c #FA5D00",
"9. c #FC5D0A",
"0. c #FB550B",
"q. c #F84210",
"w. c #F95B14",
"e. c #EB6705",
"r. c #F56201",
"t. c #F56300",
"y. c #FC6400",
"u. c #F86205",
"i. c #F66D01",
"p. c #F86A00",
"a. c #FA6E01",
"s. c #FE6D00",
"d. c #FA6C01",
"f. c #FE640A",
"g. c #FC620E",
"h. c #FF6B0B",
"j. c #FD680C",
"k. c #FC6A0A",
"l. c #F07100",
"z. c #F47200",
"x. c #F87002",
"c. c #F97201",
"v. c #F47B00",
"b. c #F37E00",
"n. c #F97B00",
"m. c #FF7907",
"M. c #FC7D03",
"N. c #F2710B",
"B. c #FF7B0D",
"V. c #FF6111",
"C. c #FF6B11",
"Z. c #FF7711",
"A. c #FF7B10",
"S. c #F0771C",
"D. c #AF3448",
"F. c #F68400",
"G. c #F98600",
"H. c #FC8703",
"J. c #FE8304",
"K. c #F58C00",
"L. c #F98A00",
"P. c #FF9203",
"I. c #FC9B00",
"U. c #FF9208",
"Y. c #FA8A1C",
"T. c #A4988C",
"R. c #B8AD9B",
"E. c #B0A8A5",
"W. c #B5ADAB",
"Q. c #F8F8F8",
/* pixels */
"p A m.A V p p p B l.B c p c J 4.A x x c V U U V v v E A v i ",
"A r.H c x J A J 8._ ..Z A >.O.Z H.A v U y.5.b i v p V a.U V ",
"K X.b p p b K o.b c U a.I V i p J x.n.` V v / x v A 9.C A ) ",
"x H 7.A V Y u.B v V g.I b v b p V _ _ V i i c ! ` [ V p x v ",
"V x b ! p.H c B c Y U s.V A Z Z 0.H A Z x x Z r.H 2.J v i B ",
"p c c Y X.V x p _ Y v H I ` 5 4 I V c P 2.H +.V x B @.%.L v.",
"b Z U O.T f.A U x . b U   k 4 - &   b V   a.b x i p c Y :.Z ",
"w.I 1.B p Z h.H A . # 1 6 4 4 4 4 6 - @ . H q.A x x A i.J p ",
"H U c y p B b G.A . F n 4 4 6 6 4 4 m M . b H j.] ! ~ Z v A ",
"v G.J v i B I 8.b   r   4 4 4 4 4 4   8   p i c Y U v c c i ",
"A I &.U A Q <.A K 2 4 4 4 4 4 4 4 4 4 4 - v c V V.u.L b x c ",
"_ v x J U.6.V   I 6 4   2 6 4 6 6 4 O 4 1 H   5.A c J 9.U p.",
"x y c p   - o & ! 2 1 Q.  4 4 6 6     4 1 r.& O = . y v M.Z ",
"V i b + + r % = ^ - 1 d   4 S.e.4   w 2 = J - * e # + Z Y p ",
"L.b c 0 c > ,       D.4 2 Y.k.N.p.4 h G       : > 0 t x.V i ",
"Z i.A A ,.* g r     - 1 a | u q } s 1 &     e f ; L t.3.L p ",
"y A t.b.J N =.. 6 4 - X - = + + = - o O 3 l . H j J V Z C.A ",
"p J %.V x V V z 4 2 4 W.= &     O & E.4 3 4 6 L b p i x v U ",
"I x.A v i b b 4 4 4 6 4 -   R.T.  - 4 6 4 4 4 A c y x y c A ",
"o.U x x t b Y 1 & 4 4 4 4 4     2 6 6 6 4 $ 1 t.Z c i c L a.",
"v ..Z c c U A.- o 1 6 6 6 6     6 6 6 6 1 o = V  .U V +.L.c ",
"x J B.A U J.V b = < 4 6 6 6 6 6 6 6 6 2 - = x p c U F.J v p ",
"i p U I.J.L p p i - < 1 6 6 6 6 6 6 1 - = 9 p i b U S c i y ",
"x V ! I V W K c x x 7   < < < 1 1 -   7 p x x V C.H R J B i ",
"V K.H v x v U Y V U i.( b x y p c B { n.H b H n.A c c Y ' b ",
"h.J v p i x c U c.I v U I b i c 4.T x b I z.h.B i v x c U L ",
"Y %.V p y y b *.H x c v I r.H -.U v y i v H H x x y i c U U ",
"x I x.J c J ,.a.v p v i x Z P.U v y v v I a.B.! B x B Y ' p ",
"B p B Q ;.B.L A g.P x v ) t.P P I V b J ~ D x J m.Y Z.H c p ",
"i p p V J.A x p A 5.Z A =.A x v =.U A #.V p p x Z ! ! v i i "
};
