/* XPM */
static const char *gothic_floor_16[] = {
/* columns rows colors chars-per-pixel */
"16 16 235 2 ",
"   c #6F0100",
".  c #730100",
"X  c #740000",
"o  c #740001",
"O  c #750101",
"+  c #770100",
"@  c #770101",
"#  c #740201",
"$  c #750102",
"%  c #7B0000",
"&  c #7B0100",
"*  c #790102",
"=  c #7B0002",
"-  c #7D0100",
";  c #7D0101",
":  c #7E0100",
">  c #7E0001",
",  c #7F0200",
"<  c #7C0002",
"1  c #7C0103",
"2  c #7F0102",
"3  c #810100",
"4  c #820000",
"5  c #830101",
"6  c #810102",
"7  c #820002",
"8  c #840000",
"9  c #850000",
"0  c #850001",
"q  c #870100",
"w  c #860001",
"e  c #870301",
"r  c #880000",
"t  c #880100",
"y  c #890101",
"u  c #8A0000",
"i  c #8B0100",
"p  c #890200",
"a  c #880201",
"s  c #890103",
"d  c #880203",
"f  c #8C0000",
"g  c #8C0001",
"h  c #8F0100",
"j  c #8C0200",
"k  c #8D0102",
"l  c #8E0203",
"z  c #900000",
"x  c #910100",
"c  c #930101",
"v  c #900200",
"b  c #900201",
"n  c #930200",
"m  c #910003",
"M  c #930102",
"N  c #920202",
"B  c #940000",
"V  c #920403",
"C  c #940404",
"Z  c #990100",
"A  c #9A0000",
"S  c #990002",
"D  c #9B0103",
"F  c #9D0000",
"G  c #9F0100",
"H  c #9C0202",
"J  c #9E0404",
"K  c #A30001",
"L  c #A10103",
"P  c #A30003",
"I  c #A10302",
"U  c #A60100",
"Y  c #A70101",
"T  c #A60002",
"R  c #A60402",
"E  c #A10304",
"W  c #A20204",
"Q  c #A30305",
"!  c #A90000",
"~  c #AA0100",
"^  c #AA0001",
"/  c #AB0101",
"(  c #AB0300",
")  c #A90303",
"_  c #AA0202",
"`  c #AF0200",
"'  c #AF0301",
"]  c #AE0002",
"[  c #AA0106",
"{  c #AD0504",
"}  c #AE0605",
"|  c #A80508",
" . c #B00000",
".. c #B30101",
"X. c #B60000",
"o. c #B50200",
"O. c #B50301",
"+. c #B70302",
"@. c #B10104",
"#. c #B40404",
"$. c #B90101",
"%. c #BA0001",
"&. c #B90302",
"*. c #BC0001",
"=. c #BE0100",
"-. c #BE0201",
";. c #BF0302",
":. c #C10100",
">. c #C20001",
",. c #C30200",
"<. c #C20201",
"1. c #C00202",
"2. c #C40100",
"3. c #C60100",
"4. c #C40200",
"5. c #C70102",
"6. c #C40202",
"7. c #C40203",
"8. c #C70400",
"9. c #C40403",
"0. c #C70305",
"q. c #C10506",
"w. c #C60605",
"e. c #CB0100",
"r. c #CA0300",
"t. c #C80203",
"y. c #CD0303",
"u. c #CE0203",
"i. c #C80501",
"p. c #CA0403",
"a. c #CF0400",
"s. c #CD0601",
"d. c #CF0503",
"f. c #CA0705",
"g. c #C80607",
"h. c #CD0706",
"j. c #CA0808",
"k. c #D30300",
"l. c #D50000",
"z. c #D60201",
"x. c #D30600",
"c. c #D10703",
"v. c #D40400",
"b. c #D60501",
"n. c #D00204",
"m. c #D10707",
"M. c #D90400",
"N. c #D80700",
"B. c #DB0600",
"V. c #DD0601",
"C. c #DC0701",
"Z. c #D70800",
"A. c #D60900",
"S. c #D20804",
"D. c #DB0B00",
"F. c #DC0900",
"G. c #DC0B06",
"H. c #C71300",
"J. c #DB1F00",
"K. c #E30500",
"L. c #E00600",
"P. c #E20701",
"I. c #E50601",
"U. c #E10604",
"Y. c #E40800",
"T. c #E00D00",
"R. c #E30F00",
"E. c #E60C00",
"W. c #E70E00",
"Q. c #E10A07",
"!. c #E40B04",
"~. c #E60D04",
"^. c #E80F00",
"/. c #E41000",
"(. c #E41004",
"). c #E41005",
"_. c #E81100",
"`. c #EA1301",
"'. c #EE1702",
"]. c #EB1306",
"[. c #E51C00",
"{. c #E91900",
"}. c #EB1608",
"|. c #E7190B",
" X c #F31000",
".X c #E62303",
"XX c #E22700",
"oX c #E42F00",
"OX c #EF250F",
"+X c #F02700",
"@X c #F62800",
"#X c #F42E07",
"$X c #FA2B03",
"%X c #E33300",
"&X c #EE3200",
"*X c #E83500",
"=X c #EB3B02",
"-X c #E83F00",
";X c #F23400",
":X c #F03700",
">X c #F63400",
",X c #F63901",
"<X c #FE3F08",
"1X c #ED4300",
"2X c #FB4903",
"3X c #F94D00",
"4X c #FB4E09",
"5X c #EF5600",
"6X c #F85200",
"7X c #FA5600",
"8X c #F25D00",
"9X c #FB5904",
"0X c #FD5806",
"qX c #FF520E",
"wX c #FF5A0C",
"eX c #FF580F",
"rX c #FF5C13",
"tX c #F86400",
"yX c #FF6602",
"uX c #F66D00",
"iX c #F86E01",
"pX c #FF6108",
"aX c #FF640A",
"sX c #FF6C08",
"dX c #FF6C0A",
"fX c #FF6F0A",
"gX c #FC7300",
"hX c #FA7700",
"jX c #FC7B06",
"kX c #FF770A",
"lX c #FF700C",
"zX c #FF6111",
"xX c #FD8300",
"cX c #FF8303",
"vX c #F48F00",
/* pixels */
"e.6._.6 %.K.t 6.-Xn D 1XR 6 uXt ",
"U.%.k eX[ G '.n V 6XV.B ] S.@.=.",
"e T @Xe t 3X~ 6 E.6.=.e ;X,XT t ",
"e >X2X~ W X e._.k n n jXn e =.I.",
"aXD X f.4XE.^.= <X; v.~ =XV.$X= ",
"~.7XK oXm.] d.k .Xz.u.e  .eXq.; ",
"~ 6 D.6.~ K.v.tXG X %.K.h.; 6.iX",
"u.~ n *X8Xe X e.0.~ n d.OXX fXe ",
"f.=.zXt t #X+X!.>.Z.gX= k XXw.e.",
"J {.t } H.].[.; }.|.j.} %Xn C +.",
"vX  ; M.n.= ; kX] X e Z.fX+.X 0X",
"t pXlX~ #.).cXK d.i.cX| X x.T.n ",
"6 fXk.>.k e.k T t 9.6.W +./.J.e ",
"5Xn X >.Y.z.T.t d.Q.i.M.).; k ;X",
"K  XG yXG e D 9X6.. ; &XrXt +.>.",
"K k G.D F.%.M. .x.>.hXW t qX9.t "
};
