/* XPM */
static const char *gothic_duck_34[] = {
/* columns rows colors chars-per-pixel */
"34 34 174 2 ",
"   c #020101",
".  c #0A0001",
"X  c #0D0C0C",
"o  c #140100",
"O  c #150609",
"+  c #1D060C",
"@  c #10100E",
"#  c #1C0E12",
"$  c #0E1A16",
"%  c #151515",
"&  c #1A1A1A",
"*  c #1C1115",
"=  c #21080C",
"-  c #340000",
";  c #3C020E",
":  c #2C0D15",
">  c #340713",
",  c #211313",
"<  c #242424",
"1  c #262628",
"2  c #2C2D2C",
"3  c #2B2A32",
"4  c #333333",
"5  c #3A3539",
"6  c #3A393A",
"7  c #4E0000",
"8  c #45050E",
"9  c #5B0001",
"0  c #5F0B00",
"q  c #501100",
"w  c #5E1608",
"e  c #4A0714",
"r  c #540614",
"t  c #650001",
"y  c #6D0101",
"u  c #640C00",
"i  c #6E0900",
"p  c #740101",
"a  c #7B0101",
"s  c #790B0A",
"d  c #650412",
"f  c #6D051A",
"g  c #63041A",
"h  c #7D0212",
"j  c #54261A",
"k  c #464545",
"l  c #484745",
"z  c #555553",
"x  c #840101",
"c  c #8C0101",
"v  c #8A0309",
"b  c #940101",
"n  c #9C0101",
"m  c #990B01",
"M  c #910B08",
"N  c #8F1C00",
"B  c #921F00",
"V  c #9D0117",
"C  c #9D0418",
"Z  c #920B12",
"A  c #A30101",
"S  c #AB0101",
"D  c #A30408",
"F  c #AE0B0E",
"G  c #B40202",
"H  c #BC0301",
"J  c #BB0903",
"K  c #B3090B",
"L  c #A01204",
"P  c #B1170F",
"I  c #B11310",
"U  c #AF0819",
"Y  c #AC2F03",
"T  c #BC3202",
"R  c #C40301",
"E  c #CC0502",
"W  c #C50B00",
"Q  c #CC0A00",
"!  c #CB0208",
"~  c #D10601",
"^  c #DA0701",
"/  c #D40A02",
"(  c #DB0C03",
")  c #DC0C09",
"_  c #CB1100",
"`  c #CE1E00",
"'  c #D21400",
"]  c #DD1102",
"[  c #D31A00",
"{  c #DD1B00",
"}  c #C01B19",
"|  c #DA1912",
" . c #E00906",
".. c #E31401",
"X. c #E91403",
"o. c #E51E01",
"O. c #EE1D05",
"+. c #E2180A",
"@. c #D12400",
"#. c #DA2200",
"$. c #DE2D00",
"%. c #DF3000",
"&. c #E12100",
"*. c #EA2302",
"=. c #E32B03",
"-. c #EA2B03",
";. c #E22B0C",
":. c #F12C07",
">. c #E33401",
",. c #ED3101",
"<. c #E53C03",
"1. c #EF3B03",
"2. c #F23F05",
"3. c #F83A08",
"4. c #E33C10",
"5. c #C51424",
"6. c #E12232",
"7. c #ED4200",
"8. c #ED4D00",
"9. c #F54E03",
"0. c #F74F0E",
"q. c #F14402",
"w. c #EE5100",
"e. c #EB5D01",
"r. c #F45401",
"t. c #FA5600",
"y. c #F55C01",
"u. c #F95C04",
"i. c #F5500E",
"p. c #FF510D",
"a. c #FA5A0C",
"s. c #FA4511",
"d. c #FD5D12",
"f. c #CD6317",
"g. c #EC6200",
"h. c #F56201",
"j. c #FE6105",
"k. c #FA6402",
"l. c #F66B02",
"z. c #FA6A00",
"x. c #FA6D00",
"c. c #FA6C01",
"v. c #FD6C09",
"b. c #F77601",
"n. c #FA7302",
"m. c #F57A00",
"M. c #FC7B01",
"N. c #FE720C",
"B. c #F57711",
"V. c #FF7B10",
"C. c #FF5C21",
"Z. c #FF7227",
"A. c #843643",
"S. c #9D3649",
"D. c #F58000",
"F. c #FC8401",
"G. c #F78C00",
"H. c #FD8B03",
"J. c #FF8008",
"K. c #FB9300",
"L. c #FD9303",
"P. c #FD9A00",
"I. c #FF960B",
"U. c #FF9808",
"Y. c #FF8F15",
"T. c #F9821A",
"R. c #E89B25",
"E. c #F99E35",
"W. c #A29585",
"Q. c #ADA49D",
"!. c #B7AA9A",
"~. c #B2A594",
"^. c #AAA5A1",
"/. c #E1D3C6",
/* pixels */
"a A 7.i.b c a a p A +.E c a a c E 9.R c p c a G ,.s./ b H ;.k.A a p ",
"G M.R S a n o.S R u.{ h.R b R j.-.H x.( n S / k.Q A a p p n / H.E A ",
"l.k.G c p p A z.L.R n H z.8.y.R c x H &.*.8.n.! / H a x S y.2.A ~ K.",
"A ~ 7.^ b n ' Y./ b c H ` ^ n x x x c S F...A v c H J Q m.R n x a G ",
"p c ..x.~ 9.1.H c A S 1.( S a b b x G ..t.G x x a a R J.] b x c x a ",
"S x c E L...x a A c Q / W [ G n G   %.j.S =.H b b H j.H J ,.R c x S ",
"a c c E P.E n p c R ] n A / ~ 3.4 5 =.H A S R $.*.:.H c b R r./ ( V.",
"n n / I.R ] ) A / b Z   G 4.k 2 4 & 2 & K b   } @.b n y c x b ' / D ",
"d./ N.^ c x R k.R J   5.  z 6 4 4 4 2 4 2 . 6.  [ s.H c x K ! 0.G a ",
"! H.H c a p c ^ F.k.  h V   4 4 4 4 4 4   C h   b R y.] R F.*.S p n ",
"x *.E A x a A -.y.A A 8 d < 4 4 4 4 4 4 < d 8 n c p x R h.G c y n p ",
"R M.N.Z.E b / _ / [   < 2 4 4 4 4 4 4 4 4 2 < o n a c E y.C.H x x J ",
"m.R J <.x.] *.A b ' k 4   2 4 4 4 4 4 4 2   4 < n c / h.G W y.H b H ",
"A a p c G l.  X & o 4 4     4 4 4 4 4 4     4 4 O %     x a n ( U.#.",
"A y S a F < = * & / < 4       4 4 4 4   X   4 < a.& # + & - c ~ R b ",
"G c p A & r f # % t   2   U 2 j E.T.j 2 U   4   9 % # g r % H b.n p ",
"H.H b   c . > e   % i < A.4 2 B.v.N.e.3 4 S.< 7 %   e >   A   ..a p ",
"G x.G n E H., f r       < 4 T T u 0 T Y 4 <       r f : E y.D.y.G p ",
"p G k.n...~   | r 6 4 & X & < q B N w < &   % 2 < ; -.  { R b ~ H.R ",
"c n F.X.n S A +.l 4 4 4   ^.  % & & &   Q.  2 4 6 1 r.R S x p c E F.",
"c ] O.G a b y s k 4 < 4 2 &   X     @   & 4 4 < 4 4 M n p a b p c E ",
"z.q.n a n a H I 4 4 4 4 4 4 4 % /.W.X 2 4 4 4 4 2 4 P S x a b b E r.",
"~ ,.a t a x H R.2 2 4 4 4 4 4 & !.~.& 4 4 4 4 2 2 < f.:.H c x E h.R ",
"b <.R b x ! u.] $ & 2 4 4 4 4 4     4 4 4 4 4 < & % A ~ M.Q ) y.H c ",
"a A =.^ G H.E c n   < < 4 4 4 4 4 4 4 4 4 4 < &   c y a H P.b.S a a ",
"p a / M.M.9.S p a y & & < < 4 4 4 4 4 4 < < & % 9 a p x H P.R p a y ",
"a a  .b.G / r.A b p x   & < < < < < < < < &   p p p x H l.R y.S x a ",
"x R z.E c b ~ g.R c G ' m . .           . L W A x n / h.H c R w.H x ",
"/ H.E c a b b E n...F./ ( v.H p y a S y.( A ^ x.E w.E n a p a ~ F.E ",
"/ b.A b b p c n / u.H c c J k.H c H k.~ c A A R l.( c p t b c b ~ h.",
"n ..#.G p x G X.b.H H G x x G N._ F.E n b y b H G.-.H c y p b / c.H ",
"a n / l.H A y.( v.H x n y c x / L.*.A a a y b [ ! Q n.R n b ~ e.H b ",
"c c n E K.M.E b G #.R x S A ( W n R k.R b E O./ c p R u.,./ p.A x p ",
"a x a c R / b p p D d.W G >.Q b p c J a.H >.W b a a c x E m.S b p a "
};
