/* XPM */
static const char *gothic_duck_36[] = {
/* columns rows colors chars-per-pixel */
"36 36 173 2 ",
"   c #020201",
".  c #080101",
"X  c #0C0C0C",
"o  c #120100",
"O  c #1C0000",
"+  c #12100F",
"@  c #0E0F11",
"#  c #120F10",
"$  c #0E1211",
"%  c #141414",
"&  c #1A1617",
"*  c #1A1A16",
"=  c #1D1C1C",
"-  c #240000",
";  c #2C070F",
":  c #28090F",
">  c #250A0F",
",  c #2C0B14",
"<  c #360714",
"1  c #310811",
"2  c #3C0913",
"3  c #1F1F27",
"4  c #231F20",
"5  c #252525",
"6  c #272928",
"7  c #2B2B2C",
"8  c #332D2F",
"9  c #2D342D",
"0  c #2E2E30",
"q  c #312F30",
"w  c #333333",
"e  c #393939",
"r  c #44070F",
"t  c #500000",
"y  c #5C0003",
"u  c #4A0415",
"i  c #450513",
"p  c #510718",
"a  c #570513",
"s  c #640101",
"d  c #6C0100",
"f  c #640C00",
"g  c #740101",
"h  c #7B0101",
"j  c #720808",
"k  c #6D0419",
"l  c #64081F",
"z  c #6F0C1E",
"x  c #78031D",
"c  c #632200",
"v  c #7F2201",
"b  c #702A11",
"n  c #700821",
"m  c #7F1023",
"M  c #72333C",
"N  c #632E40",
"B  c #444444",
"V  c #7D7978",
"C  c #777573",
"Z  c #840101",
"A  c #8B0102",
"S  c #940101",
"D  c #9C0101",
"F  c #9A0308",
"G  c #98090D",
"H  c #8B1C00",
"J  c #801C04",
"K  c #8F0817",
"L  c #82061A",
"P  c #8D011B",
"I  c #9C041A",
"U  c #94011B",
"Y  c #A40101",
"T  c #AB0201",
"R  c #B40202",
"E  c #BB0201",
"W  c #BA0F00",
"Q  c #B30A03",
"!  c #AC1703",
"~  c #B3091E",
"^  c #922102",
"/  c #9A2200",
"(  c #AB2700",
")  c #AE2F00",
"_  c #B22A00",
"`  c #B23000",
"'  c #8F0E24",
"]  c #AE192C",
"[  c #C30302",
"{  c #CB0501",
"}  c #C30B02",
"|  c #CC0A02",
" . c #CA070D",
".. c #D20601",
"X. c #D40B01",
"o. c #DB0B02",
"O. c #CC1300",
"+. c #CC1800",
"@. c #D71202",
"#. c #DB1202",
"$. c #D31E00",
"%. c #DC1A02",
"&. c #E20E02",
"*. c #E41401",
"=. c #E81501",
"-. c #E61903",
";. c #EA1D01",
":. c #E81F0B",
">. c #D62400",
",. c #D82301",
"<. c #DF3200",
"1. c #DE3308",
"2. c #E22203",
"3. c #EC2402",
"4. c #E42800",
"5. c #EA2B03",
"6. c #F32D02",
"7. c #E53700",
"8. c #EB3002",
"9. c #E33C02",
"0. c #EC3C03",
"q. c #ED3C08",
"w. c #F33303",
"e. c #F13E04",
"r. c #F7380C",
"t. c #D4192C",
"y. c #E64004",
"u. c #EF4700",
"i. c #E04F00",
"p. c #EA450F",
"a. c #F34501",
"s. c #F24E00",
"d. c #F24409",
"f. c #FB4606",
"g. c #EE5300",
"h. c #F25501",
"j. c #F85005",
"k. c #F55B02",
"l. c #F95C05",
"z. c #FF5E0E",
"x. c #F3500B",
"c. c #FD5F12",
"v. c #F56302",
"b. c #FA6702",
"n. c #FA6303",
"m. c #F66D01",
"M. c #F96D01",
"N. c #FE6C0A",
"B. c #FC650A",
"V. c #F77200",
"C. c #FB7402",
"Z. c #F67D00",
"A. c #FA7C02",
"S. c #FD720B",
"D. c #FF780F",
"F. c #FF6A10",
"G. c #FF7311",
"H. c #8C3847",
"J. c #A33747",
"K. c #F68400",
"L. c #FD8301",
"P. c #FD8C03",
"I. c #FD8008",
"U. c #FB9102",
"Y. c #FD9901",
"T. c #FD8316",
"R. c #F89D34",
"E. c #858384",
"W. c #B4B0AF",
"Q. c gray66",
"!. c #C1BDBA",
"~. c #D7CBBD",
"^. c #FFF9F0",
/* pixels */
"h Y [ s.S S Z h Z Z E A.R Z h A S { s.[ S Z Z Z S X.K.=.&.D Y d.o.D Z d ",
"R A.o.T Z Z | E T { d.%.b.R Y { n.8.E k.o.D S ..d.k...S g D d D l.P.{ Y ",
"b.z.R Z g h A @.k.N.E h [ b.P.| E A Z R s.;.#.C.{ Y [ S h S Y }  .| | U.",
"D 4...R S Z E w.*.[ A Z E P.{ D Z Z S Y [ Y.l.{ S h D *.Y [ -.X.D g D [ ",
"h R X.b...X.I.{ Y A S T e.X.S A A D A T -.h.[ A A s Z A =.U.#.S g A Z h ",
"T h A [ s.n.[ A D h A { o.b.[ S T T R #.v.T 2.R A Z D { b.} h...Y g Z T ",
"g A Z T A.3.R Z h D %.| D [ C.{ r.  X s.[ Y A E q.{ A.,.R h D { N.| X.n.",
"h D D X.>.7.q.Y A #.E t j Y c 3   7 5 %   y T G d P.*.D h s g S o.v.L.[ ",
"{ Q S.+.T Y X.x.{ D Q ]   O C e w w q % w w - . ' h.5.{ Y h Z S X.k.E A ",
"C.3.O.E g g S -.h.{ k.m ~   w w w w w w w w   t.z [ p.n.{ T Y o.m.{ S h ",
"D V.E A g A h Y e.f.E - K I w w w w w w w w I L O D Z S E L.C.{ D g A D ",
"A :.{ [ Z g D ..C.X.S   a   w w w w w w w w . i   h D g A o.F.D g s S h ",
"E h.[ C.{ Y o.a.[ ;.{ 7 7 w w w w w w w w w w 5 % S g A D k.v.| R A Z A ",
"C.R A R X.P.k.Y     X.B w   7 w w w w w w 7   w 5 E   . v.[ A [ l.<.[ E ",
"Y h h A T V.  8 % % 7.w w Q.  w w w w w w E.  w w w.$ # =   h h E =.U...",
"Y s Q g Y 4   1 %   0.7 w     w w q w w w     w 5 o.  % >   = g S 6.E A ",
"R Z g S & r k % + % f.@ w U P w J R.T.H w L ~ 7   [ * X % k u & { C.S g ",
"P.E Z A D | l < , #   o M H.w v v.N.S.i.b 9 J.N o   % : ; n F R D.=.Z g ",
"E M.E S ..g.  x 2 2       5 5 ` _ f f ( ) 6 5       < 1 k   { b.P.k.R g ",
"Z E c.0.3.{   =.u   V 7     5 % H ^ ^ / % 5     7 e   p 5.  G.E A ..P.[ ",
"A D } =.Y D Z [ . C w w 0 % %   = = = =   X + 7 w w e   h.T E Z s A { L.",
"S &.9.R h h h Z w w w w w X   W.% % X % !.  X w 5 w w 5 T h g g Z g Z [ ",
"| u.T g Z h Z R 7 w 5 w w w w 7 = ^.~.% 5 w w w w 5 w 5 X.D d A Z g o.B.",
"X.X.Z g g s D ..= w   w w w w w         w w w w 7 X 7 = v.[ S Z h R B.O.",
"Y V.[ T g A X.L.  5   7 w w w w w     w w w w w 7   =   } C.o.T o.0.X.S ",
"Y [ P.E D o.L.X.Y * X 7 w w w w w w w w w w w 7 5 X % A h E *.&.Z.X.S g ",
"g A X.a...V.{ D h s   = 5 7 w w e e w w w w 7 5 =   g h s D R A.E A g g ",
"g D D Y.{ X.3.Y A Z s   = 5 5 5 7 7 5 5 5 5 5 =   s g g h [ 7.v.E A g g ",
"S D <.3.D D ..k.R Z Z S W   = = 5 5 4 5 = %   Y Z h s A E M.| E A.[ S g ",
"D =.X.T g h S o.b.{ T X.V.>.T A h s h S D ! 2.A.{ D Y X.Z.E S Z [ A.{ D ",
"| m.D h h h T A { v.S.[ Y { v.R A h S [ k.[ A S X.G.S.o.Y h A g Z T L.{ ",
"o.C.[ S g h g D X.Z.[ A A Y E c.#.[ 8.n.R h d d A { +.D Z g d h Z T w.X.",
"D @.M.R Z g D X.h...S Q D Z Z R %.C.f.[ Z d A Z D =.h.X.T Z h h D *.$.Y ",
"h D { b.{ E ..V.X.8.Y Z S d g T X.L.3.E S s d Y #.6.E X.Z.{ D { -.j.T S ",
"A A S { U.l.;.T D E b.[ Z A [ N...Y [ V.{ A Y ;.o.Y h Z [ A.o.v.X.Y Z h ",
"Z Z Z Z E m.R Z A S T y.%...n.[ Z d Z R 1.$.9.E T g g g A D [ [ A S h h "
};
