/* XPM */
static const char *gothic_duck_31[] = {
/* columns rows colors chars-per-pixel */
"31 31 166 2 ",
"   c #020101",
".  c #0C0000",
"X  c #090806",
"o  c #0B0B0B",
"O  c #140000",
"+  c #1B0000",
"@  c #170B0F",
"#  c #0E0E10",
"$  c #160D10",
"%  c #141314",
"&  c #191917",
"*  c #1C1C1C",
"=  c #230B11",
"-  c #2F0C13",
";  c #3D0613",
":  c #320812",
">  c #201519",
",  c #201E1F",
"<  c #382419",
"1  c #242424",
"2  c #2B2B2B",
"3  c #312B2E",
"4  c #2F2F31",
"5  c #352E35",
"6  c #2D3132",
"7  c #333333",
"8  c #410400",
"9  c #511000",
"0  c #420614",
"q  c #4C0614",
"w  c #550513",
"e  c #580D12",
"r  c #570418",
"t  c #630101",
"y  c #6B0001",
"u  c #65020F",
"i  c #670D0F",
"p  c #740101",
"a  c #7C0101",
"s  c #621004",
"d  c #7B061D",
"f  c #4B443E",
"g  c #464646",
"h  c #4C4741",
"j  c #4F4842",
"k  c #524C44",
"l  c #63594F",
"z  c #615A52",
"x  c #646055",
"c  c #7E7D7B",
"v  c #830101",
"b  c #8C0101",
"n  c #8F0A0B",
"m  c #930101",
"M  c #9B0102",
"N  c #9D0409",
"B  c #8D1C00",
"V  c #8E0718",
"C  c #94071A",
"Z  c #9F0418",
"A  c #A40101",
"S  c #AB0201",
"D  c #A40308",
"F  c #B40201",
"G  c #BC0301",
"H  c #B70803",
"J  c #BE0D00",
"K  c #AA1705",
"L  c #AF061D",
"P  c #A01C17",
"I  c #9C2000",
"U  c #B22513",
"Y  c #C40301",
"T  c #CB0402",
"R  c #C40800",
"E  c #CC0A01",
"W  c #D30502",
"Q  c #DA0703",
"!  c #D40A02",
"~  c #DB0C02",
"^  c #CF1300",
"/  c #CF1800",
"(  c #D51201",
")  c #DD1302",
"_  c #D51900",
"`  c #E31101",
"'  c #E41B03",
"]  c #E91B02",
"[  c #D02000",
"{  c #DB2401",
"}  c #E42504",
"|  c #EC2403",
" . c #E62E00",
".. c #E22A08",
"X. c #F02900",
"o. c #E53100",
"O. c #EB3202",
"+. c #E03C00",
"@. c #E93B00",
"#. c #F43700",
"$. c #F13B03",
"%. c #D91C30",
"&. c #DA4102",
"*. c #E74000",
"=. c #EB4400",
"-. c #E04C02",
";. c #EF4F00",
":. c #F34705",
">. c #F34402",
",. c #F14A00",
"<. c #FB4B00",
"1. c #FF4F0C",
"2. c #EE5E00",
"3. c #F35001",
"4. c #F55401",
"5. c #F35D00",
"6. c #F35F00",
"7. c #F55A03",
"8. c #F95B00",
"9. c #FA5A04",
"0. c #F9550D",
"q. c #FB5908",
"w. c #FF580F",
"e. c #FA5C0A",
"r. c #FD5111",
"t. c #FF5F11",
"y. c #FF5E11",
"u. c #F56100",
"i. c #F56201",
"p. c #FB6401",
"a. c #F66A01",
"s. c #F56D00",
"d. c #F96900",
"f. c #FA6B01",
"g. c #FB6E02",
"h. c #FF620A",
"j. c #FF6E0B",
"k. c #F67200",
"l. c #FC7205",
"z. c #F77A02",
"x. c #FB7E00",
"c. c #FF7309",
"v. c #FF770C",
"b. c #FF7509",
"n. c #FF7C08",
"m. c #EC721F",
"M. c #FF7116",
"N. c #FF7C11",
"B. c #FF7318",
"V. c #F78000",
"C. c #FE8305",
"Z. c #FF870C",
"A. c #FF820A",
"S. c #FF8809",
"D. c #F79500",
"F. c #F89500",
"G. c #FD9D03",
"H. c #FF8E13",
"J. c #FA831B",
"K. c #FF8D2C",
"L. c #FB9A29",
"P. c #858384",
"I. c gray59",
"U. c #C4B7A7",
"Y. c #E5DED6",
"T. c #E5DED8",
/* pixels */
"a G v.F A b a b m E Y b v b F } 5.m a b a E =.! A A M c.G m p ",
"G s.Y m a S G F 7.q.u.T S T 5.Y ~ ~ A M ! f.! m p M v T f.! S ",
"J  .M a a v T x.T v Y f.5.T M a m ) j.A.] M F F a m T 8.F G ^ ",
"b _ 2.F A ! s.T M v ~ O.A a a v v F C.` S y v A ~ ] ` m a b m ",
"m b Y c.Z.~ A b m G p.>.Y v M A S k..._ m b v G E e.T M m p b ",
"m p a ! Q M p b M :.S ~ 8.' Y 7 l.Q b S 4.S ^ g.W m T 4.Y G ! ",
"v S S o.E t.M b ' A   A O g X 7 2   + b   ! E M a y b Y $.G.W ",
"Y T i.S m T u.Y S + L   c 7 7 7 % 7 7 O %.. f.T A a b Y f.W v ",
"Y  .A p v b F j.s.+ Z V 2 7 7 7 7 7 7 C Z . m Y u.T w.| T b b ",
"b N.Y b p a T 5.S m w u 7 7 7 7 7 7 7 u w M v p M ) ! b v N p ",
"Y M.N.! M ! S.! _ P 1 7 7 7 7 7 7 7 7 2 1 n D a b 4.h.Y b a H ",
"C.S b T @.D.S M G   7   7 7 7 7 7 7 7   7   N A } Y S u.q.A F ",
"A a p b !   3 %   * 7 I.  7 7 7 7 7 P.  7     % ,   b M Y l.Q ",
"m y S M     - % ( # 7     7 7 < 7 7   . 7   r.% =   * m F l.b ",
"! v v & q d = $   s 7 3   5 L.l.m.7   6 2 U   @ = d q > t.F a ",
"~ / b m ! 0 r ; % 8 * 7 2 J.K.-.f.s.6 7 *   % : w ; A ] R M m ",
"b ~ ~ ~ g.    ;   7 j X 1 9 B &.I . 1 X f 2   0     p.T ) ) M ",
"b b s.` m N Y   7 7 7 X o & & * * * o X 2 7 g   <.) M y a T b.",
"m ) ~ m p a v 7 7 2 7 7   T.% l % Y.  7 7 2 7 1 F a v m b p Y ",
"[ } m v m y F 2 7 4 7 7 7 2 k U.x 1 7 7 7 % 7 1 ~ v p S b F $.",
"! | a a p A X.* 2 7 7 7 7 7 h z k 7 7 7 7 * 2 & p.~ M a A ,.Y ",
"m *.G v S | *.  * 2 7 7 7 7 7 2 7 7 7 7 7 & &   A ~ ` Q F.T b ",
"a H x.W ! | S v   * 2 7 7 7 7 7 7 7 7 7 1 %   a a v ` l.Y b a ",
"v m ! O.E | M b a e & 1 2 7 7 7 7 7 2 1 & i t p v Y k.' M y p ",
"b F 8.Y m T 4.F p b G   & * * * * * &   A b p b G s.T #.$.A p ",
"S H.) b p b ~ 7.F T l.{ S m p t m M K ) x.F m ! z.F b M ~ ] M ",
"k.T m v p m b ~ G.~ M G i.F p a H O.Y v M 1.z.~ A a m p b ~ u.",
"Y +.F m y v S k.! b S v F { e.{ &.S a p a A V.! b m a a M ) W ",
"v G s.Y b T :.s.Y v M p v M ~ { F p t b m ) E x.~ M m F ~ ] a ",
"m v M ~ 4.' F M ( E M b G f.E F e.T m F ' Y v v T x.! n.G b a ",
"p a a A C.G b a M 0.Y F ;.T M a F l.F ! O.m y b v F B.! m p a "
};
