/* XPM */
static const char *gothic_duck_19[] = {
/* columns rows colors chars-per-pixel */
"19 19 106 2 ",
"   c #020202",
".  c #050608",
"X  c #0C0C0B",
"o  c gray8",
"O  c #1C1012",
"+  c #1C1C1C",
"@  c #3E0204",
"#  c #350711",
"$  c #320812",
"%  c #252525",
"&  c #2B2728",
"*  c gray16",
"=  c #333333",
"-  c #383637",
";  c gray23",
":  c #4E0612",
">  c #560816",
",  c #630102",
"<  c #6C0101",
"1  c #740100",
"2  c #7B0101",
"3  c #721700",
"4  c #7C0216",
"5  c #4E453E",
"6  c #504A4A",
"7  c #535456",
"8  c #5B5A56",
"9  c #830101",
"0  c #8C0102",
"q  c #930101",
"w  c #9B0101",
"e  c #A30101",
"r  c #AC0202",
"t  c #B30202",
"y  c #BB0201",
"u  c #B31C01",
"i  c #A80824",
"p  c #B01429",
"a  c #C40302",
"s  c #CB0501",
"d  c #CE0A01",
"f  c #D00501",
"g  c #D50A02",
"h  c #DA0B02",
"j  c #D10B08",
"k  c #DC0C08",
"l  c #CB1100",
"z  c #D71500",
"x  c #DD1301",
"c  c #E91500",
"v  c #E61A01",
"b  c #EA1D00",
"n  c #E61D09",
"m  c #CD2701",
"M  c #D42300",
"N  c #DB2404",
"B  c #DD2D00",
"V  c #E82300",
"C  c #ED3500",
"Z  c #E43903",
"A  c #E83A00",
"S  c #F03001",
"D  c #F53801",
"F  c #F33C02",
"G  c #F53F00",
"H  c #F03E02",
"J  c #E04C02",
"K  c #F74102",
"L  c #F04600",
"P  c #F04801",
"I  c #E95C02",
"U  c #F05100",
"Y  c #F75002",
"T  c #F55902",
"R  c #F05D00",
"E  c #F55C00",
"W  c #F85802",
"Q  c #F85D01",
"!  c #F95E02",
"~  c #F56300",
"^  c #F66200",
"/  c #F66103",
"(  c #F76103",
")  c #F26700",
"_  c #F26702",
"`  c #F56504",
"'  c #FA6604",
"]  c #F76D00",
"[  c #F96800",
"{  c #F86901",
"}  c #FE6B01",
"|  c #F96D00",
" . c #F96C02",
".. c #F57200",
"X. c #F77500",
"o. c #FB7400",
"O. c #F47900",
"+. c #FB7F01",
"@. c #FA7E02",
"#. c #FC7F00",
"$. c #FF7913",
"%. c #F68600",
"&. c #F98000",
"*. c #FF8F03",
"=. c #FF880B",
"-. c #FC9700",
/* pixels */
"e E 9 e 2 a d 2 y T g 0 w ` r 2 t x 9 ",
"z e 1 w &.y y ^ a 2 s Y b q t q ! r M ",
"2 n f =.w y F r q 9 a W 9 < q *.q 2 < ",
"w 0 -.q 9 x w f v * s r a s h 9 s D +.",
"t X.q Z s y i 7 = = = % p P a 0 q [ w ",
"g e 1 9 K y 4   = = =   4 r q ) d q e ",
"v h f l a d % = = = = = % q 0 N A w 9 ",
"0 < t 3 6 C =   = = =   = s & @ 2 s o.",
"0 e   > X g =   = I = . = d X : + [ 2 ",
"| q r o # + + = ^ J ) = + + $ O t s 1 ",
"0 ^ f f   ; %   + . +   + ;   m w e } ",
"r h 2 2 = = = + . 5 . + = = % 2 1 0 q ",
"! 9 2 e + . = = = 8 = = = . + V 0 r k ",
"9 h q $.e X = = = = - = * . 0 e L v 9 ",
"2 s a z 0 , + % % % % % + , 1 t R q 9 ",
"y h 1 w ^ r ..y 9 , 0 u #.w g j 2 h t ",
"G q q 0 t c 0 y a w U 0 w b a < q 2 +.",
"2 ] r s ' e e 9 a B q 2 q | O.r q M 0 ",
"0 9 h r 2 y y s y 2 F t S 9 9 a %.w e "
};
