/* XPM */
static const char *gothic_floor_13[] = {
/* columns rows colors chars-per-pixel */
"13 13 156 2 ",
"   c #6D0101",
".  c #720000",
"X  c #740000",
"o  c #780001",
"O  c #7B0100",
"+  c #780200",
"@  c #790102",
"#  c #780103",
"$  c #7C0000",
"%  c #7D0000",
"&  c #7E0001",
"*  c #7C0201",
"=  c #810100",
"-  c #830101",
";  c #800301",
":  c #820002",
">  c #830103",
",  c #840000",
"<  c #850100",
"1  c #850001",
"2  c #860000",
"3  c #870100",
"4  c #860200",
"5  c #850003",
"6  c #870102",
"7  c #890101",
"8  c #8A0000",
"9  c #890200",
"0  c #8C0000",
"q  c #8D0100",
"w  c #8C0001",
"e  c #8F0100",
"r  c #8E0205",
"t  c #910000",
"y  c #910100",
"u  c #900200",
"i  c #910002",
"p  c #930102",
"a  c #960001",
"s  c #950002",
"d  c #940202",
"f  c #940205",
"g  c #980201",
"h  c #990002",
"j  c #9D0000",
"k  c #9E0301",
"l  c #9C0305",
"z  c #9A0405",
"x  c #A20000",
"c  c #A10304",
"v  c #A50205",
"b  c #A90101",
"n  c #AB0101",
"m  c #AA0201",
"M  c #AB0302",
"N  c #AD0101",
"B  c #AE0103",
"V  c #AE0202",
"C  c #AF0400",
"Z  c #B10101",
"A  c #B20000",
"S  c #B30101",
"D  c #B00300",
"F  c #B20003",
"G  c #B40200",
"H  c #B80201",
"J  c #B80002",
"K  c #BE0200",
"L  c #BE0203",
"P  c #BD0402",
"I  c #C20000",
"U  c #C00300",
"Y  c #C20300",
"T  c #C20201",
"R  c #C20102",
"E  c #C40300",
"W  c #C00402",
"Q  c #C70400",
"!  c #C70402",
"~  c #C00204",
"^  c #C20404",
"/  c #C80201",
"(  c #CF0302",
")  c #C90400",
"_  c #CB0401",
"`  c #CB0600",
"'  c #CF0801",
"]  c #D00000",
"[  c #D10200",
"{  c #D00300",
"}  c #D20200",
"|  c #D30300",
" . c #D00003",
".. c #D10303",
"X. c #D40203",
"o. c #D00501",
"O. c #D20502",
"+. c #D40400",
"@. c #D50400",
"#. c #DA0402",
"$. c #DA0404",
"%. c #D50B00",
"&. c #DA0902",
"*. c #DE0B00",
"=. c #DE0B02",
"-. c #DF0C00",
";. c #DC0804",
":. c #E20401",
">. c #E50702",
",. c #E30A00",
"<. c #E20902",
"1. c #E40A00",
"2. c #E40903",
"3. c #E50D00",
"4. c #E50D02",
"5. c #E70E07",
"6. c #EB0B00",
"7. c #EC0E01",
"8. c #E61101",
"9. c #EF1200",
"0. c #EF1305",
"q. c #E71900",
"w. c #F21503",
"e. c #F21B00",
"r. c #F11902",
"t. c #F21F01",
"y. c #F21208",
"u. c #E12100",
"i. c #F22900",
"p. c #F72904",
"a. c #EB3300",
"s. c #EE3700",
"d. c #ED3D00",
"f. c #F63700",
"g. c #F33B05",
"h. c #F83B03",
"j. c #F74500",
"k. c #F74600",
"l. c #FF4406",
"z. c #FA4A01",
"x. c #FF4E08",
"c. c #F55100",
"v. c #F95500",
"b. c #FA5400",
"n. c #F95204",
"m. c #FD5204",
"M. c #F95900",
"N. c #FA5B00",
"B. c #FD5D00",
"V. c #FF5917",
"C. c #F86404",
"Z. c #FD6406",
"A. c #FF600B",
"S. c #FF7103",
"D. c #F67A00",
"F. c #F88300",
/* pixels */
"v.< Y ] M.H ' ] ( e.O ] #.",
"` Y ,.7 ] z < ] H r W m = ",
"< ] < Y 7 6.Z.N 4.q.< l.! ",
"z.= N Y A 4.` O L A 9.w.f ",
"k.%.v.&.A G Y k.X.* 7.:.= ",
"  < C./ P m A w y S.* * 0.",
"-.y A.C @.N g.L E h u.x.a ",
"a ` y x B.j O *.f.* D.. ~ ",
">.= m ] O h d.< < F.,.X 1.",
"v @./ h V.] * p.i.O 7 s.< ",
"O.c *.l a.X = Y t.w n.m O.",
"M.< w ;.< $.8.a O m.w < y.",
"y 5.A 1.j h.m ^ e.y ! c.= "
};
