/* XPM */
static const char *gothic_floor_19[] = {
/* columns rows colors chars-per-pixel */
"19 19 97 2 ",
"   c #6C0101",
".  c #740101",
"X  c #7C0101",
"o  c #840101",
"O  c #8B0102",
"+  c #930101",
"@  c #9C0101",
"#  c #A30201",
"$  c #AB0201",
"%  c #B30102",
"&  c #BD0201",
"*  c #C40301",
"=  c #CA0302",
"-  c #CF0803",
";  c #D30401",
":  c #DB0601",
">  c #D60903",
",  c #DD0A01",
"<  c #D51000",
"1  c #E00603",
"2  c #E50C01",
"3  c #EB0E04",
"4  c #F10E00",
"5  c #E41200",
"6  c #ED1301",
"7  c #ED1A00",
"8  c #F21407",
"9  c #F31D01",
"0  c #F91B04",
"q  c #F0100E",
"w  c #DD2300",
"e  c #EF2500",
"r  c #ED2D00",
"t  c #F82601",
"y  c #F32C02",
"u  c #F52800",
"i  c #E43600",
"p  c #F73500",
"a  c #F83400",
"s  c #F93702",
"d  c #F23A00",
"f  c #F63C00",
"g  c #F33B05",
"h  c #FE3D02",
"j  c #F34604",
"k  c #F64404",
"l  c #FE4205",
"z  c #FB4506",
"x  c #FC4303",
"c  c #F34B00",
"v  c #F64F00",
"b  c #F94C00",
"n  c #FD4D01",
"m  c #FA5400",
"M  c #FC5700",
"N  c #F95000",
"B  c #F65D00",
"V  c #F85900",
"C  c #FA5901",
"Z  c #FB5A00",
"A  c #FA5B00",
"S  c #FC5B01",
"D  c #F95F00",
"F  c #FC5E00",
"G  c #FC5F00",
"H  c #FD5F00",
"J  c #FC5A05",
"K  c #FC5B01",
"L  c #FF570B",
"P  c #FF5414",
"I  c #FC6701",
"U  c #FF6200",
"Y  c #F36B00",
"T  c #F96800",
"R  c #F96D00",
"E  c #FF610B",
"W  c #F67000",
"Q  c #F97000",
"!  c #FC7502",
"~  c #FE7702",
"^  c #FD7304",
"/  c #FF7604",
"(  c #F97000",
")  c #FF7E05",
"_  c #FF720F",
"`  c #FF740F",
"'  c #FF780C",
"]  c #FF780D",
"[  c #FF7C0C",
"{  c #FF6A10",
"}  c #FF7B18",
"|  c #FB8603",
" . c #FF8005",
".. c #F88A00",
"X. c #FE8D00",
"o. c #F79400",
"O. c #F99300",
/* pixels */
"= 6 @ # X * 1 o $ S 1 o @ t ; O & 3 O ",
"M @ . + R % & < ; o : 8 v $ # O 5 % D ",
"X 1 , | + O 3 & X o 2 s O X + ..% X   ",
"+ O _ @ O 5 O u = B * O q = 0 + = 4 2 ",
"# ~ + j = O X & : = @ X X p ; O + 9 % ",
"y $ . X { l 2 T O # & o , $ $ W L % . ",
"* ] # & = O # , O # I [ * X O z ; @ X ",
"$ . - C X @ G % 6 ; O X : * G + O 9 G ",
"@ o @ & w / +   ; : o = @ ~ 3 o o 9 $ ",
" .@ # J o , = @ ; g d . * * @ * : , X ",
"X h ; # + O - 3 # X $ O.= O o E $ # C ",
"# Q X X $ o.& ; % $ ~ @ * & = @ o o # ",
"X.+ X @ ) + . X = i o . O 5 > ; o # C ",
"@ ^ @ } o f * : 1 @ b # ] $ X & s 7 O ",
"# & ; - o . : = # . + 9 $ . . : C + o ",
": , . @ P & Y ; X X = c m $ 6 $ + - ; ",
"S # . o = , o = > = : o o 2 =   # O Q ",
"X , & x k # o X = e # O # U * = # n @ ",
"+ X ` + X ; & > : o N & G O O & r + O "
};
