/* XPM */
static const char *gothic_duck_127[] = {
/* columns rows colors chars-per-pixel */
"127 127 256 2 ",
"   c #020101",
".  c #0B0101",
"X  c #0C0C0C",
"o  c #070608",
"O  c #130001",
"+  c #1B0101",
"@  c #160A0B",
"#  c #12110E",
"$  c #120F10",
"%  c #1D0C10",
"&  c #141313",
"*  c #1A1415",
"=  c #1B1B1B",
"-  c #191717",
";  c #0E0E0F",
":  c #240002",
">  c #22040B",
",  c #280609",
"<  c #3A0100",
"1  c #370406",
"2  c #230C11",
"3  c #2C0A12",
"4  c #2F0710",
"5  c #3C0613",
"6  c #330913",
"7  c #3A0813",
"8  c #231417",
"9  c #2F1000",
"0  c #24241E",
"q  c #1E1E22",
"w  c #201F22",
"e  c #242424",
"r  c #262628",
"t  c #2C2C2C",
"y  c #292928",
"u  c #312D2E",
"i  c #392B29",
"p  c #2E3232",
"a  c #333333",
"s  c #3B3A3A",
"d  c #393536",
"f  c #2F302E",
"g  c #440101",
"h  c #4A0000",
"j  c #47050C",
"k  c #570506",
"l  c #450613",
"z  c #4B0514",
"x  c #450915",
"c  c #4A0915",
"v  c #540514",
"b  c #5B0414",
"n  c #560917",
"m  c #511404",
"M  c #650101",
"N  c #6C0101",
"B  c #660A04",
"V  c #740101",
"C  c #7C0101",
"Z  c #760C05",
"A  c #691202",
"S  c #7C1201",
"D  c #761703",
"F  c #620414",
"G  c #64061A",
"H  c #690618",
"J  c #76051A",
"K  c #761117",
"L  c #532718",
"P  c #632408",
"I  c #463939",
"U  c #4B2D2D",
"Y  c #741E30",
"T  c #49423C",
"R  c #653941",
"E  c #434343",
"W  c #4C4A49",
"Q  c #544A49",
"!  c #565655",
"~  c #564F50",
"^  c #635554",
"/  c #64615C",
"(  c #6C6863",
")  c #7B7876",
"_  c #716A67",
"`  c #840101",
"'  c #8B0101",
"]  c #87090C",
"[  c #930101",
"{  c #9B0101",
"}  c #990806",
"|  c #851B02",
" . c #931E01",
".. c #9A1502",
"X. c #880417",
"o. c #970317",
"O. c #931A16",
"+. c #A40101",
"@. c #AC0101",
"#. c #A50A0C",
"$. c #B30202",
"%. c #BC0201",
"&. c #BC0902",
"*. c #B50508",
"=. c #A91801",
"-. c #B91700",
";. c #A60719",
":. c #B7081D",
">. c #BC1711",
",. c #882309",
"<. c #982304",
"1. c #822A12",
"2. c #AA2C04",
"3. c #B02F04",
"4. c #8B0821",
"5. c #B30D24",
"6. c #B62C29",
"7. c #C40301",
"8. c #CB0401",
"9. c #C40A02",
"0. c #CC0A01",
"q. c #C70709",
"w. c #D20601",
"e. c #DA0602",
"r. c #D40A02",
"t. c #DB0C02",
"y. c #D40909",
"u. c #CB1400",
"i. c #CB1B00",
"p. c #C51503",
"a. c #D41301",
"s. c #DC1302",
"d. c #D41B01",
"f. c #DC1C01",
"g. c #DA150A",
"h. c #CC1219",
"j. c #E20E02",
"k. c #E20908",
"l. c #E31402",
"z. c #E91502",
"x. c #E41B02",
"c. c #EA1B02",
"v. c #E6180A",
"b. c #C92300",
"n. c #D42300",
"m. c #DB2301",
"M. c #DC2B00",
"N. c #D62902",
"B. c #C93B03",
"V. c #DC3201",
"C. c #D73C00",
"Z. c #C82713",
"A. c #E32401",
"S. c #EB2302",
"D. c #E32B01",
"F. c #EB2C01",
"G. c #EB2509",
"H. c #E42609",
"J. c #F22C01",
"K. c #F02502",
"L. c #E43301",
"P. c #EC3402",
"I. c #E53A01",
"U. c #EB3C01",
"Y. c #EC380B",
"T. c #F23302",
"R. c #F23C02",
"E. c #F2350A",
"W. c #F53C0C",
"Q. c #ED2E12",
"!. c #DB1628",
"~. c #E21A2E",
"^. c #E52739",
"/. c #DB2230",
"(. c #DB4703",
"). c #CC5410",
"_. c #E54200",
"`. c #EC4301",
"'. c #ED4B00",
"]. c #E74907",
"[. c #F34302",
"{. c #F34B02",
"}. c #F44C0B",
"|. c #FB4C0B",
" X c #F74607",
".X c #EC5301",
"XX c #ED5A01",
"oX c #E75605",
"OX c #F45401",
"+X c #F95403",
"@X c #F45C01",
"#X c #FA5C02",
"$X c #FC540C",
"%X c #FC5B0B",
"&X c #F5570B",
"*X c #F94A13",
"=X c #FD5C12",
"-X c #FB5512",
";X c #E54910",
":X c #EF6602",
">X c #F56301",
",X c #FA6403",
"<X c #F56B01",
"1X c #FB6B03",
"2X c #FE640C",
"3X c #FE6C0B",
"4X c #F4660B",
"5X c #F57301",
"6X c #FB7302",
"7X c #F67B00",
"8X c #FB7C02",
"9X c #FE730B",
"0X c #FE7C0A",
"qX c #F3750C",
"wX c #FE6313",
"eX c #FF6B12",
"rX c #FF681A",
"tX c #FF7312",
"yX c #FF7B13",
"uX c #FA7A18",
"iX c #EE6F05",
"pX c #B03A4B",
"aX c #873B48",
"sX c #C03D4D",
"dX c #847C76",
"fX c #83776B",
"gX c #BD5319",
"hX c #F68100",
"jX c #FB8302",
"kX c #F68B00",
"lX c #FC8B02",
"zX c #FF820B",
"xX c #FF8C0B",
"cX c #F5870E",
"vX c #FD9303",
"bX c #FD9A03",
"nX c #FF930B",
"mX c #FD8717",
"MX c #FA8E0C",
"NX c #FA902B",
"BX c #FFA33A",
"VX c #928478",
"CX c #FD9146",
"ZX c #928E8B",
"AX c #A99D90",
"SX c #B7AA9D",
"DX c #ACA59D",
"FX c #BDB2A6",
"GX c #B1ABA6",
"HX c #C5B9A9",
"JX c #CABEB2",
"KX c #CFC4BA",
"LX c #D7D0CA",
"PX c #FAF9F9",
"IX c #F0EBE6",
"UX c #E3DBD0",
/* pixels */
"C C ` ' [ +.@.%.7.s.s.1XOX%.%.+.[ { [ [ ` ` ` ` C C C C ' [ ` V ` ` [ $.7.z.z.3X8X8Xw.w.%.%.+.' ' C V C ` C ` ` [ ' { +.@.8.0.s.F.{.>X>X7.%.$.[ [ ` ` ` C C ` ' ` ` ` C ' ' { +.$.0.t.J.jXlX'.T.z.%.%.j.j.@.+.' { @.7.@.8.8.R.R.1X<Xk.t.7.{ [ [ ` C C C V V C ",
"C C ` ` [ +.@.%.7.s.s.,XOX$.%.+.[ { [ [ ` ` ` ` C C C C C ` ` V C ` [ $.%.z.z.eX7X0Xw.0.+.+.[ ' ' V V C C C ` ' ' ' [ +.@.8.0.t.F.{.@X@X7.%.$.[ [ V V ` C V ` ` ` ` ` C ' ' [ +.%.w.t.J.jXjX'.T.z.%.%.j.j.+.{ ' { @.%.+.8.0.U.U.,X>Xt.e.%.{ { ' C C C C V V C ",
"' ' } +.7.8.y.9.9.3X<X8.7.$.+.` ` ` @.%.$.+.{ { [ [ ` ` C C ` ' ` ' @.$.$.s.s.uXjXjXg.7.%.$.+.[ [ V C ` [ ` [ [ +.+.7.0.r.=X}.OX@XXX@X>XE.w.r.$.%.{ [ ` ` C C C ' ' { [ +.+.&.8.t.d.}.8X>X_.t.w.7.{ { ' ` C C C ` ` ` ' [ [ %.%.OXOX=X-Xs.8.8.@.{ [ ` ' ` C ` ",
"' ' { +.7.0.l.lXlX@X@X7.7.$.+.` C ` +.%.$.$.@.+.[ [ ' ' C C ` ' { +.$.%.7.l.l.tXjXjXs.0.%.$.+.[ [ C ` C [ [ +.@.%.%.7.w.w.>X>X@XOX+X#X#X Xr.r.$.%.[ [ ' ' V V C [ [ { { $.7.0.0.t.m.,XvX#XJ.r.7.8.{ { ` ` C C C C C ' ' { [ %.%.OXOX<X1Xl.8.7.@.@.{ C ` ` C ` ",
"[ [ *.0.Y.I.`.vXnX7.q.$.$.[ ' ' C V ` { %.w.r.@.' [ [ { ` C ' [ { @.%.7.0.,X,X0XzX0X<X1Xw.t.0.+.@.` ` ' +.+.&.7.0.0.9.d.u.eX3X&.%.9.r.r.9XvXvX0.7.{ +.' ' C ` ` @.@.%.7.7.7.0.0.}.@XlX0.0.0.%.+.' ` ` V V C C ' ' ' C C ` ` { +.w.8.8X8X,Xi.p.%.7.$.+.{ ` [ +.",
"$.$.0.y.tX8X1Xj.j.7.7.@.@.[ ' ' C V C ` +.$.7.v.x.v.%.%.+.+.$.%.y.0.OXOXOX,X,Xl.s.F.,X>Xr.t.8.%.$.[ { +.7.7.0.w.c.x.>X@X@XF.E.7.%.%.t.r.OXvXvXt.t.7.7.{ { [ [ [ @.@.r.w.w.t.$X+X<X1X@X0.r.w.%.{ { ` ` V V V V { { ' V N C C +.{ 0.y.#X@X1XjXlXT.w.8.7.7.@.+.+.",
"0.y.E.P.zXlXY.w.t.7.$.` ` ` ' ` C V C ' ' { +.H.H.g.7.&.@.%.7.7.r.r.5X6X-X;X;Xd.g.n.}.wXXXXX9.w.t.+.$.0.t.0.$X@XOX@X}.]. Xp.9.&.%.*.r.t.0.{..Xj.j.7.7.@.@.[ +.+.7.%.0.t.{.,X9X9XeX%X%X0.w.$.@.[ ' ` C V C ` V ` ` ` C ` [ { @.$.i.f.mXjX=XuXuX+XU.(.].7.%.7.8.",
"r.t.|.+X6X<X8.8.7.+.[ C ` V V C C C C C C [ { $.7.7.[.R.0.0.t.f.A.A.8X8Xt.%.%.@.[ $.9.t.jXjXd.t.t.%.8.w.t.c.%X@X#XXXs.q.8.$.@.[ ' [ $.%.0. X}.1X1Xz.z.8.7.@.%.%.j.s.P.P.@X4X{.[.w.7.r.T.r.+.+.` ' V V ` ` ` V C C ` ` ` +.+.%.%.-X{.>X>Xt.r.w.[.{.lX0Xw.w.w.t.",
"%X<XjXjX.XI.8.8.{ ' [ C C N N V C ` N V V ` ' @.$.%.W.W.0.&.t.N.<X1X9.&.0.%.%.+.' @.q.t.yXhXV.w.w.&.%.0.L.OXN.r.7.9.7.8.7.@.@.[ ' [ $.@.0.E.|.,X,Xs.f.w.r.t.g.s.t.t.6X8Xd.0.0.7.w.7.t.T.t.@.+.` ` V V ` ` C N C C C ' ' +.@.%.&.%X@X=X%Xr.w.w.*X|.mX9X,XyXmXxX",
"2X<XlXhX<X,Xt.e.8.$.+.[ ' C C N V C ` V V C ` { +.@.s.d.1X5XhXjX>XeX8.7.$.{ { { C ` q.%.P.L.3X1X1X{..XlX6XOXm.w.8.8.%.{ +.' ` C C ` { [ @.0.8.s.s.5X1XS.S.r.s.t.XXXXtX9Xa.r.7.8.{ { [ w.r.8.8.@.{ ' ` ` C C ` ' { [ @.@.7.7.@X@XOX+X8.8.@.{ { 7.%.w.r.,X8XvXvX",
"9.9.g.l.5X5Xx.w.%.@.+.[ [ ' C C V ` ` ` ` ` ` @.+.9.7.9.<X5X8XyXj.t.7.q.{ [ ' V [ [ $.7.l.l.3X1X1X8X0X@Xm.0.8.7.$.@.[ ' ' V V V C C [ { @.8.0.t.l.<X1X1X6X7X8XjX6X8Xc.c.w.e.@.@.[ [ [ +.@.r.l.%.%.{ [ ` C ' ' ' [ +.%.$.8.7.@X@X$X$X8.8.@.{ { %.%.0.8.0.r.{.OX",
"7.7.7.7.J.F.hXhXc.w.7.$.$.{ { [ [ ' ` ' [ +.@.7.8.w.F.U.kXxXl.l.8.7.{ [ ` ` V ' ` @.{ @.0.0.r.kXlXP.E.w.7.%.@.+.[ [ ` C V ` ` ` [ [ ` ` { +.@.7.7.c.c.bXbX<X<X<Xs.d.7.0.@.+.[ [ C C C ' ' { 7.l.l.7.%.+.+.' [ @.7.8.s.s.1X5X#Xr.%.%.+.{ ' C V ' ' +.@.7.7.7.8.",
"+.+.$.7.G.F.lXlXc.w.7.%.$.+.+.[ { { ` ' [ @.$.0.0.w.T._.kXxXl.l.%.%.[ { ' C V ' ` [ { @.0.0.r.kXlXJ.G.0.8.$.[ [ [ [ ' V V ` C ` [ ' ` ` +.+.+.&.&.c.c.bXbXXX@X%Xt.j.7.0.@.{ [ [ C V C ' ' { %.l.l.7.7.+.+.{ { @.8.8.j.v.1X5X@Xr.%.$.{ { ' V V ' ` [ +.$.%.7.0.",
"[ [ { $.0.w.{.+XkX7X@Xw.t.0.%.%.{ [ { @.7.t.t.m.>X8X:X,Xl.t.8.9.%.7.{ [ ` C C ' +.$.&.t.W.U.3XF.F.0.0.@.+.+.' ` [ [ V C ` } [ C V ` ` ` { +.{ $.$.z.l.jXjXs.j.l.7.7.{ @.[ ` V V M N N C C C ' { +.r.r.t.s.%.7.w.z.A.hX8XS.x.$.$.{ [ ` ` C C C ' ' ' ` ` [ { { ",
"` ` ' ' [ @.7.0.`.8X#Xr.t.8.%.%.%.$.*.@.7.t.t.m.>X0X1X,Xs.t.8.9.@.$.@.*.' ` C C +.$.8.r.%X>X6XF.S.8.7.@.+.+.' C [ [ V C C { [ ` V C C ` { +.+.%.%.z.z.jX8Xa.l.l.7.7.@.@.[ ' C V M M N C C C ' [ +.r.t.s.t.7.7.0.c.m.jXhXs.x.$.$.{ [ C V C V V ` ' ' C C ' { +.",
"V V ' [ [ $.7.8.w.c.T.<X<X%Xt.t.w.w.w.w.x.lXhX9XU.0.7.8.7.$.{ [ ` ' @.@.[ ` ` [ @.0.0.R.lXlXi.r.t.+.+.[ C C ' ' C [ ` V V @.+.' ` ` @.@.@.7.7.c.x.>X@XOXOXa.7.&.{ { ' ` V V ' ' N N V ` ` C C C ' +.@.z.z.[.1XhXvXlXs.j.%.%.{ ' ` C V V V ` ` C ' ` N N C C ' ",
"N V C ' [ @.7.7.8.x.T.1X1X,XD.M.0.0.w.w.m.lXjX9XU.8.8.8.7.$.{ [ ' ' @.$.+.[ [ { @.w.8.R.jXkXi.w.w.+.+.' C V ' ' V [ [ C V { [ C ' ` $.$.@.7.7.x.x.>X>X@XOXs.7.q.+.@.` ` V N ' ' V N N C C ` ` ` ' +.@.z.z.R.1XjXvXvXl.l.w.%.' [ C C V V V [ [ ` ' ` N N V C [ ",
"` V V C C ' [ ' { %.%.0.w.P.8XzX@X#XP.L.jXd.t.0.%.7.+.+.[ [ C C C C [ { @.@.@.7.&.@XxX@X@X#X'.[.U.0.7.+.' ` C C ` ` ` { +.` ` +.+.@.{ @.7.j.s.6X6XF.F.G.R.R.U.R.$.$.+.{ ' C [ { C ` [ ` C C ' +.@.%.%.y.y.<X1X&X@X@XS.c.&.7.@.@.[ [ ` ' ' ' [ ` ' ' V C ` [ $.",
"[ { ' C C ' [ [ +.$.7.0.w.L.9X9X1X6XzX5XhXu.t.8.7.7.+.+.[ [ ' ' C C [ [ @.@.$.7.7.@XnX#X%X#X{.[.{.7.7.7.{ @.' C ` [ ` { +.' ' +.+.+.@.+.7.t.s.5X5XD.S.H.Y.Y. XR.$.$.+.+.` ` V V [ ' { [ ` C [ *.%.%.7.w.0.<X>X+X%X#X{.#X7.7.%.7.{ @.[ [ [ V V V V C [ ` [ { %.",
"' +.{ [ C C [ C C [ [ 7.7.w.j.v.vXvX>X1Xs.0.7.*.{ { ' ` [ [ +.+.C C ` ` ' $.$.r.w.,X4Xt.r.0.W.1X>Xt.t.7.$.@.{ [ { %.@.{ { $.$.$.7.@.0.w.t..X{.>X>X7.8.$.@.@.m.A.P.A.$.$.@.+.' ` C ` ` ' +.{ $.%.7. X[.>X<Xz.0.%.7.7.#XOX@X#X0.0.7.7.+.+.[ V V N V ` ' [ { $.8.",
"` +.{ [ C ` ' C C ' ' [ { w.t.g.vXvX|. Xl.9.{ ' ' ` C V C C +.@.C C ' ' +.$.$.w.r.2XrXw.w.w.0.3X1Xd.f.7.%.@.@.%.@.{ +.{ [ $...      8.w.r.@X>X,X,X7.7.@.@.@.a.f.f.D.%.$.@.+.$.$.C ` ` [ $.%.%.7.7.[.`.3X,Xs.0.%.7.q.&.7.@X@X0.0.8.7.7.q.@.' [ ` C ` +.@.@.$.8.",
"V ` @.@.@.C V M N C C [ [ $.7.7.5XhXl.t.7.@.[ ' ` ` N N V V ' ' ` C { +.$.0.0.OXOXw.w.%.+.$.0.z.x.8X6X[.F.K.x.s.r.7.$.7.7.. . s =   OX@X8X2X,Xw.w.$.$.[ ' ' +.+.7.F.{.+Xd.w.7.%.+.+.+.%.y.0.W.OX1XR.T.y.8.$.@.' { { @.$.x.x.,X,XA.S.8.8.%.@.@.[ [ +.%.7.7.{.OX",
"V ` *.%.*.V C N N C C [ [ %.t.a.lXjXw.l.$.{ { ' ` C V ` ` C ' ` ` ` { { %.0.r.@X@Xw.8.@.+.+.q.l.s.9X8X#XP.S.c.x.w.8.$.7.9..   a e   XX>X0Xz.x.w.w.@.@.[ ' { @.@.$.$.{.{.A.t.7.&.$.$.q.8.u.p.`.+X1Xd.d.y.0.@.@.' [ [ $.$.q.w.,X2X'.@X0.8.q.7.%.+.$.$.%.8.w.6X7X",
"C V [ { +.' C V C ' ' @.@.0.s.M.vXvXF.G.0.%.$.[ [ C ` ` V N ' ` { { %.%.s.R.U.z.l.%.$.{ ' ` { %.7.r.7.6X&Xr.7.%.l.x.R.O   a s r a d   . [.w.0.%.%.+.@.{ @.` ' ' +.+.%.%.P.{.OXOX0.7.8.x.hXhXL.t.t.%.7.@.+.' ' ` C C [ [ @.$.8.8.OXOX6X5XT.w.w.0.8.t.s.8X7X[.R.",
"V V ` [ } [ C V ` [ ' $.$.w.l.L.nXxXP.G.w.7.%.{ { C ` ` N V ' ' { { %.7.s.W.Y.s.z.%.%.{ ` ` { %.7.w.9.9X&X0.7.%.u.m.}.+   a a r a a   O '.q.9.$.%.@.+.[ +.' ' ` +.+.%.8.Y.|.#X+X}.N.b.D.lXhXP.l.t.%.%.@.+.` ` C C C ' [ @.@.8.8.=X%X5X5XP.r.w.0.8.w.u.7X8X[. X",
"C C V V C { $.[ ' @.@.0.r.@XhX>X{.{.@X1X>Xe.0.%.%.{ +.+.` ` ' ' %.8.x.x.$.+.+.@.@.. . . ' +.' +.+.7.&.OX,X1X          t a t t a t t =             7.7.@.+.[ { { ' ` +.. . . t.w.@X<XjXxXOXz.8.0.$.[ [ ' ` V V N M N C C ' ' { { 7.7.t.l.@X@X>XbXbXjX0X[.8.7.8.",
"` ` C V ` { $.[ ' @.@.w.r.9X+XI.d.m.L._.>XY.P.r.e.0.+.+.{ +.' ' g.s.x.a.%.+.+.N k k :   ' [ ' +.@.7.%.P P P q r r r   e a t t a r e   o - e =   o B N M +.+.@.@.` ` @.  . x V V a.C.vXXXD.l.7.%.{ ' ' C C V C N M N C V ' ' [ [ %.7.r.t.$X%X@XnXbX8X9XW.0.7.7.",
"} { ` V V ` %.@.%.r.r.P.E.xXS.0.7.7.w.8.t.<X<X0.w.0.%.%.[ [ { $.s.t.{ { ' [ [ . . ;.g   { @.@.y.r.P.R.    . I W W E   e t a a a = =   X a r     X   .   @.+.{ { { [ +.  < o.. O r.M.<XN.t.t.+.{ [ { +.` ' N M N C C ' [ V N ` ' [ [ q.8.l.s.7X8X[.w.8.8.%.[ [ ",
"%.%.@.[ C { +.@.q.l.s.>X@X`.w.7.$.$.$.%.7.Y.|.3X1XrX7.7.7.%.8.0.c.$.[ [ [ { +.  n ^.b     ' @.7.7.    E ) ) ! ~ u a a - - t a a - - t a r     a t t t - .   @.@.$.]     v :.z   w.n.<XL.z.7.%.+.{ ' ' ` ` V V N V C [ { N N ` ` [ [ @.7.t.t.5X5Xj.e.0.@.[ ' ' ",
"%.7.{ [ ` { %.7.7.r.s.,X>X`.w.8.@.' @.%.%.j.l.tX<XeX0.8.7.$.w.w.u.%.[ [ ' @.$.  n ^.j .   ] +.8.8.    E ) dX! ~ a a a = - a a a - - a t r     a a t t - o   %.7.@.K     F :.n   a.V.0XD.s.7.7.$.@.[ ' ` ` V V V C V C ` C C ` ` { +.%.%.j.w.6X6Xk.w.0.+.[ ' [ ",
"8.7.%.%.@.7.w.w.A.6X@Xt.w.7.@.{ ' ' [ +.%.w.0.-XXX@X>X@Xs.l.7.7.{ [ @.@.7.0.8.  j ;.^.;.  O.f.  . ~ W ) E s a a a a a a a a a a a a r e X a a a a a a a e q o   f.2.  5./.;.n   OX+X[.1X<X[.t.8.8.@.$.{ @.{ { [ C C V C [ ' { +.7.7.w.t.1X6X`.t.0.%.[ [ ' C C ",
"&.9.$.$.$.7.y.w.F.<XXXw.r.7.@.{ ' ` V C ` @.$.7.8.&.>X,Xs.d.&.7.{ { @.@.7.w.r.  l :.^.;.o + + o   ~ ! ) E a a a a a a a a a a a a a t = r a a a a a a a r e   o h m . :.^.;.v   +XY.7.rXwXOXM.0.8.@.@.+.+.[ [ [ C C V C ' [ +.+.7.7.w.r.<X1X[.w.w.$.[ [ ` C C ",
"2X5XA.S.r.S.6X6X6Xl.w.7.$.[ ' ` ` C C C ` { { %.7.7.c.D.jXjX{.J.w.w.c.c.%XY.R.  j o.:.~.J n   t a I E a a a a a a a a a a a a a a a a a a a a a a a a a t t e w   l X.!.o.X.j . s.a.%.t.t.{.{.,X,Xs.l.7.7.%.$.{ @.{ { { 7.7.0.t.#X2X1X1X[.0.y.7.{ ' ` C C C ` ",
"2X6Xm.A.t.S.8X8X5Xs.8.7.%.[ ' C V V V C ` [ [ $.%.7.c.A.zXzXOXP.t.0.c.c.#X_._.  l X.5.^.X.v .     E E a a a a a a a a a a a a a a a a a a a a a a a a a t u .   . v X.~.o.X.l   v.s.7.0.a.;X X,X,Xa.s.8.8.%.+.{ +.+.[ +.q.7.r.t.,X,X5X<X X0.0.%.{ [ C V V C ` ",
"0.w.<X>XxXlXx.s.r.7.+.[ [ C V C C ` ` C V ' ' [ ' { $.$.t.r.'.lXXXOX<X1Xl.7.%.  4 H ;.o.!.!.o.n b     f a a a a a a a a a a a a a a a a a a a a a a a a     F G o.!.!.o.X.H 5   @.@.[ { { @.$.7.7.}.{.@X@XY.9.0.8.7.7.q.W.{.4X<XD.G.0.8.8.$.$.[ [ ` ' ' C ` C ",
"7.8.,X>XlXxXl.j.0.%.+.' ' C V V ` ' ` C V ` ' [ ' [ $.%.r.t.'.lX>X@X1X,Xl.7.8.  4 b J X.!.!.o.J F     f a a a a a a a a a a a a a a a a a a a a a a a a     H H ;.!.h.X.F b 1   $.@.' [ [ $.@.7.q.[.{.,X>XR.a.a.7.7.7.9.=X1X8X1XA.S.7.8.7.@.@.[ [ V [ [ { [ ` ",
"$.%.w.w.5X5Xx.l.0.{ ' C C C V V C ` { ' C V V ` ' [ +.+.7.F.2XvXXX{.0.7.%.+.' . : j H J ;.o.h.o.o.    f a a a a a a a a a a a a a a a a a a a a a a a a     o.X.h.o.o.J v v O . +.$.@.` C ` C [ { @.@.%.%.a.#X@XjXjX].[.9XxX[.s.7.7.$.%.@.C C ` ` V ' +.&.{ ` ",
"{ { w.y.<X1XH.S.0.@.+.' ' C V V M N ` C N N N { @.@.+.+.r.G.9XlXN.l.0.8.%.{ { $.:   b b X.o.X.J J     a a a a a a a a a a a a a a a a a a a a a a a a a     J X.X.o.J b v   < %.+.{ ' V V ` ` [ [ +.+.%.%.s.#X@XlXjX>X<X{.{.8.7.%.@.[ { [ V N C C ' C C [ ' C ",
"{ { 8.0.1X1XA.f.0.$.@.' [ ` C V N V ` C N N N ' ` ' +.@.r.t.eXlXn.l.7.%.{ [ { $.:   v v b k b J H .   a a a a a a a a a a a a a a a a a a a a a a a a a     F H X.F b v b . < %.+.+.' V N ` ` ' ' { { $.%.7.7.7.|.}.8X8X{.+X7.7.$.+.' [ ' V V V C [ ` C C C C ",
"' ' @.$.S.S.jXlXs.7.7.+.+.[ [ ' ` C V C C ' ' +.+.%.0.0.F.2XlXOX9.w.@.+.[ ' ' { o.  . l b b F O   t t a a a a a a a a a a a a a a a a a a a a a a a a a t t   . F b v j . . ] +.@.@.C [ [ +.` N V ' ` ' ' { %.7.l.r.@X1Xr.w.{ { ' ' C ` ' V N V ` [ q.@.` V V ",
"' ' @.$.c.A.lXkXs.7.8.%.$.[ [ ' ` C N V ` ' ' @.+.%.0.w.F.3XlXOXa.r.@.$.[ ' '       . l b v F . . t t a a a a a a a a a a a a a a a a a a a a a a a a a t f   . b b v j .   .   $.@.V { [ { ` V V ' ` ' ' { $.7.s.s.>X1Xw.w.+.{ ` ' C C ' N N V C [ %.@.` C C ",
"{ +.%.7.R.[.5X5X7X@X#X0.0.$.@.+.' ' V ` [ +.+.0.t.s.OXXX6XP.l.S.+X@Xw.w.$.@.$..   r &     .   e e a a a a a a a a a a a a a a a a a a a a a a a a a a a a a r r       . - -     ' ` C @.@.7.` V C C C ` ` [ $.%.l.r.hX8Xs.t.$.$.{ { [ [ { C C N N ` 7.0.7.7.$.",
"@.+.7.7.[.R.jX6X8X#X,Xw.8.7.$.$.+.+.{ ' ' @.+.0.t.t.OXXX8XL.l.A.+X#Xw.w.$.@.$..   a - & & - - t t a a a a a a a a a a a a a a a a a a a a a a a a a a a a a t t - & $ & - =     ' ' C { @.q.[ C C C C ` ` { %.7.s.a.8X0Xs.w.7.8.@.+.' ' { C C M N ` [ [ $.&.$.",
"%.%.c.c.@XOXt.0.7.s.s.9X5Xt.e.0.0.8.@.$.$.w.r.i.<XzX X*Xw.w.w.q.t.x.#X#Xw.g . 0 w W = r t t t a a a a a a a a a a a a a a a a a a a a a a a a a a a a a a a t a t r r w e e - - . < [ ` C ` ' ' ' ' [ +.{ q.0.8.OX>X@X>X,X,Xr.w.%.7.$.$.{ ` ` ` ` ` C C ' ' [ ",
"7.7.M.M.OXOX0.7.7.g.f.5X6XD.I.m.0.0.q.7.7.t.r.b.6X0X*XW.w.0.q.$.0.v.+X$Xi.g   t t s t a a a t t a a a a a a a a a a a a a a a a a a a a a a a a a a a a a a a a f t t a t r - -   < [ ' C V C ' ' [ [ $.@.7.9.u.3X:X-X-X=X,Xi.u.7.%.%.$.+.[ { ` ` ` C ` ' [ [ ",
"0.r.,X1X8.7.%.$.+.7.%.r.r.7XhX@XA.M.t.t.t.mXlX5X#X}.w.w.$.+.[ +.7.7.t.a.@X<   a t E t a a a a a t a a a a a a a a a a a a a a a a a a a a a a a a t t a a a a a t a a a t t = -   < { ' ` ` ` [ { $.$.w.w.>X,X,X&X*X%.%.7.OX>X1X,X#XP.x.0.8.8.{ { ` [ { [ +.@.",
"eX8X1X1X7.7.$.@.{ 7.%.w.w.8XhX8X1XeXc.t.t.nXvX@XA.x.0.0.+.{ { { %.7.w.s.@X9   E E a a a a o     t t t -   a a a a a a a a a a a a a a a a a a a a a   a a a       e a a a a 0 e   < @.{ { [ ` ' $.7.7.t.r.>X>X3Xl.s.$.7.7.q.2X&X#X@X[.J.y.%.7.+.+.[ @.@.%.%.8.",
"3X8X0.r.7.%.[ [ ' ' [ $.$.0.8.0.9.'.iX7X<X<X1Xm.r.r.+.+.M B . O . O %.7.t.:   E E a a a a o     t t a -   t a a a a a a a a a a a a a a a a a a a a   a t a o     e a a a t r r   < %.+.{ . . O O <.2.@X,XU.9.0.7.%.[ ' @.@.7.7.7.w.{.@X@X9.&.%.7.%.7.%.&.%.8.",
"d.l.%.%.+.[ ` C N ` ` @.@.8.7.0.w.OX6XvX5X@X@Xa.t.w.@.+.            %.%.t..   s d a a a a a a e       & t a a a a a a a a a a a a a a a a a a a a a t       r r t a a a a a t t   . %.+.+.        .   4X>XT.r.w.%.%.[ ` +.@.7.7.0.y.}.@X@X>X>Xk.t.8.t.l.x.1X<X",
"x.t.%.%.[ [ ` ` V N N ` ` [ $.&.0.r.x.bXiX@X@X: . . . . 8 - Q _ Q I . O t.. . s s a a a a t t         - a a a a a a a a a a a a a a a a a a a a a a r &       o a t a a a a t t   . r..   ^ ~ / y $ $ o   . . O [ [ V C C ` { [ q.7.8.w.0.1X<XS.A.w.T.#X6X1X5X",
"+.+.' ` C C V V V V V ' ' { [ +.$.8.w.<X<X8.0.:         = - Q - I I   O P..   a a a a a f a             & a a a a a a a a a a a a a a a a a a a a a o .           t a a a a t t   . E.@ o ^ $ & t X X .       . ' [ ` C ' ' C V [ { @.%.%.w.x.<X<XvXlXXX#Xy.w.",
"+.+.' ` C C V N V C C ' ' { ' [ +.0.w.<X<X    d u d t t - & &   X &   O P..   a a a a a X     PXPX          a a a a a a a a a a a a a a a a a a a   ZXPXX           = a a a t t   . R..   &     & & - = = = = e   . ' C ' ' C C [ [ $.%.%.w.l.<X5XvXlXM.x.w.0.",
"C C V N N N C ` C ' ' V V ' C C [ %.&.. . 0 e u t r - - & & & $ o   7.8.l.. . t t a a a X   PXPXPX          f a a a a a a a a a a a a a a a a a a   DXPXPX          - a a a t t     ,XM.c.  & & - & X & - - - - - - . . < ' V N C C C [ ' %.7.hX8Xv.r.$.$.@.[ ",
"` ` V N N N V C N ` ' V V ` V C [ 8.w.  . w e o o   o o & & & & o   8.8.s..   t t a a a o   PXPXPX          f a a a a a a a a a a a a a a a a a t   GXPXPX          - a a a r r   . >XL.V.. & & & & & X X   o   - -     . ' V N V V C [ { 7.%.8XjX0.0.7.$.+.[ ",
"{ +.` C V N N ' ` $.$.V V ' [ { @.  o e - .   2 4 7 6 6 - & & - o   r.r.U..   r r a a a o                   a a a a a a a a u t t a a a a a a a a                   - a a a e e   . t.+X.X  - - & & & 2 2 6 4 4     - = = . < C ' ' [ @.+.w.J.5X1X7.%.+.' ` ' ",
"' ' ' ' ` N N ` ' +.{ C C [ @.M g X X e ; > > x x x 3 2 - - & - o   *X Xf..   q e f a a o   O > . _   : .   a a a a a U L gX).).).).L U a a a a a   . O   X . 4 ,   - a a a e =   . w.f.f.. - - & & & 2 2 7 x x + > & - = o + B +.{ +.@.@.$X3XV.D.7.&.+.' ` ` ",
"+.+.[ ' ' ' V ' { @.+.C C +.$.<   8 - o . x l b n x 2 2 & & $ - o   M.m.t..   = q t a a o   l l +     v >   a a a a f L D XXXXXXXXoXD L a a a a t   > 5 .   1 b b   - a a t = =   O w.t.w.. - = X & & % % x v v l x . o o - o   +.@.$.$.$.,X6Xg.t.$.@.[ ` C V ",
"$.$.{ [ ' ` C [ ' C ' [ [ {   # - o   l v G H G G 4 & - 2 2 # - X   7.7.[.g.x.    t t a a r . X.o.:.:.4.  r a a a a D ).qXBXBX3XmXmX<X).| a a a a f . X.;.:.;.;.. t t a t r     7.q.7.%.%.  = - X 2 2 & & 4 n G H b v l c X - - o %.%.%.%.0XzXy.w.{ [ ` C V V ",
"@.$.{ [ ` ` C C ' C ' { { { o & - . x l b G H H G 3 - - 3 2 $ - - -   O [.s.r.    t a a a t   o.4.:.:.J o t a f f f | ).mXNXBXqXmXmX1X).,.t a a a a   X.5.;.;.5.  t t a t r     %.0.%..   - = - X 2 > & & 4 G H H G z l x X & & o $.8.0.8.5X8X8.8.{ { ' C V V ",
"s.0.%.%.[ [ ` ` C ` ` $.#.  * & % 4 z H J J J x l - 2 2 5 7 $ X - - . . 8.S.S.    e t a f t t   . . . . t t a a | | qXNXD 1X<X9X<X<XZ 2.>X| D f a a u .     .   p t a t = =     f.u.@.    = & X % 6 6 2 % * z v J J J J z 4 O ; &   >.l.l.,X4X$.$.{ [ V C C C ",
"a.w.y.a.q.7.{ [ ` [ +.@.#.            . J J J x x * 2 3 5 5 % o & -   . 9.G.A.  . e t a i i u o         t f i i D | mXCXD <X<X6X<X<XA 3.3X| D i u a a   o       u i y t e =     f.d.} .   - & o % 7 7 2 2 8 x x J J J . .   . . o   p.r.s.1X>X$.@.' C V N V C ",
"7XlXu.t.7.&.[ [ ` [ ' ' ]   z ] ] ' h.6.O n G 6 4 * 7 6 v c 3 @ o & - -   d.x.    = r r pXsXR R I a t t f t P <.mXNX>XoX(.3X9X6X6XqXB.(.(.<X>X .L a a a a a U R aXpXpXe - -     D.Z.  & - &   . 2 c l 4 3 - 6 7 J G   K ] ] #.#.O.  3.5X6Xz.c.@.+.` C C V V V ",
"9XlX.X#X%.$.7.8.$.' ` V C ' +.+.$.%.w.Z.. c n 2 8 8 x z b G 4 3 @ o & - - < < F.V.  & e u t i d p a f t 1.1.qXmX<X:XNXmXmXuXuX6X5X<X4X:XoX>X>X:X4X,.1.f a a I i U r r 8 &   r.r.h g ; = & o 2 > 4 v b x x 2 8 2 H H   C +.+.%.7.s.l.yX0X9X0.w.{ ' ` [ C ' [ [ ",
"r.t.eX1X:X@X0.7.+.[ ' V V ` [ { @.%.w.9.U.+ x & 8 4 n b J H 6 7 %   & & -     I.U.  & = t t a a a a a t <.<.0XmX>X>XNXuXiX].(.(.(._.<X1X<X4X>X<X1X<.| a a a a a t r e -     7.$.    - & $   6 7 6 v F v v 3 * * 5 O @.+.+.+.q.8.x.x.3X5XtX8.7.{ { ' [ C C [ [ ",
"t.t.eX<X5X1XS.t.8.@.@.' ' @.@.%.y.0.a.V.,XO O 8 8 6 G J F G 7 c 5 6   o -   o .         = = r r t a a t <.,.oXXXtX0X4X(.3.N D D B S 2.(.3X1X4X(.(.| | t a a t r r = =             o -     6 x x 6 n F F G x 8 8 O : &.0.t.0.w.8.0XhXvXxX+X7.7.$.%.' [ { [ V C ",
"$.%.w.w.2X1XM.j.8.$.$.[ [ $.%.7.8.8.{.5XlX+   8 8 l J J F b 5 v l 7   o           X o   = = r r r a f r D D 3.3.(.B.2.| A B B k B k k S 2.B.B.2.3.D D y a a r r e = =     X               6 c v 6 b b H J z 3 4   < 0.8.t.S.>X,X0X7XvXlXOX@X@X8.8.@.+.[ ' V C ",
"@.*.8.0.E. X2X%X=Xr.t.$.7.w.t.d.M.b.nXnX1XO   4 6 O + + v v 7 J v z .   t a s t t   . W     - = = r r r = & g k S D A ,.B.C.C.C.C.B.B.<.A A S B < & X r r e = = -   o I     = - r r -   . x b v 5 l l O O O 3 6 . g 8.r.@X1X,X#X7.0.8.7.P.zX0Xf.x.8.8.%.@.[ [ ",
"[ [ +.%.8.j.2X,X,Xs.t.7.7.r.t.U.<X6X1X1X[.O   3 %       z l 5 H b z   o t s s t t   . W o     = = e r r - # m m S D S <.B.(.C.(.(.C.B.3.S A S . + X & r e r = =       T     = = r r - o   l b b x l l       6 4   9 <X<X,X>XD.t.8.0.7.7.l.6X9Xx.x.0.8.$.$.[ [ ",
"C ' ' [ %.7.d.i.`.@X#XF.R.kX7X<X2XrXa.a.0.:     : 8.c.x..   z b     d s ) a a a t t e     X X     - - e e r - -   o | <. . .<. . . . . .| .   - - r e e - -       o     = e t t s s a e e   . z v . O S.J.A.O     9 5X6Xz.x.%.%.$.@.{ %.7.w.w.1X<XlX9Xt.t.8.8.",
"N N ` ' @.$.8.8.S.,X,XP.R.lXhX,Xx.s.8.w.w.+ . . : 7.z.c.  . l 5 o   s a ) a s a a t = =   & X     - - e r e - -     <. . . . . .<. . . .<.    - - e e e - -       &   - e e t t s s a t =     : v . . F.P.x.: o . 9 z.l.7.7.%.%.+.{ ' @.$.0.w.<X1XlXyXt.w.7.8.",
"C N ` ` [ { 7.8.8.,X@XbX5Xj.j.r.8.8.8.%.@.[ ` y.r.7.+X X+.}     s W dXZXa a a a a a a r -   & & -       & - - = = 8                     . = e e = = o       X X &   e = a t a a a a s s s r -     @.@.7.R.#XM.r.yX2Xz.l.%.7.[ ' [ [ ' ' [ %.$.0.8.G.D.1X2Xf.G.",
"' ' C V V ` @.$.7.>X>XvX5Xl.l.w.@.+.[ @.$.{ [ { { +.7.%.$.+.  & E W ) ) a a a a a a a t -   X & & .     X - - e = - & ; & ; & & & & & & & = e e - - o     . o & X o - = t a a a a a s s s = - X   *.@.7. X@Xm.w.s.l.7.7.{ [ ` V V N N C C { $.0.8.G.D.3X%XU.U.",
"' ' C V ' { &.7.w.jXjXc.z.r.8.@.{ { [ +.$.' ` { { @.7.$.r.s.. E ) ) s a a a a a a a a a r r   o a FXGX& o       & - - - - - - - - - - = = - -       o X DXDXs $   = r t a a a a a a a s s a r t   q.9.OXOXw.8.%.+.$.8.%.+.[ ` C V N N V C ' ' +.+.7.0.s.M.jXjX",
"V V ' ' @.7.t.t.x.8X1Xl.l.g.$.@.{ ' C C C { { ' C [ +.+.h h - / ! ~ a a a a a a a a a a f t o / LX( / o - - X $   o                       o   o X & - X _ ( KX) X t t t a a f a a a a a a a t t # A m D.N.7.8.7.{ { [ [ C V V N C ' [ +.[ C C { [ @.$.7.0.M.>X",
"C C ' [ +.7.r.s.J.1XU.t.t.7.@.+.[ ' ` C V { +.' ` { @.@.    a ( E E a a a a a t t a a a a a o ) ( o   o X - - IX  &                       X & IXa & & o   o ( )   f t a a a t r a a a a a a a t =     0.w.$.%.[ [ [ ' ' C C N N C ` ' [ V N C { { +.+.%.7.t.#X",
"' ' @.$.w.j.@X<X1Xx.w.t.7.{ [ [ ` V N ' ' ` ` V V V ' [     a W a a a a a a a r t a a a a a t           X - y LX. & - - & #   ^   X & & & & - LXs & X           t a a a a a r e a a a a a a a a r     $.$.{ +.C C C N N ` ' V V ' ' ` [ [ V N C C ' [ { +.8.7.",
"[ ' +.$.w.s.&X1X<Xc.r.r.$.[ [ ` C M N ` [ C C V N V ` `     a E a a a a a r r r t a a a a a a   o q =       & ZX  o & & -     DX    & & & o o dX0       - - - X a a a a a a e e r t a a a a a a r     @.$.[ [ C C V V V ' ' V V ' [ ` [ ' V N V V ' ' [ { 7.7.",
"$.7.t.t.wX<X9Xx.l.8.%.+.{ { { ' C V C ` ` [ [ } ` ` { +.    a a f a a a a - - a a a a a a a a a t a a r e - - AX  X & & &     Q .   & & &     VXt - = e a a a a a a a a a a t t - - t a a a a a t     7.0.{ ` ` ' ` C N C V ' ' C C V V N V C ` ' +.@.%.%.S.[.",
"7.7.t.t.3X6X5Xz.l.8.$.{ { { [ ' ` V N C C ' { [ ` ` +.+.    a a a a a a a - - t a a a a a a a a a a a t - -               FXFXFXAXAX              - - r a a a a a a a a a a t t - = a a a a a a r     %.%.{ ` ' ' ` N N V V ' ` C C N N M C C ' ' +.@.%.%.S.[.",
"s.8.wX>X`.[.0.8.0.[ [ C C ' ' [ C ` C ` ` V V +.$.*.$.&.    t a a a a a t e e a a a a a a a a a a a a a a t r r = = X FXKXPXIXHXKXKXAXDXo - = e t a a a a a a a a a a a a a a t - X r a a a a t r     t.t.$.%.+.[ ' C V C C C ` %.@.' C C V V *.$.0.w.x.F.7X8X",
"1X<XbXbX`.[.0.8.0.{ [ C C ' ` { { { [ C C N N @.%.@.%.7.    t a a a a a t q r a a a a a a a a a a a a a a a t t 0 e   HXJXSXJXHXJXVXAXDX  e e e t a a a a a a a a a a a a a a t - X r a a a a t e     t.t.%.%.[ ` C ` V V V C C @.[ [ ` ` { { $.$.w.w.R.R.8X7X",
"<X<X8X8Xt.t.t.$.+.' ' V V ' C ' [ ' ' C C C C [ [ { w.r.    r t t a a a X t t a a a a a a a a a a a a a a a a a a f   UXKX  . SX# o ~ KX  t a a a a a a a a a a a a a a a a a a = - & a a a t r e     @XOX8.7.%.+.+.' ` N N ` ` V V C ` C { [ 8.0.0.R.6X5Xj.t.",
"x.s.0X8Xt.r.0.$.+.' ' N N ' ' C V C N N V [ { +.@.$.w.r.    e t t a a a o f t a a a a a a a a a a a a a a a a a a a   UXKX  . FX*   / KX  t a a a a a a a a a a a a a a a a a a = - X a a t t r e     >X@X8.7.%.+.+.' [ C ` V V V N C { [ $.$.w.0.0.R.6X5Xt.t.",
"r.t.#X#XF.T.0.7.+.C ` N N V C C V ` N V ` { { @.w.t.K.F.    - t t a t t o t t a a a a a a a a a a a a a a a a a a a   dXdXSXFX/ FXAXfXfX  a a a a a a a a a a a a a a a a a t t = - o t t r r e -     >X>XOXL.P.t.e.%.%.{ { ' ' C ` ' [ @.0.w.W. X1X>X0.0.7.@.",
"7.7.A.m.,X@X8.7.@.{ ' C V C C V N ` ` ' { { ' %.w.r.J.L.o o q r t t t t o t t a a a a a a a a a a a a a a a a a a a r o   HXFXSXFXFX  o t a a a a a a a a a a a a a a a a a t t = - o t t r r e -     8.7.[.@X2Xt.t.%.%.{ [ { { ` ` ' ' @.q.0.[.}.{.$Xa.7.&.@.",
"$.$.j.t.7X8X7.7.7.{ ' ' ' C V N M V ` [ [ { @.y.t.r.@X>X6XcX  e = r r r o r r t t a a a a a a a a a a a a a a a a a t     VX@ fX. dX  o t a a a a a a a a a a a a a a a a a r t = - o e e e - -   &.7.0.w.S.6X8X<X9Xw.w.$.%.+.{ ` ` @.+.7.w.0.lXlX9.j.8.%.{ { ",
"{ { 7.0.<X>Xc.c.8.%.$.{ +.' ` C C C ` [ @.7.t.G.J.A.hXzXV.C.  = = w = = o r r t t a a a a a a a a a a a a a a a a a a t f o o   o . a a a a a a a a a a a a a a a a a a a t t r = - o = = - - -   #.+.&.&.8.s.s.8X8XF.S.t.t.%.@.%.%.t.t.w.F.{.lXlX8.t.$.[ ' ' ",
"[ [ &.7.#X@Xc.c.8.7.@.[ [ ' ' C ` ' ' ' @.7.t.S.J.L.jXyXw.y.. - - = = = o e e r r a a a a a a a a a a a a a a a a a a t t   .       t t a a a a s a a a a a a a a a a a a t r r - - o - - - - -   ' [ @.@.7.s.l.6X0X>X#Xt.r.%.@.%.7.r.t.P.#X5XmXmX0.w.@.[ ' ' ",
"` ` @.*.8.8.1X,Xs.r.%.$.[ ' ' [ ' [ +.@.w.l.S.9XhXzXz.z.0.0.< # ; - - - o r e r t t a a a a a a a a a a a a a a a a a a a a t t t a a a a a s s s s s a a a s a a a a a t t t r - - o - - - X X < ' [ [ ' $.0.w.j.r.8X8X$X#X0.w.t.t.=X#XvX>XOX8.8.%.%.@.[ ' ' ",
"+.+.[ ' $.7.2X2XjX0Xt.7.%.+.{ +.{ { 7.0.t.P.#X8XjXyXr.t.7.*.+..   - - - X - = r t t a a a a a a a a a a s a a a a a a a a a a a a a a a a a d s s s a a a a a a a a a a t r e e - & o - - X     ' ` ` C C [ +.+.7.y.s.s.6X6XE.t.E. XzXjXA.r.r.0.%.{ [ ` [ V V ",
"+.{ [ ` $.8.t.a.lXzXt.7.%.+.{ [ [ [ t.w.f.'.jXI.c.x.w.w.+.+.@.#.] . - - X - = r t t a a a a a a a a a a s a a a a a a a a a a a a a a a a a s s s s s a a a a a a a a t t r e e - & X & &   F ] ` ` ` ` C ' { +.7.0.j.l.5X1X{.s.OX>XjXhXz.t.w.8.@.[ [ ` ' N V ",
"V V C ` ' +.8.8.K.{.8Xr.t.r.0.7.$.%.r.0.lXyXA.0.8.7.+.+.' ` ` [ { C   o - - - e = r t t a a a a a a a a s a a s d d a a s s s s a a a a a d d s s s s a a a a a a t t r r r - = - - -     g V ' C V V V ` V C C ` { %.7.j.x.bXbX5X5X0.t.7.@.@.' ' C V C C C V ",
"V V V ` ' { 7.0.l.[.jXi.l.r.w.7.7.7.u.i.vXyXS.0.7.8.@.+.C V ` ` ' '     o - - = = r r r t t a a a a a a a s s s d a a a d a a a s s s s a a a a a a a a a a a a a t t r r r - - - & o     V V ` C N N V ` N ` V ` { $.q.s.s.bXbX3X2X0.r.7.@.+.' ' C V C C C V ",
"V V ' +.` ' { 7.w.P.#X1X[.r.r.r.8.0.6X5X>X9.8.q.$.[ { { ' [ N N ` N V j   - - - - = r r t t y t a a a a a s s s d d a a d a a a s s s a a a a a a a a a a a t t t t r r = - - - - &   g V V C C V C N V M V C [ +.` [ $.7.7.8X7Xt.t.7.%.{ ' ' V V V ` V N V ` ",
"N V ` +.[ ` [ %.r.t.w.N.6XjXkX7X5X8XlXjX{.a.t.@.[ ' ' ' ' [ V N V N N [ C     - - = e r t t t t t a a a a a a a d d s s d d a a s s s a a a a d a a a a a a y t r r r t = - - -   . k M k V V ' [ V N M M N V ' ' { +.q.x.x.lX<Xt.t.&.&.+.' ' V V C C C V N V ",
"V C C ' ` ` C { +.w.r.m.8XlXbXhX8XhXhXjX}.r.w.$.$.{ ` C V V C C [ { ` N C .   - - - - - r r r r r r r t a a a a s s s s s s a a d s a a a a a a a a a t r r r e r r = - - - - -   . k k ` ` ` V ' V C V N C ` { { +.%.w.x.x.xX>X7.7.{ [ ' C C V V C ` ` ` N ` ",
"N N C C V [ ` [ [ $.8.&.bXxXT.a.7.7.r.r.2X1XS.8.%.7.+.{ C C [ +.[ [ C M M N V     - - - - - e r r r r t a a a a a a a a a a a a a a a a a a a a a a a r r r r e e = = - - -     N N M M k C C N V [ [ [ C ` [ +.8.7.t.u.8X7X>X,Xx.w.7.7.{ ' ' V V N ` ` C V ' ",
"V V C V ` [ @.@.@.t.t.b.vXxXJ.7.8.8.0.r.-X9XOXb.9.0.$.$.' ` [ { C V N N V V V   o & - - - - e r r r r r r r r r r r r r r r r r r r r r r r r r r r r r r e e r = - = - - -     N N C V M N V N N ' ' [ ' [ $.&.t.t.$XOX5X5X@X,X#X%Xt.r.8.@.+.[ [ ` ` ` C C ' ",
"C C C C C V { @.%.t.t.U.8X3Xt.r.@.$.%.r.r.%X6X_.P.a.7.%.{ [ [ [ V N M C C ' [ ' C       X - - - - e e e r r r r r r r r r r r r r r r r r r r r r r r r e = - - - -         C C V V C V M N N V V C C [ ' +.%.7.t.r.,X3X0.w.w.s.@X@Xr.t.7.$.+.[ [ ' ` C N ` ` ",
"' ' ` ' ' { @.%.7.t.s.eXU.D.w.$.[ [ +.$.&.u.u.'.zXtX9.9.%.*.{ [ C C V C ' ' [ ' ` h g h <   o     - - = = 0 e e r e e e r e r r e r e e e e e r e = = - - -       . < g g h ` V ' ` ' V N M V ' ` [ [ @.$.8.w.0.<X9XL.M.7.8.7.0.`.{.eX,X8.7.8.+.+.` ` C C C C ",
"[ { ' [ [ { 7.t.r.>X#XzXS.x.8.$.[ ' [ +.$.0.w.M.5X1X@XL.%.7.%.@.` ` V C ' C C { { { +.&.N         - - - - - = e e = = = = = e w = = = = e = = = w - - - - - .       C +.[ ' ` C [ ` V V V N C ' ' { { &.%.0.x.L.5X5Xl.s.8.7.7.7.E.P.8X8XR.8.8.@.@.[ ` ` C V N ",
"C C { { %.7.r.t.S.5X5X9.0.9.+.[ ' C ` ' { @.$.0.r.r..X,X|.*X8.7.+.{ ` ' ' { { $.$.7.0.s.-.-.=.=.=.                                                          ..=...=.$.0.%.%.+.+.' ' N V C ` ' { @.7.7.l.l.>X>X%Xr.0.%.%.+.[ { +.7.7.r.t.<X}. X0.0.$.{ [ ' ` C ",
"C C [ [ %.7.t.s.x.1X1Xw.0.&.+.[ ' ` C ' [ @.$.8.w.w.OX2X{.*X8.8.+.{ C ` ' { { $.$.8.s.s.p.-...=.=.                                .                         ....=.=.+.8.7.$.+.+.' ' ` C V C ' @.$.7.7.l.l.>X,X=Xr.w.%.%.[ ' { +.%.7.t.t.>XOX}.7.w.@.[ [ ` ` C ",
"{ { %.%.z.z.kXjXkXt.r.0.@.' [ ` C V ` ` C [ [ +.7.y.t.t.,X<X@X$X0.8.%.%.@.7.7.t.t.P.3X6X<X>X'.m.m.$.%.@.+.{ { [ [ ` V N V N M N V C ' ' [ ' ' { { @.+.=.=.=.D.d.n.@X8X8XM.j.0.8.$.$.+.[ [ +.7.8.t.f.+X8X7XS.0.0.%.$.{ { ' ` ` ' +.+.7.7.g.yX8XtXc.0.8.$.@.+.' ",
"{ +.%.%.z.z.lXkXjXj.t.8.@.' ' C V N V C C ' ' +.$.0.t.t.1X<X@X|.w.0.$.$.@.7.7.r.e.T.3X6X<X,X_.N.N.%.*.@.+.{ [ [ { ` V V V M M M V C ' [ { [ [ { [ +.{ =.=.-.f.H.d.}.8XjXm.z.7.7.$.@.{ [ ' +.%.7.r.m.OX6X7Xc.w.t.$.@.[ [ ' ` ` ` { +.7.8.r.mX8X#Xz.8.0.$.+.{ [ ",
"7.7.s.s.&X+X9X2Xs.0.%.[ ' C C V N V V V V C ` ' [ { $.@.8.0.3X5XI.L.t.r.0.t.t.@XXXOXm.w.0.8.r.R.R.1X3Xe.0.$.' ' C V N ` ` N M N V N C ` [ %.%.%.7.M.@X<Xa.s.7.7.$.%.r.t.2X,X{.{.e.8.8.7.7.e.w.`.5XOXOXw.0.$.$.{ ' ' ` C N V V V C ` ' @.$.0.w.%X>Xd.9.7.&.%.@.",
"w.w.K.K.jXlXF.J.t.0.@.` ' V N V C C ' ' [ { [ ' ' [ @.$.8.8.,X6X,X>Xl.l.x.8X0XjXjX}.A.0.8.8.t.P.E.1X3Xt.7.%.+.[ C V C ` ' N N V V C ` ` [ %.%.I.@X@X%XwXs.a.7.%.+.%.w.t.2X,X{.,X<XU.t.8.8.r.{.0X6X%X$X0.w.%.@.{ ' ' C C ` C V V C C ' @.@.0.w.%X@XjXlX[.r.8.0.",
"8.e.G.c.lX7Xw.w.y.[ [ ` C C C C C V C ' { $.%.C C ` ' ' { @.e.t.2X1X{.`.{.8X8X0.0.q.7.%.[ { @.7.w.r.u.#XM.0.%.$.+.{ ' V V V C ` ' [ @.$.7.d.A.`.@X%Xw.7.@.+.' ' C C [ +.7.7.0.9.9X@X}._.V.'.0XL.t.7.7.+.@.[ C V ` ` V ` ` V C V V V ` ' [ $.%.y.e.hXkX[.r.0.0.",
"5X6XvXbX>X@X0.w.0.[ [ ` C ` C V N N V C ` [ [ C V C ' ` { @.t.t.@X@XbXbX6Xx.z.w.w.7.$.+.{ { +.7.w.w.u.>XM.w.%.$.+.{ ` C N V C C ' ' @.$.&.`.#X{.D.8.8.7.+.{ ' ` ` ` { { &.7.w.r.{.1X1X8X8X7X>XP.t.7.%.{ +.` ` C C ' ` { [ ' ` ` V N N C [ +.$.t.t.S.I.6X1X@X,X",
"5X5XvXvX6X6Xl.j.@.+.' V ' @.@.[ ' ` ' V V ` C ' [ ' ` ' [ { e.w.zXjX5X1Xx.8.8.%.%.[ [ ' ` ` ' [ +.&.$.@X>X>X[.S.7.&.%.$.{ ' [ +.%.7.w.n.#X.XXXL.w.0.$.{ ' ` [ [ +.@.+.{ +.@.%.7.8.r.A.<X<Xn.r.y.7.{ [ ' ` V V N N V C C C V +.$.' ' C C C ' ' @.8.w.u.8X<X>X>X",
"t.t.E.R.7X6Xs.l.$.+.' C ' +.@.[ [ C ` V V C C ' ` ` ` ` { [ w.r.mXlX#XOXz.8.7.%.$.[ ' ` ` ` [ { +.%.&.}.@X>XU.S.7.&.%.%.{ ' [ { $.&.0.N.,X{.{.w.8.0.@.{ ' ' ` ' @.+.[ { @.+.7.%.8.r.c.:X1Xa.t.r.7.{ { ' ` V V M M N M N V C ' { ' ` C C C [ [ @.0.w.u.hX<X,X>X",
"t.t.t.r.6X8XP.T.7.7.+.[ { { [ V V N N C ` N N C ` ` { +.$.%.l.S.6X6Xr.r.7.[ [ ` ` ' ' ` ` ` C [ { { +.%.8.0.}.@X,X>Xs.j.7.&.%.0.E.R.8X8X#Xe.w.%.@.' ' C C V N N V V V V ` ` ' [ %.0.8.5X7Xi.0.$.{ ` ` C ` ' C V V N N N N N C C C V C ' [ @.%.0.w.J.U.1Xn.w.e.",
"$.%.t.t.6X5XP.T.8.7.@.[ [ { ' V N N N V V ` C ` ' ' +.+.z.v.'.OX0X6Xr.r.7.{ [ ' ` ` ' ' ` ` C [ [ +.+.%.7.y.*X%X,X>Xf.f.%.7.7.0.`.`.8X8X+Xe.w.%.@.[ ' C C V V N V V C V ` ` ' [ +.8.8.hX7Xi.8.q.7.{ [ ` ` ` [ +.[ ' ' V V V C C C C C ` [ +.%.0.r.U.'.1Xn.w.w.",
"+.+.*.%.s.v.jXkXz.t.0.7.%.{ [ ` C V M V C ' ' { @.@.e.w.c.z.5X5Xf.x.8.%.{ ` ` 8.7.C [ $.` C C ' [ [ { @.$.%.7.8.c.c.5X5XS.r.r.P.0XlXc.l.w.7.%.{ { ` ` [ ' ' ' ' N V [ [ ' ` [ +.%.w.w.kXvX_.T.w.t.7.7.+.+.[ ' [ { { V C [ ' V V ` ` { +.$.7.8.D.R.1XeXt.7.%.@.",
"{ { *.%.j.l.hX0X<XrXw.7.$.+.{ ' ` C N C ` [ +.+.$.%.w.w.l.x.6X5Xf.l.8.%.+.` C 7.8.C ' $.` ` ` ` ` C C ` ' [ %.7.r.r.2X,X,X9XlX8X'.[.0.w.0.[ { ' ' V V V ` ` ' ' N N ' [ [ [ +.$.7.r.l.xXxX'.U.w.r.%.%.{ +.[ ' C ' ' V V +.' V C [ { { @.%.s.l.9X8X=XrXr.7.+.{ ",
"' C [ [ @.@.w.w.5X9XD.d.t.7.+.[ ' ` ` C ` [ +.q.t.e.[.+XlXlXOXOX7.8.@.{ ` V V V C V C ` ` C ` ` ` C C ` ' { @.@.8.8.c.}.>X6XlX<Xm.D.w.0.$.{ { ` ` V N N ` C V C ' C C V [ { 7.0.l.|.wX>X#XOX@X6X8Xa.a.r.e.7.@.{ ' ` C V [ +.C C { { 7.8.j.eX1X>X2X0.w.%.+.[ [ ",
"` ` [ ' @.$.w.0.t.2X<XU.s.8.7.%.@.+.' [ { 7.8.w.t.r.{.{.XXOX1X1X0.r.7.7.{ ` ` V C V ` [ ' V C C C ' ` ` C ` [ { $.0.w.r.5XnXOXf.w.r.7.*.[ ' [ C C M N M V V [ [ ` ' [ [ $.%.t.t.z.}.<X&X&X}.}.8X8XXX@Xs.t.7.%.%.{ [ ` C ' ' [ { $.@.w.w.t.tX6XU.c.7.%.[ ' C C ",
"` V V C ` { $.&.0.m.D.5X1Xu.s.0.%.@.[ ' +.&.w.r.@X@X5X9Xr.0.s.`.U.P.7.%.+.' ` ` ` N ' +.' ` C N N ' ` ` ` ` { +.7.7.r.x.hXvXOXOXM.S.7.%.$.[ [ C C M N M C ` ' ' V C [ [ @.7.t.t.6X9XJ.q.8.%.7.p.9. X'.<X>X7.%.$.+.+.{ ` [ { { { 0.w.z.c.5X<XOXq.0.$.[ ' [ ' N ",
"' ` ` ` ` ' { @.$.r.s.2X,X.XOXF.r.0.%.7.0.w._._.<X6X3XrXr.w.a.L.U.`.n.b.9.$.@.[ [ C C ` ` { { V N ` ' ' @.+.%.q.r.a.-X@XjXnXOXOX[.{.9.u.8.7.@.{ { ' ` C V V ` C { +.&.q.r.r.`.U.8X=XH.0.7.%.7.8.0.G.D.7XhX>XI.l.w.0.%.$.+.+.%.8.w.t.M.m.9X1X$X7.7.{ ' ` ` ' ` ",
"' ` [ ' C V [ { +.7.7.%X>X6X8X'.x.w.%.7.0.r.jXxXOX$Xr.r.%.$.%.7.'.,X>X,Xt.%.%.{ { ` C V C ` ' N N ` ' { @.%.8.8.t.a.8X5XF.t.r.x.eX1X#X2Xj.0.0.@.+.` ` V N N ` ` { @.w.8.c.S.jX7Xx.r.8.7.@.[ +.$.%.w.r.8X0XlX.XS.w.8.%.$.{ { %.8.0.l.8X8XP.t.w.$.@.` ` ' C V ' ",
"C ' { ' ` C ` ' [ @.@.w.0.*X'.1XnXmX&.@.n.N.jXyX0.t.w.w.[ ' %.&.w.v.2X,Xa.%.%.$.$.' [ ' C ' { C C [ [ @.0.t.*XwXwX2X&X].7.0.0.8.&.$.2X,X_.y.0.$.$.[ [ ` ' ` [ [ $.%.8.0.rX2X3X3Xt.w.0.@.{ [ { +.+.%.%.8.8.j.Y.@X8X0Xj.t.r.r.e.d.b.1X8X8X0.t.e.+.{ ' ` ` C N V ",
"` ' ` V C ' C C ' { { 8.0.t.t.4XvXvXOXOX8XhXS.w.0.7.@.+.[ [ { +.%.%.t.m.,XD.S.7.7.+.[ ' ' ' @.' ' +.+.7.r.j.&X5X>X:Xr.0.%.@.{ $.%.7.s.V.1X{._.w.8.$.@.[ [ ' @.+.w.w.c.c.tX6Xl.r.7.%.{ ' ' C C C ` +.+.0.8.t.Y.#X8XjXT.x.r.r.0.>XjXOXe.w.7.+.+.' ' ` V N N C [ ",
"C ' C V C ` V V C { [ { +.r.w.m.}.OX7X7X2XeXs.t.7.$.[ +.' ' [ [ @.$.0.u.L.1X1Xw.w.$.+.' ` [ { ' ' $.%.8.C.5X@X#X0.t.7.8.@.[ [ +.%.7.7.u.U.1X1Xw.0.$.$.+.' ` @.@.w.s.9XjXC.`.r.r.$.+.{ ' ' V C V C { { @.@.%.%.7.0.w.<X<X&XwX>X8X<XL.t.e.$.{ [ ` ` C V N V ' [ ",
"N N V ' ` V ' ' N V ' { { $.@.0.t.0.lXkXr.r.$.+.[ [ ' ` ` ` V C ` ' +.@.%.u.U.@X@X7.7.%.+.{ { @.$.8.8.[.OX<Xu.0.7.7.+.{ ' ' V C ' [ +.$.8.n.'.5X@Xt.t.%.$.$.7.7.L.5XOXF.7.7.%.@.[ ' ` N N V C ' ' V V ` ` { $.%.0.8.@X@X8XlXzXx.7.&.$.@.[ ' ` C C V ' { ` N V ",
"V N V ` C V ' ' N V ' [ [ @.@.0.t.0.lXhXw.t.$.{ [ [ ' ` C ` V C ` ' +.$.%.8.P.>X@X7.7.%.+.' [ @.@.7.8.{.#X[.8.w.%.7.{ { ` ' V ` [ ' @.$.7.D.U.8X@Xs.t.7.$.$.%.7.I.5XOXT.7.8.@.+.[ ' ` N N C V ' ' V V ` C ' { { %.%.l.j.tXlXzXz.0.%.@.@.{ ' C V C N ' +.' N V ",
"` ` ` V ` ' V C [ ' N ` ` ' +.$.&.%.5X1X7.7.@.{ ' ' C V V V ` C N C ` [ { $.$.7.9.>X,XR.%.7.%.8.w.>X,X@Xn.8.%.@.{ ' ' C V N M V C C ' ' { @.$.%.&.,X>X1Xs.s.9X1X&Xl.8.%.+.+.' ` C V N C N V N V V ` ` ' ' V C ` [ { 7.7.&X5X&X7.7.{ ' ' C ' ' ` C V V V C ` ` ",
"` ` ' V C ' N V [ [ N ` ` ' { @.&.&.5X5X7.q.+.{ [ ' V V V V V V N V ' ' { @.$.7.0.@X2XU.7.7.7.0.0.,X1X@Xn.7.%.@.{ [ ` C V V N V C C ' ' +.$.@.%.%.,X>X0Xs.s.6X5X&Xj.7.%.+.{ ' ` ` V V V N N N V N C ` [ ' V C ` [ [ 7.7.wX5XXX7.7.{ ' [ V ` ' C V V V N C ` ' "
};
