/* XPM */
static const char *gothic_duck_56[] = {
/* columns rows colors chars-per-pixel */
"56 56 221 2 ",
"   c #020101",
".  c #0A0202",
"X  c #040A09",
"o  c #0C0C0C",
"O  c #050607",
"+  c #130001",
"@  c #1B0200",
"#  c #110B0D",
"$  c #12110E",
"%  c #1B0E10",
"&  c #0E1213",
"*  c #141314",
"=  c #1A171A",
"-  c #1B1B1B",
";  c #1A1615",
":  c #270308",
">  c #320100",
",  c #3C0100",
"<  c #360508",
"1  c #2C0B13",
"2  c #280911",
"3  c #340710",
"4  c #3C0611",
"5  c #340913",
"6  c #390813",
"7  c #221115",
"8  c #1E201D",
"9  c #22211F",
"0  c #1F1F21",
"q  c #211F20",
"w  c #242424",
"e  c #2C2C2C",
"r  c #292726",
"t  c #312D2D",
"y  c #37242A",
"u  c #2E332C",
"i  c #333333",
"p  c #3A3A3A",
"a  c #393237",
"s  c #4F0D01",
"d  c #47030E",
"f  c #5C0002",
"g  c #5E0A03",
"h  c #540606",
"j  c #571404",
"k  c #440613",
"l  c #4C0514",
"z  c #430914",
"x  c #540515",
"c  c #590716",
"v  c #650100",
"b  c #6C0101",
"n  c #670C03",
"m  c #740101",
"M  c #7B0101",
"N  c #7C050B",
"B  c #6C1100",
"V  c #731302",
"C  c #7B1400",
"Z  c #630414",
"A  c #65061A",
"S  c #680516",
"D  c #7B051B",
"F  c #47281A",
"G  c #54261A",
"H  c #512717",
"J  c #502B32",
"K  c #403933",
"L  c #434141",
"P  c #484749",
"I  c #5A5859",
"U  c #7A7978",
"Y  c #840101",
"T  c #8C0101",
"R  c #8B090C",
"E  c #84070A",
"W  c #940101",
"Q  c #9B0101",
"!  c #91080B",
"~  c #9C0C06",
"^  c #8F1C00",
"/  c #921F00",
"(  c #84051C",
")  c #890719",
"_  c #990216",
"`  c #9A051A",
"'  c #970218",
"]  c #A30101",
"[  c #AB0101",
"{  c #A30B0A",
"}  c #B40201",
"|  c #BB0201",
" . c #B20309",
".. c #BB0804",
"X. c #A31E0D",
"o. c #AC0B16",
"O. c #B3081E",
"+. c #B8101D",
"@. c #9D2B09",
"#. c #B12E04",
"$. c #AB3300",
"%. c #C40302",
"&. c #CB0402",
"*. c #C50A01",
"=. c #CC0A01",
"-. c #C70709",
";. c #D20601",
":. c #DB0604",
">. c #D40A01",
",. c #DB0B02",
"<. c #D80B08",
"1. c #CC1100",
"2. c #CD1A00",
"3. c #C61703",
"4. c #D41200",
"5. c #DC1201",
"6. c #D31B01",
"7. c #DC1B01",
"8. c #DE180F",
"9. c #D01915",
"0. c #E10E02",
"q. c #E31302",
"w. c #E91502",
"e. c #E51B02",
"r. c #EB1B02",
"t. c #E91909",
"y. c #F11E01",
"u. c #D22300",
"i. c #DC2300",
"p. c #DA2B00",
"a. c #D42900",
"s. c #C53601",
"d. c #D53E01",
"f. c #E32200",
"g. c #EB2302",
"h. c #ED2C03",
"j. c #E32B04",
"k. c #F12D02",
"l. c #F32505",
"z. c #E33200",
"x. c #EC3402",
"c. c #EB3B02",
"v. c #E8370A",
"b. c #F13501",
"n. c #F23B01",
"m. c #F33409",
"M. c #F53B0C",
"N. c #F93908",
"B. c #D4162A",
"V. c #C83120",
"C. c #E22939",
"Z. c #AD5209",
"A. c #C44A08",
"S. c #D14104",
"D. c #D2520B",
"F. c #C25615",
"G. c #ED4400",
"H. c #E84704",
"J. c #F24202",
"K. c #F44A03",
"L. c #F34C0E",
"P. c #FC490A",
"I. c #ED5400",
"U. c #EE5E04",
"Y. c #E85909",
"T. c #F45402",
"R. c #FA5205",
"E. c #F55C01",
"W. c #F45C01",
"Q. c #FA5C03",
"!. c #FC560B",
"~. c #FC5C0C",
"^. c #F6570B",
"/. c #ED4111",
"(. c #FC5511",
"). c #EF6400",
"_. c #F56301",
"`. c #FB6402",
"'. c #F56B01",
"]. c #FB6B03",
"[. c #FE630A",
"{. c #FE6A0C",
"}. c #F7600D",
"|. c #F67301",
" X c #FA7302",
".X c #F57A01",
"XX c #FC7B02",
"oX c #FF720C",
"OX c #FD7B0B",
"+X c #F2710C",
"@X c #FF6513",
"#X c #FC6812",
"$X c #FF7511",
"%X c #FC7A15",
"&X c #9C4456",
"*X c #867D74",
"=X c #F78200",
"-X c #FD8402",
";X c #FE8B03",
":X c #FF830C",
">X c #FF8C0A",
",X c #F68807",
"<X c #FC9402",
"1X c #FC9A03",
"2X c #FF960E",
"3X c #FE8514",
"4X c #FF9214",
"5X c #FF8426",
"6X c #FDA13C",
"7X c #8B847A",
"8X c #838280",
"9X c #9E9085",
"0X c #A79C8D",
"qX c #A79C94",
"wX c #ADA9A0",
"eX c #BDAFA2",
"rX c #BDB3A7",
"tX c #C8BAA8",
"yX c #CDC3C1",
"uX c #D4CCC9",
"iX c #FDFDFD",
/* pixels */
"M Y ] %.q.T.| W W Y Y M M Y Y W q.OX1.&.Q T M m Y W [ =.R.E.%.W m M Y Y M T ] ;.k.-Xw.| | T [ ] =.`.,.| Q M M M ",
"T ] =.;XE.%.] Y [ [ W T Y Y ] | q.:X6.&.] W Y T [ %.>._.T._.v.} W Y m W W %.=.K.;Xq.%.Q M Y M T } v.'.0.| Q Y Y ",
"} =.XX0.%.[ W M Y [ e.%.] } ;.Q.].e.Q.@X&.[ ] %.>.`.E.x.} ,.].,.%.Q W [ ;.,.Q._.,.&.Q Y m Y T m W | Q.`.:X&.%.] ",
"Q.XX'.%.W M b M m W | n.=.,.]. X%.[ } u.6.%.>.Q.E.4.%.[ T } =.].e.%.| 0.XX'.G.=.4.[ T m M m Y T | u._.,.=.>XK.;.",
"u.q.].%.] W M m M Y [ &.{.=X5.%.Q m Q | {.].'.;.;.} Q Y M W | 5.|.{.$X Xr.>.| W %.5.| W M T ] } !.`.&.[ Q ;.*. X",
"] %.h.T.&.} Q Q Y [ =.k.;Xq.| W Y T W %.>.<X&.| W T m Y W Y ] | w.1XW.,.&.Q Q m T | q.%.Q ] &.t. X%.Q T M W } %.",
"Y T [ b. X;.| | [ ;.`.'.,.&.] } T T } *.'.&.[ ] M M m Q m Y Q &.q.-X0.%.[ T m b Y Y ] ,.=.-.a.$X%.] m M m Y M W ",
"b M Y ..=.{.-X=.>.OXv.&.] W Y W ] } 4.T.2.=.W m Y W Y T T [ | i.$XR.=.} T M Q m M Y Q | x.-X>X5.} W M M W Y b Y ",
"Q W M Y W %.,.1X`.&.Q T Q ] M Y } >.`.,.M.{.%.[ W } Q [ | >.p.W.%.[ } x.} ] Y Y T [ &.J.j.} -.T.E.%.] T b Y W } ",
"M [ M v M W %. X5.[ Y b m T Y Q =.T.;.[ =.XXJ.l.5.} %..   T.XX;.[ T Q %.T.;.| ] | w.].b.| W Q | i.!.&.| ] ] %.T.",
"m Q T M T [ 5.1Xg.| W Y b Y Q | n.0.| W Q &..X;.| N.  i i   j.| [ [ T [ | K.T.&.g.XX,.| T Y M Q } (.|.b.>.>.XXJ.",
"Y m Q T [ ;.-XK._.;.| ] W T &.7.]  .  M W %.I.|.    i e r O     ;.Q Q T  .  =.-XT.w.} W M m b m W | ,.T.).XXJ.%.",
"} W Q %.5.Q.>.%.%.Q.L.%...%.%.W Q X C., [ m P U I e = i - i = t r * Y ] , B.  ^.q.=.Q W M m M T m W } 0. X,.| W ",
"%.| %.r.].,.[ T T ;.T.].q.%.W [ %.  O.  5.& 8Xa i i i i i r w i i i . 7.O `   R.].J.&.} ] Q M Y T } >.'.i.| W M ",
" Xg.g. X>.} T M M Q %.w.-XK.;.e.G.  ) _   o i i i i i i i i i i i i o   +.)   =.,.K._.q.| W Q ] %.(.'.J.=.T M Y ",
"&._.;X>.] T m M Y Y T } >.I.E.].%.  S B._ c e i i i i i i i i i i i A ` O.S   [ W } %.K.T.,.%.=.-X{.&.&.] M W T ",
"Q =.|.q.] T M b Y b [ ] >.>Xq.;.] } 4 S ' ( e i i i i i i i i i i i ( ` c < | Q m Y W ] %.W.-XOX;.%.T W m T M W ",
"T } g.^.%.] W M m T ] =.h.<X>.[ T R   c Z   i i i i i i i i i i i i   Z d   ! Q W T m Y W | 4.K.>.T M T b W ] m ",
"Q | J.|.Q.>.[ T W ] ,.T. Xq.W.>.[   r     r i i i i i i i i i i i i r     -   Y ] W M M T } 4.W.>.] W Q m Y W | ",
"| q.T.%.5. X:.=.] =.|.K.;.&.w.R.~ r P e i i i i i i i i i i i i i i i i e r = N T m T W [ &.)._.`.%.} Q T T Y W ",
"XX].%.] | ;.XX].,.4Xg.;.] Q %.,.Z.L i i   i i e i i i i i i i i O t r   i i w E Q Q } %.>.W.5.%.j.[.J.=.| W [ | ",
"5.| W M M [ %.<.1XW.:.] O     ] + p i i i     i i i i i i i i i e     e i i r > ] O     J.;...Y %.=./.}.T.&.e.'.",
"] Y M m m T T } '.. 8 r = ; *   . i i t       t i i i i i i i i e O     i i e >   ; = = * o . m M T [ &.x.<Xi.=.",
"M b b M Y m M  .  q o   * *   &.@ e i i iXiX    i i i i i i i i   iX    i i r > x.  * * O O ;   T b M | ..=.| W ",
"T T b T Q M ] : w : k z ; *   P.+ w i i . . :   i i H F.F.G i i   + O : e t 0 , 7.  & * 6 z : - O Q ] v.#X%.Q Y ",
"} W T T T W   = 4 A A 1 2 $ * v 6.  r i   ' ) r i H +X6X3X'.G i O ( O.  e r   *.f O o 2 1 A A k *   =.^.3.Q T m ",
"=.} Q W W o.o     D z = 6 % ;   e.  w i e     e u A.C '.'.B D.t i     t r -   }   ; % 3 7 l (     o 9._. .T b b ",
"-XP.| | Y R Q [ >.c 1 7 x 1 o = V.l.  J &Xi t F A.%X%XOX XU.U.$.F i a &Xy   w.V = $ 1 x % 1 S W Q | Y.5.} m Y T ",
"=.L.-X&.} Q } =.P.@ 7 x Z 6 4       o O r r r V S.Y.#.n g @.Y.s.C r r r O o   O O 3 6 Z l 1 , &.5.W.<Xb.&.Q W M ",
"T %.,._.,.%.>.].].+ 2   l 4 l   p e   9 ; 0 r * s V s.d.d.s.B s o r w ; K   - -   k z 5   5 > 2.I.>.%.q. X&.} W ",
"b T } g.`.n.=Xq.=.@   q.+ l   p i i e   o   w w ; s / / / ^ j ; r w       - e p r   c Y f.  < 4.&.} T } *.;X,.&.",
"T m Y %._.|.0.} W Q Q %.|   L U i i i w o ; O = w = * o * * ; w =   . o - e i i p w   [ T.>.q.%.T M b m | 8.{.c.",
"M W &.l._.,.[ W Y ] Y [ + i P i i i i i   uXO * * O         O * * * yX  i i i i i i -   | ..Q Y m m W T Y ] | q.",
"T [ 0. X>.| T m m M b Y   i i i r r i i e O   O qXo ; & o * * wXO   o e i i w e i i w   Q Y M m T Y Y T b Y W &.",
"%.,. Xq.%.Q W M m T Y Q   i i i = i i i i i r =       eX0X      ; r i i i i e e i i r   ] Y Y b m M m b Y Q | g.",
"'.1XJ.&.W M W Q M b %.} . e i i ; i i i i i i i r ; tXtXrX9X* w i i i i i i i O e i w   %.Q M b m ] W W Q =.b.XX",
"5.|.,.[ Y m M M v W ] &.  w i e e i i i i i i i i - 0X. $ qX; i i i i i i i e O e r -   H.| [ T Y M M Y %.v.G.,.",
"} 5.XX%.T Y m b T ] :.x.,X  w r r e i i i i i i i e   7X*X  r i i i i i i i r O w =   *.5. Xx.&.W T ] | =.M.%.W ",
"W &.Q.>.[ W Y Y T %.k.-X=.  = - w r i i i p i i i i e     e i i i i i i i e r O = =   W | q.XXi.;.[ >.k.XXp.] T ",
"] Y %.-X,.| Q Q >.K.=X>.| [   = = r r i i i i i i i i i i i i i i i i i i r r o ;   T Y T ] &.4.K.>.-Xr.>.Q Y m ",
"m Y ] g.XX,.;.} >.:X%.[ T Y T O = w r r i i i p p i i p i p i i i i i i r r = ;   m M m m M Q %.4X.X=.%.Q M M M ",
"b [ Y >.~. X2XoX1X*.} W Y b M M # = - r r i i p i i i p i p i i i i r r r = = O f M T b b Y T %.+X>.| Q M m m M ",
"b Y W Q >.1Xb.%.,.oX%.] M W W b b   = - r r r i i i i i p i i i i r r w = ;   v f Y m W Y Q | @XW.x.| Q Y b Y M ",
"M M m } ,.XX,.} =.[.!.%.Q W b b Y Y     = = w r r r r r r r r r r r = =     M m m b m M W | >.z.%.~.,.%.Q T M Y ",
"W T Q ,.Q.y.%.W W =.].W.%.| Y m M Q Q |     = = - - - - - - - - ; ;     ] T Y M M M T [ &.x.|.%.[ =.=Xc.%.W Y m ",
"Q | t.>X1.} W Y T W %.>.'.!.%...| >.m.OXH.3.{ ! R N g h n E R ! ~ X.M.a.OXe.%.[ T [ ,.(.T.6...W M ] &.4.XX&.] W ",
"%.4.W.5.| T M b m M T } &.'.v.>.0.W.T.>.>.].:.} T b Y v m M ] | [._.%.} ,.`.K.&.&.;.|.Q.| Q T M M m T | ;.2.%.} ",
"1.p.).>.T M M m m  .M Y Q :._.1X$X;.| Q [ ,._.=.} W b M W [ | ~.*.%.Y M Q %.;.oXOX_.,.| W M T W T M M T | 5XJ.&.",
"=.G.XX%.W T Q Y Y Y T Y Q ;.;X`.;.| W Y T } W.`.g.| Q T %.>._.;.%.Q T ] ] [ | q.'.,.%.Q M b b M Y W M M W ;.=X_.",
"[ >..X>.[ W M b b M Y Q =.5.XX,.Q Y Y T Y W | ;.E.7.| | n.XXc.%.W M m m m Y W =.XX;.] T Y W Y b m m M W %.M.'.;.",
"Q | 7.'.;.} Q Y b W | ;.w.|.q.%.Y %.M ] Y T T W %.L._.=XK.>. .T m M Y b W W } 5.>Xc.>.| Q Y T M M T Q } 7.@X>.Q ",
"m Y [ ;.|.q.%.[ T %.,.K.I.'.>.%.T Y b Q M m Y T Q >..XW.,.| [ m v b W M W | ,.`.;.>.XX[.%.| W M Y ] =.q.|.%.W m ",
"T T m ] &.`.XX,.| >.I.;.&.| `._.| Q Y m T m Q } &. Xm.,.]._.>.[ Y m Y Q &.r..X>.} Q %.=.;Xf.&.[ [ &.XXk.;.T Y Y ",
"T m T T Q =.,.<XT.=X%.] Q W | 4.z.%.] Y [ W %.q.|.*.| Q %.q.`.;.} W ] :.r.XX>.[ T Y Y ] ,.Q.XX>.>.XX:.%.] Y b Y ",
"b T m m Y Q [ >.;X>.W T M m T ] =.E.%.} W } K.[.=.} Y m W [ -.XX5.} | z.m.=.[ Y b M W m T | =.~.;X4.} Q M m ] m ",
"M b T W m Y Q %.].%.W M m m m T } =.Q.M.%.,.W.&.[ T m b M Y ] | _.x.6.~.%.Q Y m M b b T M Y W %. X%.T M T m m T "
};
