/* XPM */
static const char *gothic_duck_11[] = {
/* columns rows colors chars-per-pixel */
"11 11 110 2 ",
"   c black",
".  c #010101",
"X  c #030000",
"o  c #020100",
"O  c #000300",
"+  c #0D0805",
"@  c gray4",
"#  c #0B0B0B",
"$  c #1C0000",
"%  c #171516",
"&  c #161616",
"*  c #1A1B1D",
"=  c gray14",
"-  c gray15",
";  c #272727",
":  c #272729",
">  c #2C2C2C",
",  c #2F2F2D",
"<  c #2F2F2F",
"1  c #313131",
"2  c #323232",
"3  c gray20",
"4  c #303135",
"5  c #343434",
"6  c gray21",
"7  c #5D0515",
"8  c #5B0B18",
"9  c #6A0201",
"0  c #770101",
"q  c #780001",
"w  c #7B0000",
"e  c #790102",
"r  c #7C0000",
"t  c #7D0101",
"y  c #70061C",
"u  c #484443",
"i  c #810100",
"p  c #830100",
"a  c #810102",
"s  c #840000",
"d  c #850001",
"f  c #870100",
"g  c #860001",
"h  c #840202",
"j  c #890101",
"k  c #8A0000",
"l  c #8B0000",
"z  c #8B0003",
"x  c #8C0000",
"c  c #8C0003",
"v  c #910000",
"b  c #930101",
"n  c #920201",
"m  c #950101",
"M  c #970100",
"N  c #940203",
"B  c #990000",
"V  c #990100",
"C  c #9B0100",
"Z  c #9A0201",
"A  c #990002",
"S  c #990302",
"D  c #A00100",
"F  c #A30001",
"G  c #A70101",
"H  c #A60002",
"J  c #A60306",
"K  c #AD0100",
"L  c #AD0200",
"P  c #AF0200",
"I  c #B10001",
"U  c #B40000",
"Y  c #B50102",
"T  c #BB0102",
"R  c #BF0101",
"E  c #BE0200",
"W  c #BA0403",
"Q  c #BD0400",
"!  c #C30000",
"~  c #C20200",
"^  c #C40202",
"/  c #C10402",
"(  c #C40105",
")  c #CA0300",
"_  c #CB0D00",
"`  c #CB0E00",
"'  c #D30601",
"]  c #D00604",
"[  c #D50B00",
"{  c #D70B02",
"}  c #D80901",
"|  c #DA0904",
" . c #DE1600",
".. c #E00C08",
"X. c #DC2000",
"o. c #E32800",
"O. c #EF2F02",
"+. c #E83E00",
"@. c #E04C02",
"#. c #FA5700",
"$. c #F85E00",
"%. c #F95B04",
"&. c #FE5D05",
"*. c #F06200",
"=. c #FD7C04",
"-. c #FC7A0C",
";. c #FF7411",
":. c #FC8F00",
">. c #FF9609",
",. c gray99",
/* pixels */
"=.0 G  .K ~ Y #.h a ) ",
"z &.V Q F J o.m E ^ h ",
"V m E 8 u 2 * $ z 9 { ",
"X.t O.O 2 2 2 O h ' n ",
"e K % 2 O 5 ,., % a >.",
"$.I y +., @.4 ~ 7 G n ",
"{ h O , # + # : O a V ",
"*.a ` - 5 O 5 - F | -.",
"e Y V x - - - h t ` z ",
";.e V W %.F V T m 0 ] ",
"x :.n / ( K V ..F } z "
};
