/* XPM */
static const char *gothic_floor_155[] = {
/* columns rows colors chars-per-pixel */
"155 155 218 2 ",
"   c #6E0100",
".  c #740101",
"X  c #7B0101",
"o  c #840101",
"O  c #8B0101",
"+  c #930101",
"@  c #9B0101",
"#  c #95060A",
"$  c #9E0709",
"%  c #A30101",
"&  c #AC0101",
"*  c #A30409",
"=  c #A20808",
"-  c #B30101",
";  c #BB0201",
":  c #BF0B01",
">  c #B40309",
",  c #BB0408",
"<  c #B30809",
"1  c #C40201",
"2  c #CC0301",
"3  c #C40901",
"4  c #CC0A01",
"5  c #C40109",
"6  c #CA0308",
"7  c #C40B09",
"8  c #CE0A0B",
"9  c #D30401",
"0  c #DB0501",
"q  c #D40A01",
"w  c #DC0A02",
"e  c #D50409",
"r  c #DC0509",
"t  c #D30A09",
"y  c #DB0B0A",
"u  c #C31000",
"i  c #CC1201",
"p  c #D41400",
"a  c #DC1301",
"s  c #D51C01",
"d  c #DC1C00",
"f  c #D71009",
"g  c #DB140B",
"h  c #DD1B0F",
"j  c #E20602",
"k  c #EA0503",
"l  c #E40B02",
"z  c #EB0D02",
"x  c #E4050A",
"c  c #E30C09",
"v  c #EB0C09",
"b  c #F10D02",
"n  c #F00E09",
"m  c #E41301",
"M  c #EC1302",
"N  c #E41B01",
"B  c #EC1B01",
"V  c #E51409",
"C  c #ED130A",
"Z  c #E51B0A",
"A  c #EE1B09",
"S  c #F21402",
"D  c #F91606",
"F  c #F31B02",
"G  c #F81C03",
"H  c #F2120A",
"J  c #F31C09",
"K  c #FA180A",
"L  c #F01C10",
"P  c #D42200",
"I  c #DC2301",
"U  c #D52C00",
"Y  c #DC2B00",
"T  c #D33300",
"R  c #DD3100",
"E  c #E42400",
"W  c #EC2301",
"Q  c #E52B00",
"!  c #EC2B01",
"~  c #E52108",
"^  c #ED2309",
"/  c #EF290D",
"(  c #F42302",
")  c #F92300",
"_  c #FA2100",
"`  c #FA2400",
"'  c #FA2403",
"]  c #F32B00",
"[  c #F62C01",
"{  c #F42C01",
"}  c #FA2803",
"|  c #F82E00",
" . c #F92F01",
".. c #F82D02",
"X. c #F92B02",
"o. c #F4230A",
"O. c #FC2509",
"+. c #F42B0A",
"@. c #FC2D0A",
"#. c #E43300",
"$. c #EA3300",
"%. c #EC3301",
"&. c #E53A00",
"*. c #EB3B01",
"=. c #EC3C09",
"-. c #F43301",
";. c #F93402",
":. c #F43B01",
">. c #FA3C02",
",. c #F5340B",
"<. c #FC340A",
"1. c #F53B0A",
"2. c #FD3C0B",
"3. c #FE2810",
"4. c #FB3512",
"5. c #F53A11",
"6. c #FC3D12",
"7. c #D84400",
"8. c #E34200",
"9. c #EE4100",
"0. c #ED4300",
"q. c #E54800",
"w. c #EE4B00",
"e. c #EB4309",
"r. c #F44700",
"t. c #F54301",
"y. c #FA4402",
"u. c #F54B00",
"i. c #F84B00",
"p. c #FB4C02",
"a. c #F1460A",
"s. c #FD440B",
"d. c #F64B0B",
"f. c #FF4C0D",
"g. c #FE4C0B",
"h. c #EF5600",
"j. c #EE5900",
"k. c #F55401",
"l. c #FB5201",
"z. c #F85700",
"x. c #FB5402",
"c. c #F35C01",
"v. c #F55B00",
"b. c #FA5A01",
"n. c #FE5B00",
"m. c #FB5E01",
"M. c #FA5D01",
"N. c #FC5F03",
"B. c #FB5B02",
"V. c #F65409",
"C. c #FF570B",
"Z. c #FE540B",
"A. c #F35D08",
"S. c #F55C0A",
"D. c #FF590D",
"F. c #FE5C0B",
"G. c #F74610",
"H. c #FD4210",
"J. c #FE4C12",
"K. c #FF5413",
"L. c #FF5B12",
"P. c #FE5319",
"I. c #FF5E18",
"U. c #EF6200",
"Y. c #F66300",
"T. c #F86000",
"R. c #FB6202",
"E. c #FD6001",
"W. c #FA6700",
"Q. c #FC6402",
"!. c #F56B00",
"~. c #FA6901",
"^. c #FD6900",
"/. c #FA6E00",
"(. c #FC6B02",
"). c #FF630E",
"_. c #FF630B",
"`. c #FF6A0D",
"'. c #FF6D0E",
"]. c #FF6B0C",
"[. c #EF7A00",
"{. c #F67400",
"}. c #FE7202",
"|. c #FC7402",
" X c #F57A00",
".X c #FC7B02",
"XX c #FF730A",
"oX c #FF730B",
"OX c #FF7F0B",
"+X c #FF7B0B",
"@X c #FF6413",
"#X c #FF6C12",
"$X c #FF6419",
"%X c #FF6C18",
"&X c #FF7413",
"*X c #FF7B13",
"=X c #FF751A",
"-X c #FF7C18",
";X c #F68300",
":X c #FB8700",
">X c #FD8604",
",X c #FC8302",
"<X c #F68D00",
"1X c #FF8A04",
"2X c #FC8B02",
"3X c #FF810D",
"4X c #FF830C",
"5X c #FF8B0B",
"6X c #FD9302",
"7X c #FD9B01",
"8X c #FF9B0A",
"9X c #FF8613",
"0X c #FF8313",
"qX c #FF8815",
"wX c #FF8B15",
"eX c #FF841A",
"rX c #FF9114",
"tX c #FF9119",
/* pixels */
"X X X + + % - ; 0 0 D.R./.b.b.1 1 1 & & & ; & & % % o O + X X . . O @ @ + O O O O @ % 5 2 9  .[ ] (.~.q 0 0 - - & % % o X X X X . X o o O o o o @ @ % 1 1 w j qX2X>Xj j 0 9 ; - - + O O . X . . X o o O o X X + + @ & & - 9 9 v M z m.m.N.l.x.0 0 1 1 ; ; ; @ + + % % - ; 5  . .t.E.R._ ` 0 9 0 % @ O + O X X X X . X ",
"X X X + + % - ; 0 0 C.R.~.l M 1 1 1 & - & ; & & % @ O O O X X . . o + + + O O O O @ @ , 2 2  . .[ (.W.q 0 0 & & & % % o . . . .   . X o o o o o @ % % 1 1 w l 9X:X>Xj j 0 2 - % @ o X o . .   . X o o o o . . + + @ & & - 9 9 z M z m.N.m.x.b.0 0 - - & @ @ + + + @ % & ; 1  . .i.E.R._ _ 0 9 9 % @ O O o . X X . X X ",
"o o o & % i Z Z '.'.).Q.`.1 2 - & & % @ & 8 w w ; ; @ + O X X   . O + O + + O O o + + % - , X.X.( }.}.4 0 0 & & & + + o X . . . . . o + + o o o % - - 2 2 Q Q XX1X>Xj j w 9 - % % + o X . . o X X O O + o X X % % & 1 1 1 l l 0.c.`.g.g.$.4 4 ; ; % % + o O = & & O O + @ % ; ; A.3XOX! ! w 0 9 % @ O O O . o O X X o ",
"+ + + 1 1 Z ) ( >X>XE S S 1 1 % @ @ + o @ - m B l l & % % + + X . X o X X X . X o % & & 1 1 F F B (.(.p 0 j - ; - o o O o o X . X o + @ @ & & & 1 1 1 l l m.m.C.~.Q.( ) o.w 2 & & % O O o o O . . o O O + + + - & ; 9 9 0 ( { ~.2X4XS M z 9 9 & & + + O . X + % % X X O + + ; ; N [ ] ~.(.d z z - - % + @ o o O X X X ",
"+ + @ 1 1 Z G ) >X>XE M S 1 1 % @ @ O o @ & m F m m % % % + + X X X o X X X X o O * & & 1 1 S J B /.(.p 0 w - - & o o O o O o o O + @ @ @ - - - 1 1 6 z z z.z.y.!.W.J _ _ c 2 & & & + O o o o X X O O O + @ @ & & ; 9 0 0 ( { XX2X>XS C l 9 9 & & + + o . . o @ % X X O @ + ; ; N [ ] ~.~.N z z - - % @ @ o O O X X o ",
"1 1 1 G ) '.m.T.z z 1 1 1 % % O O O O X o O + % q w a g h - % o O O O o + @ @ - - 2 9 0 D S k.k.x.k.k.Z.:.:.9 6 6 @ @ + o o % @ @ % , - - 2 9 y I E E i.i.2 2 4 z m /./.-XF m 9 9 9 ; - @ + + + + % % % - ; ; 1 1 q p a a Q.(.x.H K e 1 1 - - @ @ O o X . o O o o X X o O o % & 1 9 4 ,X,X*.[ Q i 9 1 ; ; & @ @ + + @ ",
"1 1 3 _ ] '.x.p.l l 1 1 1 @ @ o o o o X o O + + & - B M ( w q % % % + + + @ @ - - 1 9 9 G G z.p.x.i.i.].x.x.0 0 0 - - @ + O & & & ; 1 2 2 l l M k.k.k.t.t.2 2 6 z l /./.*XF S 9 9 1 ; ; % % % + + % & & 9 9 2 l z } t.l.b.x.x.g.S F 7 2 ; & & O O o X X . . + O + X . X o o % % 2 9 q |.|.k.i.4X*.S l 0 0 9 2 2 & & - ",
"1 1 1 E ! ].x.l.l l 1 1 1 @ @ o X X O o o O + + & & 0 M ( l l % % % + @ @ @ % ; ; 2 9 9 :.:.s.s.J.1 q F.x.b.0 0 0 - - @ + + & & - ; 1 9 9 z M J F.x.C.1 1 1 1 ; 0 w g.x.@X$.Q q 9 2 ; - % & % + + % & & 9 9 9 l l { i.l.N.x.m.l.F F 1 1 ; & & O O X X X . . + + @ . . X o O % % 2 9 2 |.|.z.p.>Xr.F l 0 0 9 2 2 & & - ",
"B B B .X.XQ l l ; ; % % @ O + o X X + + o X o o O + & & & m m A F m 1 1 1 0 r z z 2.p.p.! ] 2 2 6 1 2 q %.-.*. .;.0 0 1 ; , 9 9 9 w l F F l.p.l.9 9 9 ; ; & @ % ; ; l l E E.W.;.[ X.z l 1 2 6 - ; 2 9 0 }  .-.E.E.i.-.m m w 9 ,. .[ ; - % + + X X X o + + @ X X X O + @ & & 1 6 F F B i.y.9 y 9 :.y.C.`.@Xm z z 0 0 0 ",
"y.:.r..X.X$.l z 1 1 @ @ @ O O O o X X + o X . X O O % & & a w F B B 1 1 2 0 w d N :.p.l.S S 1 2 6 1 1 0 -.-.*.-.;.0 0 1 - ; 9 9 9 w w W W x.p.l.9 9 9 ; ; % @ @ ; ; j l E E.Q.%.$.] l z 2 2 9 ; ; 9 0 r -.[ -.E.E.r.<.v v 9 9 >.} [ ; - % + + X . X X + @ @ X X . + O @ & & 2 2 B F B y.t.0 t 9 F F y.(.(.N M z 0 0 w ",
"(././.Y.Y.d w w - - O O O X . + % % X o o o X . X X O + % ; ; ^ ( } 9 q 9 j w Q.~.z.i.u.0 0 ; 1 7 & & 1 0 0 XX|.>XB B w w w X.X.:.T.T.l.k.4 1 8 7 1 6 % % + O O % @ 1 1 2 a a .X;X5X2.s.v l M r r B O.3..X.X4X:.:.E B l c 1 2 ! ,.<.3 1 & + O X X o O O o O o o o @ @ & , 7 m m |.(.&Xl j 0 9 9 B F t.(.~.|././.0X-X*X",
"&.$.#.b.x.@XM z 1 1 & % @ O O + + @ . . . X O o . X o O + % & t l l F F ] :.t.$X'.0.q q 1 ; @ @ @ @ @ - ; ; ).M.c.-.[ j l l [ -.t.W.Q.E E 2 1 1 & & % X X o o o @ @ ; 1 2 j l r.k.E.p.p.M m C w j B ` } x.k.g.l l 2 1 ; ; & & u ! ( 1 1 ; % % O O X X o X O o O + % % - 1 1 M m Q.p.C.w c ; - % & & - 2 2 r.Q.N..X.X.X",
"0 0 9 x.b._. .-.9 2 - & % O + X X o X . . X O O O o o O + % % 1 9 4 (.~.5X~.~.c l 9 2 2 - - + + + + @ % ; ; m M %.C.C.].&X&XM.b.t.j w 9 9 1 1 1 % @ @ o o X X o + + ; ; 1 0 0 M m N x.l.m B m q q V.~./.x.Z.J.l w 2 1 ; - & & i o.W 2 9 - % % O O . X X X o + O O & & ; q 0 i.d.>.X.@.0 j ; - @ & & - 1 2 1.L.D.>X,X,X",
"1 1 1 j r >.x.x.w 0 ; ; ; @ @ O o o X . . X o o O o O + + & & 2 9 2 E.R.(.E.C.0 0 2 ; ; @ @ X X X O O + % % t 0 0 R.E.>X:X2X>.>.] 0 0 1 1 & % % O + @ O O o . . o o @ + % ; ; w j w :.:.T.E.m.,X,Xz.x.k.j w 0 ; ; % @ + + O O % - - B F 4 ; ; @ + o o X o O % @ @ 1 1 q M S x.i.q 0 9 - ; + O O O O + & & ; 1 1 l l z ",
"- - - 0 w ;.i.Q.x.x.9 9 0 ; ; & % % O o o X . . + O & & - 2 2 z z m x.k.m z m 2 1 ; - - O + X X X O O @ @ % t 0 0 /./.1X;X>XS S m 0 9 ; ; % @ @ + @ @ O O O o X X . + @ % ; - 0 0 0 ( } .X.X~..X,X0.-.[ 0 0 9 ; ; @ @ O O O O @ - - ( W ! B B - - % @ O + @ - ; - 9 9 l M M >.y.9 9 2 - - + + o O O + @ @ - 1 1 l l z ",
"@ @ @ - ; 2 w r./.XXC.C.L.9 2 - & % + + % % X X @ @ ; ; 1 z v 9X X XF G l 0 0 - & % @ + O O o o O o o + @ % t r 0 1X1Xw.j v 6 2 1 & & @ @ o o o X X o X X o + + X X O O O @ @ 1 1 2 z z 2X1X!.*.*.N w l 1 2 6 & & + + o o o o + @ @ 4 i ^ F ( ; - % % & & - 9 2 t F G `.{. Xl m 1 1 6 % % O o X X X o O O % - - 9 9 c ",
"+ + @ - - ; 0 :.b.b.R.m.W.0 0 1 1 1 ; & % % + + & & 1 1 2 z z .X.X.XF G w 9 2 % % O o o X X O O + @ % - 5 1 $.i.0.N.N.*.l j 1 1 1 & @ @ + o X X X . . . . o + @ % % o o o % % 3 ; 1 z v {.|.).S S z 0 0 - - - + + o o . . o X O + + % & 1 ; ; m m 1 2 1 1 ; 0 0 9 ( ( `..X{.l l ; - - + + o X X . . . X X O + + & & ; ",
"@ + @ & & 1 w :.x.x.R.m.W.0 0 2 1 1 1 & % % @ @ & % 1 2 9 z z 4X.X.XG F w 9 2 % & + O o . X O o o % % & 1 7 =.i.w.b.N.*.l j 1 1 ; % @ @ + o X X X X X . . o + @ % % O o o @ % 7 1 2 l v {.|.).z M z 0 j - - - + + o o . . X . o + + % % ; ; ; M M 1 1 1 1 ; 0 r r ~._.+X.X{.l l ; - ; + + o X X . . X X o + O O & & ; ",
"o X X O O + % % ; - l 0 w m.b.].>.>.j 9 9 1 1 1 0 9 ( X.*. X;Xw j 0 ; ; - + O - - > @ @ X X X o o % - 9 0 w S.,X;XS S w 1 1 @ @ + o . X X O o o + + @ + + o . X O O % % - 1 1 j z w v.v.-.-.-.9 9 - & - + o o X X X X   . . X . . . o o o O + - - B B F F J g.g.y.|.}.0.c z 9 9 & % % . . X X o O O O X . X . . o o O ",
". . X O O O % % ; ; r 0 9 M.m.XX>.>.l 0 0 1 1 1 9 w [ } *..X.X9 j j ; 1 % + + % @ > % % . . X o O & - 9 0 0 S.2X;Xz z w 1 1 % @ @ o X X X O O o + + @ + O X X X O O % % & 1 1 l l q b.x.-.-.<.9 9 - & & O O O . . o X   . . . X X X X X O + + - - M M ( G J  X.X,Xt.t.! j j ; ; % o o . . .   X O O O X . . X . o o O ",
"  . . X X o + @ & & q 0 9 @X_.0X.X,X] 0 w l m M +.@. X,X2XqXwXp l c ; & % + O + @ - - & O O O O @ ; 1 w l C XX5X2Xv z t ; ; O + O . X X X X X o + + + O X o O O + + ; ; 6 j v x.C.E.,X.X;.;.;.m m 1 ; ; O + O X X + @ o o X X X . X o o O + + - ; l l K.D.C.2X2X2X .[ B 0 9 - - @ o o . X X . o + @ + o X       X X O ",
". . . .   . O O + + - & & 9 9 ( -.-.Y.Q.Q.z z S ;. . X.X,Xw w ; - - @ + O X X X X @ @ @ + O + @ + ; 1 m z M /.Y.Y.0 0 1 & & O O o X .   . . . X O O o . . X O + @ % 1 1 2 l v x.x._.( ( [ { -.[ [ 1 1 1 % % @ o o o + O + o o X . . O + @ @ @ ; ; 9 0 $Xm.T.p.y.p.X.{ o.1 2 - & & + @ O o o o o o o o o + X . . o O @ ",
". X . .   . o o + @ & & & 9 0 F ( ( !.Q.W.c.c.F.b.N.m a E j 0 - - & + + O X . X X O @ @ + + @ @ @ 1 1 F.T.W./.W.W.0 w 1 - & + + O o X . . X X X O O X . . o O @ & & 2 9 q &.*.z.C.K.9 9 2 ; 1 -.-.1 1 1 & & @ o o X X O + O O X . X + + % @ % ; ; q 9 @XT.T.~ E E y.p.f.5 6 - - & @ % + + @ + X X . X . O o X . O O % ",
"O @ % O O X . o o o o o o % % 3 2 9 F ( M 6X6X.XC.C.l j j - - + O O o o O + + O o o o o & % - - - r r F.E.N.;.>.r.( ( w 9 9 & & & @ + o o O O + o o O + + % & - 2 7 z l E ;X;XM b M 1 1 - - ; >.;.f.l l 1 ; & % @ O O . . o X o + + - - 1 2 2 l l t.t.W w c ; 6 1 :.>.y.X.( 0 0 t 1 1 % % % + + X . . X X o O O % % 1 ",
"O % % O O o X o o X o o O % % 1 2 2 F ( F 2X6XR.( ( 0 w w - - + O O X o O + @ o o o X o & % - - - 0 w 2.g.s.( ] y.) ( w 9 9 & & & @ + O O + + + o o O + + % - ; 1 6 z l Q ,X,XM z l 1 1 - - > ,.>.s.l l 1 1 - % @ O O . . o o o + + - - 1 9 0 x.l.t.y.N j w 1 1 1 -.,.>.] [ 9 w 9 1 1 % & @ + + X X . . X O O O % % ; ",
"o O + ; ; % o O X o X o o @ @ - ; ; w w 9 >X1XQ M M 1 1 1 @ % O O o . . o @ % o X o o o @ @ 1 1 4 B B 2 1 ; 2 2 4 x.x.! 9 0 1 ; ; % % % % + O O + @ @ - - 1 2 9 w m :.:.g.oXoXl l w ; ; @ % % ; ; p X.X.; 6 ; & & @ + X X O O O @ @ 1 ; 9 0 0 b.b.1.,.d 0 0 & % ; ; - i p.p.Q ! +.l r ; 1 - & & O O o o o + % % & & 1 ",
"o o O ; ; + . . O X . . . O O % & & 0 0 2 }.}.j l l - - - + + X . . . . X O O . X O + + & - A B W l l 1 ; ; 3 2 9 ;.;.E.l.l.j w w 1 1 - - @ @ @ & & - 1 2 l j j ( ( R.Q.N.F F 9 9 2 & - @ @ @ ; ; a M B y.y.:.{ w 1 1 & % % % & 1 ; 0 w B -.E.N N 2 9 1 & & @ % % ; ; t 9 w N.N.D.S S 0 9 1 1 1 & & % @ @ - ; ; 9 9 F ",
"o o O ; ; @     O X . . . O O % & & 0 w 4 }.}.l j l ; ; - + + X . . . . X o o X . O + + - - A B W j j ; - - 3 2 1 ;.;.E.l.x.x j j 1 1 - - @ @ % & & ; 6 2 j l j ` ( R.T.x.F S 9 9 2 & & @ @ @ ; ; q w r y.y.:.[ w 1 1 & % % % & 1 1 0 0 B >.'.z z 2 2 - & & @ % @ ; 1 2 w w m.N.F.S S 0 w 1 1 1 & & % @ @ ; ; ; 9 9 F ",
". . X + O + o o X X O O O & % 1 2 2 z z &X|.N.e 9 9 % & @ o o X o o + + + o o O O & ; 1 m m l q l - & + + o + % % 1 1 a ! ! E.N.).M v 9 9 1 1 2 j r R |.{.M.R.].-.>.j 0 w 2 1 & & * + @ O O o @ @ - - > j j 2.t.:.Z.Z.l c 2 2 9 l m b.k.b.S B 2 1 % % + O O + O o @ + % & > 1 1 N :.:.m.T.! M M 9 2 9 2 2 w l l ( ( |.",
"X . X O O O o o X X o O O % & 1 2 2 z M *X}.E.0 9 9 & & @ o o X o o + @ + O o O O > 1 ; m C q q r & & + O O @ % % 1 1 m ` ! T.R.#XM b 9 9 1 1 1 0 w &.|..Xm.R.].;.-.w w q 1 1 & & & + @ O O o @ @ - - - z l 2.:.:.p.p.v j 2 2 9 z z b.C.F.M M 1 1 % % + O o @ O o @ @ & - & 1 1 a >.:.R.Q.! m M 9 9 9 2 1 j v l ( { .X",
"X . . X o O O O o o + @ + - - 2 9 9 N N XX(.N.0 9 9 - & % O O o o o O O o o o + + 7 a g B A 1 9 6 % % O o o + + @ 1 1 f ^ ( W.W.].m B 0 0 9 9 9 w j 8.6X8X`.E.@X-.;.w 0 9 1 1 % % & & & + + + + + % & ; y l 6.s.y.l.k.l j 6 6 1 /.|.x.b.V.m C ; ; @ @ + X X O o o + + @ % % 1 1 d 5.1._.Q.:.B B w 0 0 w w J.F.F.(.(.|.",
"X X X X X X o O + @ & - - 9 9 v M z }.~.k.l.x.m m m 0 0 t - - @ + + X . . X o & - g m m , ; + @ + o o . . X o o o % % ; 1 1 S S E z.b.F M z z z ;.>.4X.X;X0 r t ; 1 % % % + + o O + - - & & , o o O O O % % , 1 1 j w i.y.1X2X,X/.].j l r 1 1 @ @ o o o X X .     o X X o O @ + @ , 1 0 0 s.p.p.( ( J M S _.|.|.] ( m ",
"X X X . . o o o + @ - - - 9 9 m m l }.}.z.x.x.t.y.p.9 q 2 - - + + + X X X o o & - V m m - & + + + o o . . . o o o % % - 1 1 S M B b.x..X.X6X6X5X|./.>X,X;X9 0 9 1 1 % % @ + + O O + - - & & & X X o O O % % , 1 1 w j y.i.6X1X6XC.C.w j 9 1 ; + + o o X . . .   . X X X o O @ @ % ; ; 0 9 s.p.i.) ( G E.b.W.|.|.( ( l ",
"+ + + o o X o + - ; 0 0 w @.;.b.p.i.9 9 6 1 1 k.b.b.X.X.@.j w 1 ; ; % % @ % % 0 w 1 % % o O X X X . . X . . + + + o o @ & & 9 2 r F B 2X>XXX}.'.E Q a e y - ; & @ % + + O X o X X X + O o o X o o + + O O O % % % 1 1 0 0 OX>XrXz v 1 1 ; & % O O O O O @ @ X X X o o O X . o o o + + ; ; 2 w e l.m.Y.,X>X0.j j , , ; ",
"+ + @ O o o + @ - - 0 r w -.-.N.l.l.0 9 1 1 2 -.y.i.! [ [ w w ; ; ; % % + % @ 0 w 1 % % O O X X X . . X . . O + O o o @ & & 2 2 9 F B 2X2X0.>.<.m C w 2 2 & & % + + O + O X X X X o + O o X X o o O o X O + @ @ % 1 1 0 0 }.|.3Xl z 1 1 ; & & @ @ O O o + + X X X X o O X . X o O @ @ ; ; 2 0 w Z.Q.W.b.x.a w w ; ; ; ",
"@ @ @ O O O @ + ; ; q q q W.R.x.g.Z.9 9 1 ; 2 a p s .X}.,XK.K.4 2 1 - & @ & & 9 w ; $ @ o o X X X X X X . X O o O O O @ % & 9 9 9 W N ,X,X%.<.@.z m w 9 9 - - % + + O + O o o o o o @ + o X X O O O o o O O + @ % ; ; 0 w XX|.3Xz z 1 1 ; - - @ @ O O o o X X X X o O O X . X o o @ @ ; ; 2 w 0 D.(.Q.s.g.a 0 w ; ; ; ",
"- ; ; % % % ; ; 9 0 9X}.,X:.%.2 9 9 - & + @ & ; ; 1 $.$.w.Q.Q.w j l 1 1 ; 9 9 & % @ O O + O + + + O O X X o X . . + + % ; ; j l j R.Q.B F 9 0 9 1 9 F j j 1 1 , % % O o o @ @ + + @ % % . X . . . O + + X X o + + - ; 0 w <.;.z./.}.S z 0 9 9 - ; & - % + @ O o o X X X o O + + O - ; 9 9 m F F l.b.k.0 0 1 - - @ @ + ",
"; ; ; % % % ; ; 0 9 4X.X;XS S 9 9 9 - & @ @ & - ; 1 z l a ~.Q.w z z 1 1 1 9 2 & % @ O O O + + + O o o X X o . . X + + & ; ; l j l T.Q.) G 0 0 1 1 0 C j l 1 1 ; % % o o o + + + + % % % . X . . . O + + X X O + @ - ; 0 j >.;.c.}.XXC z j 9 9 ; - & & % + @ O o o o X X o o + + + - - 9 9 m ( G b.b.z.w j 1 - - @ @ @ ",
"l l v 6 2 9 w 0 C.C.>X>X2X0 9 - & & O O o O X o @ @ - ; ; q 0 $XW.T.( F q 1 ; + O + @ @ - ; & % % @ @ + + O + @ + & & 1 0 9 } X.XX:.:.0 0 ; & % & - & 9 9 ,.-.~ 2 1 @ % O o o o o o . X o o X . . o o o @ @ - ; 1 w l m N y.y._.oXoXb.B.s 9 4 0 9 1 1 7 ; ; % % @ O o O O O % % > 9 2 M M %XY.Q.l j w ; ; % @ @ o o O ",
"l l l 2 9 9 j w N.N.Q G ( 0 0 & & & O o o X X o + O - ; ; 0 q '.W.W.B ( q 1 ; + + @ % % ; ; & & & @ @ + + + + @ + & & ; 9 9 X.{ }.>.>.0 9 ; - % % % , 2 1 >.>.2.1 1 % % O o o X X X . X o o X . . X o o @ @ ; 1 1 j l ( -.k.b.p 0 9 l.l.(.x.N.z z 2 2 2 ; ; @ % % o O O O + & % ; 9 9 M M #XR.E.l j z ; ; % O + o o o ",
"j l m 9 9 q 0 w E.m.W ) O.9 9 & & & + O X   X o O + - - ; 0 0 %XQ.Q.! %.p ; 1 @ + @ & & 1 ; & - & @ % @ + % + + + & - 1 0 9 #.:..X2.>.0 0 ; - % % & ; 1 2 :.>.2.5 1 - % O O O X X X . . o o o . . o o o % & 1 1 1 Q Q :.k.b.b.2 9 0 k.x.(.x.b.z z 2 9 4 ; ; & - & O + + + + - - 1 9 9 z.S.).F.L.z l r - ; % O O o o O ",
"E.N.Q.2X:XY.i.p.y.y.9 0 9 % % O o o o . . . . . X o O + + & & 2 2 9 y.>.-X>.t.1 1 1 1 1 0 9 m l l 9 9 ; & - % @ @ 1 2 9 z z .X.Xb.l z ; - + O o + + @ % & 1 2 4 y.t., 1 & @ + X X X X . o o o X X + @ + ; ; 0 l q (.{.l.D.9 9 - & - ; 1 j w c y.y..X.X&Xz M 2 9 2 & & & - - 9 2 v S S i.r.N l j ; ; ; + + o X X . . X ",
"Q.R.N.6X1XY.i.x.y.y.9 0 0 & & O o o X O O o . X X X O + @ & & 2 2 9 :.>.0Xp.p.9 9 9 2 2 y.y.a l m -.<.4 1 1 % % % 1 1 q M z .X.Xv.l z ; - O O o + O % % % 2 2 1 y.y.; 1 ; @ + X X X X X o o o X X O + @ ; ; 9 z a (.{.x.K.9 9 ; & & ; ; 0 0 9 t.y.,X;X&XM M 9 2 2 & - ; 1 1 0 9 ).Y.~.] [ a w w ; ; ; + + X X X . . X ",
"y.t.r.5X5X/.b.R.y.s.9 9 9 & % O o o   o O + o o . . O + @ % % 6 6 6 ,.-.E.b.x.,.+.2.s.s.t.y.a w y -.;.+.l V 1 1 1 z z 0.R.!.z b a 1 1 @ @ O X . X o O + + - ; - i p <.<.9 ; ; @ @ O X X o o O + + & ; ; 0 0 q :.l.z m 0 q 2 2 - % @ > - 2 2 2 s.s.3XOX4X(.(.C.C.K.0 0 9 9 9 M S _.~.~.] [ q 9 0 - - - + + o X X O O + ",
"9 9 9 { X.].}.,Xl j ; - & @ O X X . . X X o + O X . . . X o O & & & 0 w q W.Q.t.y.l.l.x.y.y.1 1 6 ] ] B z M 1 1 5 z M t.W.W.z z l 1 1 @ @ o . . X X o O O % % & 9 9 :.>.2 ; - @ @ + X X o o O @ @ - ; 1 0 w a y.t.z z 9 9 - & @ O O % @ & & & ; ; w j I ].~.W.(.~.0 j 9 2 2 S M &X~.U.G ( 2 ; ; + O O X X . . X O o O ",
"6 6 3 B ^ F.4X+Xz z 1 - ; @ + o X . X . . . @ % @ o . . o @ @ & & & w c q >X>X).].].k.k.w 9 ; ; ; 1 ; s X.@.9 9 0 p.l.R.&X(.m C l 1 1 + + o + @ + O O X X @ % & 2 1 Z.Z.Z.z z ; ; & + + + @ @ ; ; 0 r r D._.%X+.,.l l 9 9 % % + X o o o @ % & ; ; 2 6 q q 9 {.|.|.x.x.Q.W.~.E.m.d l j 5 1 - & & + + + X X o + + + + X ",
"% % & 1 2 Q N.c.S S 9 1 1 @ @ O o X o .   . + + % .   . X o o @ & & j j q :X:XN F F 0 0 ; 1 % % % % % - M V { ( z x.x.E.S M 1 1 7 @ @ X X o + @ + O o . . O + @ - - ,.;.D.z z 1 1 - @ + @ % @ ; 1 c w c N.R.#Xj j 1 1 & & O O o X X o o + O O @ @ - - ; 4 9 F S S z.b.(.(./.R.R.d j z 1 ; & % % + + O X X O + + + o X ",
"% % & 1 2 R m.M.S S 2 1 ; @ % O o o + o . . X o o . . . X O o & & & j l q :X:XW F F 0 0 1 1 & % % % % - Z Z [ ] m x.b.F.z b 1 1 3 @ @ X X o + + + O O . . O + + - - / ,.L.m m 5 1 - @ @ @ % % ; ; w j c R.R.%Xj j 1 1 & & + + O . X o o O O O @ @ - - - 2 9 D S M !.!..XXX#Xd.Z.a w c ; > & @ @ X X X O + + @ + X X . ",
"o o o % % 5 j l E.Q.N j j 1 2 & % % + O o O . . X X + + @ & & 2 9 2 i.y.`.i.p.x w q ; ; @ @ O O O o o + - & f m XXb.b.4 9 9 % % @ o o . . . . . X . X     . X o @ % 2 2 e.|.|.9 0 9 1 1 2 9 9 j l Z.l.k.z z w ; - @ @ o o @ @ & & & O X   . . o o + O + % & 2 9 9 T.E.0XS S 0 0 ; - - + + O o o   . . o o - - & o o X ",
"o o o % % 1 j l ~.W.d j l 1 1 % % % + O o o   . X X O O @ & & 2 9 9 t.t.`.p.l.0 0 9 - - + + o o o o o O & & 4 m .Xm.b.4 9 9 % % + o o . . . . . X X X     . X o % % 1 2 &.|..X2 9 9 1 1 9 2 9 j l Z.x.k.b z c ; ; @ % o o + + & & % X . .   . o o O O + & & 2 2 9 R.W.0XV S 9 9 ; & & + + o o X . .   o o ; & & o o o ",
"O O O % % - 9 q .X.XE w j 2 1 - & & + + O o . . o o + @ @ - - 9 0 0 1X2XT.J.Z.w 0 2 + + o O X . . . X O @ % g F W.oXoXa w 0 ; & & % @ O O X . X . X . . . o o O % % 1 1 1 2X1X2 9 9 2 2 U U U W W F.E.F.m m q > > + O O O X X + @ & o X   . . X . O O + @ % 0 9 9 OX1XwXl l 2 1 ; & & + + O O o . . X X X - 1 1 & & @ ",
"@ + @ ; - 4 q q W.W.|.(.|.) ( 9 9 2 - - @ O O o o o & & & 9 9 A B B s.y.d 6 1 v l q & % o o . . . X X O @ @ t l F.x.l.4 2 9 & & % @ @ O + X . . . .   o o O + @ - - 9 9 1 .X.XN S F { ! >X,X.XR.Q.m z z ; ; & + @ o o X X . . X . O % % o o X X X + + % ; > l l l W.W.XXF B 9 0 1 - ; @ @ + @ + . X o . . O + + & & % ",
"@ + @ ; ; 2 q w W.W..X(.|.( } 9 9 9 - & @ + O o o o & & & 9 9 ( F F s.y.p 2 2 z j y & & o o X . . X X O @ @ 8 a L.b.x.4 9 9 & & % + @ O O X X X X . . o o + + @ - - 9 9 1 .X.XQ Q  .[ ] >X;X>XE.E.m z z ; ; & @ + X o X X . . . X o % & o o X X O @ @ % ; ; v v z (.W./.s.>.0 r 1 ; - @ % @ + + X . o . . O o O % % @ ",
"; ; 1 l z g.y.y.a a 3 3 u x.x.).).$X0 0 ; ; , @ % & 1 6 2 p.l.z.p.l.0 0 2 & & 2 1 w 9 9 % % O O O O + + & - 7 q w R.M.i.S M 2 2 7 - - + + O + O O O + @ @ ; 1 1 0 w u.g.#Xp.l.t.i.f.9 9 q q w ] ] y.2.2.9 9 ; & & + O o X X X O X X X o + + + % % 1 1 1 l z z.b.b.+.-.:.p.y.f.s.6.j 0 1 1 - & & + O O o o X o o O + + ",
"1 1 1 z z Z.i.i.j 0 2 2 9 S S /.(.].0 0 1 ; ; & % & 9 2 2 b.C.M.l.l.j j 2 % % 1 1 c 9 9 % % O O O O O @ & & t q 0 b.m.l.S S 9 2 6 - - @ + O O o O O O % % ; 1 2 0 w x.x.XXp.l.y.y.s.2 9 9 9 0 ( ( i.2.>.9 9 ; & & + O X X X X O X X X X O + + % % 1 1 2 z M M.N.m.l j j m V l.p.s.j j 1 1 ; - - + O O o o . o o + + @ ",
"r w N y.s.s.s.s.l j 1 2 2 H M /.(.oXl c 1 1 ; ; & & 9 9 2 6X6XY E ! l q 7 @ @ - 1 y j j % % @ + + O + % - ; I #.Q |.}.k.m m 0 9 2 ; ; % % + O O + + + % - ; 1 q ! ! _.(.#XZ.Z.4 q V 9 6 9 w 0 o.+.x.p.p.2 2 1 ; - + + O O o o + o X o o + + % & - 1 1 2 B B C.F.C.j j 9 q m l.C.J.-.%.9 2 ; ; - @ @ + o o O + + @ % % ",
"z M ! Q.E.9 0 9 ; ; % @ % 1 1 l z a Q.Q.p z M 9 9 9 J G ) Q.~.q 0 w & & % o o % % & - - q w ; - > % % & 2 1 e.R./.:.:.E.Q.~.-.;.@.0 j ; ; % % @ - ; ; 2 2 m M E N.T.F S m 0 0 ; ; 1 @ @ & - - 2 2 2.>.:.p.i.W 0 9 - - @ @ % % + o O @ + & - ; 9 9 i.p.z.}.}.z z l 1 , ; ; 1 j m -.p.u.y.y.q 0 0 ; ; - % % - ; ; 1 2 2 ",
"l M -.Q.E.9 0 0 - - % % @ 1 1 l z a W.Q.a w l 9 9 9 ) ( F (.W.q w 0 & & @ o o @ @ % - ; w l 1 - - % % % 1 1 d.N./.:.:.Q./.(.-.-.<.0 j 1 ; % @ % - ; ; 2 6 J.p.x.T.N.S S l 0 0 ; ; ; @ @ & & - 2 2 1.>.:.p.l.E 9 0 - - % @ @ % + o o + + & ; ; 9 0 k.u.k.}.}.C l v 1 ; - ; ; 0 w ] i.u.y.y.0 0 j ; ; & & % > ; - 1 1 2 ",
"m.b.K.9 9 ; ; ; + + + + O & & 2 9 2 i i }.}. XB F m '.~.~.v M ; ; ; O o X . . o X o + + - ; B M M 1 2 2 :.:. X|.&Xq w 4 4 d Q.W.,X>.>.0 0 1 1 ; 9 0 0 i.p.2X2X3Xw 0 1 9 1 - - @ @ + X o + + @ - - 2 1 1 y.t.Z.m C 9 1 & - + + @ % @ ; ; 0 0 0 [  .:X:X=Xw 9 6 1 1 @ @ + % % 1 1 2 2 1 N.b.x.p.p.0 0 9 2 2 0 { [ .X{.|.",
"m.x.L.9 9 - - - O O X X X + + & - ; 9 9 |.|..XW W M @X~.~.M m ; ; ; O o X .   X o O + O - ; m m Z 2 1 9 :.2. X|.&X0 0 9 w w b.b.XXt.0.0 0 1 1 1 t 9 j p.p.1X1X*Xr 0 6 1 ; & & @ @ + o X O O + & & 6 2 2 [ ] C.M m 9 9 ; - % @ @ % @ ; , y c w t.t.4X4X%Xw j ; ; ; @ @ O @ @ - - 1 2 1 l z L.p.i.w 0 9 2 2 w -.-..X|..X",
"F.x.P.0 9 - & & O O X . X @ + & - ; 9 9 q 4 p .X.X.X/.XX].l z ; - - O O o X X . o o O o % @ ; ; 2 s.:.F.R.M.v v l 0 0 2 r 0 E Q Q }.|.i.i.l w 0 l p.p.}.+X3 1 4 j j 1 1 ; & & @ @ + X X O O + % & 1 2 2 X.{ C.p.x.( j 0 w 1 1 - 1 1 0 w F.N.R./.}.w j j 0 j ; ; ; @ + + O O - - ; 1 2 l j L.l.x.>.>.l l l m y.t.OX+XOX",
"9 9 6 & % + O O X X X X . o o + @ @ & & 9 9 q &.,X,Xb.x.b.w 0 - & & + O o X . o o o o O @ @ ; 1 1 :.>.Q.N.E.c w l - - % - - 9 0 9 M F i.l.j 0 9 m l.l.-.S 9 2 1 - - @ @ O O o X X o o X X X o + + - ; - w w B ( ! X.w w 0 1 1 - 1 1 j 0 F.b.Q.z l 1 2 2 ; - + @ @ X X X X X O O + % % 1 1 w F { >.:.j j l d T.m.w j l ",
"9 9 6 % % + O O o O X X . o o + + + & & 9 2 6 w l w E.N.Q.B W 1 1 1 % @ + o o o O + + @ & - t r a Q.(.E w w 1 2 2 - - & - - 9 9 0 M M m.M.{.{.Y.W.(.x.>.M 9 9 7 - - @ @ O o o X X X X X X o o + + % & % ; 1 9 w m y.:.1.s.w r w F B '.].F.! ! 9 q 6 1 6 - ; @ @ @ X X X o o + O + % % 1 1 y l w N.N..X.X.X/./.(.w j j ",
"- ; > + + X X X + + X o X . . o o o + + & & - w c w z.z.c.{ ;.2 9 9 - - @ + + + O @ & % 1 5 z z l b.N.N j w ; ; - O + O + + & & ; 9 9 ( *.|.|.Q.R.Q.j j 2 ; & @ + + X X O % % O O o .   . X . o o @ % % - ; 2 9 B >.i.p.C.M z l ( G W.(.Z.M S 2 2 & & % + @ X X X X X o O O X X X + + @ % ; 1 9 E.Q.|..X.X!././.2 2 9 ",
"@ @ @ o X . . . + + o X o . . o o o + O @ & & 0 0 0 L.@X_.! -.9 9 2 - - @ + @ + O @ & % 1 - l z z b.b.a j w - - & o O o o O % & - 1 2 B Q w.d.W.W.(.j j 1 & & @ o o . X o % & O O O .   . . X o o @ % % ; ; 1 9 ( ;.i.p.K.S v v ( J ~./.V.M M 6 1 & & @ + + X . . . . o O O X   X O O + @ - 1 2 Q.Q.|..X|.j j l ; ; ; ",
"+ + @ X X .     X X - % & o o . X o o o + & 2 1 - - q w q Q.W.F.( ( j 0 1 - ; % % - 1 1 z z ,X.X.Xl l 1 ; ; + @ % @ @ o X X + + @ & - 1 1 9 9 (.(.}.r j - - % + O O X X . X X o o O o o + @ @ % % + O O + + @ - 1 1 z S E .X.X|.|.|.G G w 2 1 % % + + O o X O + + o o o + O O     X X % & 4 9 9 |.|.N S M 1 2 2 % @ % ",
"+ + @ o o .     X X & % - X o . . o o o + & 1 1 - ; 0 0 q Q.W.C.X.( w 0 2 ; ; & & ; 1 2 z z ,X.X.Xl l 2 ; 1 @ @ & @ @ o X X + + + % - 1 1 q 9 ~./.XX0 w ; - & + O O X X . X X o o o o o + @ @ % % + + O O O & - 1 2 z z E ,X>X|.|.|.G F w 2 2 % % + + O X X + + + X X o O o X X X O O & & 4 0 0 |.|.N S M 1 1 1 % % % ",
"& & - + + + . . . . & & & O O o X o @ @ @ % % @ @ @ ; ; ; a a `.(.W.G F C l w 5 6 4 C B ).@X#.%.*.1 1 & % % o . X O + o . . O @ @ + % & - 2 2 W.W.XX( J 9 9 6 & % @ o o X . . o o o + @ 6 6 9 O O + + @ O O + % - ; 1 1 3 ;X>X%.$.%.s.y.! j w - - + O O X . @ @ @ % & < o o o o o @ @ ; ; L F S R.M.w 0 0 - & % O o O ",
"& & & + + + X X X X % @ % + + o o o % % @ @ O o + + - - ; 0 c #XW.W.G G F z l 9 9 w ` _ XX|.q v l ; ; @ @ + X . . O O o . . o + + @ @ & & 9 9 N.N._.( ( 0 0 2 - % % o o X o o O O O @ % 9 2 0 o o O + + @ @ @ & & - 6 1 3 |./.z m l >.>.:.v z - - + + O . . + + + & & , o o o o o % % 1 1 J F G x.l.9 9 0 & % % o X X ",
"& & - + + O X X O o X X o + + @ % % - - @ + O O O + - & - w 0 y.x.C.*X3X+Xx.x.9 2 l _ ( |.{.a z z ; 1 @ + @ X . . O O o   . o O + % % & - 0 j m.M._.` } 0 0 6 - % % o o o o o o o O % % 0 2 6 o o o + + + @ % & & - 2 1 : |.|.v l z ) ) :.M M ; - @ + O X . o o o ; - - @ + o o O % % 1 1 N B ( k.x.0 9 9 & % % o X o ",
"1 1 2 % % O o o + + o X o & % & & & @ @ X X X o o o + % - 2 2 B  .[ ;X.X1X.XoXt.t.C.m.m.z v 1 1 1 @ + o X X O o o + + O   . X . . o o @ @ ; ; 0 9 a x.l.F ( N 2 ; ; @ @ @ % % - & ; 9 2 - & @ X X . . . X X O + @ - 0 0 ! y.y.e 9 0 1 5 @.] y.9 9 - & % o o X X X O + % & & @ @ @ ; 1 z l @XQ.W.z z 2 ; - + + + X . X ",
"1 1 2 & % O O o o O o X X % % % + @ o o X . . o o X + % ; 2 9 ] ;.;..X;X1X X Xy.y.N.R.T.z z 1 ; 1 @ @ o X X O O o + + o . . . X X X o % % ; ; 0 0 a i.x.W ) B 2 ; ; @ % % % % - ; - 2 9 @ @ @ X . . .   X X O O @ ; 0 0 Q y.y.9 9 9 1 1 { ;.y.9 9 & - % o o . X X o o @ & & @ + + ; 3 z v $XQ.W.z l 9 ; ; + O + . X X ",
"l j l ; 1 & @ + o o X o X % > O o o . . X X o O O O & ; 1 l l *X|.|.j c 2 ; 1 N Q F.XX(.v l 9 1 2 % % O o o o o X O O o X X . X X o O @ @ & & 1 2 9 w j ;X.Xu.j 2 9 1 1 1 4 t B ( +.& - O + + X . X X X O O @ @ - 2 S M %.s.s.2 9 9 ; , V N W A B 1 1 , @ @ o X X X X o O O @ @ - 6 4 C.F.oX(.oXl l 9 - - O o o X X X ",
"z v l 1 2 ; & % O O o X o @ @ o o O   . X X o + @ @ 1 1 1 v m oXW.~.w w 1 ; ; 9 9 H.i.p.;.-.0 9 9 - & + O + X X X . . . X X X X X X o + + @ @ ; ; 2 l l ;X:X0.j 9 9 1 1 1 l l M B o.% % O O O .   o o O + + % & 1 9 ( G :.z l 1 ; 1 % @ 1 2 9 [ { 6 2 7 % % o o o . . o X X @ % ; 2 6 W.(.%.F ` 1 1 ; @ @ o O + . . X ",
"z z z 2 1 & % % O + o X o @ @ o o O .   . X X + @ % 1 ; 1 b n #X~.Y.w 0 2 ; ; 2 9 2.p.p.-.-.9 9 9 & - @ + + X X X . . . X X X . . X X O O @ @ ; ; 2 l l ;X;Xq.j w q 1 1 2 z z F B o.& % o O o . . o o o + + % & 1 1 ( ) :.z z 1 ; ; @ @ 1 1 2 { X.2 2 , % % o o o . . o X X % % ; 2 9 Q.(.%.G ' 2 1 - @ @ O O + . . X ",
"}..X.Xg.f.q 9 e - - + $ @ o O X X X O O + @ % 1 1 1 z z w R.M.w v z ; ; & @ + & - 6 1 1 p.p.b.x.b.j j 2 ; - + @ @ o o o O O + + + @ @ % & ; 1 2 2 l z m y.y.t.p.`.~.F.V.b.-.>.; ; & O O       X X + + + - ; 2 2 l M ;X;X4X2 2 % @ @ O O % % @ w w [ { ^ 1 2 % % % O O + @ % 2 1 0 S D (.~.q j j - - % O o X X X + + o ",
"+X.X Xl.k.q 0 0 - - + + + X O X X X O O + % & 2 1 1 z M m R.R.0 z l ; ; @ O O @ % , 1 1 z c k.b.x.z l 9 ; ; @ % @ o o X O O + + + + @ % & ; 1 2 9 z z m y.y.p.j.;X2X(./.XX:.-.; ; - O O .     X X + + + - ; 9 2 z F 2X,X5X2 6 - @ @ O O @ @ % j j { { ^ 1 1 % & % O O @ % % 2 2 0 S S (.}.q j 0 & - @ o o . . . O + o ",
"&X*X-XY.Q.4 w q ; ; @ + + o o X X o O + @ - ; 1 1 2 l m s +X'.a l l ; & @ o o + + % 1 ; j l m.b.N.N m 4 ; 1 - - @ O O + + + @ @ @ @ & & - 1 2 9 1 a m d Z.p.u.k.<X2X.X|.+X:.:.; ; - + + . . . X X + + @ 1 ; 9 9 w B 2X1X1X2 2 - @ @ o X + @ % t 4 ;.;.%.4 2 - ; - + + & - - 2 9 a N B .X|.q j 0 - - & O O X . . + + + ",
"2 9 w x.k.XXy.s.0 0 ; ; - + + O @ @ & & ; 9 9 F F F .X X XC C 1 1 , @ + + X . X X + @ @ ; ; j j m l.p.,.z M 2 1 ; & & % & & ; 1 1 2 2 9 0 l z ;.y.R.R.p.m w 5 6 0 9 G F ( l.p.q 2 5 % % o o o O O & - ; w 9 B ) b.x.0 w w & & @ o X . . o O o % & A B 2.>.:.0 0 9 ; ; 1 2 6 G ) _./.|.x.b.-.{ ] 2 2 1 & % @ + + X X X ",
"9 0 9 p.p./.t.t.0 0 ; ; - + + + @ @ - - 5 e e F G B .X.X,XM z 1 1 , + @ @ X . . X O + @ - - 0 0 w i.i.<.b S 1 2 1 - & % & & ; 1 1 2 9 9 r l B :.l.Q.R.t.z 9 2 1 2 0 M F W k.x.t 2 ; & % o O O O + & ; , 0 w ` ( C.x.0 0 w - - + o o . . o o o & & 1 9 2.:.>.j 0 0 3 1 7 1 9 ) ( ].|..Xb.C.%.[ ] 9 9 3 & & @ + + X X X ",
"& & - 9 2 1.x.k.W.Y.9 0 0 - - - ; 1 j 0 m -.-..X}.}.C S S 1 1 @ + + o X + + @ o O X . X + + - ; , c j t.m.z.E E m 0 0 9 9 0 M v m E.R.:X;X;Xb.x.=.w c , ; % @ @ & - 9 6 9 G ! l j c 2 1 ; ; ; 1 1 0 0 j ] :.N.b.r r - - - O O o O O O o X X X O O @ & & 9 l y.t.s.j 0 ( t.y.x.l.B c l 9 2 Z.l.p.-.;.X.2 1 - & & + + + ",
"% & & 1 2 s.b.z.Q.Q.0 q w - - - 1 1 0 0 m ;.:.|.|.XXM C M 1 1 @ + + X X O + @ o O X . . + + ; ; ; w l -.>.t.l.x.E 9 9 9 0 0 S M a E.R.:X;X:XG G m 0 0 ; ; & @ @ - - 9 2 2 B ] w l l 2 2 ; ; ; 1 1 0 0 x t.t.m.b.r 9 - - - O O o O O o X . X X O O % % - 9 r y.y.s.j j ! y.t.t.t.N j j 9 2 Z.x.i.;.;.] 2 1 - & & + + + ",
"O + + ; , 4 i i '.].E E ! q 6 w V m V.D.R..X.XY Q Q m m M q t % % % o X + + O + + + + + O o % % % 2 9 q a N N.m.k.a.a.=.%.&.f.g.i.).).8.0.7.2 q w 6 6 % & + o O @ % ; ; 1 m N :.t.s.p m w w 0 l l 1.:.*.|.}.d I 9 2 - % @ o o X O o + + X X . o o @ % & 1 2 2.g.p.F.L.#X}.(.p a w q 6 - ; 4 3 3 F.C.C.a.d.p 9 4 & & - ",
"X o O % & ; 2 1 S S b.k.F.w c H S m .X|.(.t.y.w 0 0 1 1 9 l m - & & O O o . . X X + @ @ X X O + + ; ; 9 0 r [ { >X,X,X(.R.Q.l.x.F.l z 9 2 2 ; ; & % % + + X X X O o % & - 1 1 _.W.].( ) l l l M M #X/./.B G 9 2 - & @ + + . . . X X o o . . . o o @ @ & ; ; J F E |..Xx.F F 9 0 1 ; - % & 6 6 2 >.:.p.k.x.a 0 0 - - ; ",
". . o % % - 1 9 b z m.k.).c z S S M .X.XE.s.2.l 0 0 1 1 2 m m - - % O O X . . X X + % @ X X + + + ; ; 2 0 w ( X.5X2X:X(.W.(.l.p.).l z 9 2 9 1 ; & & & + O X X X o o % & - 1 1 $X%X)._.~.R Q $.%.%.}.}.|.F M 9 9 & & % O O . . X X X o o . . . o X @ % % 1 1 B G W .X.Xl.S S 0 0 1 - - % % 3 1 9 2.1.g.x.x.m 0 0 ; ; ; ",
". . . X X + % & 1 1 1.y.t.N.m..XW.~.z z 9 1 2 - - & @ @ % 1 w G B B ; & @ + + O O X . X O o @ @ @ - - 1 9 9 ( X.1X.X.XC z M 0 9 w - ; @ + % @ + X o o X X X X . X X + + + & - 2 2 2 y.y.6X6X7X(.}.:.;.-.9 2 & & + O O X X + O o . . . . X X o % % 1 1 2 l l _.b._.S S 2 1 1 & % % O O o o @ % % 1 1 9 z l F.b.b.z z 9 ",
"X . . X o + % % 1 1 ,.>.t.E.R..X/.|.M z 9 2 2 - & & @ @ % 1 w F B F ; ; @ O + O O X X X O O @ % % - - 1 9 9 X.] 1X|..Xz z z 9 9 0 - - @ + @ @ + o X o X o o X . . X + + + & - 6 2 2 y.y.7X6X7X}.}.:.-.-.9 0 & & + + O X X + + o . . . . X X o % & 5 1 2 l l _.m.E.M S 9 1 6 % % @ @ @ o o @ @ @ 1 1 2 l j _.N.b.z z 0 ",
"% % % X X o O O - - l l p 2X2X9 l j 2 9 ; ; - @ % % o O O % & - q q g y : & - % @ O + + % % , ; ; c c N f.g.x.p.l ( ( F z l ; ; - @ + o o X X o + + O @ % o . X o O % % & 1 1 0 w q +X;XN M M q q / ,.-.2.4.6 2 & & & + + O O O O o O O O O @ , , v S a +X.Xq.%.-.r 9 ; - & O o @ % % o O o X O & & & 1 1 a d s F.C.s.",
"% % & o X X + + ; ; l l p <X2X0 z z 1 1 & % & + % & o o O + @ - ; ; j j 2 ; ; % @ + @ + & & 1 1 1 l j a i.i.i.p.l ) ) B l z - - - + @ X X . . o O O o X X X X X o O % & - 1 1 r l 4 .X.XS S B 9 9 9 2 2 -.-.2 0 ; - & + + o X o X X O O + + @ ; ; S M m .XXXQ S M 2 9 - & & o o O o o X o o X o % % % ; 1 q w l b.b.p.",
"o o O O O + % & 9 9 ( W P 5X4Xp j j ; - % + + o o O O o O + + & - - q w q q 2 & & & % & 6 1 w 0 y Q Q &.F.N.,.{ 0 ( ( y.g.J.1 1 ; @ % o X X . X O O O . . X o o O O - - ; 9 2 9 q 4 .X.XB S H 9 9 9 9 q :.:.9 9 1 ; ; % % O O O X o + + @ @ % 1 1 d m d 4XOXU m V ; 5 & @ @ X .   . . o o o O O @ @ @ ; ; t w w _.F..X",
"X X . O O % & & 0 0 s.>.E.r.i.1 2 2 & @ O o o X . . + O O O O % % % 1 1 +.] ! 2 9 1 1 1 0 w S M D b.b.D.B S 9 9 ; 0 w p.y.y.9 9 9 & & O O o . X . . X . . X o O @ @ 1 2 2 M S }.|.3XF F 2 2 2 - - % & % m m :.>.q 9 9 ; - @ @ @ O O O O & & & 9 0 .X|..XB B 1 1 ; @ % + O + .     . . + @ + O o o o o @ @ & ; 1 l l 1X",
". X X O O % & - w 0 >.>.E.y.y.1 1 1 % @ O o o X X X + + O O O % % % ; ; +.( ! e 9 1 1 5 j l S M D b.m.L.C S 9 9 ; j j p.y.p.9 9 9 & - O O o . . . X X . . X o O @ % 2 2 2 N N .X}.4XF S 1 1 2 - - % % % q 9 :.>.w 0 9 - - @ @ + O O o O & & & 9 0 .X.X.XF S 1 ; 1 @ @ @ + + . . . . . + @ @ O X o o o @ @ & ; 1 l l 2X",
"O O + & & 6 2 9  . .{.(.&Xj c - & - + O X X X X O @ o O X . . o o O % % 3 4 q ) W 2.t.y.1X1Xv.x.M.v C q 1 1 & & % & & 2 2 e :.:.s.0 j - - & + + O O O O O % - ; 1 1 S G _.|..XM v y ; 1 @ @ @ O O O O O & ; w q g.y.t.l l 1 1 - & & % % 1 1 1 F F {.{.A.1 7 @ @ $ X X o @ @ O o X o o X X O O O X . X o o + @ % 1 5 y.",
"O O O & & 6 9 9 { [  X(.*Xj j - - - O o X . . X O @ X o o   . X X X O + & & ; ( F s.y.y.1X6Xv.x.b.z z 2 1 1 % % @ & & 1 2 q :.>.y.j 0 - & & + + O O O + + & & ; 1 2 F F _.|.|.z z l 1 1 % % @ O O O O O & - j 9 g.i.t.z z ; 1 - % & % % 1 1 2 F F /.}.S.1 1 @ % @ o X o o o o o X o o X X O o o . . . o o + % % 1 1 :.",
"+ + @ ; ; q w m l.x.#.#.=.9 9 & & & + O X . . X o O + + + X X o o o + + % & - l w &XXX}.XX&Xd.J.y.l l 2 1 - + @ + & & ; 1 7 6.y.g.{ ! 1 2 q - & @ @ @ @ @ - 1 2 w w ).).*.I E 9 w t ; - % % @ O o o o O & % ; 1 p E Q 2.>.1 2 2 ; 1 ; - 2 0 w 2.s.).).P.1 ; $ % + X X . . X o o O + + X X X X X X o o O + % & - 9 2 i.",
"- - - 9 9 F G Q (.(.j 0 r - - @ + + + O o . X X X X O O + O O o + + & & 1 1 1 z v 0X.X.Xz z 9 9 9 - - % @ @ o o o O O @ % % 9 9 4 y.t.M M M 1 1 & & & & & 6 9 j S D (.(.Y 0 0 ; ; > @ @ O O O . X . X X + + & - 1 2 2 y.>.-.X.B 9 9 1 1 j l j l.l.M F Z & & + O + X X .   . . X @ % % X X . . . + + + % % ; 2 1 m M Q.",
"- - - 9 9 J G ! }.(.j 0 j - - @ @ @ + O o X X X X X O O + O O o + + & & 7 2 2 z v *X.X.Xl z 9 9 9 ; ; % + @ O o X o O @ % % 9 9 p t.y.S M m 1 1 - & % & & 6 9 j S D (./.P 0 0 ; ; - @ @ O O O . . . X X O O & & 1 2 9 >.:.-.{ B 0 0 1 1 l l j k.x.M F Z & & + + + X X . . . X X + % % X . . . . + + + % % ; 2 1 M M W.",
"z z z ;.;.|.{.&Xl l 5 ; ; + + X o o o O & & & o X o . . o @ @ % & & 2 9 l M M !./.k.m m 2 2 & & - + O O + O X .   . . O + + & & - 1 7 >.-.t.>.2.q 9 9 9 0 B G C.!.~.j x 9 ; ; @ @ + o o   . . X o X X X X X + O @ & & 1 1 <.,.p.N.F.K.Z.x.p.x.k.k.l l r 3 1 % % % @ + X X . X X + @ + % @ o X o @ % % 1 1 w M S R.m.R.",
"z z M ;.:..X|.-Xj j - - - O + X X X o O & & - o X o X X o @ @ % & - 9 9 v S S |.|.z.b S 2 1 & & & + O o O + . .     . o O + & & - 1 1 l l x.2.>.2 0 0 9 0 G ( N.(./.j 0 2 ; ; + + + O o . . . o o X X X o X O + + % & 1 2 J F :.N.M.m.b.z.p.b.l.k.0 l r 1 1 & & % + @ X . X o o + O o @ @ o o o @ % % 1 2 w M F E.E.E.",
"z z l :.:.+X|.eXj j - - - O O o X . o O - - - O o o . X X O O & & - 9 9 m S S W.{.k.S v 5 2 - & & O O O O O X . . . . o o O % % & 1 1 r j E.x.x.i 0 r 0 0 *X.X1XoX#Xj 9 2 - - + O O o X . . . o O @ % % O X o O O @ % 1 2 S F $.{.|.E.Q.z.p.C.M.z.0 l w 1 1 & & - @ @ o X X @ % + X X @ @ o X O % % % 1 1 w M M N N N ",
"Q.Q.R.2X4Xv l z 1 1 + + + X . X o o o X o o o X o X O O + % % - 2 2 M S *X|.|.-.>.N 9 9 & & O O O .   X . . O O O X X . . . o o o @ @ 1 1 0 s.y.y.-.-.>X>X1X].$X9 0 - - & + + o o o . . . . . X o % % & o O X X o @ @ ; ; w j s .XOXS m w 9 9 b.x.z.x.s.w l 1 2 9 - - % + @ o o o . . X X + + @ 1 1 1 j j -.x.k.l z v ",
"~.~.R.1X1Xz j j 1 1 + + + . . X o o o X o o o X X X O O + & & ; 1 1 S S &X.X{.z z 0 9 2 & % o O O . . X . X O + + X . X X X o o o + @ 1 1 0 s.s.N.w.r.2X1X&XM C 0 9 - ; & O + o o X . . .   . X X @ & % o o X X o @ @ ; - j l s .X.XS z 0 9 0 b.x.k.x.f.j l 9 9 2 - ; & @ @ o o o . . X . O + @ 1 1 1 j l *.b.x.j z z ",
"0 0 0 u.u.W j l - ; @ @ + X o . . . o X X X . . X X % & & 1 1 0 j 0 j.x.(.u.k.w 9 1 ; - @ @ X X X . X X . . o O O + + o o o . X X O + & - 1 v l tX1X6X#.&.:.m m 1 1 @ % O o o . . X O + o X X .   X . X o o + @ % - ; j j g.l.N.M M 6 1 - & & ; 3 m B r.z.Y.i.y.y.0 0 6 & % o o X X . o O @ - - l l l x.C.i.Q ! 2 9 5 ",
"0 0 0 p.p.:.X.X.0 9 & & & O O X . . O .   . X o O O % & - 1 1 2 j j x.b._.p.i.M C 0 9 2 - - @ + + o o . . . o o o + + O X X o o + @ & 1 1 0 } ( rX2X2Xl l :.p.p.0 j , - % + + .   . O + % @ @ . X . . X O O @ % ; ; ; j j Z.l.F.S M 1 1 - % % 1 1 M z :.W.~.t.y.y.9 0 9 ; ; @ % o + O @ % - - ; l l l x.x.:.z z 1 ; 1 ",
"0 0 0 Z.Z.E._.%X0 0 - & & + + X X . + X . . X + @ % 1 1 2 l j ! k.x.Q.E.).C.C.m M 0 9 9 6 1 & & & + + X X X X X X X X o o X @ @ @ ; 1 j j 1.'.~.s a a l l ,.p.b.M m 2 2 6 & % O o X O O % & * X o X o o + + - - 2 j j g.g.N.F.$XS S ; 5 - % % 1 1 C v ! @X@X|..X+X} ( m 9 9 % % O + O @ @ 7 2 6 Z.g.g.L._.:.z z ; ; ; ",
"- ; ; j j Q.Q.XX0 w 1 2 6 - & @ + + + + X X o + % @ 1 1 6 l z ! l.k.S J 0 9 9 l l g.p.p.1 1 & & & + + o o o . X X . . X o o % % % 1 1 j j y.b.x.a l l ; 1 9 0 a y.y.9 9 4 & & + O o X . O O O X X O + @ & - 5 2 9 j j x.l.-.S M 2 9 & % + O O % & 5 1 2 w l W.R.W.;.;.w 9 0 - - % & & ; ; 9 9 9 x.l.k.S S 9 2 1 % % % ",
"- - - c l _._.}.Q Q 9 0 0 - ; @ + @ + O X O + - , ; C F E 5X5X(.y.y.w l q 9 2 j c C.i.i.9 9 1 6 7 & - @ @ @ o X X X o O @ @ 3 4 6 l l L.L.T.C.C.B l l 1 ; 9 0 p i.y.0 9 2 ; ; + + O X X o O O o o + @ % ; ; 9 9 %.%.-.N.m.-.S S 9 2 % % + o O % & ; 1 9 w w D.F.F.k.x.Q 9 w 1 1 & - - 9 9 p a d b.b.z.S S 9 1 2 % @ @ ",
"+ + + ; ; w z E b.b.0 0 0 ; ; @ + + o X o + % ; 1 1 S F E :X:Xt.) G 2 2 ; & - - - J.i.p.M M 9 9 9 - - % @ @ O o O O O + % & 6 2 9 M z E.R.R.j j 9 ; ; % % & - 1 c 0 i.y.g.9 9 & & & O O X X o O O % - - 2 9 l z `.|.|.X.X.9 9 2 & & O O X X . o o @ % & - - 0 l j b.N.x.X.;.r j 1 1 6 z l D.~.(.( F F 6 1 - % % o o o ",
"+ + % ; ; y m E N.N.0 w 0 1 1 & % % % % @ % & 1 1 1 S F N ;X;X*.G G 2 9 ; & & - - ; 6 2 :.:.9 9 9 - - % & % @ @ @ @ + @ & - 9 9 9 z z Q.E.T.j w 2 ; ; % @ & - 1 j j i.y.g.9 0 & & & + + o o o + + & ; ; 2 9 ] ] XX|..X( { 9 9 2 % & O + X . . o O @ @ & ; ; j j j b.b.Q.C.N.2.>.9 9 t z l N././.( F F 1 6 - % % o O O ",
"O O + @ % - 1 1 v S .X(.|.z z 2 1 1 % @ @ - 1 0 c j |.|..Xb C 9 1 5 @ % O o o + + , 1 1 >.>.x.b.x.l j 1 1 1 - - - - - ; 9 q ;.>.w.W.(.j l j ; 1 - @ @ O o + @ % ; 1 m q N y.y.1 1 1 ; - & % % - - 9 0 j F B v.E.! C z 2 9 - - % + @ o o . . . X X o O + + @ ; ; 3 l j <.x.k.;.-.j -.;.~./.:.J G 1 2 2 & & + O O . . . ",
"+ + + @ % - , 1 m M .XXX{.M z 1 1 1 @ @ @ - 2 0 l l .X|..XM C 2 1 1 % @ O o o + + ; ; ; >.>.b.x.k.z l 2 1 1 - - - - - ; 0 0 >.:.w.Q.(.j j j - ; & @ @ O o + @ % ; ; w l a i.i.1 1 2 - - & % % - ; w 0 0 ) ] c.B.[ z z 9 9 & & % + @ X X . . X X . o O + + @ ; ; 1 0 w ,.x.z.-.-.j -.-.(.(.:.S D 1 2 2 & % + O O . X . ",
"o o X o o @ & & 1 2 m m d m.z.m S S 2 2 2 l v y.}.}.:.:.:.c w ; - - + O o O o + O % % % 1 1 *.#.#.l.x.-.V F j 9 9 2 9 4 E E OX.XeXi s ; 1 2 % % @ O O X X o O o @ & 1 - ; C.l.q 9 9 2 9 1 6 2 r l ! #.#..X,Xp a w 9 0 ; ; + @ @ O o o o @ + + . . X o X X O % % & 1 1 9 w p }./.,X.X.XM C 9 1 9 & % % + @ O o o o o o ",
"o o o o o + % % 2 2 n M m B.F.N S S 2 2 2 j M t.|.}.H b S 2 1 % % % o X o O O X o + @ @ & & 9 9 2 p.p.:.F G j 0 0 9 w q b.z.W G F 9 9 - - - + O + o o . . . X X + + - ; ; 0 0 X.( @.j j 2 1 1 j j ).(./.t.2.j 0 c ; ; % % O O o X . o O + + +   . . X X X O + + + - - 6 9 i |.}.,X;X:Xz v 0 2 2 % % @ O o . . X o o o ",
"X o X X o + @ % ; ; C S m F.E.Q E B 9 9 9 l B y.|.|.S z S 1 2 % % @ o o o o o X X + + + & & 2 2 t K.g.p.l.k.q q q q 9 q m.m.N G G 9 9 - - & + + + o o . . X X o + O - ; - 9 0 X.] +.w w 9 2 6 0 w =X|. X) ( j j 0 ; ; % % + O o X X o O & + + . . . . . X O + + @ & & 1 9 4 |.|.w w q l l 9 ; - + + @ O o . . . X X o ",
"X X X X X o O O % & 2 2 1 S F .X}.XXE d a *.~._.M M 0 9 9 & & O o o + + o X . X . X X X O + & & - 0 9 %.x.i.:X>X5Xp.l.E.B M 6 6 4 & & + O X . X X X o o o O O + O O o O + - - 2 9 p b.b.! ! ! .X.X&. .X.9 0 ; - & + + O o X . . . X + + ; & ; o . . . X o O @ % & ; ; 9 0 4 }.XXw j j 1 ; 1 % % o o o X X O O o X X X ",
"X X X X X o o o & & 6 2 1 S D }.}./..X.XR.~.XX).S S 9 9 6 % % o o o @ + X . . o . . X X O O & - ; 9 0 E i.g.2X2X6Xl.l.x.S S 2 6 2 & % O O X X . X X X X X O O + O + X O + - - 2 0 q N.b.W.Q.~..X.X$.{ ( 0 9 - - % + + o o     .   . O O & & & X . . . X o o @ & % ; 1 0 0 2 |..Xw j j ; 1 3 % % o o X X X + O O X X X ",
". . X % % O X o + + % - ; z c 0X|.{.2X>X(.|.|.).( ) 2 1 6 & & O O O . X o o o @ % @ O o X . + + + & ; w 9 9 >X>X5X] -.:.M z 1 1 2 % % % % + o X X X X . . X X X X X O O O + + & & ; 1 7 Q ! E :X:Xw j w 1 1 @ @ + O O . .   . X O O o o X o o o o O O O + % 5 1 1 0 j O.( W m.E.N w 0 & % @ o o X . . X o % - > O O o ",
"  . X @ @ + o o + + - ; ; l l +X|.{.z m 0 9 _ Z.>.>.9 9 9 - - + + + X . o o o % @ + O O . . O O + - - 4 0 0 }.|.0XS S m 2 1 % % % o o @ % @ + o X . . . . . . . X X + + O + + & & - 1 1 S S F ,X>X0 w z - & + O o . .     . . X o O   X X . X X X O o O + % 1 1 1 w w ( ) E m.N.N w 0 & & * + + o X X X X O + + . . X ",
"    o % % + O X + @ ; ; ; z v +X|. Xz z 9 9 G g.:.y.0 0 w - - @ + + X X o o o % @ + O O . . O O O - & 9 0 w .X;XrXS S l 2 2 % % % o o @ @ % % O o X .     . . . X X @ @ + O O % % - 1 1 S D F :X>Xj l z & & + + o         . . X o O . . . . . o o O O + % ; v M B D.C.C.x.Z.b.m.N j 0 - - * + + o o o X X O o o . . X ",
"X . . . . o + + - - 0 0 0 b.b.t.[ ;.1 1 - - ; 0 l j y.y.g.w j 1 ; ; % % O + + X X X . X O O X . X + + ; 1 1 T.E.k.9 9 ; & & O O O X . o o + % % + + O . . O + O X . @ @ o X X O O + @ % 2 9 6 /./.0 0 0 - - + O o X X . . + O + X . . . o o o + + % % - 1 2 S S B l.l.i.>.2.F X.p.:.>.9 0 1 ; 1 % % % + + o o X o o O ",
"X . . . X o O + - - 0 0 0 N.m.:. .-.1 1 - - 1 0 w w p.i.Z.l l 1 ; ; % % O + + X X X . X O O X . X + + ; 1 ; W.Q.u.9 9 1 & & O O O X . o o O % % + + O . . O O + . . @ + o X X O O O @ % 9 2 6 |.}.0 w 0 - - + O o X X X X + + + . . . X X o o + + % & - 1 1 S J B l.l.i.:.2.B X.g.>.>.w 9 2 1 1 % % % + + o X X o o O ",
"@ @ % O + @ & - 9 9 F.m.E.:.:.9 0 9 & % + @ & 1 1 1 m m E N.M.N S S 2 1 - & % O O O O o O O @ + + & & y 0 0 x.k.*.1 1 - % @ + + O X X o o X . . % % % X X X X X X X O O @ + + % @ & ; ; z z z |.|.B S S 0 9 & & & + + @ % % @ @ . . X o @ @ @ - - 9 9 0 z z m.b.C.m z 2 7 3 1 1 2 q p m.m._.F G 1 1 1 % % + + O X o O ",
"% % @ + + % - - 9 9 Q.R.W.-.;.9 9 0 & @ + @ & 1 1 2 M M N N.m.B F S 1 1 - & % O + o X o o O @ @ & & & q w w x.l.*.1 1 - % + + + O X X o X X X X @ % & X X X . . X X + O @ + O @ % & ; ; z z M (.}.B S S 9 0 - & & + + @ % + O O . . X O @ @ @ - - 9 9 0 z b M.b.C.z z 1 3 1 1 1 0 0 w E.T.).F _ 1 1 1 % % + O O o o o ",
"o o O @ % - 1 1 9 9 XXXX*XB B 2 6 t & @ + + @ - 3 7 w l a t.y.d.Z.g.1 2 ; - - + + X X X o o & & - 9 9 (  .{ g.s.5.1 1 & @ @ O O o . . o o O o X $ $ * X X X X o o o + + $ @ + & - ; 9 9 ! ] -.].Q.0.t.y.w w 1 1 - @ @ + + o X X X o O O % & & 1 1 m M Q K.K.g.Z.P.z z 2 1 6 > ; 9 w 0 }.}.XXF.).2 1 3 - - @ + + o o o ",
"+ + + - - 2 9 1 y.p.T.R.E.0 0 - - - + O o o o + % @ - ; ; w j F.b.m.p.i.q 9 9 & & & + + O O - - ; 9 9 ^ [ X.F F m 1 1 - % % O O O . . o O @ @ % X . . . . X o + + + o o o @ @ ; ; 1 w w N.b.Q.:.:..X.X{.F F 0 0 9 - - @ + o o X X O @ % ; ; 1 w 0 ( ) g.l.l.S M M 9 9 ; - & @ % ; ; - w w C B M p.p.l.9 2 1 & - + O O ",
"+ + + - & 6 9 2 y.p.R.N._.0 0 - - - + O o X X + @ @ ; ; 1 w w F.b.b.p.p.p t 9 & & & + + O + ; - ; 9 9 ( { @.J F m 2 1 - & & O O O . . o o % % % . . . . . X X O + @ o o O @ % ; 1 1 j w B.b.E.:.:.+X.X XF G 0 q 9 - - + @ o o o o O @ % ; 1 1 w 0 ' ` y.l.l.9 9 9 ; ; @ + + o O % & & j w M B F x.p.k.9 9 ; & & + O O ",
"; ; ; 0 0 +.p.l.k.k.c r w - ; @ + + o X .   X o X o + O @ - & 1 2 9 ;.-.I.K.Z.w c 9 ; 3 , ; j w w ( ( _.!.Y.~.Y.~.F F j 9 0 ; ; - % @ O O X X O + + O X X X X o o + % & & 1 2 z z q l.x.w.u.d.1 1 q q 0 C.F.C.J.f.l v 6 6 > & % & - 5 6 j S M x.b.k.l.*.4 9 & % % + + o o o + + + + + - & 7 4 2 t.t.0.i.i.4 9 9 - - - ",
"- ; ; 0 w C.p.m.x.p.w w r ; - @ + + o . .   . X X X + + @ - & 1 2 9  .[ _.N.b.w 0 2 1 1 ; ; 0 0 w ( ) _.(.Y.~.W.~.F F l 0 9 ; ; - % @ O O X X o + + + X X X X X o + % % & 1 1 l v 0 l.l.:.y.H.; 1 2 9 9 X.{ ].b.F.l l 1 1 & & % & ; 9 9 w z z b.N.l.p.Q 6 2 % % % O O o X o + + O + + & & 1 2 2 y.y.t.i.i.2 9 9 - - - ",
"; ; 1 w w .X|.W.E Q y q w , ; @ + + O .     . . X X O + @ & - 2 2 2 +.<.@XN.N.0 0 9 1 1 ; ; 9 r w { ] *.$.Q P *.k.l.F.Z w 0 ; ; ; % $ O O . X o @ @ + . . . X X o + % % & 1 1 w z w x.x.1 2 2 1 1 2 9 e w 9 V.N.#XB m 1 1 , 1 & & ; 9 9 r z z N.N.p w 1 1 2 % % % O O o X o @ + o O + & & 7 6 6 2.s.y.p.x.2 9 9 - - - ",
"j j 0 p.y.R.R.oXw w - - > + + X X X . + + O o X X X o o o + + % & % 1 2 w z m i.i.%.z z M S W.E.W.y.y.q 9 q 9 2 9 y.y.p.-.;.z z l 1 5 % % O o O + + + o o O + @ % & 2 9 q M F b.b.E.Q W 1 1 2 % % & - - 1 1 w l a x.x.B m l j 9 j z ( :.x.R.Q.S C 9 2 1 & & + + O X . X X X + + . . . O + % & & 9 9 9 i.y.}.] ;.0 0 0 ",
"j j w i.i.C.C.).0 0 ; - - + + o X X . + @ + O X . o X X o + + % % & 2 1 j l z p.p.-.z v S F ~.(.(.>.>.q 9 9 9 9 9 <.;.Q.;.:.z l l 1 3 % % O O o O + O o o O + @ & - 2 2 j S F E.m._.z l 1 5 5 % % & & & ; 1 w w a x.T.>.y.j c 9 j j ] >.x.N.R.M m 1 2 5 & % O + O X X X o o + + . . . O O $ % & 9 9 9 i.i.XX] -.j j j ",
"g.Z.K..XXXj l l ; ; + + @ o o X . X o X % @ * o X X @ @ X X X + @ @ - - 1 9 9 C.C.~.(.].|..Xs a s 2 1 & & % % * & 1 5 i x.x.l q a 2 1 & & @ + + o X o O O + % - 1 9 o.o.N.!.W.q w q 2 1 % & % O O + + @ & - 5 1 6 9 w (.Q.p a 2 q q i.E.N.g.d.l m 1 ; & + + X o o X X o O O O X . . . X o O O + - - - w 0 Y XX*XV.>.t.",
"R.Q.Q..X|.l l v - - + + + X X . . . + X + O + O O X + + o . . o o O & & ; 2 2 G ) oX/.(./.~.j j j 1 1 & % % % % & 1 1 q G o. X.X4Xm b 1 1 - % % @ o o + + @ & - 1 9 ) ( ).W.W.l w 0 1 1 @ % % O O O O O % @ - ; ; 9 9 ` { |.!.E.:X>X+X[ ( j v 1 1 & & @ O O X X o X X + % % @ O +   .   X o o O - - - j j l {.(.<Xb.m.",
"~.W.R. X.Xm l l ; ; % @ @ o o X . . X . O o + + + X O O X . . X o o @ % 1 2 1 M B -X|..XL.L.l z v 1 1 & % % % % - ; ; 4 F G ,X.X4Xm B w 0 0 9 2 5 % & @ % - 6 1 V N |.|.T Q Q 0 r 9 ; , @ @ @ o o O O o @ @ % & - 1 1 M J (.(.(.2X2XoX( B j j 1 1 + + + o X . . . X X O & % % % @ . X X . X o o % & > j j l {..X1Xm.R.",
"w w j b.b.y.F B 1 2 & % % O O O + @ X . . . o @ @ @ . X o X o O O O % % ; 2 2 M B +X|..Xw 0 - - > @ + o o X o o O @ % & 1 2 m m a b.N.z z 9 1 2 2 - & % & ; 9 1 M B /.(.i 0 0 1 1 ; @ @ O o O . X o O O o o O @ % % - 2 9 l z m .X.XZ.l w 1 1 % @ O O O o X     . . . X O O & % & o X . . o o + % % % 0 0 0 XX/.t.S S ",
"0 0 w b.x.x.y.f.c j ; , , % @ @ % % O . .   X O O + X X O O o + @ % ; - t w l x.l.|.|.}.e 0 - ; - @ @ o X X o o o @ % & 1 2 z l m b.b.Q Q E 0 w w ; ; & - 2 j 9 k.D.].~.i 0 0 ; ; - @ @ O + +   . X + + X o O @ @ % - 9 9 l z l .X.XZ.z j 2 1 % % + + O X o . . . o o + O O @ + + X o X . O + @ , , , C M f.}.(.! S S ",
"; 1 1 M C @XM.E.z j ; 1 1 % % @ % % O X X . . o o o X X o O O % % & 1 1 9 m m {.|.].( o.w 0 - - & @ @ O X X O o O @ % - 6 6 l l l F { E.m.b.l z C 2 9 1 1 w M l }.}.( F l r w & & & @ + O O O . . X o o X . X + + % - 6 6 j z m 3X,Xb.F l 9 9 - - % @ @ O O X X . O O # O O O X o o o X X + + @ 1 1 1 S S `.Q.~.A M v ",
"- - - 9 0 F.x._.j j 2 9 2 & - @ + + O o o X   .     O O O % % ; - ; 0 w w E B /.{.j.0 0 & - + O + o o O + o . X X O + + % % ; ; 1 0 9 _.E.m.w l m 9 9 2 1 q m a {./.r w 2 ; ; @ @ + o O . X . . . . . . o o X X X o + & & ; 9 2 x.x.k.B l 9 9 ; ; % % % + O o O O O + O + + X     X o X X + @ @ 1 1 1 M M '.i.i.9 9 9 ",
"- - & 2 2 a m d R.E.l z M 1 1 & % % + o o X . . . . + + @ - - 1 2 9 z z a b.x.v M w 1 1 & & + + O X X @ - - . X X o o O + @ & & & 2 9 l j z b.p.P.j j j j s.W.Y.z z w w 2 ; ; @ @ + o O o + + @ @ + o o @ @ @ X o O @ - - 2 0 9 b.k.:.-.y.p.x.j j 1 1 ; % % O O + X . X + O . . . o o + @ & - - j j l m.l.C.z z 1 1 1 ",
"@ @ % ; ; 9 z m R.N.z z z 1 1 & & % $ + O o . X X o + + @ - - 1 9 9 z z a k.b.b z j 1 1 % % o o o X X % - ; o o o o o + + O @ @ % ; ; j l l R.m.(.i.i.Y..X,X/.!.v z 1 1 & @ + o o o X X X @ + @ + + o o % @ @ + + % ; 1 1 l z l k.b.%.] y.l.x.0 j 1 ; - % % O O O X . . X X     . o o @ @ & ; ; c j k b.z.g.j j & & & ",
"O O O % % ; 1 1 { x.|.~.|.M S 9 1 1 - - @ + + @ @ @ ; ; 1 0 0 W >.t.~.~.XX[ [ 9 2 ; % % O O O o X . . X o o & % & X X o o o + @ % , > r c z _.N.).i.p.~..X4X(.].m z 1 1 % @ @ o o . . . . O O % & @ X X o X X % % - 1 j c ( { t.-.-.9 2 N p.x.x.b.w l l 1 1 % % % o O X X . X o O % % ; - 2 0 0 ,.i.p.k.p.s 1 1 @ @ @ ",
"o o o % % ; 1 1 l z (.(.|.m M 2 2 1 - - @ + + @ @ @ ; ; 1 0 r ] >.y.~./.+X[ [ 9 2 & % % O O O O O . . X o O & @ % X X . o o + + o + + & - 1 w j j p.x.(.3XF.w w 1 1 % @ + % @ o o .     . O O % % @ X X o o o % % - 1 r w } { y.-.,.6 2 w l l b.b.0 z l 1 1 % % @ o O o X . o O O % % ; ; 2 w w 1.p.x.%.l 1 ; ; + + @ ",
"X X X O O + % - 9 9 K.@X@XD.F.4 2 2 - ; & % % - - > 1 1 1 a p ;.l.x.W./.(.:.:.9 9 - & - + + X o X . . X o o @ $ $ X X X X X X X o + @ - ; 1 w 0 0 .X,Xm.( A j w 1 1 % % @ O o . . . . . X + @ @ @ + o o + + + ; ; w j W B Z.k.N.;.-.1 2 r w j b.N.x.x.x.F G 1 1 1 - & % + O @ % & 5 1 c c 2 a a x.Q.Q.~ l 1 - - + + + ",
"X . . X X O @ @ ; ; m l w E.N.:.` ` 9 9 ; ; - ; ; ; ( ( %.x.x.-.F F w 0 2 s.y.M l 2 1 1 % & o O o . X X X o X X X . X o o o o o + @ % 2 2 6 ( X.@.W.(.i.( ;.-. .j l 1 1 - % + O O X X X o O O X X O O O % & & 1 2 l l p.l.D.B N 6 1 % - ; ; 1 l l C.l.N.G G 2 2 1 - & @ @ + % % & 1 1 z l $.x.x.] ( _ 1 1 & + @ o X X ",
"X . . X X O @ + ; - c v q T.m. X.X4Xw w , ; - ; ; 1 ! ] *.C.b.-.F F j 9 q y.t.m m 9 1 1 - & + + O . X o X o X X o X X X o O o O + % % 2 1 2 p.p.p.p.C.y.+.<.:.:.l j 6 5 - % @ + + X X o o o o X X O O O & & - 1 2 j k m.v.D.S C 1 1 & & , 3 1 w j P.C.F.>.=.9 9 2 - - @ @ @ % & - 1 6 z l Q x.l.-.G G 1 1 % + + o X X ",
"+ @ % O o X . . + + - - ; 0 q &X`.].Q.Q.0 j 0 S M S l.x.L.z z 5 ; ; & & - 6 2 :.y.l.y.y.0 0 ; - < O O o X X O O + X X o + + & & - 9 9 l l l x.x.K.j j 2 1 2 -.-.x.x.M z w 2 2 % % + o O X . . O O % & - 9 2 0 S S E.Q.).L.2 2 1 % % O O + @ % ; ; 2 q q C.B.z.b.b.z l 0 1 1 9 0 9 ;.:.W.W.$XM F 1 1 1 % @ + + + X . . ",
"@ @ % O o X . . + + - - ; 9 9 F F B Q.Q.9 j 0 M S S x.x.L.l l 1 1 ; & & - 1 1 y.y.b.y.y.w 0 - - > + + X X X O + + X X X + + % & - 9 9 j j w l.x.s.j j 9 1 2 ] ] x.x.M z w 9 1 % % @ O O X . . O O % & & 9 9 9 S S ~.R.S F 9 1 1 % & O o + + @ ; ; 9 9 4 R.E.C.b.m.l j j 1 1 2 0 0 ;.<.R.W.$XM F 1 1 2 % @ + @ + X . X ",
"@ @ % X X X O o X X + @ + - - 9 0 9 W x..X|.}.k.x.x.q q q 1 1 & @ @ + + + & - 1 ; G.x.x.2.,.; 1 ; @ @ O o o O O @ O O + & % 3 2 2 j w N.b.m.q 2 4 1 1 - % & 1 1 L.g.b.m.L.M m ; , > % @ + + O % @ ; 2 6 m m ,.Z.Z.:.*.2 9 , ; ; % @ o o X X o + @ - & - 3 3 $X#X`.<.] +.w w w W d._.E.'.`.$Xm w - - ; + + O O X o o + ",
"+ @ + . . o + + X X + + + & & 2 9 9 M y. XXX|.x.p.x.0 0 6 - - @ + + O o O % % 1 1 c z m p.p.j l V - - @ @ @ o o O + + % & - 9 9 9 S m b.x.x.0 9 1 ; - @ + % - ; 0 r m.N.D.S z 1 6 , & % @ @ + & & 1 2 9 F M i.(.~.n M 1 1 % & @ + + X o X X X O + & & - 2 1 z z m l.b.K.z z W p.R.l.k.l j 9 ; ; @ % @ o o . . . O + + ",
"+ + + X X o + + . . + + + & & 2 2 9 M g.;X.X;Xi.p.x.w 0 2 - - @ + + O o + % % 1 1 c z z i.l.z j c - - @ @ @ o X o + + @ & - w 9 2 /./.x.l.i.0 0 1 ; - @ + % - - 0 j k.b.C.S b 6 1 ; % & + + @ & & 7 9 9 B m r.(.~.z M 2 2 % & @ O + o X X o X O + & & & 2 1 z b z l.x.Z.0 w Q t.W.x.r.z l 2 ; 1 @ @ @ o X . . . O O + ",
".     + + o . . X o X X X O O % % % 1 1 oX(.|.w 9 9 & & @ + + X X X + + o X . + @ > ; ; 9 0 i.i.i.z z 1 ; ; @ @ @ - - 1 9 0 ! F B }.|.9 w 0 & - @ + + o o O + + & - 0 w a p.l.l l r 1 2 ; ; ; 9 9 ( } [ N.E.$.w 0 - ; % % O O o . . . o + + O . . o o + @ @ ; ; 1 z l E |.}.|.N.2.2 2 - & + + + X X X o o O O + X X X ",
".   . + + o . . X o X X X O o % % % 1 1 oX(.|.9 9 9 & & @ + + X X X O O o X . @ @ - ; ; 9 9 y.i.i.z z 1 ; ; @ @ + & - 1 9 0 >.t.t.) ( 0 9 9 & & + O O X . X O + - - 0 w a p.x.m m m 1 2 , ; ; 9 9 (  .;.b.m.Q 0 0 - - % % O O X . . X o + O X . . o o + @ % ; ; ; z z N .X|.Z.F ) 9 9 - & @ + + X X X o X O O + . . X ",
". . X . . X X X O O . X . X X O + + ; ; &X.X,X9 9 9 % % @ O O o X o O O o X X + + & - - 9 e i.p.l.M m 4 ; ; % % @ - - ; 0 9 t.p.m.( _ 0 9 0 & & + O O X . X O + & - 9 9 d C.C.k.k.f.2 2 1 1 5 9 9 ,.>.t.x.g.W 0 j - - @ % O + o . X . X + O o . X o o O + + > - - w w a ,X.X:.B J 2 9 & & @ O o o o o X X o O o X X X ",
"X X o .   X o X X X o o . O O % % % ; ; `.E.W.; ; ; + + + X X X X X X X X o X X X + + + & & 2 2 9 -.;.2.G ) 1 1 1 0 0 9 b.R.Q ( ] 2 2 & % @ + O o X . .   . X X + + - - 1 2 1 g.p.x.( ) z v l x.x.i.( ( 9 9 ; & & O o o X . . o . X     X X X o o O o o o o @ @ @ 1 1 1 k.l.4 2 1 % % + + o o X O + O . . X X X o o O ",
"X X o . . . o X O O o X . O O @ % % 1 1 #XQ.Y.1 ; ; + + + X X X X o X X X .   o X + + + & % 1 2 1 -.[ s._ ( 1 1 1 0 0 9 b.m.m M m 2 1 & % % + + X X . X . X X X + + ; - 1 1 2 m m >.( ) z v l b.z.i.( ( 2 2 ; & % + o o X .   X X X .   o X X o o + o X X o @ @ @ 1 1 1 k.x.4 1 1 % @ + + o X X + + O . X X . . O O + "
};
