/* XPM */
static const char *gothic_duck_24[] = {
/* columns rows colors chars-per-pixel */
"24 24 141 2 ",
"   c #010201",
".  c #0A0509",
"X  c #0D0D0D",
"o  c #110000",
"O  c #1E0B11",
"+  c #131112",
"@  c #181415",
"#  c #1A1A1A",
"$  c #250F13",
"%  c #2C0B14",
"&  c #360612",
"*  c #390712",
"=  c #242424",
"-  c #2C2C2C",
";  c #302E2F",
":  c #333333",
">  c #3E3E3E",
",  c #460614",
"<  c #4A0615",
"1  c #450915",
"2  c #4C0815",
"3  c #570414",
"4  c #590413",
"5  c #670101",
"6  c #6C0200",
"7  c #600806",
"8  c #630408",
"9  c #6F060B",
"0  c #740101",
"q  c #7B0101",
"w  c #770900",
"e  c #7D090A",
"r  c #562312",
"t  c #58281A",
"y  c #525051",
"u  c #7C7C7C",
"i  c #830101",
"p  c #8B0101",
"a  c #88070B",
"s  c #8A080A",
"d  c #940101",
"f  c #9C0201",
"g  c #92080D",
"h  c #A40101",
"j  c #AC0101",
"k  c #A30408",
"l  c #B30201",
"z  c #BB0201",
"x  c #B60E0E",
"c  c #932406",
"v  c #822311",
"b  c #AC2D02",
"n  c #AE240A",
"m  c #B12B05",
"M  c #AD3A0D",
"N  c #C30401",
"B  c #CB0501",
"V  c #CF0D00",
"C  c #D20502",
"Z  c #D40902",
"A  c #DA0C02",
"S  c #DB0F08",
"D  c #D61600",
"F  c #D31B00",
"G  c #D91C00",
"H  c #E10F02",
"J  c #E51103",
"K  c #E91700",
"L  c #E61901",
"P  c #CC2400",
"I  c #DA2600",
"U  c #E62100",
"Y  c #E52B04",
"T  c #EC2A03",
"R  c #E7200D",
"E  c #F12B00",
"W  c #EE3000",
"Q  c #E73E03",
"!  c #EC3A00",
"~  c #E8320B",
"^  c #EF2C10",
"/  c #D61526",
"(  c #D91428",
")  c #DC4000",
"_  c #C34312",
"`  c #EB4301",
"'  c #EF4900",
"]  c #EE430B",
"[  c #F14D00",
"{  c #F6490F",
"}  c #F9490D",
"|  c #EC5600",
" . c #EF5B00",
".. c #F55403",
"X. c #FB5406",
"o. c #F55D02",
"O. c #F95E02",
"+. c #F65608",
"@. c #F55809",
"#. c #F35E0C",
"$. c #F86402",
"%. c #F26A00",
"&. c #F46A00",
"*. c #F76903",
"=. c #F36B00",
"-. c #FB6A01",
";. c #FE6C05",
":. c #FB6B04",
">. c #F9640A",
",. c #FF630C",
"<. c #FF630E",
"1. c #FF6F0C",
"2. c #F37100",
"3. c #F67500",
"4. c #F67400",
"5. c #FA7300",
"6. c #FC7500",
"7. c #FF7307",
"8. c #FB7501",
"9. c #F77D02",
"0. c #F77C05",
"q. c #FC7C01",
"w. c #FF6716",
"e. c #FC6812",
"r. c #FF6F11",
"t. c #FF7114",
"y. c #FF7E12",
"u. c #A2394A",
"i. c #B84154",
"p. c #857E78",
"a. c #F58203",
"s. c #FB8200",
"d. c #FC8100",
"f. c #FE8200",
"g. c #FD8C02",
"h. c #FF850A",
"j. c #FF870C",
"k. c #FF8908",
"l. c #FB9701",
"z. c #F99A00",
"x. c #978F8C",
/* pixels */
"f 1.N h d q l h.l 0 f Z o.z i d C X.f i d ..N p ",
"f.N q q z C 6.j a.N o.N l -.N #.' A 0 0 h [ V w.",
"l 7.Z f { +.d p D B p s i h s.B i i R Z >.f i d ",
"i f T j.N d d N O.B q f h 3.~ l 0 i z +.B j 0 p ",
"f q B E d 0 l H i C z     z h h ..s.z i l ..Z 9.",
"f B o.h 2.N d       y # : ;       K p 6 6 d 5.h ",
"%.Z p q p A *.  ( . : : : : X /   h ' z F Y h q ",
"l @.h 0 h W l s 4 - : : : : - 4 g d p z Z p 6 f ",
"*.N t.B f.B X.- : : : : : : : : # q h o.B N h p ",
"i 0 p Z   #   : :   : : : :   - - . X   p f ! ;.",
"p p p X , @ ] =     : t r :     # F + 1 # d e.d ",
"A p     & 2 #   i.- c _ M v : u.  # < *     l 0 ",
"Z B h o.$ 4 O @ X = b w 6 m = X X $ 3 % D P +.p ",
"0 N I d h j u :     = + + =     : > h Z f 6 z ,.",
"j :.h 6 0   : = : # x.# + p.# : = :   p p d 6 f ",
"q.l i 0 h   : : : : :     : : : : :   z q 6 z 5.",
"N Z d p E Z # = : : : - - : : : = # p J A z q.h ",
"q Z ^ Q N 0   # = : : : : : : - # o 5 q Z ` h q ",
"q l 3.B A f 5 9 # = = = = = = # 8 5 q z y. .h 0 ",
"z k.j i N %.l Z ;.x a 7 e g n <.N d } F p l q.h ",
"z.Z i 0 0 h l.C f Z l 5 f [ h q Z q.z i d 5 z 4.",
"z ) j 5 z L B B i i B T L f p 6 l g.N p h p B S ",
"p h $.z | z -.f p p B E o.j 5 l 0.l Z U h G C i ",
"0 0 f g.d q h $.d B C i h q.l 6.h 5 0 d r.z q k "
};
