/* XPM */
static const char *gothic_floor_36[] = {
/* columns rows colors chars-per-pixel */
"36 36 141 2 ",
"   c #6E0100",
".  c #740101",
"X  c #7B0101",
"o  c #840101",
"O  c #8C0101",
"+  c #930101",
"@  c #9C0102",
"#  c #A40101",
"$  c #AC0101",
"%  c #B30101",
"&  c #BC0201",
"*  c #C40202",
"=  c #CB0302",
"-  c #C40807",
";  c #CD0B00",
":  c #C90008",
">  c #D30401",
",  c #DA0502",
"<  c #D40A01",
"1  c #DC0A01",
"2  c #CA1100",
"3  c #D71300",
"4  c #DD1300",
"5  c #D21C00",
"6  c #DC1800",
"7  c #E20501",
"8  c #EA0703",
"9  c #E40B02",
"0  c #EB0D02",
"q  c #E20F08",
"w  c #EB0E09",
"e  c #F20B07",
"r  c #E41301",
"t  c #ED1301",
"y  c #E21D00",
"u  c #EC1B01",
"i  c #F21402",
"p  c #F21A01",
"a  c #FA1C02",
"s  c #F3190D",
"d  c #CC2100",
"f  c #D72700",
"g  c #DF2100",
"h  c #E42400",
"j  c #EA2402",
"k  c #E12B03",
"l  c #EA2B00",
"z  c #F32200",
"x  c #F82105",
"c  c #FA2503",
"v  c #F52A00",
"b  c #F62B00",
"n  c #F32E01",
"m  c #F52B05",
"M  c #F42C02",
"N  c #F82A02",
"B  c #F92C01",
"V  c #F32B09",
"C  c #ED3000",
"Z  c #EE3700",
"A  c #E03900",
"S  c #EC3B00",
"D  c #F63700",
"F  c #F73104",
"G  c #F23502",
"H  c #F93202",
"J  c #F63C01",
"K  c #F63F00",
"L  c #F43B02",
"P  c #FB3902",
"I  c #FF350D",
"U  c #FE3F0B",
"Y  c #E74D00",
"T  c #F74100",
"R  c #F64400",
"E  c #F54300",
"W  c #F84701",
"Q  c #FA4502",
"!  c #F64B00",
"~  c #FA4802",
"^  c #FB4B02",
"/  c #FA4C01",
"(  c #FB470A",
")  c #F64A08",
"_  c #EF5000",
"`  c #ED5900",
"'  c #F65500",
"]  c #FC5400",
"[  c #FC5401",
"{  c #F55800",
"}  c #F85800",
"|  c #FD5E00",
" . c #FB5B02",
".. c #FF5109",
"X. c #FD500E",
"o. c #FF570C",
"O. c #FF5B0D",
"+. c #FF5B0B",
"@. c #FD5612",
"#. c #F46200",
"$. c #F96700",
"%. c #FF6005",
"&. c #FC6503",
"*. c #F76B00",
"=. c #F66900",
"-. c #FA6900",
";. c #FA6B02",
":. c #FE6B03",
">. c #FA6D01",
",. c #FC6A07",
"<. c #FA6F06",
"1. c #FC6C02",
"2. c #FF6008",
"3. c #FF6609",
"4. c #FF640F",
"5. c #FF630C",
"6. c #FA6E0F",
"7. c #FF6C0B",
"8. c #F37500",
"9. c #FC7301",
"0. c #FD7502",
"q. c #F57900",
"w. c #FB7B00",
"e. c #FB7E00",
"r. c #FD7D00",
"t. c #FC7C02",
"y. c #FF740D",
"u. c #FF6012",
"i. c #FF6316",
"p. c #FF6D11",
"a. c #FF7E10",
"s. c #F68200",
"d. c #FE8301",
"f. c #F88600",
"g. c #FC8205",
"h. c #FB8300",
"j. c #FC8E03",
"k. c #FA8C03",
"l. c #FC9103",
"z. c #FB9600",
"x. c #FF9010",
/* pixels */
"X & $.0 $ $ + . + O = ;.> @ . o o * x.7 # . X X @ > Z O.% + # n c # o . ",
"* ] * @ X @ p # @ % p ~ %.% $ = t T = ;.> # + = m } r $ X + X # 9.l., $ ",
",.w @ o X X O r 7 :., # , b B *.* O o * d.0 1 w.> $ j # O O % u 7 = 6.e.",
"% W 1 & o X # h 0 = + X # >.u = @ O X @ , h.s.7 @ O ; u @ % < J $ o @ 9 ",
"X # , | , = b 9 @ @ X # > 0 # . o + X # 9 F , O X . X + t r.u.& . o . X ",
"# X o $ x Y 1 O + o # , 4.z $ O O + & 4 e % D * O o # * J * R > # o . # ",
"X . o + 7 , $ X o X % = + 3 7 = # = l ) & O $ ..* $ > 3.- @ % @.< & $ , ",
"X O % > <.~ > + X % % o . # i } z.g.= $ o $ X # 7 j.X.* X . X + , 2.C z ",
"& % 0.y % & 6 9 * # O o O + 9 $., 1 $ o + X . X % H p.> $ o X + > 3.7 @ ",
"o.1 s * X o @ 2 d % , * % = h.r + % h * X O X & *.+.; +.E > # =  .= # X ",
"> 0.% O . + . $ S R 1 * u r 0 * X O % E # o # < 0 $ + $ 7 :.G $.= + . O ",
"o 9 7 * O X + > 7., + o $ | # X .   O > > > 7 t @ + + . O = 0.> + . o o ",
"& W = J , # = / & * # O % | > $ O @ > ] Q , z > + X X + * } 9 ! = + o + ",
"G , @ * ;.r ..= o O ; - ) U 1.u % G y.u & # =  .* + $ 1 k.9 $ , } = * p.",
"> O X o $ 1 %.* O O $ :.1 % > i e.^ & @ X X + * Q 1 i.j = @ X O * i.e.7 ",
"+   $ X o & 1 B * $ 0 9 * @ + & f 1 + X o + # O = h.0.= O + o X # t.t # ",
"* o . $ O o $ H r.W w @ o + X o = ] = @ % @ . X % Q & D $ X + + 0 1 % . ",
"w.> + O O * t 0 # & / 7 % o + + > t l k &   X % u = o @ c # + = 1.% o + ",
"> _ & + % j 0.* O X & / r % & > R O.= a > O + 1 ' % . o > , * n [ = $ X ",
"o = ' 9 0., * $ X . X & 1 d.' 0 & + X # >.9 i p $ . O . @ p y., # 4 [ & ",
"# O 9 k.* @ o & * # $ 9 ' z % + X X X $ 9 i > H % X o @ t i * o X + * } ",
"O = :.9 O X o o * z j.w & $ J 7 + O & a w @ O % W * @ * 8.@ o o X X o * ",
"& z , % + X o + = r 0 % @ o > Q * $ r 7.& O . O = n > 7 p O X X X o $ U ",
"$.7 + . X X + = r.0 # . X X o @ Q f.9 & o . X o @ 7 a.> ] > $ o . $ 8 0 ",
"& :.= $ + @ : ' > 9 = + X X # * [ & G > O O X % 7 i * O * &.m % & g i @ ",
"+ & :.w @ 9 9.* o @ J 9 * % P 1.& O # 9 = # & a 0 $ + X O & y P ;.> # . ",
"X O = p 9 A < o X . + , ` ! = & X o O + V 9 q.> @ X o % . @ > 0.* o X X ",
"X O & 9 0 W , + o @ . % 5 p # o O   . @ # i h.$   . O . o 1 ( | % o X . ",
"# %  .H @ = 0 p $ + o $ r * + o X X X + # 0 9., + O . @ >  .> & #.* # o ",
"& / 1 % . X + = %., & z 0.u & + o X o # 0 T * B 9 # & 0 / # O + $ h ~ % ",
"h 9 @ O o X O # < ] 0.* $ = 8 & O O $ r > $ + & > 7 1 5.* O o . o $ u 6 ",
", o.& @ . O X # 9 7.1 @ X # 0  .9 & y 7.& + . X # 0 q.= @ . + O X $ u 0 ",
"# 7 Z 7 # O $ y +.9 @ . $ o @ & | { 0.* o X # + $ u O.] > + . . $ > } $ ",
". @ 9 #.1 & c p 6 t $ . o X o # B 7.I * O O X $ 9 u & * ' = # # 9 &.* o ",
"+ + + $ l / , + @ * / % @ + > u > # & | = @ $ p e # o X $ 0  .^ 7 @ o O ",
"X o o O % & + o O O * ] = & +.> + . o % / q ( , # + X X o @ = = + O X o "
};
