/* XPM */
static const char *gothic_duck_82[] = {
/* columns rows colors chars-per-pixel */
"82 82 244 2 ",
"   c #020101",
".  c #0A0201",
"X  c #0C0C0C",
"o  c #070806",
"O  c #120002",
"+  c #1A0000",
"@  c #120A06",
"#  c #16120D",
"$  c #160D10",
"%  c #141414",
"&  c #1C1415",
"*  c #1A1718",
"=  c #1C1B1B",
"-  c #161B1A",
";  c #230000",
":  c #2C0100",
">  c #240A0E",
",  c #29050C",
"<  c #340001",
"1  c #3C0000",
"2  c #38050D",
"3  c #230B11",
"4  c #2C0A12",
"5  c #280710",
"6  c #360712",
"7  c #3C0613",
"8  c #330912",
"9  c #3B0912",
"0  c #231317",
"q  c #1F1F21",
"w  c #211F20",
"e  c #1F2521",
"r  c #242424",
"t  c #272729",
"y  c #2C2B2C",
"u  c #292628",
"i  c #2F2F31",
"p  c #333333",
"a  c #3B3A3B",
"s  c #373436",
"d  c #302E30",
"f  c #4D0200",
"g  c #47030A",
"h  c #580601",
"j  c #430614",
"k  c #4C0514",
"l  c #430814",
"z  c #4A0914",
"x  c #540515",
"c  c #5B0515",
"v  c #5B0817",
"b  c #640101",
"n  c #6D0101",
"m  c #650A04",
"M  c #740101",
"N  c #7C0101",
"B  c #770B04",
"V  c #791502",
"C  c #620415",
"Z  c #6B081C",
"A  c #690518",
"S  c #7A051D",
"D  c #750619",
"F  c #681000",
"G  c #75220B",
"H  c #6F240F",
"J  c #720A21",
"K  c #4A3C3C",
"L  c #73313E",
"P  c #41403E",
"I  c #753A40",
"U  c #434242",
"Y  c #4A4643",
"T  c #4B4848",
"R  c #555452",
"E  c #615556",
"W  c #6B6867",
"Q  c #7A7675",
"!  c #776D61",
"~  c #840101",
"^  c #8C0101",
"/  c #86090D",
"(  c #930101",
")  c #9B0101",
"_  c #980809",
"`  c #871D02",
"'  c #921F00",
"]  c #9D1804",
"[  c #880217",
"{  c #92041A",
"}  c #9A0317",
"|  c #971B11",
" . c #A30101",
".. c #AC0101",
"X. c #A70807",
"o. c #B30202",
"O. c #BC0201",
"+. c #B30903",
"@. c #BE0903",
"#. c #BD0409",
"$. c #A91702",
"%. c #A6061B",
"&. c #B5061C",
"*. c #B51902",
"=. c #922102",
"-. c #9A2200",
";. c #9D2719",
":. c #A92701",
">. c #B5340A",
",. c #BD0C20",
"<. c #C40301",
"1. c #CB0402",
"2. c #C50902",
"3. c #CC0A02",
"4. c #C90609",
"5. c #D30602",
"6. c #DA0602",
"7. c #D40A02",
"8. c #DB0C02",
"9. c #D60C08",
"0. c #C41400",
"q. c #CD1201",
"w. c #C71A00",
"e. c #D41301",
"r. c #DD1201",
"t. c #D21A00",
"y. c #DC1901",
"u. c #DF1008",
"i. c #E20D02",
"p. c #E00F08",
"a. c #E31302",
"s. c #E91503",
"d. c #E41B02",
"f. c #EA1C02",
"g. c #E81C09",
"h. c #D22400",
"j. c #DC2500",
"k. c #D32A00",
"l. c #DC2B01",
"z. c #C83903",
"x. c #DB3200",
"c. c #D33E02",
"v. c #D83D00",
"b. c #CF2204",
"n. c #E22301",
"m. c #EA2402",
"M. c #E52C01",
"N. c #EC2C02",
"B. c #EF230A",
"V. c #F12403",
"C. c #F12B01",
"Z. c #F02E08",
"A. c #E53400",
"S. c #EB3402",
"D. c #ED3B01",
"F. c #EB3707",
"G. c #F23401",
"H. c #F23C02",
"J. c #F63B0B",
"K. c #EA3F14",
"L. c #C51124",
"P. c #D9192A",
"I. c #D51E32",
"U. c #E52537",
"Y. c #A54A15",
"T. c #D54904",
"R. c #DD5312",
"E. c #DF5100",
"W. c #E44401",
"Q. c #EC4301",
"!. c #ED4A02",
"~. c #ED4709",
"^. c #F24402",
"/. c #F44C02",
"(. c #F94C03",
"). c #F44909",
"_. c #FB4C0B",
"`. c #F74309",
"'. c #EE5100",
"]. c #ED5C01",
"[. c #E65A00",
"{. c #F45401",
"}. c #F55C01",
"|. c #FA5C04",
" X c #FD5C0C",
".X c #F85509",
"XX c #FA4C11",
"oX c #F84210",
"OX c #FE5714",
"+X c #E65713",
"@X c #EA6302",
"#X c #F46201",
"$X c #FA6402",
"%X c #F56C01",
"&X c #FB6B02",
"*X c #FE640A",
"=X c #FD6C0B",
"-X c #F3670A",
";X c #F57300",
":X c #FA7402",
">X c #F67B01",
",X c #FB7C02",
"<X c #FE730B",
"1X c #FE7B0C",
"2X c #F57508",
"3X c #FE6412",
"4X c #FF6C12",
"5X c #F26C13",
"6X c #FE7413",
"7X c #FB7917",
"8X c #EE750D",
"9X c #FF7421",
"0X c #843C48",
"qX c #AF3449",
"wX c #847B76",
"eX c #C34052",
"rX c #F78300",
"tX c #FC8302",
"yX c #FC8B02",
"uX c #FF820B",
"iX c #FA8A08",
"pX c #FC9403",
"aX c #FE9903",
"sX c #FF970A",
"dX c #FF8B14",
"fX c #FD8617",
"gX c #FF9112",
"hX c #FD942B",
"jX c #8D847B",
"kX c #928D89",
"lX c #A79D8F",
"zX c #A39E9A",
"xX c #B8AD9F",
"cX c #BBAEA1",
"vX c #BFB3A9",
"bX c #C3B8AB",
"nX c #C8BEB3",
"mX c #CEC5BB",
"MX c #D3C8BC",
"NX c #DED6D3",
"BX c #CCC4C2",
"VX c #F2E8DF",
"CX c #FEFEFE",
"ZX c gray97",
/* pixels */
"N ~ ^  .o.<.r.$X{.O.(  .( ~ ~ N M N ~ ~ M ~ ( O.a.M.,X5.5.o.^ ^ M M N ~ ( ( ..O.1.r./.#X<.o.( N ~ N ~ ^ ~ N ~ ^  .O.6.N.yX(.a.O.i... .) 2. .1.H.*X$X8.O.) ~ ~ M M M ",
"^ ^ ) 1.2.<.,X3.3...~  .o.) ( ~ ^ N M ~ N N )  .7.k.yX<.2. .( ( M ~ ~ ^ ) +.<.q.3..XuX$X3.3...^ ^ M N ~ ( ( ) ) O.8.7.Q.dX7.<.) ^ M ~ ( ^ ~ ) O.W.&Xq.<.<.( ( N M ~ ",
"^ ^ ..1.uXyX}.<.1.) ~ ) ..o.1.) ( ^ ~ N ^ ..o.<.a.W.,X8.5.o.( ^ N M )  .O.<.3. X$X].}.#X^.8.O.( ^ ^ M ~ ^ ) ..2.3.6.$X].C.5.<.) ~ ~ ~ M ~ ^ ( O.F./.$Xi.2...) ^ ~ ~ ",
"o.<.7.,XA.i.<.....( N M ~  .2.d.7.O. ...1.3.|. X$Xd.N.#X$X6.o...( ..<.5.s.#X}.A.7.O.O.7.|.yXi.<.o.) ( ( ..5.5.8.|.%X}.7.1. .( ~ M M M ( M n ~ ) O.9.}.%XyXJ.1.1. . .",
"6.e.(.2X3.<.( ~ ~ ^ N N ~ ~ ) O.t.H.1.9.r.m.,Xp.O...o.8.e.tX8.1.O.5.a.{.{.y.<.O...( ^ O.7./.(.a.i.<.O.O.8.f.M.&X_.5.8.8. .( ~ M N ~ M N ^ ^  .O.k.{.#X8.u.!.yX7.5.5.",
"&X%XyXA.1. .( N N n N ~ n M ~ o.@.S.t.r.<X#X<.O.o. .) 2.9.,Xt.q.0.k.{.7.<.4.<. .) ~ (  .1.n.|.A.S.r.u.r.y.>XQ.7.<.2.3.r.o.( ~ M N N M N ( ^ o.<.h./.A.3.7.F.-X$XyXsX",
"}.OXy.&X9.<. .( ( N M N N ^ ~ ..2.3.;XrX].M.<.O.) ~ ( O.O.y.&X}.}.,Xe.1.<.o. .^ ~ M ~ ( o.3.a.;X=X(..X}.,Xf.r.5.O.( ( 2.7.y.O.( ~ M ^ ( O.O.1.}.*XF.<...( O.5.l.4XyX",
"<.<.<.N.rXf.1.o.o.) ) ^ ~ ) ..1.7.C.yXa.7.<.) ~ M ^  .) O.3.pXpXM.7.O. .( ~ M N N ^ ^ ~ ) ..<.f.d.aX].w.r.1.O.) ( M M ^  .<.a.O.) ^ ) <.a.a.%Xt.<.O.) ^ M ^  .<.<.<.",
" .X.O.7.:X<X3.5.5. .( ) )  .8.t.h.!.dX6.9.o.^ ~ M ^ ) +.2.3.uXj.5.<.( ^ ) ~ M ~ M ~ ~ ^ ~ (  .7.7.rXi.a.8. .( N ^ n ~ ^ ^ O.g.7...O.7.s.,X,XuX2.O.) ( ~ ~ ~ N  .+.<.",
"~ ^ ^ ..<.W.,X5.5.O.O.....<.5.&XdX&Xr.1. ...o.( N ~ o.5.e.rXN.1.<... .N ) M M ^ ( M N ~ )  .1.a.8.,Xi.i.<...) ^ M b M ~ M ^  .7.r.<.1.f.,X>Xa.o. .^ M N M ( ^ M ( ) ",
"n N ( o.1.1.f.%X&Xa.1.5.7.d.yXS.1.1.O. .^ ^ ..( ~ ) 9.3.^.iX5.5...^ M ( M ( M ( ~ ^ ~ o...<.a.#X%X{.5... .~ M M ^ n n M ~ M ^ ..a.D.tXyXi.i.<.^ ~ N M M ( ^ N n N N ",
"^ M M ^ ( ) O.7.N.>X}.A.S.tX7.<.O. .( ~ ~ M ( ....<.}.sX{.#X^.2.1. .~ M ~ ~ ) ^ ( ....) 1.r.;XN.m.H.D.r.o. .^ N ^ N ) ~ M ( ..O.5.-X}.|.m.f.O...) ) ^ ^ N ~ ^ M ~ ..",
"^  .( N ~ N ( <.7.i.pX>X$Xa.<.( ( ^ (  .) N ~ ^ o.7.$X.X8.1.#X=X8.<...^ ) ..) ....<.o.3.e.{.#X1.<...o.`.m.o.o.) ~ M ~ )  .O.1.^.$Xf.O.<.}.{.}.5.2.<. .( M M ~ ( ) 2.",
"M  . .^ n n N ( o.<.;XpX8.1.( ~ M M M ( ( M ) o.3. X7.3...o.a.,X;XF.V.8.3...O.1.: . ^ x.<XrX7.O. .^  ...S.(.oX2.1.) ) 1.7.l.=X/.3.o.o. .O.O.S.3X Xg.1.O...)  .<.2.^.",
"M ) O.M M n M ( ..5.rXsXa.o.) ^ M M ~ ^ ^ ~ ) O.1.|.7.2.+. .g.*X1XQ.V.a.7.o.<.. e s o ].,Xm.5.....^  ...O.{.^.7.O. .O.<.<./.&XN.5...( ) o.o.7.$X}.H.<.<.o. ...<.5.#X",
"M N ( ^ M ~ ^ ..3.r.pX}.m.1.o.( N ~ M ~ ^ ) O.r.D.a.O...( ~ O.1.7.;X5.<.a.H.. p r r p o ^.1.O. . . .^ ^  .O.3./.|.1.1./.rXC.9.O...~ ~ M ( ) o.1.OX{.;XG.7.1.8.,X,X^.",
"N M M )  .^ ..5.|.,X/.!.}.}.7.O.)  .~ ^ ( 3.d.o. . ..   m  . .O.2.{.&X      a u s p t   . . . <.2.) ) ) ~ _     3.}.yX/.d.1.o.( ~ M M b M N ( ) O.2.8.}.}.pXtXH.3.<.",
"^ ^ M ^ O.o.9.N.iXN.<.1.3.M.$X6.<.O.) ) 3.a.o.) ) : %.O B  .5.r.N.. . Y T   y p p p r   p o   . . o. .( ( _ . { ; 7.;X8.7. .( ( ~ n n M ( ^ N ~ )  .1.a.,XyXW.5.2.) ",
"O.O.( )  .1.8.}.|.1.....o.<.N.&XQ.1.<.<.f.o.( (  .  U.7 . ..<.b   Y Q R p p % y p p * p r   p u = . / o.... + &.o 3.%Xd.<.O.) ^ N M M M ( ( n ~ ^ ^ O.8.;X X5...( ^ ",
"<.O.O.O.5.t.;X7.7.O.( ( ) O.5.}.&X#X8.<.1.(  .<.1.  %.L.. y.. # R kXs p p p p p p p p u o p p p y r o O M.. P.%.  .X^.$X^.7.1... .) ( M M ~ (  .O.O.7.&XQ.7.o.^ ~ ~ ",
".XK.2.7.1.A.3X7.6. .^ ~ M ~ o.<.t.=X*X<.2...O.O.5.  %.P.2   X p R Q s s p s s p p s s y y p s p p u * X . < U.{ . D.<.q.<XoX<.O.O.) ^ ~ N ~ ..o.O.2.r.%XJ.5.o.^ ~ N ",
";X Xd.m.,X<X7.<.o.^ M n M ~ ( O.1.a.rX{.G.5.d.$X^.  { I.&.. .   U p p p p p p p p s p s p p s p p y     . P.&.[   a.O.8./.|.$Xa.<.O.)  .(  .2.8.).%X%XH.1.2.( M N ~ ",
"1.x.%XpXa.3...^ ^ M ~ ( ~ M ^ ^  .o.6.^.rX}.%Xa.<.  A %.&.P.D v   i p p p p p p s p p s p s s s s   v [ P.} { A   ..^ ( ..<.2./.$XD.9.1.<.2.&X%X4Xm.1.1...( N ( ( ^ ",
"<.4.3.yX7.3.^ M M M N ^ ( n N ^ ^ ) O.r.yX/.3.O.)   k D { } L.{   p p p p p p s s p p s p p s p p   { ,.} [ C z . o...^ ^ X.#.O.<.`..XrXq.q.,Xr.3.<.1...~ ) n  .<.( ",
") 2.1.&Xm.1. .^ ^ N n n ~ b b ) (  .5.8.yXa.1. .) ..  c C { D S   p p p p p p p s s s s s p p p p   D [ { x c   O. .^ M ~ ( ^  .O.<.2.&X%X,X/.<.2. .( ( n M ^ M ^ N ",
"^  .o.m.rXr.<. . .( ~ N M N ^  .<.1.G.;X}.7...( ^ )   , x c A . y p p p s p p p p s p p p p p p p i . v C g +    .o.M ( ( M M ^ ^ ) O.a.}.4X5.) ( ^ N ^ n M ) <.M M ",
") +.<.m.,X(.t.5.5.o.^ ^ N ( X.8.r.S.3X3X{.M.3.....  u         u i p p p p p p p p p p p p p p p p p t       X *    .N ..) n n ~ ^ ) ..8.,X7X7... .( ^ ( M n ~ 1.+. .",
"..O.<.H.:X,X}.5.7.2.o.) ( ( ..8.r.{.;Xr.G.|.7.o.O.  T r r u y y p p p p p p p p p p s p p p p p p p y u u = * r   ( M  .) M M N ~  .2.r.,X1X8.3.<.o.~ ( M n ~ ( O.<.",
"<.7.n.{.1.<.r.;X6X6.1.O. .o.7.;X1X^.5.<.O.d.|.1.  r T u u y p p p p p p p p p p p p p p p p p p p p p p u r r r %   ( ^ M ^ ^ (  .<.1.}.#X#X$X6.<.O...) ~ ~ ^ ~ ^ ( ",
"4X<X&X<...) O.8._.tX&Xj.8.8.rXM.3.5. .( +.<.7.#X  y U p p p y y p y s p p p p p p p p s s s s p p p p i p p y y %    .( ( ) ..O.7.#X#Xj.O.2.{.$X}.}.m.1.<. .^ ....o.",
";X).7.<.( ( ( o.O.1.<X*X/./.pX8.5. . .) X.X.O.7.  U p p p     p y   y p p p p p p p p s s s p r   u y     p p p r   ..) X.^ @.n.).&X~.<.( ) ..<.).OX*XF.#...) ..o.<.",
"8.7.o.) ~ n N ..o.<.7.;XaX;X}.8.2...o   o    .6.  a p p p p r     u p p p p p p p p s s s s p i =     y p p p p u   O.) o o   . }.d.6.<.( ~ ..2.3.1.(.=X#X8.1.8.Q.&X",
" .) ~ M M M n ^ ^ ^ o.7.%X=X9..     = T * K   G.  p p p p p         p s s s p s p p s s s s p i         y p p p y   n.  E % u X .     ^ ~ M ^ M ^ ) O.1.f.$XpX,X$X5.",
" .) ~ M M n M ^  .( ) 5.;XfX  p s w % %   %   G.  y p p p   CXCX      p s s s s s s s s s s p   CX        p p p p   {.  %   % % = = =   + M ^ M ^ (  .9.8.;XpX;X9.1.",
"~ ~ n n N M ~ M ( M ( 1..   w o   o % % %   1.r.  y p p p   CXCX      p p p s s p s s s s p p   ZXCX      p p p t   #XS.  % % % X   o % %   ~ n M M ^ 2.O.,X7.5...^ ",
") ) N n N ( ..M N ) ..  r *   4 7 4 % % *   7.D.  t p p p             p p p p p d y p p p p p             p p p r   8.{.  * % % > 6 ,   % =   N ~ ^  .3.G.%X<.<.~ ^ ",
" .) ^ ( ~  . .N ) ... = o . j c k 3 % $ *   q.8.  q y p p   l O   k   p p p H ].].].[.G p p p   j   . x   p p u *   5.5.  = X % 3 j x j , o *   /  .o.4X;X8.o.( M M ",
"o...( ^ M ~ ^ ( )   * > l c A A 8 * 5 # % = . /.i.  u y p y < } &.. y p p G 5XhX8X2XfX7X` p p r ; %.&.+ r y i r . 1.O.. * % X > % 8 A A k k   * . O.3.7X;X1.) ^ M n ",
"5.3.O.( ~ ~ ~ o.  * o l Z S S j * > 9 % X %   1.m.  r p p y -     u y p ` %XY.7X%X2X6XF @X` p p - . . y y y r =   d. .  = % $ 6 3 & x S S S k o #   8.$X].o.) M M N ",
"yX7Xi.O.( ~ ^ ^   . . . . S C 4 & 6 k 4 . X %   y.  = r 0XeXL p y y i -.iX].T.%X2X:X%Xz.E.%X` p p p p I qXL = * . N.  % %   5 k 4 % 8 Z J O . . .   &Xy.a. .~ M n M ",
"uX<X|.o.1...^ M N ) ..8.3.. x = 4 x Z 6 6 o % * . H.  = r u s p p p =.fX#XhX7X7X6X<X=X%X[.#X%X' p p p p r = X o O.. - %   7 8 v x 5 0 v . ^  .<.8.a.;X1.1.) ^ ( ( ) ",
"8.t.;X&X5.<.) N ~ ( <.<.7.^.6 * 4 v Z 6 j O X % r . . X % r p y p p =.#X1X1X[.T.R.R.+X@X&X%X}.` p i p p r * o     % * % O 7 6 v C 8 0 6 o.o.O.1.!.tXtX3.<. .~ ( ~ ~ ",
"o.<.7.&Xi.<.o.^ ) O.1.J.{.yX  & k S C 7 c 9         X     = t y p t V :.c.:.m F h m h F :.c.:.V t p u r =     X       . 6 x 4 v D x 4   1.3.m.$X%XrXyX{.{.1...) ~ M ",
"( ) O.8.$X#X8.<.<.8.&X;X%X^.  5     k 6 D z   u a y   r U   % r r r % h V F >.c.T.T.c.z.B V : X r r r %   Y X   = r *   k v l k     8   %X%X$X8.7.1.2.a.:Xf.5.<...( ",
"M N ^ o.1.n.$XJ.&XrXV.1.1.1.    O.a.  k v   a Q a p y *   X     % r r %   =.=.=.=.=.' ' '   % r r *     o   % r y a s r   k x   N.f..   (. X8.O.o.( ..o.5.&XiX7.1.<.",
"M M ^  .1.5.#XaX Xa.1.1.1...^ 3.3./. ..   Y Q s y p p y r   % %     * = =                 r = *     % X   = y u p p a a r     ..<.}.3.:Xr.a.<.^ ( ( ^ ( o.3.m.%X0.7.",
"^ ^ M ( O.3.tXy.t.8...( ) O.^  .o.O.3.  P Q a i p p p p p =   Q zX%     % = = * * * * * * *     X lXBX  * u p p p p p a s t   <.{.6.O.o.<.O.) ~ M n M M ( ..<.7.uXrX",
"M ~ ( <.r.N.:Xi.8.o.) ~ ~ M ) ~ )  .+ y W U p p p p p p p p   NXY X % % o                 o % % X Y NX  y p p p p p p s s p = O 2.<.O.) ( ~ M n M ^  .^ M (  .O.2.e.",
"N ~ ( 7.Q.{.=X8.8...( N ~ M  .~ ) o.  s W U p p p u p p s p     o o % NXq X X X   . o X o % mX% o o     i p p i u p p p s p =   1.o. .^ M N ~ n M N N ~ M ( ) O.3.d.",
"^ ) o.r.&X;X7.3.o.^ M n M ( M M M ~   s Y p p p r r s s s p t o *     wXo % % o E W   % % o jX    * X u p p p y r r p p p p r   o.( ) M n M ( M ~ ( ( ^ M M ^ ) o.<.",
"<.8.7.;Xf.a.<.) ..( ~ n M N ( N ~ ) . p p p s p * p p s s p p p p u *         xXcXbXlX        * r p p s p p p p y % p p p p r   <.( N ^ n n M ^ N M n n M ^  .o.O.S.",
"2.k.%X^.1.1.( M N ( ^ ( ~ ~ M O...O.. y s p s r r p p s p p p p p p p u =   MXVXbXnXnXlX  = r p p p s s p p p p p % r p p p r   8.O. .~ ~ M M M +.( ~ ^ ~ o.5.5.H.,X",
"%X,X>X8.O.) ^ N ~ M ) ~ N N N (  .9.. r y p p % u p s p s p p p p p p p p   MXo MXnX  cX  p p p s s p p p p s p y = % p y u r    X1.2. .^ ~ n ~ N M N N ( 1.y.D.%X8.",
"7.l.#X7...X.~ n M N M N n n ( ..o.7.  * u i u o u p s s p s p p p p p p p   wX. nXmX. !   p s s s s s p p p p p y = o y t r *   &XOXO.O.) ( ^ ~ N M ~ ^ O.1.*X*X0.1.",
"5.j._.D.1.) ~ M M N M ^ ^ ) ( O.8.C.  = t y u   u p p s p s s p p p p s s * X bXvXvXxXo = s s s s s s p s s s p y = o y u r *   e.{.Q.5.<.o.) ) ^ ~ (  .5.^.*X*X<.o.",
"o.<.r.rX<.O.^ ^ ( M b M ^ ) o.7.f.yX>X. = r r o r y p p s s s p p p s s s u   jX@ # jX  y s s s s s s p s s p p r = o r r *   O.7.m.;X;X5.7.O. .^ ^ ..<.H.iXr.i.o.) ",
"(  .2.}.f.1...( ( ~ ~ ( ^ ..7.C.!.yX7.  % * = o r t p p s s s s p s s s s s y         i s s s s s s s s s s s y r * o * * %   ( ..<.8.6X,XyX6.o.o.5.5.S.&X.X2.2.~ ^ ",
") ) O.2.$Xl.<.1.O.) )  ...5.V.tX%Xa.5...  % * o = r t p s s s s p s s s s s s p y y p s s s s s s s s s s s p u r % o % %   ^ ~ ~ ) 1.8.1X=X2X5.1.i.#XsX).1.o.O.~ M ",
") ) ~ 1.e.iX6.<.O. .( 2.8.M.rXd.7.7. ...) . o % * r u p s s s s s s s s s s s s s s s s s s s s s s s s s u u r r % % o   N ~ ~ ~ (  .<.8.a.<Xx.t.&XtXs.5.<.( ( ~ M ",
"M M ~  .1.V.rX7.6.1.o.9.7.yXm.<.1...~ ~ ) M   % * = t u t p s s s s s s s s s s s s s s s s s s s s s s y u r r = * %   f ~ M M N M N ~ O.<.f.aX;X;X6.1. .^ M ~ M M ",
"n N ..^ ..5.}.}.^.r.1.7.;X$X1.o.( ) ^ M n n n   % * = r r u u s s s s s s s s s s s s s s s s s s s y u r r r = * %   b M N N M b M M ) ( o.1.,X3.6.O.) ^ M M M n ~ ",
"M M ^ ~ ^ ..7.*X,XaX,XyXtX/.5...( N M ~ N ) N M   % * = = r r r r y s s s s s s s s s s s s s s u t r r r * * % %   f b ~ N ( M n M ^ ) O.7.f.;XO.<.( ~ M n N ~ M M ",
"n ~ N ) ^ ( 1.E.aXG.<.7.7.&Xm.<.O. .M (  .~ n b M   = * = * r r r r r t t u u u u u u u u u r r r r r r = = * *   M b h M n M ) ~ ~ ( <.i.A.:X#XH.7.O.( ^ M M ^ M N ",
"M M N M  .o.8.*X:X8.o.+.7.7.:Xy.<.<.) ^ ( n b N ( N .     * * = r r r r r r r r r t r r r r r r r r = * *       M M N M n M M N (  .O.8.#X3X3.p.OX}.7.<. .( ^ ~ M ~ ",
"( ~ (  .5.8. X=XV.1.( ^ ) o.5.%X$X{.O.O.) ~ M ) N ( ( +.2.      % * * = r r r r r r r r = = = * * %        .( ( N ( N M M ^ ~ ) O.1.Z.%Xd.3.<.<.3.Q.>XH.1...( ~ M M ",
"N ^  .O.8.d.;X2.3...^ ~ ~ ) O.3.e.}.J.1.O.) N ^ ) ..O.e.e.:.$.;.                                    | ] ] 2.O.o.) ^ n M ~ ^ ..<.a.|.$Xt.<.O.)  .2.<.e.&XM.1...( ~ N ",
"^ ) o.7.x.'.OX5.4.) ^ ~ ~ ^ ..1.7.XXuX2.<.o.) ) ..3.e.9X4Xz.*.X.f f 1 < < ; ; + + + ; : < : < 1 1 f w.$.z.v.k.5.O.) ( ~ ^ ) 3.q.!.&X X5.o.o.( ) o.2.7.XX:Xr.<. .~ ~ ",
") o.<.d.yXdXa.1. .^ M M M N ^ ..q.8.$X|.e.3.O. .<.3.H.6X;X$Xj.@.+.o.) ( ) M M n b n ~ ) ) ( )  .$.*.b.e.w.rX!.g.<.o. .( o.O.8.{.>Xd.7...( ( ~ ~ (  .1.7.,Xd.1.O.) ) ",
"5.a.N.tXN.8.o.^ ~ n M ~ ~ ^ ^ (  ...3.t.&X#Xs.r.,XtX{.3.7.<.H.=X&X6.o.^ M M ~ N b n M N ( O.l. X%Xr.<.O.O.6.XX%X}.3X7.1.M..X;X{.5.o. .^ N N M M M ~ ..o.5.|.yXJ.<.1.",
"3.e.n.%X7.2.( ~ ~ M M M N  .O.M N ^ ) 5.7.#XdX<X,X1.2.o. .) <.u.3.|.1.o. .^ M M M ^ ( o.2.XX|.A.<...^ ^ M ( O.4.3.|.=X7X#X6Xp.O. .^ N ~ M ^ ~ M M n ^ ^ o.7.tX^.5.1.",
";X>XaX:Xa.o.( N ) ( ^ ~ M M ( ~ ~ ~ ) <.7.%XaX X7.<. .( ^ ^ ) 2.2.}.&Xe.O.O.+.) ( ..O.1.0.-XB.1. .^ ^ ^ ..)  .o.9.j.=XyX*Xj.3. .( M M M N ) ~  .^ ~ N N ( 2.r.;X#X$X",
"6.7.H.:Xa.o.) ~ ) ) ^ ~ ~ M M ~ ~ ^  .<.7.yX^.g.1.+.) ~ ~ ~ ..O.#.O.3XM.O.O.O.( ( o.<.1.#X_.1.4.) ^ N ^  .( )  .o.1.g.%X6.8.<.) ^ M n n n M M ~ ( ~ ~ M ( 2.5.,X}.$X",
"..6.8.;XG.1...( ) M n n M N M ~ ^ ) 1.7.G.,X6.<.) ~ ~ ^ ^ ~ ( (  .O.5.|.#Xa.a.2.O.8.D.,X{.7.o.( ^ M M n M M N ~ ( o.1.>X5.1. .~ N ~ ( N N n n N M M ~ ^ O.7.H.%X7.5.",
" . .o.a.yXx.1.O.o.( M n M ~  .O.<.5.s.{.;Xa.1.) ~ 1.M ....N ~ ^ ~  .O.1.d.;X=XM.q.%XdXd.5.O.) ~ ^ ( ^ ^ n ( ( ( ..1.7.yXG.N.7.<. .( ^ ) M N ( N ~ (  .o.5.}.$X6.O. .",
"~ ~ ) ..5.&X7.1.8. .~ ~ N ~  .6.8._.yX]./.1. .~ n M M M ~ N ~ ~ M ~ ( ..1.f. X&XyX XJ.5.O.) ~ M n ~ M M M M ^ ) 1.r.`.#X{.<X,X7.1.2.) ~ M M  .N ( ( 1.a.=X<X7.<.( ( ",
"M M M ) o.7.%Xt.i.2...^ ^  .1.3.q.].{.&X;X7.<. .^ ~ n )  .M M n ~ ~ ~ ) <.7.8.yX{.r.7.O.o.( M n n M ( ^ ^ ( ..O.8.D.%X1.O.,X,X#X6.<.O.) ^ N  .) ..2.1.7.:Xd.O.+.M n ",
"~ N M (  .@.m.&X=Xn.3.O.<.5.2.$X;X<X7.r.=XA.O...( ^ M N ~ ) M M N ~ ) O.1.h.D.rX'.(.l.o.O. .( ~ N M N N ( o.2.1.y.;XZ.1.O.2.7.H.,X!.6.7.O. ...1.1.1.a.>X/.1. .( ^ ~ ",
"~ ^ ^ M (  .<.1.8.>Xd.4.o.9.rX_.M.7.o.O.2.S.&X6.<. .~ ~ M ~ n M ~ ) O.1.a.>X:X8.7.A.<X=X8.1...~ M n ~ ^ ..1.r.m.>Xf.5...( ..O.O.1.#X`.~.1.<...1.1.W.,XN.6...^ ^ M ^ ",
"^ ^ M ^ M ^ ) 1.1.a.yX'.{.rXf.3.<. .( ) o.O.8.$XN.<.) ^ ~ ^ ^ ^  .O.s.;X$X5.7. . .o.1.w.:X/.1...) (  . .7.f. X,X8.<.) ^ N M ~  .1.8.}.,XS.i.7.).,X_.7.<. .^ ~ n M ^ ",
"M M ~ M ~ M ^ ) ..2.7.gXyXd.3.O.) ^ ~ ~ ( ..O.7.$Xj.1.2.o. ...O.1.r.&XXX9.<.@.~ ~ ( o.<.r.:XG.1.1. .O.1.D.,XW.9.1.( ~ ~ M M M N  .O.O.1.&X$X%X6X X8.6. .~ M n N M M ",
"M n ~ M ^ n ~ ( )  .7.gXyX7.O.( ) ^ N M ~ ^  .O.G.|.1.O.O.( ..o.<./.H.1.O. .) ^ M ^ ( ..<.H.#Xr.<.o.O.3.;XG.7.<. .( ~ n M N ~ M ~ ( ) O.a.i.pXh.7.<.o.) N M M ) N M ",
"~ ~ M ^ M ( M ~ N ) <.<X;X1...( ~ M M M n M ~ ) o.<.}.|.F.<.1.9.#X}.1...( ~ N M n M N ^  .o.O.#X;Xr.t.&Xi.O.o.( ~ N n M n M n ~ ^ M ~ ( o.<.;XO.<.) ( M ^ M N M N ^ "
};
