/* XPM */
static const char *gothic_duck_17[] = {
/* columns rows colors chars-per-pixel */
"17 17 244 2 ",
"   c black",
".  c #010000",
"X  c #010101",
"o  c #020001",
"O  c #000200",
"+  c #020200",
"@  c #000103",
"#  c #030102",
"$  c #000203",
"%  c #040001",
"&  c #050200",
"*  c #040404",
"=  c gray2",
"-  c #0A0000",
";  c #020902",
":  c #01000A",
">  c #000808",
",  c gray5",
"<  c #0E0E0E",
"1  c #160203",
"2  c #190002",
"3  c #161415",
"4  c #191718",
"5  c #181818",
"6  c gray11",
"7  c #1D1D1D",
"8  c #1E1E1E",
"9  c gray12",
"0  c #38060F",
"q  c #320A13",
"w  c #3A0813",
"e  c gray13",
"r  c gray14",
"t  c #242426",
"y  c gray15",
"u  c #272727",
"i  c #282629",
"p  c #282828",
"a  c gray16",
"s  c #2D2D2D",
"d  c #2F2F2F",
"f  c gray19",
"g  c #313131",
"h  c #323232",
"j  c gray20",
"k  c #343434",
"l  c #353535",
"z  c gray21",
"x  c #373737",
"c  c #420816",
"v  c #670001",
"b  c #680000",
"n  c #6A0203",
"m  c #6C0300",
"M  c #700000",
"N  c #710000",
"B  c #710100",
"V  c #710001",
"C  c #720000",
"Z  c #730000",
"A  c #730100",
"S  c #730101",
"D  c #720201",
"F  c #770000",
"G  c #760001",
"H  c #740003",
"J  c #790100",
"K  c #7B0002",
"L  c #7D0101",
"P  c #7F0000",
"I  c #7F0200",
"U  c #7D0103",
"Y  c #7C0316",
"T  c #4B4A48",
"R  c #810100",
"E  c #800001",
"W  c #820000",
"Q  c #830101",
"!  c #810102",
"~  c #820002",
"^  c #820203",
"/  c #850001",
"(  c #860000",
")  c #860001",
"_  c #890000",
"`  c #8A0000",
"'  c #8B0101",
"]  c #890200",
"[  c #8A0300",
"{  c #880002",
"}  c #890103",
"|  c #8B0003",
" . c #8A0202",
".. c #8D0100",
"X. c #8D0301",
"o. c #8E0003",
"O. c #8C0202",
"+. c #8E0203",
"@. c #910101",
"#. c #930101",
"$. c #900201",
"%. c #930200",
"&. c #940001",
"*. c #970100",
"=. c #960001",
"-. c #960202",
";. c #970303",
":. c #920104",
">. c #930104",
",. c #990100",
"<. c #990001",
"1. c #9B0000",
"2. c #990002",
"3. c #9B0002",
"4. c #990302",
"5. c #9C0001",
"6. c #9F0100",
"7. c #9D0305",
"8. c #9A0405",
"9. c #85061B",
"0. c #A00000",
"q. c #A20300",
"w. c #A00002",
"e. c #A00203",
"r. c #A50100",
"t. c #A60000",
"y. c #A40102",
"u. c #A50102",
"i. c #A30401",
"p. c #A90101",
"a. c #AA0000",
"s. c #AB0101",
"d. c #AC0000",
"f. c #AE0000",
"g. c #AF0102",
"h. c #AC0202",
"j. c #A90402",
"k. c #A80204",
"l. c #B00000",
"z. c #B70100",
"x. c #B40202",
"c. c #B30401",
"v. c #B80000",
"b. c #BA0100",
"n. c #B80200",
"m. c #BA0202",
"M. c #BF0200",
"N. c #BF0300",
"B. c #BA0403",
"V. c #BD0401",
"C. c #BF0400",
"Z. c #BC0402",
"A. c #BD0503",
"S. c #C10000",
"D. c #C30101",
"F. c #C00300",
"G. c #C30300",
"H. c #C20600",
"J. c #C50400",
"K. c #C40500",
"L. c #C40401",
"P. c #C70400",
"I. c #C60601",
"U. c #C70601",
"Y. c #C00705",
"T. c #C20604",
"R. c #C60506",
"E. c #C90200",
"W. c #C80201",
"Q. c #C90700",
"!. c #CA0703",
"~. c #CD0400",
"^. c #CC0700",
"/. c #CD0700",
"(. c #CC0404",
"). c #C70A04",
"_. c #CB0900",
"`. c #C90A02",
"'. c #CF0803",
"]. c #CF0E00",
"[. c #D10705",
"{. c #D30A02",
"}. c #D40B00",
"|. c #D30804",
" X c #D80900",
".X c #D90E00",
"XX c #DA0F01",
"oX c #D80D06",
"OX c #DE0D08",
"+X c #CF1000",
"@X c #C61D00",
"#X c #DD1901",
"$X c #E20E00",
"%X c #E91900",
"&X c #DD3500",
"*X c #F12C01",
"=X c #E43000",
"-X c #E73500",
";X c #EA3103",
":X c #EC3604",
">X c #E63A0C",
",X c #E94400",
"<X c #E04C02",
"1X c #F14000",
"2X c #F34601",
"3X c #F24701",
"4X c #E85C07",
"5X c #F35100",
"6X c #F35700",
"7X c #F75900",
"8X c #F65801",
"9X c #F45A00",
"0X c #F45A02",
"qX c #F65E00",
"wX c #F75E00",
"eX c #F85A01",
"rX c #FE5F03",
"tX c #F95A06",
"yX c #FF4515",
"uX c #F76300",
"iX c #F96505",
"pX c #F66E02",
"aX c #FA6900",
"sX c #FD6801",
"dX c #F86F00",
"fX c #F96F00",
"gX c #FD6B04",
"hX c #FF680B",
"jX c #FE7200",
"kX c #F97400",
"lX c #FC7400",
"zX c #FD7E00",
"xX c #FF760A",
"cX c #807770",
"vX c #FB8102",
"bX c #FF8403",
"nX c #FC8B01",
"mX c #FF8C05",
"MX c #FF8A08",
"NX c #FF9203",
"BX c #FF9007",
"VX c #FB9D00",
"CX c #FF841D",
"ZX c #C0B2A5",
/* pixels */
"p.>Xq.[ i.vX@.p.0X).N Y.*XQ ,.aX[ ",
"XXA.Q _.~.q.mXf.J S.mXz._.>.3X,.P.",
"P Y.NXq.J uX,X..k.].yX..( &XP.7.[ ",
"H v.qXu.~.- f.* k * 6.- %XP ..:X1X",
"-XQ.N XX'.9.$ g k k $ Y @XS.P.hXN ",
"A.S.N ;X=Xp i g g g t 5 A.@.#X8.P.",
"v...jXp.$ g $ k g k 8 g ; rX6.0XOX",
"[ ..4 w $ d 1 g 4Xg 2 d & q , z.,.",
"dXP [.c $ : g CX<XpXg > & 0 u.kX( ",
"J MXR.N.T g 3 8 $ e , d t 5XB.Q sX",
"oXj.N q.g k g $ ZX$ g g g p.N n N.",
"$X[ Q bXt g g k cXk k g t }.A.f. X",
"u.gXlX=.n 8 k k k k p 8 N v P.v.N ",
">.zX=.0XQ 6.$ 8 8 8 $ @.m S.W.xX( ",
"VX@.N [ qXP.|.c.P eX[ H.BX=.=.Q kX",
"@.dX( 3XW.H N u.tX=.Q ,.6X{.[ ~.v.",
"[ [ nX[ ,.(.l.+XQ iXS.Q.H ,.0Xf.@."
};
