/* XPM */
static const char *gothic_floor_93[] = {
/* columns rows colors chars-per-pixel */
"93 93 189 2 ",
"   c #6E0101",
".  c #740101",
"X  c #7B0101",
"o  c #840101",
"O  c #8C0101",
"+  c #930101",
"@  c #9B0101",
"#  c #A30101",
"$  c #AC0101",
"%  c #AF0508",
"&  c #B30101",
"*  c #BB0201",
"=  c #B30008",
"-  c #C40201",
";  c #CB0301",
":  c #C30800",
">  c #CD0A00",
",  c #C50209",
"<  c #CB0709",
"1  c #CF0B0A",
"2  c #D30401",
"3  c #DB0501",
"4  c #D40A01",
"5  c #DC0902",
"6  c #D30408",
"7  c #DD0509",
"8  c #DE0808",
"9  c #C71200",
"0  c #CC1300",
"q  c #D41200",
"w  c #DC1301",
"e  c #D61A00",
"r  c #DC1C01",
"t  c #E30602",
"y  c #EA0702",
"u  c #E40B02",
"i  c #EB0D02",
"p  c #E60308",
"a  c #E40B08",
"s  c #EA0C09",
"d  c #F10E02",
"f  c #F10B0B",
"g  c #E41301",
"h  c #EC1301",
"j  c #E41B01",
"k  c #EB1B01",
"l  c #E6110A",
"z  c #EA1308",
"x  c #F21401",
"c  c #F31B02",
"v  c #FA1F03",
"b  c #F01408",
"n  c #F41C0A",
"m  c #F81908",
"M  c #D62100",
"N  c #DC2400",
"B  c #D72E00",
"V  c #E52400",
"C  c #EB2402",
"Z  c #E52B00",
"A  c #EB2B01",
"S  c #E62208",
"D  c #EF290D",
"F  c #F42302",
"G  c #FA2402",
"H  c #F92402",
"J  c #F22A00",
"K  c #F02D00",
"L  c #F72C01",
"P  c #F62C04",
"I  c #F42C02",
"U  c #F82E00",
"Y  c #F82A05",
"T  c #FA2C02",
"R  c #F3240A",
"E  c #F92408",
"W  c #F52A08",
"Q  c #E23200",
"!  c #EE3000",
"~  c #EC3301",
"^  c #E33A00",
"/  c #ED3C00",
"(  c #F53302",
")  c #F83203",
"_  c #FA3402",
"`  c #F63800",
"'  c #F53C01",
"]  c #FB3C03",
"[  c #F3360B",
"{  c #FC320B",
"}  c #F6390C",
"|  c #FC3D0B",
" . c #FF3A13",
".. c #E54400",
"X. c #ED4400",
"o. c #E64D01",
"O. c #EE4C00",
"+. c #F54401",
"@. c #F94101",
"#. c #FF4103",
"$. c #FA4402",
"%. c #F64800",
"&. c #F44C00",
"*. c #FA4C02",
"=. c #F1470C",
"-. c #FD430B",
";. c #F64C0A",
":. c #FF4A09",
">. c #FE4C0B",
",. c #EE5200",
"<. c #F25300",
"1. c #F55000",
"2. c #F55300",
"3. c #F85000",
"4. c #FB5201",
"5. c #F95101",
"6. c #F85400",
"7. c #FB5403",
"8. c #FB5401",
"9. c #F45900",
"0. c #F35C01",
"q. c #F65B00",
"w. c #FB5A00",
"e. c #FA5901",
"r. c #FC5B01",
"t. c #FF5B06",
"y. c #FB5B02",
"u. c #F7530C",
"i. c #FF540B",
"p. c #FF5B0B",
"a. c #FE4C11",
"s. c #FF5612",
"d. c #FF5B11",
"f. c #F66300",
"g. c #FA6100",
"h. c #FD6001",
"j. c #FB6402",
"k. c #F36900",
"l. c #F46D00",
"z. c #F66C00",
"x. c #F66C00",
"c. c #FB6800",
"v. c #F86A00",
"b. c #FD6B03",
"n. c #F96D00",
"m. c #FB6D01",
"M. c #FC6B02",
"N. c #FF640B",
"B. c #FF6A0E",
"V. c #FF6D0E",
"C. c #FF6C0B",
"Z. c #F67100",
"A. c #F57300",
"S. c #FB7300",
"D. c #FE7002",
"F. c #FF7304",
"G. c #FF7605",
"H. c #FC7302",
"J. c #F67B00",
"K. c #FC7B02",
"L. c #FF740B",
"P. c #FF7C0A",
"I. c #FF6310",
"U. c #FF6513",
"Y. c #FF6B12",
"T. c #FF7514",
"R. c #FF7413",
"E. c #FF7B12",
"W. c #FF6521",
"Q. c #F68401",
"!. c #FB8603",
"~. c #FC8302",
"^. c #F78C00",
"/. c #FE8A01",
"(. c #F88E00",
"). c #FF8806",
"_. c #FB8A01",
"`. c #FF810D",
"'. c #FF850C",
"]. c #F39200",
"[. c #FD9403",
"{. c #FF9A00",
"}. c #FF9708",
"|. c #FF960F",
" X c #FF8114",
".X c #FF8214",
"XX c #FF8B1B",
"oX c #FF9314",
"OX c #FF931A",
/* pixels */
"X X + & * 3 c.Z.e.; - $ $ $ # O O X . . + + O O O # ; ; L z.b.3 * & # @ X X . . o O o @ # - u u ~.t t 2 $ # O . . . o o o X + $ $ ; 2 h ~ j.5.t t * $ & + # # * _ U j.v H 2 $ @ O X X X X ",
"o o # j j V.I.B.; $ $ @ = 4 & # + X X . + O + o o + & - Y S.F.3 $ $ + + X . . . + + O # & ; V Z ).t u 2 # # o . X X O + o X # - - 5 w 0.T.:.> & * # o O $ O O @ - * `.Z K 3 $ @ O X o X o ",
"+ @ ; F F /.i b - @ @ o # g g 5 # + + . o X X X O $ - - c n.b.t * & o o o X o o @ @ $ - - i r.9.c.c F u $ $ + o o . o O + @ $ 2 2 F J (..Xi 2 & $ + . X @ . X @ * * P k.n.s * & # O O X X ",
"- - F e.1.y : - @ o o X O + & > k - * @ @ + @ $ & 2 v v 5.` 5.8.w 3 $ & O & $ & ; 2 y 5.<.$.4 ; i z.D.c 2 2 & # # + # # ; 2 t $.8.g.t.h g ; $ O + o   X + X . o # # 2 S.F.&.}.x 3 7 ; $ & ",
"- - A i.5.y - - @ X X o o + $ * k u l # + + @ & * 2 $.] -.; 4 8.> 3 & & + $ & * 2 3 x p.i.- - - 2 >.s.~ 4 2 * # # + # $ 2 2 y *.5.r.e.c g - $ O O X . X + X X o # # 2 H.A.*.[.x 3 7 ; $ $ ",
"j C J.y y - @ @ O o X + X X O + $ g g h - - 5 h b *.m h ; * ; ) R._ 3 3 * 2 2 t v | *.2 3 * $ @ * t u j.T T u ; ; * 2 3 T L g.] i 2 2 Y 0 & + X . o + @ X O O $ ; - c +.+.4 2 c n.M.i 3 3 ",
"n.c.r.f i * @ @ o # # X X X . X O % % g k c 5 R.b.*.2 3 * # $ 3 U.F.L L u H L g.7.>.- $ $ O O o @ - - i K.).*.i i 5 c H J.'.i ; - $ % C C - # o o o X O O # $ - x x M.u a ; ; n Y.C.C.~.J.",
"3 2 e.U ) ; $ # O X o . X O O . O # # 2 x.g.C.4 t > & & + O + * - h i.i.R.q.t.u 2 2 - # # o X o + * * 3 h h 7.h k 4 2.M.7.a.u ; * $ % R C ; # O o X X o O $ $ 4 +.:.P 8 3 & @ $ ; > d.).~.",
"& & 3 *.r.5.2 2 * # # o X . O + $ ; > u 6.e.h 2 ; & O + X O + @ $ 4 j.C._.x h 3 * * @ + @ O o X X + @ * 7 3 J J.S.~.X._ 3 3 * @ + O O $ > k k * & @ + @ & 2 2 h O.$.6 & $ O O O @ # * u u ",
"+ + & 3 ' e.q.f.3 - - # # + # $ - i s K.c x ; $ # o X X O o O # $ 4 g.g.u - - $ @ + o X X . O + @ o X # * - i A.Z.x i 3 & * + o . X X + @ $ 5 5 4 $ * - 3 F v F.y u * + @ X X . X o @ $ & ",
"@ @ $ 3 ` 8.g.c.3 - - $ # @ $ $ ; y h K.m c 2 # $ O . X o # # - > &.e.r.u - - # @ + . X X . O + # O X @ - - i Z.z.i i 3 * & + o . X X + @ # * k k ; - - 5 U.t.K.u u & + + X . . X o O $ & ",
". X O # $ * 3 2 t.' ] 3 7 - 2 3 Y ~.~.u * - + # @ # X . O @ & 3 4 ~.i i - # @ o X X o + + + X . O # # - t y y.) L 2 & $ O o X o   . X X X o + & & k c j K.M.M.u > - O . .   o O X . . o o ",
". . . o o + * * > j.j.p.| i _ K K.5 q * @ + X X o @ + O @ * - i T.b.t 3 & O O X . X . O O X o O # - - y e.e.t.K K L - - @ + o + + o o . X O # & * 3 q.j.K.&.L ; * $ + O o X O o o o . o + ",
"X .   X o + & $ 3 c F j.N.0.r.p.w t 3 & + + X X X @ + + @ * ; f.K.c.3 8 & + O o . X X O O . O + $ ; ; ~ 9.7.2 > - ) - - $ @ o . O O O . o + @ * - 2 q.N.V :.:.- & & @ @ + + . . . + X O # ",
"+ # O . o X o O $ 2 2 F L.[.L T 8 & & O o o + O o X $ $ & 4 4 *.5 L F H 2 $ $ + o o O o o + # & - i g ~.h d - & & ` -.i - & @ o . X o + @ & 2 w w $.t 8 - A ` J 3 3 - # # + X . . X O @ & ",
"X O *   . X . . O $ $ 3 T.F.y a & + + . . . O o . + & & c k k * * > $.$.K p 3 - $ # + $ $ ; u t F q.g.c 2 2 & @ @ * w F -.A w * @ @ @ * > 2 P r.C.; * & @ * * | q.e.x 3 3 - $ $ @ # * 2 2 ",
"o O *   . X . . O $ $ 5 P.F.u t * + + . . X o X . + & & k 5 5 & & ; _ _ 4.p u - & # @ $ & ; y a H g.f.c 2 2 $ @ @ * 4 3 %.' U - $ # # - ; 5 | i i ; $ $ # * - 4 q.e.x 3 3 - $ $ @ # * 2 2 ",
". . O o o . o O # ; ; h S.j.2 - $ o o o @ + O o + - g g 5 $ $ O O # - - E q.g.h 2 2 ; 5 5 S.q.k.( 8 3 - $ $ + o o @ & & u | ] 5.i ; ; u A r.c ; - # O O o + @ $ - ; ] c.N.h 3 2 ; 2 i F ( ",
"X X . O O + & $ ; i i M.6.8.u t 2 # $ + X . X @ $ g 2 > @ O O . X o $ $ - B.N.e.b u i P ( ~.5 4 - - * $ O + * $ $ O + + $ : - ' J r M n.R.w 2 & $ + X . . o o O @ @ * 4 4 8.p.c h k J.&.4.",
"X X . O o @ & & 6 h u S.8.8.%.g 4 & & + X X o @ & g & & + o X . X o # # - x h r.J.K.[.S.H.K.2 3 - # # + O o & $ $ X o O # * - u $.H.[.i.-.t - + + o . X   X X o @ @ * 3 3 *.N.G N.p.F.J F ",
"@ @ o o @ & 3 4 _ 5.4.3 - ; $.N.H 3 t * # # # 4 4 # o O X . . . o + o o $ ; ; c _.|.' h h ; $ $ + + + X X X + o X o O X O # # - 3 Q D.y u ; $ @ + O + + X X o X X O @ = * 3 2 j.q.e.5 * * ",
"# # + # # 2 Y.N.g.g j 6 * ; * 0 K.N.f.t - * ; u a O o o o X o X X X O O & 5 5 p...+.u 5 l 2 & * + o o + + + & . . o + + X o + $ 3 ~ M.i 5 ; - # # @ o o O . o o X o @ * * 3 4 P.5 u 2 & & ",
"* * # $ * 2 K.Q.h 2 2 $ + # * > u x.k.y ; - 2 l @ O + O + o O X X . + + * y u q.F m 2 - 5 u ; - $ o o + + + # . . . O + X O + & 3 j _ D.Y.x 2 & * $ + + o X X o + + & 2 2 F N.e.5 3 & @ @ ",
"y y ; 3 5 y.F F 2 $ $ O o X + # * 2 7 j.j F - @ @ # * * $ @ @ + O @ $ $ 2 H j.' 3 2 & # $ ; _ ` - @ # o X X . o o . o o @ & * 5 F 0.e.7 V *.8.u h ; * = # O O O # # ; h i j.g y * * + o o ",
"p.d.0 3 4 b.n n - @ + o . X O O @ * , 0 i.b.q - & - 3 2 5 - - $ # @ - 2 s ~.).u - * + @ @ * A [ N ; - # X X X O o X + + & 3 u n.K.p.d.2 > 0 p.` ] &.g z 2 # $ $ ; ; b t.r.u ; ; # # X X X ",
"g.r._.*.8.$.3 3 $ O o o o . X o + $ $ ; F ' *.4 2 > :.$.u  .) - $ # - - h J.K.i * $ O + + # - - %.* > @ X X X o o X O @ * 2 i c.8.2 2 $ & * 3 %.+.~.h k ; $ & ; 2 3 k.^ K 5 * * + + X . . ",
"2 6 F Z.K.t % $ O . . X o O . X O O O $ 2 5 j.`.] 4.*.$.- w A i - - y y j.i h - @ + . X o O # $ 2 $.-.* @ @ X X o + $ * 4 4 $.h 2 & $ O + @ $ * * t n.z.c.7 3 ; k b x.A F ; $ # O o . O O ",
"$ $ ; z.j.h * * @ O X . . @ @   . + @ # 5 u ~.{.' >.; ; $ $ $ C { R 1.8.~ 2 2 # o o @ + O . + + * ( ' i * * + @ @ * 8 3 e.Y.5 2 & @ + X X o @ $ $ * 2 ; B.r.8.c.f.q.u - - # + + X o + + X ",
"# $ ; f.q.x * * # o o o . X o   . o o $ 3 y ~.oXc 3 - - # # $ j | A 8.e.i - - @ X X + + + . O + & D ( g , : @ @ # - 5 t g.Y.y ; $ @ O . X o O @ @ & ; ; x b.c.F.X.i.5 - * @ O X O + @ X . ",
"o o # u u j.t u - # # O O . X O O $ $ 2 $.+.*.5 5 * @ @ O o o $ & u e.j.2 # # X . .   X X   X X @ - 1 H.2 2 - ; ; u i.*.i u * @ o @ + $ @ . . o X O $ $ 2 p.N.h 3 3 & + + o . . o @ $ o o ",
"+ @ & 4 5 c.+.*.k ; - & + O o + $ ; 6 c c.c.; 2 3 @ X O . X o @ & g e.e.2 & & @ O o X . . X + + & 2 2 K.g h Y ).A.j.r j - * @ o o . . X @ + o X o @ & * i C.c.c 3 2 & @ @ + X X . o - $ # ",
"@ @ * 3 4 c.M.S.H 2 2 & + O o O $ 2 ; c +.$.; ; u $ o o . X X @ # w y.e.2 $ $ @ O O X X . o + + & 2 6 K.Z C L ~.~.N.g i * $ + o X . . X # @ o X O @ * * i c.c.$.2 7 * # # + X X . o O # @ ",
"- - u *.%.u > 2 x c.C.3 * * # $ ; 7.e.*.3 t # $ - 2 $ # O O O $ & 2 q.q.x 2 ; & + + O o O # - - 3 8.4.*.%.*.; 2 3 H *.] 2 * $ O X X X X X O + # # - i u e.u u k 7.*.t ; ; $ + O o o o + + ",
"h V j.4 ; 2 & * 4 B.T.g 5 2 ; - c ~.P.3 ; * O @ $ 4 - > % + # - : p.9.e.i.g g 2 * % + $ $ - 4 5 p.5.p.w - : * * ; ; >.e.| C > $ @ O + O O + # ; > N R.C.g - ; * [ $.8.> 4 2 & $ @ @ & - - ",
"h ( c.2 3 & @ @ - y w j.y u 2 2 F b.z.5 # & o + @ & 5 5 & # # - - g.` ` b._ _ 3 - & @ & * ; *.*.g.x h 3 * - @ $ $ ; } | r.V 3 & @ + # o + + * ; 7 &.F.K.y - - * 2 5 *.%.*.3 * * $ # & ; ; ",
"0.d.2 & & o X X + * & 2 D.K.F h b.w h * O X . . o + & * g ; ; ' ).Z.5 5 2 j.q.] 3 2 - 2 3 &._._.t - > $ @ @ o + O $ ; > P i.h 2 & @ + # & * 4 { ) ~.3 8 * @ @ @ & & > a g *.8 3 ; > L K.F.",
"q 0 * + @ o . X O $ & 6 2 5 J.~.9.2 3 $ + O X X o o @ @ - %.' j.4 g ; > 3 u a L.*.g 3 g 5.A 2 2 ; # $ # O O X X o @ & - k / 7.L 3 - - - 2 4 r.H.c.u - - # o o X + # * > 2 ` / ` y i g.w w ",
"2 ; # + O O X . o + + $ ; ; 5 q t.j k - # # o X O + $ & 5 N.M.5 ; ; & & & 2 2 x q.J.K.c.1.J 2 2 & @ @ o X X X X o + # # * 2 u &.| 5 5 c U.C.C 2 2 ; & & @ X X o O O # * - u U.r.K.K.n.5 t ",
"# @ X   . + X o . X o O # $ 5 3 q.~ P 2 & & @ @ O $ - * h e.e.3 * & o O o # $ ; J L.K.g.y t & # o . X # O O   . . o @ @ * > 4 ' *.h u v B.C.h ; > # + + X X X O . . O + @ - Y.j.J.Y.y * * ",
"@ @ X     X # $ o . o o # ; & * 4 j.c.H 3 3 & & $ ; i i J.u y * # @ @ @ X + + $ - 6 > M.u 3 & + O X X X o O o + + # + O + # * ; h K.~.S.F.c ; # @ + X X + X o O O   o @ $ 2 K.H.x l ; # @ ",
"$ & + X . . # $ O X o @ @ # @ + * 4 w b.k n a ; - h N.p.~ - - # O . O + . O @ + $ 2 - c.F F 2 & @ o X X o o @ ; 1 O + @ O + $ & ; J.~.~ +.-.u $ & O X X @ $ # o o o @ * * c q.g.3 2 $ O O ",
"$ $ @ X X X + @ + @ # $ @ o + + & u 5 c.Z A y 5 2 F J.Z.i & * @ o . o O . O O # $ 2 4 r.J H 2 & # o o o o O # 3 ; O o O @ # $ & ; S.S.i k L h * * + X X + & & + o o # - - c 5.5.2 ; # o o ",
"- ; # o o + . o @ # # + X X o o $ 2 ; U ~.~.K.,.%.q.y i * @ @ X O O @ +   X . o @ * - 4 5.9.F 2 * @ @ # & % ; # @ . . . X O @ & 3 +.$.2 * - L 2 2 $ o o X O O # $ + * s t j.t i * $ + X . ",
"u y * # + o X X & o o . X o O + * y 5 H.t u * w V F.u u ; @ @ o o o O O X . X o @ # $ ; 5 e ~.y ; - : > k F $ O + . X X O @ $ 2 k :.] 2 & * j k k - @ + X X X O @ @ ; i.p.M.5 a & # o X X ",
"i u ; # # O o o @ o O . X X + # - i i c.5 3 * > ; %.( _ 7 & $ + o X . . X . . X O + # * y r ~.y 4 - ; y k k # O o . o o + # - 2 F y y * + @ ; L _ ; # # o . . X + # ; C.C.c ; ; @ @ + . . ",
"K.~.*.3 7 & + @ O X X O # $ ; - h k.g.i & * + @ & - k g r.y y - @ @ o o O + + @ # & ; 2 i -.$.*.Q.M.n.( * & O     X O O & 2 y k ~.; ; @ O O @ t 3 Y ; - # O O # - ; d M.n.t & & o o . + o ",
"..o.~.4 4 ; @ @ o o O @ & * 2 Q ' t.t.5 $ # o O O * 5 5 p.` ` - - & + + @ # # $ * ; 3 q A >.' / OXP.R.' * * + X . X + # - 4 j ~ OX- - + O X + * * | V r > # $ * ; 5 :.K.F.u * * + + X @ @ ",
"2 2 7.$.+.5 & & + # @ & 2 2 c H.F.b x * + + X . X + & $ 5 i.7.h 2 ; & $ $ * * ; 2 2 y &.g.h > ; 4 c n 5.; ; # o O + $ * 4 H t.&.3 $ $ o . . o # $ 2 ] *.3 * * > c J n.k.r.H 4 2 $ $ + X X ",
"# & : 8.6.j.2 3 & * - 4 ) ( F.g h ; - + X X + O o . + + * 4 y *.i.>.3 3 3 h d j.~.K.&.A 3 * # @ $ 2 ; n u u ; * * - 3 3 L r.~ 3 & + O O @ X X O o $ ; w $.3 3 $.c.$.5 2 ; *.p._ ; ; $ + O ",
"+ + * > 0 C.r A ; l l p.K.K.Z g l 4 > # o X + + + + O o # - 2 w N.q.=.;.~ :.:.N.....4 5 ; # O o # * * g ' $.w 5 4 u } ~ F.r r 2 # o X O @ O X o o # - ; :.d.p.D.B w 4 & - : Z t.=.a.2 $ $ ",
". O # ; ; i 5.N.5 x h H.$.] 3 - - g u & + O . X . @ X X + & * 3 W L ~.~.j.5.e.y ; ; * $ $ O X . o # $ - N.c.J i y x R.S.c ; - $ O . . X O o . o X @ * * c K.K.x 2 2 & @ # ; 5 ] 8.t.t * * ",
". . X # # - ] +.q.b.n.i ; ; & + @ - 3 k * & + o O . O O @ & & ; Y Y F.L.y 2 3 & @ @ @ X o X X . . + + & ; ; $.[.[.D.' ( 2 $ $ O X O O . . . X # # - u i e.d x ; $ # O O o @ * ; t u e.i y ",
"# # X o O = i q _.y u 2 & & # + O @ # 4 5 5 $ # @ + # # * 5 5 :.N.&.J ) i * * @ o o X + O @ X . O # # - 3 4 K.j g 4 D [ | ; ; & + O O O O o O * * b P.P.~ 2 3 & O O # O O X @ $ - - r p.i.",
"# $ o o + * y w _.i y - $ $ @ O o + @ * a y - @ # + % $ - u i &.r.+.F H y = * @ X . . O O X . . o # % > 5 3 K.b x 2 ; 2 ( 2 3 & + o o X O O + - - h J.J.x ; 2 $ o X X X X o + # * - y e.8.",
"X . O $ $ 3 ] N.%.; ; @ o o . O O O O # * - A 2 2 - 3 5 h t.e.k 2 2 3 3 $.3 2 $ O o . . . . X o @ ; > b F.P.x ; ; & # # w ' ] 3 * $ # + o O $ 2 8 J.n c - @ # + o   . o @ O X o @ # * y / ",
"O + $ 2 2 U b.R.u $ & O X X O @ O . . o # # > F F %.(.[.e.u h - $ $ % & ; ` ' t & & + O O O $ % - x v H.h z - @ # O O O % 5 4 %.t ; - $ @ $ - x k A.- - @ X X @ # X o X X O X . o O # - > ",
"O O $ 2 3 P c.E.t & & o . . O @ o   . X O + $ R n $.].[.8.y i - # # & & 2 ' +.3 $ & @ o O + $ $ > F k Z.u y - @ # O o O $ 5 ; *.u ; * # # # ; n c Z.; - # X X X O o o X X o X . o O @ ; > ",
"& & 2 c A D.3 a & @ @ O X X o X O O o + $ $ ; i h K.y y 2 * & @ O o O O # 2 ; +.x i - & $ $ 2 2 x b.n.3 * * @ O O . . X + $ & ; $.7.L 2 ; ; y 8.9.c $ # O X X   . X # X . . o + # $ > g A ",
"i i _ F.R.y * * + X o O $ % X . . @ @ $ ; 2 h C.n.g 2 ; $ + + + X . . X + $ & - | | | 4 6 3 n v x.t i * @ @ o   . o X X X + O % - 4 _ t./ s.*.<.,.y - - # + + X X X @ @ @ X + # - ; x g.j.",
"i s _ J..Xt * & O X X O $ $ o . X + + $ 2 2 b P.S.x - 2 & O O O X . . . O $ $ - t k ] > a 5 K.~.b.t 3 * + + O . . o + + o O + # ; 5 c q.D.f.*.5.5.t - : # + + . o + o @ @ X + # - ; b p.p.",
"c.g.~.u y - + + . X o X o o o O O # # ; b k F.V j 2 $ # O . . . O O X X . o o @ - - *.%.' _.f.+.2 & & + o o . . . o # $ o X X @ * ; 5 K.E.d 2 r.8.8.t u ; & & @ O o . . X + $ - y y e.y i ",
"3 3 O.t y * @ + X . . o X . . o $ * - u i.8.&.2 2 * + @ X . X . o o + + o . X O $ * i OX/.Q A g - @ @ o . . + o X   X X o + @ & u j 1.h g - $ * * k f.S.%.8 t $ o o X X o & 2 y e.p.A 2 2 ",
"3 3 5.A K 3 $ $ O . . . . X + # - y 5 7.j.8.*.j h ; - ; $ + + . X o O O X @ @ & 3 3 ' XX_.u i.>.i ; - @ . . O $ @ X . X + & & 3 5 Z e.x 5 - # - - s c.x.6.3 3 - # # + @ # - 4 5 e.q.i * * ",
"& * y q.L.3 2 2 * @ @ + X o # # - t y *.A x ; u i *.< ; $ + + o . . X X O # # - t t r.w u * 3 5 %.2 3 & + O . O O X O + & - ; u 4.N.x 2 - # o # # - u 4 g.U | ; * & $ * * 2 V 5.x x ; @ @ ",
"+ + * i V e.3 3 & + + X o # * - c ~.~.F 2 2 $ & & *.h k 2 & & @ O o O O # ; 2 h N.N.u 2 * # & * 5 *.*.2 $ $ O X X O # & 2 u i S.H 2 2 $ @ O X o o # * * t e.e.H 3 u - y u c.L.m ; ; # X o ",
"O + # - * g M.H.i ; - @ $ ; 5 3 D.h h ; # # O + @ - +.+.7.3 u ; & & & & 2 _ _ j.4 4 - * # O @ # - | | w * - & $ # & 2 5 m q.C.~ ; - - @ @ o . X X O @ # * 3 2 *.` ` ) N.j.h ; 2 & & + X X ",
"O o @ - - i K.H.x ; - # & ; t 3 F.f d - # @ o + + * w w 7.t y - * & & * 4 P.F.c.3 t * $ @ o + @ * u s *.> ; & # # * 4 2 L.9.N.u ; & $ @ + X X . X O o @ * 3 3 W C.C.P.C.z.h 2 ; # # + . . ",
"o o o # # ; h g r.x x ; ; h S.K.d ; - # o X O X o @ & & 6 *.1.c t 3 2 4 t.C v 2 $ & + + o . X X + & & 3 H J u ; ; u N.M.+.u t * # O + X . O +   . X X O + & & 2 H.D.~.u i ; $ # O o . o o ",
"X X X O O $ ; ; c S.n.y l c.h k 3 & & O @ + . X . X + + $ 2 2 5.~.Q.&.5.( ; 3 * @ O X X X o O O o + + & W W 9.u h A.^ K 2 - * @ o X . . o @ $ X . . o O # * * 3 H.J.t ; - # o o X X X X X ",
"X . X . X @ * - h H.A.J.c.D.x n - + + X @ @ . X X X O O $ ; 4 w [./.5.5.x ; ; $ O o . X X X O O O X O $ ; 4 N.z.c.J.~ L 3 & $ + o .   . X O $ . . . o + & > 5 k Z.F.5 $ $ O X . X O @ o o ",
"  X @ o o + & * u S.A.h 2 H ] ] 2 & & + X . o + @ O . . + $ & 3 K.K.x x > # # o @ # o X . . .   X + + + $ $ - x c ~.3 u $ + o .   . . o O X . X o o + $ - 5 3 F f.r.5 & $ + o X X X + . X ",
"X X . + @ & 3 3 e.P ) ; & * y K *.8 t * @ # + O X . O O . + + - M.j.3 2 $ O O X o + # + + . + + X @ @ X O O # ; 2 D.3 u & + O X . O O X . . o + + # - 2 x 5.8.' i U ( 2 2 * # # O + X o O ",
"X . X + + & 4 4 q.L L - & - 5 ~ 4.3 u * $ # + o X X O + X + @ - L.M.2 3 $ + O . X o @ @ + . O + . O O X O O # ; ; F.2 3 & + O X X + + . . X o + + & > > i.] :.[ 4 J ' 3 a - # # + + X o O ",
"# @ + $ & 2 q.c.U 2 3 # + $ - 3 h q.e.c ; ; $ + O X o + @ & & 5 e.4.- - @ + + X o X X @ # X X . X + O + @ # * i h D.k x 2 & $ + @ @ O . . O @ & * 2 i w r.i i : * - 3 g.c.c ; ; # # O o o ",
"+ + & 3 ; %.e.N.3 & & O X o @ # * t 5 r.&.*.2 * & + O + & 2 2 U / m ; ; # O O . o @ @ X . . o O + o X @ * - 3 r.e.' F.K.k 3 2 & @ O X o + # * 5 3 F 5.N.h 7 3 * # $ * 5 4 C p.*.2 ; $ + O ",
"+ + % 2 ; 5.p.W.3 & & O X X + # & u 5 p.g.r.6 & $ O O @ * 2 3 J X.k ; ; $ O O X o + # . . . X o + o o $ - * t f.9.} T.E.:.2 7 & + O o O + # - 3 3 p.[ ~ 2 * * @ o O $ 3 8 c Y.g.2 2 $ + O ",
"* * 5 5.q.*.3 5 & @ + .   . X O + & $ ; _ K r.4 3 - * * 3 F J b.k.c.c v 3 * * # O o X + + X X X O # # - u u 8.' $.- ; 2 Y C.e.y ; & $ $ * 2 i r.r.*.; ; # O O X + O + $ $ ; V $.*.*.2 & & ",
"t 5 *.c.C.3 & & + X X O O X X X o + + # - > A *.*.s c x c.X.X.2 2 2 $.*.{ y t ; # @ O O O o + + % ; 2 x q.9.B.- ; # $ & - V ~ e.t 3 3 t u P r.k C 2 # # + X X X @ + . O O # - 2 *.1.L 3 t ",
"t a *.g C 3 & & + X X O + O . o X O O $ ; ; i i.4.s ~ Z z.r r 3 > 2 3 u ` y y ; @ # o O O X + + & ; 6 h p.p.y - - @ # & - 4 5 -.$.j 5 u u ] r.i h ; $ # O X X o + O . o O # - 3 4.&._ a t ",
"g.j.F.u i & O + X . . X O + O O + X . o $ $ ; F E n.c.c.t * - # # # - - c J.K.h ; - # @ o O # $ ; F Y c.u 3 - @ # O O O # & * 4 H N.b.~.^.J u - - # o o X X + # & O .   . o @ & t u Z.(.r.",
"5 4 8.F c ; $ # + + + . . o # o X o o O # @ ; u b K.t 7 - # @ O o O # # k N.p.q.h i - ; $ # - > h M.F.u * * @ O o X O O + + # & ; > w ~.Q.y ; $ # O X .   . . + & # o . . o # # 3 3 Z.O.j ",
"5 3 i.p.p.y * - # # $ X . X O o X O O # - - i U.F.p.2 3 & @ @ X o o @ # - i u i.C.t.h s ; * z i F.i.p.3 * * @ + + . X O X o + $ 2 3 y K.J.b 2 $ & @ o O . o O O @ O X X o + $ - x x D.k x ",
"& & 2 8.N.u ; ; $ + + o o     X O # # & 5 5 V C.S.3 & & O o o + X X O + # * * 3 N.j.i g 2 ; j g A.5 5 * @ @ o . X . . . X X X + $ $ ; 8.g.c 2 & & # O + O O O + o   X X X @ $ - h k *.2 2 ",
"@ # * i u j.i h ; $ # o X . X O + & $ ; u u e.+.h ; @ # o X X & O X o o O @ @ & y u t.V.-.;.b.b.h - - # + @ O X + @ + o @ @ + $ - ; a e.r.) *.3 u * # # O X . o .   o + @ * * u e.9.t $ & ",
"o o # - * K c.D.h ; ; & + + @ & * 3 3 ] M.b.L 2 ; # O O o   . o $ # X X o O o @ * ; w w 1.~.B r 4 * & @ o X   . O # @ X o X # ; 5 u H ) J ; *.e.8.u - - # o O X X o @ & & 3 3 *.~ k * @ + ",
"X X O # & 4 d.U.N.2 ; * # # & * - w g 5.M.x.' q ; $ + + o   . o + @ X X X X o @ & - 5 3 ~.H u 3 - # # + . . . X @ @ + o + + * u C r r._ V 4 5 j.q.e.n n ; & $ + O # - 5 a w e j.S u & + + ",
"X . X @ @ * y 5 r.K.`.4 & & * - J 9.e.c 3 3 *.$.h ; $ $ O . X o X X X X o o + # > ; U Y c.W ] ) t > - # O O . O O X O O $ $ ; u 8.r.k ; * & * u a 8.n F 6 & $ @ + # ; u a 5.j.F - - + o X ",
"+ # o . . + & * 2 k Z k.y 3 h r.8.i y * $ $ > | $.%.7 3 & + O X X O X X + $ $ 2 y y u.a.u - ; P 7.i i ; # # o X . O # $ 2 3 x k.J 2 ; # @ o @ * * > g.g.e.i y - - 3 _ N.N.c 2 ; # # + X . ",
"@ # X o o X @ + & 2 2 ~ D.F.5.w 4 - - @ + + $ - - 4.| A - + @ o o + O O $ : ; u t.7.4 > ; $ & ; i.r.g.h * * # + O # * ; g [ s.` ; - * # O o X + @ $ - 9 Y.K K 4 4 C N.R.B.g & & + + o O O ",
"+ @ . @ O X + O $ ; 2 k F.K.*.4 2 $ & + O o # * - u *.&.u & * @ O o + @ & 2 2 p.e.5.3 - & + $ & 3 e.9.h ; - $ @ @ $ - 2 x %.C.i ; # # O o X o O + $ ; - i 8.e.i i :.*.u y * @ @ o o . O + ",
". . + . . o X X O # # - n.S.2 $ $ + O X + + X + @ * 2 2 *.u y * # @ & & 3 | ] ' 2 2 $ @ + X O + $ 3 3 *.u t ; * - 2 F H q.~ 3 & # + O .   X O . . o @ @ * h u F.J.c ; & $ + o X o o O X X ",
". X . X X O . . X + + * P.~.2 $ # O O X O O X O + & 2 2 *.j h * # # & & 3 +.1.F 3 2 $ + O . o O $ 2 4 s.1.*.; - * 2 ( $.u.C t & @ O O . . X O . X o + @ & 4 u ~.K.k ; & $ O o o X X O X X ",
"X o . X X o o . O @ # - c.c.* @ + X X X X X . X X + $ & > P _ H ; ; 2 8 e.g x ; $ # + X . . X X + & * ; i h J h u e.*.F ; * $ O o . . X X . X o o O X o @ - ; 8.r.> # @ + X o + . X . o + "
};
