/* XPM */
static const char *gothic_duck_93[] = {
/* columns rows colors chars-per-pixel */
"93 93 249 2 ",
"   c #020101",
".  c #0B0101",
"X  c #0C0C0C",
"o  c #080807",
"O  c #150001",
"+  c #1B0000",
"@  c #140C0D",
"#  c #0E0E10",
"$  c #1C0E12",
"%  c #130E10",
"&  c #141414",
"*  c #1A1415",
"=  c #1C1B1B",
"-  c #191718",
";  c #0E1211",
":  c #220001",
">  c #280607",
",  c #380508",
"<  c #240B11",
"1  c #2C0B12",
"2  c #3C0612",
"3  c #320912",
"4  c #380713",
"5  c #24191A",
"6  c #24211E",
"7  c #3A2417",
"8  c #1F1F21",
"9  c #252525",
"0  c #262628",
"q  c #2C2C2C",
"w  c #292826",
"e  c #332B2B",
"r  c #2F2F31",
"t  c #2D3132",
"y  c #333333",
"u  c #3A393A",
"i  c #373638",
"p  c #323131",
"a  c #420100",
"s  c #4A0507",
"d  c #590405",
"f  c #571602",
"g  c #440614",
"h  c #4D0514",
"j  c #4C0816",
"k  c #460916",
"l  c #540514",
"z  c #5A0314",
"x  c #560817",
"c  c #471303",
"v  c #650101",
"b  c #6C0101",
"n  c #660608",
"m  c #740101",
"M  c #7C0101",
"N  c #7B0A09",
"B  c #691602",
"V  c #7B1501",
"C  c #791900",
"Z  c #6D051A",
"A  c #670517",
"S  c #77051A",
"D  c #552100",
"F  c #472B22",
"G  c #49383B",
"H  c #72383F",
"J  c #711315",
"K  c #47423F",
"L  c #413F40",
"P  c #693740",
"I  c #444344",
"U  c #4B4947",
"Y  c #524A45",
"T  c #56514E",
"R  c #545453",
"E  c #625A51",
"W  c #64615B",
"Q  c #7B7978",
"!  c #6D6765",
"~  c #840101",
"^  c #8B0101",
"/  c #89090B",
"(  c #930101",
")  c #9B0101",
"_  c #940A0A",
"`  c #9B090A",
"'  c #861C02",
"]  c #951B02",
"[  c #8C051A",
"{  c #840619",
"}  c #930215",
"|  c #990419",
" . c #A40101",
".. c #AB0101",
"X. c #A50709",
"o. c #B40201",
"O. c #BC0201",
"+. c #BD0A01",
"@. c #B40807",
"#. c #A41A04",
"$. c #BA1702",
"%. c #AA081B",
"&. c #AE1515",
"*. c #8E2207",
"=. c #932201",
"-. c #9B2302",
";. c #9A2A05",
":. c #802311",
">. c #AA2903",
",. c #B62A03",
"<. c #B3320A",
"1. c #8C2130",
"2. c #C40301",
"3. c #CB0502",
"4. c #C40A02",
"5. c #CC0A01",
"6. c #CC0408",
"7. c #CD0B0A",
"8. c #D20601",
"9. c #DA0703",
"0. c #D40A02",
"q. c #DB0C02",
"w. c #DC0C09",
"e. c #D6090A",
"r. c #C61200",
"t. c #CC1300",
"y. c #CD1900",
"u. c #C91805",
"i. c #D41301",
"p. c #DC1302",
"a. c #D51A00",
"s. c #DB1B01",
"d. c #DB190A",
"f. c #DB1910",
"g. c #E20D02",
"h. c #E31302",
"j. c #E91602",
"k. c #E41B02",
"l. c #EA1C01",
"z. c #E8190A",
"x. c #CA2700",
"c. c #D32301",
"v. c #DB2300",
"b. c #D32B00",
"n. c #DD2D01",
"m. c #D6260B",
"M. c #C63900",
"N. c #D93901",
"B. c #CB2C16",
"V. c #E42401",
"C. c #EB2403",
"Z. c #E52B00",
"A. c #EB2C02",
"S. c #E82909",
"D. c #F12B02",
"F. c #F12404",
"G. c #E43301",
"H. c #EB3401",
"J. c #E53B01",
"K. c #EC3B01",
"L. c #EA360A",
"P. c #F33502",
"I. c #F23C02",
"U. c #F63B0B",
"Y. c #D6152A",
"T. c #E31A2A",
"R. c #DF2238",
"E. c #E32435",
"W. c #BC5D1D",
"Q. c #86430E",
"!. c #DC4C01",
"~. c #DA4102",
"^. c #D14A09",
"/. c #EC4301",
"(. c #EF4B01",
"). c #E74606",
"_. c #F34402",
"`. c #F34C01",
"'. c #FA4C03",
"]. c #F84609",
"[. c #ED5300",
"{. c #ED5C01",
"}. c #E65807",
"|. c #F45401",
" X c #FA5204",
".X c #F45C01",
"XX c #FA5C03",
"oX c #FC530D",
"OX c #FD5C0B",
"+X c #F65A09",
"@X c #F84615",
"#X c #FD5E11",
"$X c #FC5613",
"%X c #ED6403",
"&X c #F56301",
"*X c #FA6402",
"=X c #F56B01",
"-X c #FB6C02",
";X c #FD640C",
":X c #FE6C0B",
">X c #F6650A",
",X c #F57301",
"<X c #FB7302",
"1X c #F47C00",
"2X c #FC7C02",
"3X c #FE730B",
"4X c #FF7B0A",
"5X c #FE6312",
"6X c #FF6B13",
"7X c #F26611",
"8X c #FF7413",
"9X c #FF7B12",
"0X c #FF7519",
"qX c #EC721F",
"wX c #D36A22",
"eX c #FF7721",
"rX c #CD6317",
"tX c #93384B",
"yX c #AC3D52",
"uX c #AA394E",
"iX c #81766D",
"pX c #857C76",
"aX c #A84557",
"sX c #F58300",
"dX c #FC8302",
"fX c #F68B01",
"gX c #FC8B02",
"hX c #FF830B",
"jX c #FF890A",
"kX c #FC9403",
"lX c #FC9C01",
"zX c #FF940B",
"xX c #F89507",
"cX c #FE8313",
"vX c #FE8717",
"bX c #FE9313",
"nX c #FA952C",
"mX c #89807B",
"MX c #858382",
"NX c #979592",
"BX c #A2988D",
"VX c #B9AC9D",
"CX c #AFA49E",
"ZX c #B7ACA3",
"AX c #C2B6A7",
"SX c #DAD8D7",
"DX c #E5DED7",
"FX c #F8F8F8",
"GX c #F1E8DF",
/* pixels */
"M M ^ )  .O.2.p.*X|.O.) ( ( ^ ~ ~ ~ m M ~ ( M M ~ ( O.j.j.2XhX8.2.o.^ ^ M M ~ M ~ ( (  ...3.i.`.-X&X2.O.( ~ ~ ~ M ^ ^ ~ ~ M ^  .O.3.q.P.dX`.j.O.0.g. .( ) 2.O.3.3.I.=X6Xq.2.( ( ~ M M m M ",
"~ M ^ @.O.2.4.3Xv.y.o.( (  .) ^ ^ M M M m m ^ m M (  .8.5.,X4X2. .) ^ ^ m ~ ~ M ^ ) ) @.4.6.V..X&X.X2.O.( ~ ~ M m ~ ^ ^ ^ M (  .5.9.0./.fXi.8... . .^ ~  .) ( )  .o.<X0X0.O...^ ( M M m M ",
"^ ^  .6.h.dXzX.X2.2. .M ~  .O.o. .( ( ^ ~ M ~ (  .o.2.h.h.dXhX6.2.o.( ( M ~ ( ^ ..O.2.7.0.*X|.|.*XXX_.0.O.) ( ^ ~ m ~ ( ) ) 4.3.q.v.=X|.D.0.2.) ( ~ M ~ M ~ ^ )  .O.|.|.*Xh.2...o.^ ~ ~ ~ ",
" .@.8.,X=Xp.y.2... .^ ~ M M  .o.q.f.f.@.) ^ ) ) O.2.0.;XOXs.G.*Xi.q...o.( ) o.@.3.j.XX*XOXH.4.O.h.w..XzXq.7.O.( ) ( ) ..8.9.i.s.&X=X.X8.3. .( ~ ~ m m ~ ( M m M ~ ) 8.2.XX&XdX0.3.2.O.) ..",
"o.O.3.dX=Xq.w.2... .( ~ m M ( ( ..l.k.O... .o.3.0.|.XX&XOXh.A.&XV.0.3.3.( ..2.2.3.k.&X.XXXZ.2.o.0.q.XXgXq.3.2. . .( ) ..0.0.i.XX=X-X+X0.3. .( ^ M m M ~ ) m m ~ ( ) 3.3..X=XgXI.0.2.2... .",
"0.w. X=X2.3...( M M m M M M M M ) O.2._.3.5.q.v.Z.2X0.O.O.( o.q.cXdXq.q.2.8.k.j..X|.p.2.2.o.( ( @.O.3.`.-X*Xj.2.4.O.3.q.H.G.=X`.0.2.q.0. .) ^ m M ~ ~ m M ^ ~  .o.O.|.`.&Xq.q._.&XfX8.0.0.",
"=X&XdX;X8.8.o. .~ ^ m m M M m m M  . .i.-X;X;XjX:X3.o.) ) ~ ~ O.N.<X*X-X`.gX{.|.0.2.2. .) ( M ~ ) ^ o.5.`.[.-Xl.C.p.H._.<X2X8.5.2. . .q.2.2.( ~ m M M ~ (  . .4.O.4.|.y.7.O.5.2.2.8.*XgXkX",
"+.+.z.-XZ.0.o. .( ( M m M ~ ~ M ~ ....3.=X,X2XV.0.3.o.( ~ ^ ( 2.0.p.=X=X2X.X5.8.3.O. .) ) M M ~ ( ( o.3.p.s.-X-X<X2XhX2Xl.l.8.O.) ( ( o.0.h.O.( ^ M M ^ ( O.O.3.n..XXXy.2.o.( O.O.3.3.y..X",
"2.2.2.D.hXdX8.2.o.o. .( ( ~ ( ( ..3.3.D.gXgXh.8.3.) ~ ~ M ~ .. .3.5.zXgXZ.3.2.O. .( ~ M m ~ ~ ) ~ ~ ) ..2.3.l.kXlX{.a.s.3.3. .( ~ M M ^ ) O.h.O.o. .^ ) 2.q.g.-X<X0.O.O.) ^ M ^ (  .2.2.2.",
" . .O.8.|.jXb.3.8.8. .( ) ( ) o.q.O.2.G.zX4Xg.w.o.^ ~ M M ~ ( o.2.5.zXgX8.3...( ^ ( ^ m ~ ~ M ~ ~ ^ ~ (  .5.0.2X1Xh.g.h. . .M ( M m M ^ ( o.j.2.....O.0.j.2X2XgXx.8.o. .) ~ ~ ^ ~ ~  .O.3.",
"^ ^ ) O.a.v.2X{.q.0.O... . .O.2.0.*X=X=Xp.q.3. .O.) ~ ~ ~  .o.q.L.K.H.Z.3...)  .M ( m M M ) ~ m M ~ )  .o.5.j.hX1Xh.h.2.....^ M b v v ~ M ^  .q.h.q.2.5.l.sXdXh.2.o.( ^ m M m ~ ^ ^ M ( ) ",
"m M ^ ..2.3.0.V.=X-Xp.8.8.0.z.s.hXK.U.3.O.O. .( ^ ..( ~ ^  .5.K.<XgX8.q. .( M M ( ~ ^ m M  .~ ^ ..o...2.j.V.&X|.|.3. .) ^ ~ m ^ m b m ~ M m ^ ..O.j.I.2XkXi.p.2.o.( M M m m ^ ~ ( m b M ~ ",
"m b M M ^ ) O.2._.#XdXx.v.s.9X<X9Xr.4.6.) ) ^ ^ ~ ^ o. .o.O.K.+X<X=Xh.i.4.) ~ M M M ^ ( ` ~ ) ( ) o.4.w.|.+X;XK.`.L.0.O.( ( M ( M M ~ M M ^  .O.5.8.;X2X=Xv.j.2.O. .( ( ~ ~ ( ~ ~ m m M  .",
"( ( M M ^ ( ..2.5.C.3X&X<XjXdXhXq.2.2. .) ( ^ ~ M ( ....O.2..X*X+XXX_.'.3.2. ...~ ~ ^ ) ) ~  . . ...3.h.,X4XS.S.L.].a.o. .( ~ m ^ ^ ) ~ M ) O.O.5.5.=X+XOX|.OX6.2.2.) ..( ( m m m ( ~ ^ o.",
"^  .^ ~ ~ M ~ ( 2.8.g.a.kX&Xa.g.3.) ) ^ ) (  .) M ~ ^ o.2.8.*X0.q.3.=X=Xq.O.....^ ) o.) ) ..a a 8.0.i.`.&X5X2.....m._.V.o.O. .~ m M ~ ) o.O.3._..X*Xh.O.2.#X|..X*X3.2.2. .^ m m M ~ (  .4.",
"M ) ..~ M v m M ( ..2.O.<Xg.3.2.( ~ ~ m m M ^ ( M ) o.5./.|.8.O. .o.j.k.<X_.k.C.p.3...2.8.&.    $X<X2X-X8.8.o.^ ~ ....H.'.`.0.2... .) 3.6.`.=XP.0.8.o.( ) O.o.D.H.*XC.p.3.O...) ( ..2.2. X",
"M ( O.M m b b M (  .0.y.gX8.0...) ~ ~ m ~ ~ ^ ( ~ ) O.5._.XX5..... .q.p.3XXXV.F.z.3.o.2.5.  i   W.<X2Xk.8.5...^ ^ ....o.OX|.q.2...o.4.t.r.|.-Xi.3.8...^ ( o.o.2.3.;X|.].3.2.2. .O...3.0.2X",
"m M ( ^ ^ m ^ ^ ..3.p.:XkXD.3.3.o.( ~ ~ m m ~ ^ ) O.p.I.V.h.O.) ( ~ O.2.0.<Xc.8.2.h.I.f   i 9 i   , _.3.O.o... . .^ (  .O.2.`.|.0.3.3.&XdXP.q.O.O. .^ ~ M ( ( o.o.3.|..X<XH.8.3.3.q.2XdX_.",
"M m m ) ..( ) ..8.OXsX(.`..X&X X5.O.)  .~ ~ ^ ^ 2.p.o. .) ..    ~  .)  .2. X-XD . . . @ i w i w =     . . . 2.)  .) ) ~ ..    q..X=XdX'.k.3.o.( ~ ~ m b v M M ^ ^ ) 2.2.q..XOXbXbX<XI.8.2.",
"~ ~ m ) ..( ) ..8.3XG.O.O.5.*X3X#Xq.8.) ) ) ^ ) z.k.O. . .: [   ^ (  ...2.O O 5 I U     q y y =   w i i   < + + ..o.^ ~ o.  { : 8.N.kX5.q.O.) ~ ~ M m m b M m ^ ^ ^ 2.2.8.I.&XzXlXdXV.8.2.",
") ) ~ ~ )  .2.8.H.cXD.2.2.3.p.*X*X9.0.O. .)  .q.p.) ^ ( `   %.. ( ..3.3.@X    w U I   & q y y =   q y     =     X.( ) (  .  %.  q.c.-Xq.q.( (  .) ~ b b M ^ ( b m ^ ( ) 3.g.<XjX].8.3...( ",
"o.o.( ~ ) O.5.q.*X.X3.3.( ..2.2.h.=X=X0.O.2.8.j.O.( ( ..O . E.    ..O.2.  K MXMXR y y q = y y = i 9 9   y y w =   ..O. ..   R.. O b.<Xh.2.2.( ^ ~ ~ m b m M ~ m b M ) ( o.g.<X,Xq.8...( ^ ",
"2.2.O...3.8.3X&Xq.9...^ ^ ( o.2.3.|.+X&Xq.h.2.2.( ..2.3.+ . %.%.  d..   T Q i u i y y y y y y y 9 & = y y y y y 9 . O S.  Y.| . .  X_.=X_.0.6... . .) ) M m m ^ ^  .2.2.0.-X_.0.9...( ~ M ",
",X-Xk.g.s.i.K.5.2.2.( ~ ~ M ~ ) O.3.2.p.sXsX3.2.2.3.O.0.+ . } T.>     y u i y y y y y y y y i i i y y y i i i y q =   . 2 E.[ . + i.O.0.|.`.J.q.3.3...~ ) ( (  .O.O.2.2.K.-X5.3. .) M ~ ~ ",
"3X8XC.p.3X2Xt.3.2.o.^ m m m ~ ^ ( O.O.z.vXhX|.H.3.j.XX/.O . [ E.} . .   I y y y y y y i i i y y i i y y y i i y q .   . } Y.{ . O p.O.p.).@X*Xs.0.2.O.)  .( ) 2.2.q.*X-X=X].3.O.) ^ m m M ",
"3.2.&XgXZ.0.2. .( ^ m M ~ ~ M M ^ ^ ^ o.q.q.:XdX.X=Xh.2.+ . Z | Y.T.[ A   q y y y y y y i i y y i y y y y i i y   S | T.Y.| A . . ..( ( ..O.2.`.XX&XK.0.3.2.2.OX2X=XC.V.3.3...( ^ ~ ( ^ ~ ",
"6.2.5.zX$.8. .~ m m b M ~ ^ M m ^ ^ ~ ( ..3.cXdXXX7.O.o.+ . h S %.%.Y.}   q y y y y y y i y y y y i y y y y y y   | Y.| | S l . + 2...) ( ..2.2.r.x.-X|.hX3.3.OX2Xj.6.2.3...M  .~ m ..O.) ",
") ..8.-Xn.C.O.) ( ^ m b b ~ M b b  .o. .8.p.fXfXh.3.2.) ) X.  z { } } S   y y y y y y y i y y y i i y y y y y y   { } } n l   X...) ^ m ~ ~ (  ...O.i.|.gX&X*X`.i.2.o...) ( m M ^ ~ M ( M ",
"^ ^ o.V.9XdX3.2. ...^ M M m M M M ^ ) 3.8.8..X.X8...^ ^ ( /   l z z n A . y y y y y y y y y y i y i y y y y y y   A n A z z   _ ) ..m ~ ) m m ^ ( ) 2.2.p.=X3X8.8...^ ^ M ~ b m ) o.) m m ",
"^ ( o.V.cXgX3.2.o...( ~ M b ~ ~ ^ ....3.A.G.zX X0...( ^ N     2 z z n   q y y y y y y y y y y y y i y y y y y y r   z z h g     X...m ( ) b m ^ ~ ^ ) 2.p.&X.X0.8. .~ ~ M ^ b m ( ....m m ",
") ..2._.jX<X4XXX3.3...( ^ M ^ (  .q.p.|.,X3Xh.K.XX0.o...`   w         9 y y y y y y y y y y y y y y y y y y y y y 0         =   ~ ~ M  .3.m M M ~ ~ ( O.h.2X2X0.0.o.) ) ^ ) m b M ^ o.O.O.",
"O.2.0.2X8X8X6X9X6X6X0.3.3.) (  .0.5.v.jXr.r.0.t.#Xa.2.2.&.  T 9 w w y y y y y y y y y y y y y y y y y y y y y y y q q 9 9 5 9   _ ^ m X.O.M M ~ ^ ^ o.3.|..X.X;X5X5.2.O.^ ^ M b M ^ ^ @.+.",
"2.O.s.|.5.2.2.i.<X<X5.3.3.O.O.2.0.<X=X].3.8.O.2.z.|.4.a   q L y y y y y y y y y y y y y y y y y y y y y y y y y y y y y y q 9 =   , ) ~ m ^ ^ ( ....2.5.*X{.OX*X*X5.2.O.o.) ( ~ ~ M ~ ^ ^ ",
"0X8X-X2.O...) O.q.a.dX;X>XC.q.0.fXA.Z.8... .( O.2.0..Xc   q I y y y q y y y q y y y y y y y y y y i i y i y q y y q y y y y w =   , ..( ( (  .O.5.8..X&Xv.O.O.2.|.=X.XXXC.3.3. .) (  .@.o.",
",XhXq.2...( ^ ^ o.O.3.-X-XK.V.c.kXw.q... .) ) (  .O.q.>   I y y y     y y y   y y y i y y y y y y i i i i y   y y       y y y 9   a ..) ( ~  .5.k.S.-XOX2.( ) ..o.2.&XXXoX+X2... .) o.o.2.",
"q.p.o.) ( M m ~ ..o.2.0.0.<XkX,X|.q.0...+         o.8.. & i y y y y q       q y y y y i y y y y y i i i i y q     9 q y y y q w   . 2. .        Q.&XP.0.O.) (  .O.2.3.3.|.XX=Xg.0.0.j.&X-X",
"7.i...^ ^ M m b ~ ~ ..6.4.s.1Xc.v.        5 Y & G   k.. = y y y y y         q y i y y y y y y y i i i i y y =         q y y y q   . 5.  T o w &         ( M M ^ ~ ( O.4.8.5.OX[./.p.:X<X5X",
" . .~ m M m M m ^ ^ ^ ....8.=X    y y r q & &   &   A.. = y y y y q NXNX    9 i y i y y y y i i i i i i y y r MX      q i y y q   . _.  #   & & = 5 = =     ~ ^ M M ) ) O.2.j.=X<XkXV.9.8.",
"M ~ b b m ~ ~ ^ m ( M ^ ..O.  & 6 = X o & & & &   3.h.. & q y y 9   FXFX        y i y i y i y i i i i i y   = FX        y y y w   . :XA.  & & & X X o & = -   + ~ b M M (  .2.dX1X0.O.o.^ ",
")  .M b b ~  ...m M ~ ( / _ = 5 9 . . < - & & =   5.H.. & w y y 9   o X         i y y y i y r y y y y y y     o         y y y 9   . n.+X  = & & $ $ . . & = & . / M ~ ~ ..O.F.,X2X3.O. .( ",
") ( ~ b b M ....m M ) X.+   =   . 3 g 1 * & & =   i.L.. # 0 y y 9       R       y y i y i 7 7 7 i y y y y           .   y y y 9   O 0.oX. = & & * < 4 ,   @ - =   M ( ~ ..o.H.3X<X2. .^ ^ ",
" . .( ^ ~ ^ o...M ( ... & -   3 g x g < & & % =   O.i.. o 8 q y 9   g O   l .   i y y F C {.{.{.V F y y y   O 2   , z   y y q =   O 8.0.  = X & & $ g l g , . o =    .) o.$.,Xw.q.o.^ M M ",
"o.o.( ~ ~ M m ^ ( (   & = : j z Z A 3 & $ 1 @ & & . _.h.d   w r y q . [ %.[ . q y y C =.cXnX<XvX=X=.' y y q   { %.%.. 9 q y 0   _ 5.O.. = & X < $ & 3 A Z l h j & & . O.3.u.<X3.2.) ^ m b ",
"3.8.O.^ ~ ~ ~ ~ o.  - X g j S S S g = < 3 2 % X &   2.C.B   9 y y q e . .   q q p ' ,XnXV &X<X&XC qX%XC t y y .     t q y w =   <.u. .  = & @ 4 1 < * l S S S h 3 o 5   q.#X=Xo.o.) m M M ",
"0X0Xq.2.o.( ~ ( )     .   . Z Z Z 4 - 3 k j <   % = : S.B.  = 9 yXaXP y y r q q *.vX%X7X^.-X<X,X<.!.!.7X:.y y y y i H yXtX9 =   m.m.+ = &   < j g < * 2 Z S Z           ;X'.v.....^ m m m ",
"dXfXi.O.o.O.( ^ ^ . > ) ( 8.. . A 3 & 3 l x 1   % &   d.g.s.. 9 yXH uXG y y q F ] nX%X>X%X,X,X<X!.!.}.-X' e y r y tXuXtXtX9   0.D.B.  = &   < j j 1 & 3 Z . . ( ( o.> : <XK.j. .~ M M M M ",
"q.w.-X*Xy.2.) ^ m M (  ...0.K.: g = 1 x Z Z 2 2   & =   a K.. = w w y y y q -.}.vX&XnXnX3X!.).!.:X=X=X&X=X}.' t y y y 9 = =   O..   = &   2 3 z A l 1 * 2 a o. . .3.j.k.,X4.2.) ) ( m ( ) ",
"O.O.5.,X,Xg.O.o.( ) O.8.3.`.dXbX  < g Z Z A 2 z 2   o       X   9 = 9 9 y 9 V ;.,.M.,.>.' B d n v ;.>.M.,.;.V 0 y w 9 = #   X           4 h 3 z Z Z h 1   8.3.q.U.*X2XdXgX`.J.6.8...( M M ",
"o.o.0.=X=Xq.2.o.( ) O.3.3.|.dXxX  < k S A z 2 z j o   o & &   6 X X 9 9 w 9 c c >.<.' C m -.-.-.b V ' <.>.B , w w 9 = o o & o & o   . $ g z 2 z Z Z j 1   8.8.i./.*Xb.x.N.+X&X3.3.O.) ~ ~ ",
"( ^ O.q.q.=X(.q.2.2.q.3X=X-X/.}.  <     . h 2 S h   9 I y q   Y       = 9 0 &   f C C ' M.N.~.N.M.-.*.V .   & 9 9 =       K   = w 9 =   g A g j       3   =X,X*X|.q.3.2.2.p.,Xk.i.8.o.) ( ",
"m M ^ O.o.3.5X*XU.(.dXV.j.3.8.4.    2.j.f.  h x   u Q i y r q &   X     = 9 9 9 &   =.=.=.=.=.=.] =.]   & 9 9 9 =     X     9 q y u i 9   j z . D.A.k.    `.+Xp.5.O. .( ..o.8.=X*XdXq.2.2.",
"m b ^  ...3.5..XzX8Xi.3.3.3.....^ 8.0.|.4. ..   T pXi y y y y 9 9   & -     = = = =                   = = = &     X X   5 = q y y y I u 9     o.O._.XX5.2Xi.h.O...( ( ( ^ ( O.5.3.C.&X2.3.",
"^ ^ m ~ ^ O.O.=XjX0Xh.8.o.( ....` ) ) 2.i.5.  U Q i t y y y y y q = o q ! X     = = = = = = = = = = = 9 =     o W u   = 9 w y y y y i I q 8   4.G.'.oX0.p.3.2.) ^ m b b M M  .3.3.i.`.3X3X",
"M ~ m ^  .2.4.dXj.k.2...) ^  .( ~ ^ ( o.p.2.  U Q u y y y y y y q 9   y CX&     . o = = = = = = = = = X .     X CXu . = y q y y y y y u u 9   2.`.[.0.2. .( ( ^ ~ M m b M M ^ ) o.3.i.dXdX",
"M M ( 2.3.q.3X|.q.q...) ^ ~ m ~  .~ ^ ..N   y W I y y y q w y i y y   !     & & DXX                   & SX& & X   W o t y y y 0 y y y i i i =   B.5.o.( ( ^ ^ M m b ~ ~ ( M b ) (  .O.q.A.",
"( ( o.q.p.<XJ.q.5.o.( M m m ( ^ M b b ~ N   y I i y y w 0 w i i i y y   =   & - DX& & & & & E X & & & & DX& &   = o y y y y y 9 q w y y y y 9   _ ..( ~ M b b ~ ( m ( ^ ( ^ m m m ~ ( 2.2.",
"( ) o.v.a.;Xs.0.4...( M b m ^ ( m m m ^ /   i i y y y 9 9 w i i i y r r 8 X     mX  & & -   Y   & & & o pX    X = i y y y y y 9 9 w y y y y 9   ` o.) ( M m b ^ ~ m ^ ^ ( / m m M ( ) 2.3.",
"2.5.0.<X<Xj.8.O.)  .( ~ M b M M ) ~ ~  ._   y y y i y & 9 y i i i y y y y w =           . VXZXBXo           = 9 y y i i y y r r & = q y y y 9   ` O.) ~ ^ m b m m ^ m m b b M ^ ~  .O.O.P.",
"c.c.1X/.V.3.o.( M M ~ ) ) ( M b b O.O.O.&.  q i y i 9 = r y i i i y y y y y y q 0 =   Y AXGXAXAXBXW   = 9 q y y i i i i y y y r & # 9 y y y 9   &.q.O.) ~ ~ M m M M ..( ~ ^ ( o.o.8.I.I.2X",
"=X,X2X0.q.O.^ ^ M M ~ ) ( ^ M ~ M ( ( 8.,.  9 q y y & q r y i i i i y y y y y t y y   pX.   VX    BX  y y y y y i i i i y y y y = = & y y 9 9   wXOX3.O.) ^ ^ m b ~ b m M M ( 3.8.P.<X=Xq.",
"k.Z.2X0.0.o.^ ~ b m ^ M M v m M (  ...8.B.  9 w y y X r y y y i y y y y y y y y y y   mX.   AX  . NX  y y y y y i i i i y y y r = = & y y w =   wX*X3.O. .^ ( ~ ~ m m b ) ^ o.8.3.K.-X-Xq.",
"0.0.&XH.C.3.M M b v M M ~ m M ^  .O.q.D.nX  = w y w   q q y i i y i y y y y y i i i   U iXVXE CXiXY   y i i i i i i y y y y y q = =   q 0 9 =   rX*X|.D.q.O.2.) ^ ( M ~ ^  .5.I.`.&Xq.2.o.",
"o.O.i.<XdX2. .^ ~ ^ m b b ~ ) ) ..q.q. XgX2X  = w 9   9 w q y y i i i y y y i i i i w &   pXiXiX  & w i i i i i i i i y i i y w = =   9 9 =   O.8.8.V.2X&X5.8.O.)  .~ ^  .2.6.jXhXg.2.O.( ",
"( ( 3.&X:Xj.2...( ) ^ M ~ ^ .. .q.D.D.dXd.0.  = = =   9 9 9 y y i i i i y y i i i i i q y       y y y i i i i i i i i i i i q 9 = &   = = &   ) ) ..2.h.2XXX'.0.8...2.O.q.D.:XfXgX0...^ ^ ",
"~ ( 2.2./.&Xh.O. .( ~ ~ ^ ..2.5.C.sX1X/.5.9.  - = =   9 w w y i i i i i y i i i i i i y y y q y i y y i i i i i i i i i i i w 9 = =   = = &   ( .. .3.3.q.4X2Xh.3.8.9.p..XkX X3.3.o.) ^ ^ ",
" .) ^ 2.@X;XdXq.2.O.) ) ) 2.p.p.XXsX1X0.4.2. .  = = X = 9 w w y i i i i i i i i i i i i y y r y i i i i i i i i i i i i y y 9 9 & & o & X   ^ ~ M M ( ..2.h.i.<X(.q.]._.hXV.8.3.2.( ~ M m ",
"^ ^ ~ O.3.4.dX+X3.8. .( ) 0.vXcXsXz.z.5..... .)     & = = 9 w w i i i i i i i i i i i i i i i i i i i i i i i i i i i y r w 9 = - & &     ^ M m M ^ M (  .0.0.].-XbX4X2XOX0.q.) ) ^ ~ M m ",
"m M ~  .@.2.A.2X0.q.8.o.o.8.zXgXC.3.3...^ M ~ ) M   & = = 9 w w y y i i i i i i i i i i i i i i i i i i i i i i i i i w 9 9 9 = - & &   d ~ M m b M m M ~ O.O.h..XlX,X,Xq.2...^ ^ m M M m ",
"m m  .~ ( 2.8.|..X/.0.8.3.<X&X;X3.o. .) ~ ( b m b b   & = = = 9 w w w q i i i i i i i i i i i i i i i i i i i i i w 9 w 9 9 = = & & . b m M m m b v m ~  .( ) 2.N.2Xq.q.O.( ^ m m M b b ~ ",
"b m ) ~ M ) O.0.;X2XkX2X2XdX|.`.8.) ) M M M M m )  .M .   = = = 9 9 9 9 9 q y i i i i i i i i i i i i i i y y w 9 9 9 9 = = = =   . d v ) ^  .m b b m ^ ) 2.O.k.+XXX2.O.) ^ M b M M M b m ",
"b ~ ~ ~ ( )  .8.!.kXH.5.O.5.Z.=XC.4.O.) M M ^ ) ) M b b x   = = 9 9 9 9 9 w y i y i i i i i i i i i i i y y y w 9 9 9 9 = = =   n n b v M b m ( ) ~ ~ ) 2.q.q.,X&X&Xz.3.@.) ^ m b m ~ m M ",
"M M M ~ ^ ..2.q.;X1Xp.3.3.8.i.n.<Xw.q.2.) ( ) ( b v M M d + @ & & = = = 9 9 9 9 9 9 9 9 9 9 9 0 9 9 9 9 9 9 9 9 9 = = = & & X O d m ~ b b m m M ^ (  .O.q.;X&X1X&X.X|.OX8.2...( ( ^ M ~ ^ ",
"M m M ~ ~ ..2.q.OX<Xq.8.o.O.q.0.<XXXoX2. .( ( ( b b M ^ ^ ~       = = = 6 9 9 9 9 9 9 9 9 9 9 9 9 9 9 9 9 9 9 9 9 = = -       M m m M m v m m M ~ (  .O.q.:X&X3.2.q..X5Xq.O...( ( ~ m M ~ ",
"( ^ ( ) O.q.Z.XX:XF.2.) ^ ( @.o.3.=X,X|.O.2.o.( ~ m ( M ^ ) ) O.&.      & = = = 8 8 = = = = = = = = = = = = = = &        . .^ ~ ^ ~ M m b ~ ^ ) o.O.3.A.=X(.h.3. .2.P..X2XI.2.....( ~ m m ",
"M ~ ) O.0.p.6X,X8.6. .^ ~ M ( ( o.8.8.|.`._.3.O.) ~ ( )  .o.2.h.$.,.#.#.                                          ] ] #.o.3.O. .( ^ m m ~ ^ ..2.0.h.&X&X8.O.O.) ^  .O.2.q.*X`.2.8. .( ~ M ",
")  .O.h.vXvXr.t.3.O.( ~ M ~ ~ ~ ) 2.3.0.=X=XoX0.3.o. .@.3.q.U.<X3X>Xm.c.@.` _ ` / / m b n d d m N / / / _ _ ` #.>.S.u.XXcXhXz.3.o...) ^ ) o.q.@X2X2X`.a.2. . .^ M ( ..O.3.5.dXeXz.3. .( ^ ",
") ..O.j.bXfX5.p.3. .^ m b m ~ ~ ^ o.O.q.=X-X+Xq.3.o...2.3.0.P.<X,X&Xv.v.O...) ) ( ) m m m v v M ^ ( ) ( ) ) ` #.$.s.p.).hX2Xj.2.O... .(  .O.0.oX,X1Xl.0.o.) ( ^ m ~ ) ..3.q.2X+Xj.3.o.) ) ",
"8.8.F.fXA.P.3...^ ~ m M m ^ M ~ ~ ^ ( ..3.3.=X-X&Xh.h.5X[.&X|.3.8.2.I.I.-Xq.O.O.^ M m ~ ~ v b m M ^ ( O.2.O..X=Xq.2.o.O.q.q.*X`.a.5.8.3.8.v.<X|.8.8.o.) ^ M M b M m ~ ~ ..o.3.OX.XgXp.3.3.",
"3.8.V.fX5.8. . .^ ^ b ~ M ~ ( ..o.~ ~ (  .o.i.i.-Xj.j.4XcX9X3.0.....2.8.#XXX2.8.O...^ m M M ~ ( ..o.2.q. X|.C.2.o.) ( ( o.2.2.;X=XJ.q.3.i.|.5X5.3.2.) ^ ^ m b ~ b m M m ^ ( 3.0.0.dX_.3.3.",
",X,XlX|.3.8.( ( ~ M ~ b b m ~ ( ( m M ^ )  .q.0.|.lX,Xk.q.8.O.) ) ( O.8.8.&X2.8.o. .^ m v M M ( ) O.2.|.H.0.3.2. .^ ~ M ) ) 2.8.oX-X,X1X1X*Xq.O... .~ ~ M ~  .( ) ~ m b M ^  .0.q.C.<X&X&X",
"c.n..X2Xi.g. .( M ( ..( M ^ m M M ^ ^ ~ ) ( 8.5.gX&Xj.3.2.O.( ( ~ ~ ( ..O.+X*X*XC.O.O.o.) ^  .O.0.`.&X`.9.3...) ^ ^ )  .) ) ..O.3.0.k.*Xs.q.2.) ( ~ m b v b b m M o.~ ^ M M ^ ..8.8.2X&X&X",
"q.q.0.,XA.P.2...( )  .b m b ~ m m ~ ~ ) o.O.h.P.,Xq.2.( ^ ~ ^ ~ ^ ~ ( ) ) O.7.6.+X*Xp.g.2.2.4.U.9X=X|.8.o...^ M M b M M b m ~ ^ O.3.2.,Xy.8.) ~ ~ ~ ~ M m m b b m M M m ^ ( ..3.0.P.=X0.8.",
"..2.0.5XJ.J.3.O.) ..( m b b b m ~ ) ) ..j.j.,X,X5X0.O.( ^ ) ~ ..~ M ~ ^ ) o.4.2.v.oX|.+Xi.7.v.3XdX~.c.8. .) ^ M ~ M m m ~ M ~ (  .3.3.sXb.s.q. .^ ^ ~  .( ~ M M m m M M ~ ) O.i.s.XX;X8.8.",
" .) O.p.gXdX X8.O.o.^ M M b ~ ^  .O.O.8.j.k.,X,Xj.3.) ~ ^ 2.M ..^ M ^ ^ M  .@.o.3.k.,X=X_./.[.jXj.0.8.O.( ) ~ ^ ) ( ^ b ( ( ( @.3.0.8.gX).K.0.O.O. .( ^  .m m  .~ M ( (  .o.p.#X:X=X0.2. .",
"~ ~ ( o.2.8.-X0.3.w. .~ ~ ~ ~ ~  .q.w.].gXgX(.`.3. .~ b m M m M ~ M ^ ~ M ~ ( ) ..3.l.Z.*X2X,XU.8.3.O.) ~ ~ m m ~ m ~ M m m ( 3.h.H.].&X|..X2X8.3.8.2.) ^ m m ) ^ M ) ) 3.h.:X<X3X8.2.( ( ",
"M ~ ^ @.O.2.0.=Xy.g.2.....^ )  .3.q.w._.-X X=X*X0.2. .^ ~ ~ b ) ( M m M ~ ~ ~ ~ ) 2.8.q.<X[.v.0.3.o...( m m b v M ^ ^ ^ ( ( O.q.p. X=X5.+.r.2X.Xp.q.2.O.) ~ ~ ( M ) O.o.3.q.<XK.j.2.( M m ",
"~ m M ) ) O.3.C.-X=Xq.2.3.O.3.4.3.oX.X,X9.8.h.=XH.2. .^ ~ ~ b ( ^ ( b b m m ( ~ ..2.8.D.dX|.|.C.2.O.o. .( ^ M b m m M ^  ...2.q.<X3XD.3.O.2.8.I.2X2X/.0.8.O.O. .( 3.8.8.k.<X X6.3. .^ ( m ",
"^ ~ ^ b M ) ..2.;X*X2Xk.0.O.3.5.dX[.`.0.0.o.O.h.*X&Xq.O...) ~ m M ~ b b ^ ) o.o.3.q.2X,XD.q.k.=X.X_.p.3...^ ~ b b ~ ^ ..3.6.C.2XK.0.3...(  .O.8.2X2XjXC.8.O.o.)  .3.z.;X2XA.8.o...^ ^ m ^ ",
"~ ^ m M ~ ~ ( ) 3.3.w.jXfX X1XdXk.3.3.o.) ( ) O.O.i.*Xy.5.2. .) ~ ^ ^ ^  .O.h.q.-X&Xq.5.O. .o.O.k.+X-XV.3.2.o.( )  .o.9.j.z.<Xq.2.o. .~ ~ M ~  .2.3.q.+X2XA.A.0.0.=X4XK.r.O.o.( ^ ~ m M m ",
"~ ^ b ~ ~ M ( ) @.2.q.<X2X&X2X2Xk.3.3. .) ( ) o.O.i.&X_.v.2. .~ ~ ( ^ ~  .2.$X;X-XV.0.8.O. ...2.p.#X<X`.3.O...^ (  ...0.6X3X<Xq.2.o. .^ m m ~  .@...O.4.4.;X-Xy.s.&X2XH.q.2. .^ ^ ~ b M ) ",
"b b ^ ~ M ^ b ^ ) ( ..q.0.gXN.0.o.( ^ ^ m M m M ^ ) O.5.+XXX2.O...( ..o.2._.XX3X3.O...) ~ m M ( ) O.2./.<XOXq.o.o.2.5.<XJ.P.2.o.( ^ ~ b m M ( m M ~ ( O.3.oX.X2XfXk.2.O...( ~ M ~ M  .M m ",
"M m M M M ~ m M ( (  .8.5.dXb.q.O.( ) ^ m M M M ( ) O.5.oX.XO.2.o. .o.o.3.`.oXU.3.o.) ) ^ b M (  .o.O.U.<X;X8.o.o.O.0.,XL.H.3. .( ^ ~ b m m ^ M M ~ ^ ( o.q.q.0XgXh.8.O...( ^ m m M ( m m ",
"~ ~ m ~ m m ( m ~ ~ ) O.2.,X+.3. .^ ^ M m m m b m ~ ( o.O.3.XXI.a.2.3.5.&X.XO.2...( ~ ~ m b m ~ ^ (  .o.O.O.&XK.p.<X-Xg.2.O.) ~ ~ m b m m m b ~ ^ ^ m ~ ( o.2.#X,X2.o.) ( m ^ ~ m M b M ^ "
};
