/* XPM */
static const char *gothic_floor_30[] = {
/* columns rows colors chars-per-pixel */
"30 30 140 2 ",
"   c #6E0100",
".  c #740101",
"X  c #7C0101",
"o  c #840101",
"O  c #8C0101",
"+  c #930101",
"@  c #9B0102",
"#  c #A40101",
"$  c #AC0101",
"%  c #B30201",
"&  c #BB0201",
"*  c #BC0308",
"=  c #C40301",
"-  c #CB0302",
";  c #CD0B00",
":  c #C90209",
">  c #C60808",
",  c #D30402",
"<  c #DB0502",
"1  c #D40C01",
"2  c #DB0B00",
"3  c #C21200",
"4  c #DC1201",
"5  c #D31800",
"6  c #DA1B00",
"7  c #E40602",
"8  c #E40B01",
"9  c #EA0C02",
"0  c #E31501",
"q  c #EB1303",
"w  c #E41B00",
"e  c #E91A00",
"r  c #EB190A",
"t  c #F21403",
"y  c #F31B02",
"u  c #DB2300",
"i  c #D42C00",
"p  c #E02500",
"a  c #EC2C01",
"s  c #EB2A09",
"d  c #F32200",
"f  c #F72C01",
"g  c #F92C03",
"h  c #F4230B",
"j  c #F72F0D",
"k  c #FE2E0A",
"l  c #E33400",
"z  c #E43600",
"x  c #EC3002",
"c  c #EC3203",
"v  c #EB3706",
"b  c #ED3600",
"n  c #EC3509",
"m  c #EF350F",
"M  c #F93002",
"N  c #F03900",
"B  c #F73A02",
"V  c #F63B01",
"C  c #F93801",
"Z  c #FA3C05",
"A  c #F8320D",
"S  c #F33908",
"D  c #F93D0D",
"F  c #F72411",
"G  c #F42810",
"H  c #EC4500",
"J  c #EF4F00",
"K  c #F24004",
"L  c #F54605",
"P  c #F74700",
"I  c #F94101",
"U  c #FB4504",
"Y  c #F64B00",
"T  c #FB4C00",
"R  c #FA4D00",
"E  c #FC4C03",
"W  c #F54208",
"Q  c #FF4709",
"!  c #FB480C",
"~  c #F55500",
"^  c #F75500",
"/  c #F75500",
"(  c #FA5601",
")  c #FC5203",
"_  c #F65A00",
"`  c #FE5900",
"'  c #F85F00",
"]  c #FF5B04",
"[  c #FB5B01",
"{  c #F7530C",
"}  c #FF570D",
"|  c #FF550C",
" . c #FE5E08",
".. c #FF5E0B",
"X. c #FE4010",
"o. c #FF5110",
"O. c #FF5111",
"+. c #FF5612",
"@. c #FF5812",
"#. c #F66201",
"$. c #FD6003",
"%. c #FC6202",
"&. c #F86400",
"*. c #F96600",
"=. c #F86700",
"-. c #FD6403",
";. c #FA6900",
":. c #FB6B02",
">. c #FF610A",
",. c #FF6109",
"<. c #FF6C0D",
"1. c #F37300",
"2. c #F57000",
"3. c #FB7300",
"4. c #FA7401",
"5. c #FF7403",
"6. c #FB7302",
"7. c #F47E00",
"8. c #FC7C01",
"9. c #FE7B04",
"0. c #FF730F",
"q. c #FF740A",
"w. c #FF7B0B",
"e. c #FF6E10",
"r. c #FF6913",
"t. c #FF641C",
"y. c #FF7117",
"u. c #FA8100",
"i. c #FC8002",
"p. c #FF8305",
"a. c #FD8603",
"s. c #FF8902",
"d. c #FF820B",
"f. c #FF800D",
"g. c #FF850F",
"h. c #FF970E",
"j. c #FF9809",
"k. c #FF8210",
"l. c #FF8311",
"z. c #FF8E16",
/* pixels */
"o c i # , O O o % 3.$ o . o ; g., o X o = 4 O.# # @ k.< O X ",
"= X.@ + + y # $ } : 1 # & e : : d.& + , R %.- X + o , ~ < $ ",
",  .# X O O ; 0.% o = 1.6 = O O - [ f.8 = $ G X @ q 8 % - 6 ",
"X % K - * 4 6 $ . $ 1 A @ o O O & Q 9 $ . X @ 2 < 1 # + X O ",
"@ o + c j.8 O + # , ~ F # + + - i.- Z = O o & I = w = @ X # ",
". o @ 8 ; # o X r % O = O.: e.N - + @ 2 n : ,.$ + $ V q - h ",
"@ # h , l k & % o . o O 2 5.- @ X O o O - u.: O X o + , p.& ",
"8 e 3 O o % =.% % @ O % 8.% - - o . . @ 7 ` ] - # O - %.* o ",
", L @   o @ $ =.R 6 = 4 , X + - % X + < q % # 4 =.; :., O O ",
"o w , + . + , ( # o % v +   X # 4.= 8 9 @ @ . + - p $ X X o ",
"= ! q < # - R # % O % <.= O # < R - g , O o O = [ q 9 % o + ",
"@.# + , d :.& . $ , s., 5.= 8 7 $ X $ g , @ = a.& O - ) - 8.",
"@ . . + : E , @ & ` & o % 5 8 O # . o % S 9 q.$ X O o = 8.& ",
"$ X + % o # a q.w.% o + + < f $ O $ o + % y.+.@ X # # V , X ",
"b @ + X + = ..$ W % o . X @ 8 < V + . @ - 8 & ; O O - d @ X ",
"= <.$ , z.H # o @ 4 ; = s r.u * -.= % e u @ X % 0 6 z ,.* O ",
". & :.9 $ # e O o % h u , @ o . $ U :., O + X = ~ - @ # q 9 ",
". & #.$ X O # j , [ , Z - o . @ q y & 0 , @ # 9.= O . O @ 8 ",
"% w.& + . + + - 6 & O + a , # t < @ . + - f < q +   #   # q ",
"#.- o o X O - k.% . O . o < _ < + . X o @ 2 t _ - @ X + 7 8 ",
"& a = @ O - ) , = + . X # 9.8 P $ . X $ 8 t # = :., # , t @ ",
"X , J # , 7.= o = 2 = & s.7 @ % T % & 9.9 $ o o & < a.q # X ",
"X X - a.3.& X . X % h.r.: o X O @ = s.2 + . @ o & y 2 X X O ",
"# - H % % 0 t @ O $ _ * o X o X + & 3., + @ + , [ : , y # X ",
"& :.% O X + , ..& d 3.q % X X X = ) = E 9 # , / # X + ; Y % ",
"#.= o O O o O - 2.: @ & t.$ + - -.= o # , r.E % X @ X O < a.",
"% a $ o . X # 8 & X o + , _ , 9.= o . . @ , y # X + o @ q , ",
"o 2 6 % @ & U M O . $ . o = a.= O   # o - ) , w % O # < ] @ ",
"% o > 0.! D % & 1 O X X = %.8 <., + + , -.- o , [ - Z t # o ",
"X X . % , # o X , w # &  .- O $ } = , { % + O o % m < O . X "
};
