/* XPM */
static const char *gothic_duck_73[] = {
/* columns rows colors chars-per-pixel */
"73 73 242 2 ",
"   c #020101",
".  c #0A0101",
"X  c #0C0B0C",
"o  c #070906",
"O  c #150000",
"+  c #1A0000",
"@  c #110C0E",
"#  c #1F0A0F",
"$  c #16120F",
"%  c #140F10",
"&  c #0F1110",
"*  c #141314",
"=  c #1B1415",
"-  c #1B1B1B",
";  c #181719",
":  c #07100D",
">  c #2D0000",
",  c #26060A",
"<  c #320001",
"1  c #3C0101",
"2  c #380009",
"3  c #230B12",
"4  c #2D0A12",
"5  c #2B0711",
"6  c #3B0612",
"7  c #330913",
"8  c #3B0A14",
"9  c #310711",
"0  c #21191B",
"q  c #1E1E20",
"w  c #242424",
"e  c #272729",
"r  c #2C2C2C",
"t  c #2A2526",
"y  c #322B2B",
"u  c #2C312E",
"i  c #31312F",
"p  c #352F30",
"a  c #333333",
"s  c #3C3B3B",
"d  c #3A3538",
"f  c #2D2F31",
"g  c #430002",
"h  c #4B0706",
"j  c #540100",
"k  c #560608",
"l  c #430513",
"z  c #4D0513",
"x  c #460916",
"c  c #540513",
"v  c #5C0315",
"b  c #560818",
"n  c #640101",
"m  c #6C0101",
"M  c #640C01",
"N  c #68040B",
"B  c #740101",
"V  c #7C0101",
"C  c #7D040B",
"Z  c #6C1101",
"A  c #751401",
"S  c #7B1501",
"D  c #771C01",
"F  c #6B051A",
"G  c #660415",
"H  c #77051B",
"J  c #6B2A00",
"K  c #403836",
"L  c #6F2F34",
"P  c #43423E",
"I  c #413F40",
"U  c #454545",
"Y  c #4B4444",
"T  c #554A48",
"R  c #585554",
"E  c #635950",
"W  c #68635D",
"Q  c #6A6561",
"!  c #716761",
"~  c #7F7E7C",
"^  c #840101",
"/  c #8B0101",
"(  c #86050A",
")  c #940101",
"_  c #9B0101",
"`  c #9C0606",
"'  c #821D01",
"]  c #8D1D00",
"[  c #871700",
"{  c #941C01",
"}  c #8A0318",
"|  c #940315",
" . c #A30101",
".. c #AC0101",
"X. c #A20609",
"o. c #B30201",
"O. c #BC0201",
"+. c #BC0801",
"@. c #BF0508",
"#. c #B70803",
"$. c #A61604",
"%. c #B71801",
"&. c #AA051B",
"*. c #B6091E",
"=. c #B11A13",
"-. c #922001",
";. c #9C2500",
":. c #8F2205",
">. c #B32C01",
",. c #B22602",
"<. c #B1290C",
"1. c #C30301",
"2. c #CB0502",
"3. c #C40A02",
"4. c #CC0A01",
"5. c #CC0508",
"6. c #C30909",
"7. c #CA0908",
"8. c #C00109",
"9. c #D20601",
"0. c #D90602",
"q. c #D40A01",
"w. c #DB0C02",
"e. c #D40A0A",
"r. c #DC0D09",
"t. c #C41300",
"y. c #CD1200",
"u. c #CE1A00",
"i. c #C61407",
"p. c #D31400",
"a. c #DC1302",
"s. c #D11A00",
"d. c #DC1B01",
"f. c #D20913",
"g. c #E20E03",
"h. c #E41402",
"j. c #E41B01",
"k. c #E91B03",
"l. c #E31B09",
"z. c #E71607",
"x. c #CE2300",
"c. c #D62100",
"v. c #DB2200",
"b. c #DA2900",
"n. c #C73A03",
"m. c #D83601",
"M. c #C92410",
"N. c #E32301",
"B. c #EC2403",
"V. c #E32A01",
"C. c #EB2B02",
"Z. c #E32408",
"A. c #ED2A0B",
"S. c #F12402",
"D. c #F12902",
"F. c #F32C09",
"G. c #E43301",
"H. c #ED3403",
"J. c #E53C00",
"K. c #E93C01",
"L. c #E7350B",
"P. c #F23C02",
"I. c #F43607",
"U. c #F33D11",
"Y. c #CB1325",
"T. c #D61C30",
"R. c #E11D31",
"E. c #DD2A3F",
"W. c #B55407",
"Q. c #D74502",
"!. c #CF4305",
"~. c #EE4301",
"^. c #E04C01",
"/. c #ED4B01",
"(. c #E04400",
"). c #F34402",
"_. c #F34B01",
"`. c #F94C04",
"'. c #F3490A",
"]. c #FD4C0C",
"[. c #F8440B",
"{. c #EE5300",
"}. c #EC5B01",
"|. c #E25100",
" X c #F45402",
".X c #FB5401",
"XX c #F45C01",
"oX c #FA5C02",
"OX c #F4530A",
"+X c #FB550C",
"@X c #FC5C0C",
"#X c #FE4C13",
"$X c #F74614",
"%X c #FF5C12",
"&X c #FD5715",
"*X c #E7551C",
"=X c #EE6400",
"-X c #F46301",
";X c #FA6402",
":X c #F56B01",
">X c #FB6C03",
",X c #FE630B",
"<X c #FD6C0B",
"1X c #F4620C",
"2X c #F67301",
"3X c #FB7302",
"4X c #F47E00",
"5X c #FB7B02",
"6X c #FE730C",
"7X c #FF7B0C",
"8X c #FF6210",
"9X c #FF6B12",
"0X c #FF7313",
"qX c #FF7B14",
"wX c #FF7A1B",
"eX c #963245",
"rX c #A63647",
"tX c #847D77",
"yX c #F68301",
"uX c #FC8402",
"iX c #FD8B02",
"pX c #FF830C",
"aX c #FB8F05",
"sX c #FD9303",
"dX c #FD9901",
"fX c #FF920B",
"gX c #FF9A09",
"hX c #FE8414",
"jX c #FD8C19",
"kX c #FF9414",
"lX c #F9932D",
"zX c #87817B",
"xX c #8C8885",
"cX c #AD9F94",
"vX c #B8AA9C",
"bX c #ADA495",
"nX c #BEB3A9",
"mX c #C3B4A5",
"MX c #DCD7D3",
"NX c #FBFBFB",
"BX c #F3F1F2",
"VX c #F1EDEA",
/* pixels */
"V / /  .O.a.9X XO.) _ ^ ^ ^ B V ^ ^ V / O.h.z.5X9.1.o./ V V V ^ ) )  .2.w._.XX1.o.) V ^ B / ^ ^ ^ / o.9.F.yX_.k.O.g. ./  .O.2.P./.9Xw._ ) ^ V B V ",
"/ _ O.9.J.-Xt.2. .^ ..O. .` ) / V V / ..@.a.l.yXa.O.#.) B ^ / ) ..O.9.@XoXXX-X[.q.O.) ^ V V / _ _  .q.#XpXH.w.1._ / V V ^ / _ O.3. X;X0.O. .^ ^ V ",
"/ ..O.d.sXs.o.O.) ^ ` O.2.6./ ) V ^ ) o.1.%X@X5X+X4.4._ ^ ^ _ o.O.2.2.-Xt.t.).XX<X1.) / V V _ _ ..1.a.OX<Xw.4.) ) B V ^ ^ ^ / _ 1.+.3X1.@.O.) V / ",
"o.9.u.:Xw.1.O. .) V V )  .9.j.O. .o.2.7.oX;Xc.C.-XN.q.2._ ..O.4.j.;XoXC.1.O.w.oXiXg.1._ ) ) ..q.2.p.;X-X+Xq. ._ ^ B V ) ) B ^  ...2.XXpX Xq.1.o. .",
"G.>X5X1.1._ / V m V V V )  .7.P.9.w.6X_.2X1.o...e.hXyXw.O.9.].oX Xh.1.o.) ) o.2._.:Xh.1.O.O.w.5X>X<X2.2.I.o. ./ B ^ V V V ^  .O.+./.;Xq.d.-X(.#Xq.",
":XuX5Xq.2.o._ ) V B ^ B ^ _  .a.>XuXuXw.o._ _ ^ 5.4.d.>X XyX Xe.2.O. .^ V V ) ..7.a.>XS.w.a.>X+Xm.2.O.) 3.a.w.../ V V ) ) ..7.XX;Xy.2._ ..O.k.:XsX",
"1.4.'.qXwXq.O...) ) ^ ) X.O.4.d.iXh.2.o.^ ^ V  .) 6.4.iX>Xq.O. .) ^ B V V ) / ` ..4.k.dXsXfX<X2.3. ./ B ) #.Z.l.o._ / ..4.g.3X7XL.o._ V ( ) O.1.1.",
" .o.1. X7X4.5.0. .) ) _ w.e.1.G.sXw.q._ ^ V / )  .1.4.fX9.2._ / ) / m ^ V / / ^ )  .q.yX~.h.h. .) ^ / B / / o.j.1...O.h.k.5XuX3.7. .) ^ ^ ^ _ o.2.",
"^ / ) O.d.5Xs.0.O.O.o.O.0.p.:X:Xa.6._ O._ / ^ ..q.1X5XF.2..._ V ) m B _ V V ^ _  .2.h.yXJ.g.1..._ ^ m m V B /  .q.w.8.1.N.uXh.O. ./ B B V ^ V ^ _ ",
"m V ^ ..2.k.,X;X,X4.9.H.iXpXU.2.O._ / ...._ _ 4.4.3XiX9. ./ V ) V ) V _ V ^ o...1.j.-X XC.2...^ V V V m B / V / ..h.).uXsXw.1./ / ^ B / ) / m B ^ ",
") ^ V ) _ O.1.B.5X-X_.yXw.e.1. .) ^ ^ ^  . .O.'.gXXX-X).1.....V ^ ^  .^  . ._ 1.a.2XC.H.[.P.o. ./ V ^ ) ) V ) o.O.9.:X XoXv.1.o. ._ ) B B B ^ /  .",
"/ ) V ^ V /  .9.w.dX-Xz.1.6._ / )  ._ ^ / ..q.@XOXw.2.>Xw.O. .) _ .._ ..    4.w._.;X1.....N.j.O.o.) V ^ / O.O.1.).-Xh.O.1..XoX2.2.1. .V B V ) ) @.",
"V ..o.V n V V ..1.3Xa.1._ ) ^ m B / ) ) o.2.+XV.2...o.h.5X).S.w.2.o.O.  d   .XuX.X0.o./ /  .C. X'.2... .O.2.`.>XH.2.../ _ o.0.>X<Xa.2.o._ ) 1.1. X",
"B _ ../ V / ) 7.w.sXC.2.o.) ^ ^ B ^ / o.a.H.a.2. ./ ^ O.9.3X0.O.j.P.  s e d   ).2.O... ./ /  .1.y.OXy.2.j.5XI.2.1. ./ ^ V ) o.2.G.XX3X2.2.2.m.5X~.",
"V B B ../ ..6.@XuX_.oX-X0.O._  .^ / ) l.O. ._ j   ^  . .1..X-X.     a e d e       . O. ._ _ / ..  g @XuXiXj.2.o.) ^ B m n V / _ ..1.a.-X-XkX/.q.1.",
"/ V V ....4.a.pXD.1.9.`.:Xc.9..._ X.1.y. ._ ` h O ) _ 2.d.    U U   e a a -   a -       .. ./ o.. < 4.,X7Xw...) / V m m B ^ ^ ^ ) ..2.h.2XsX4.2...",
"O. .^ _ 1.w.].oX7.....O.p./.:X7.O.2.k. ./ _   R.6   o.1.  P ~ R a a ; i a - a w   a e ;   ....  O &.o +X7XO.1._ / V B m V _ m ^ ^ ) 2.g.2Xw.7._ / ",
"1.O...2.j.3X@X0.../ _ O.9.G.oX-Xg.1.6. .O.1.  &.Y.  l.  R xXs a a i a a a a e X a a a a q   V.  T.&.   X X~.q.2.o. ._ ) V B / _ o.1.s.2X4.9.) / V ",
"5Xj.w.H. XD.1.O./ ^ V ^ ..O.1.j.iXc.y.2.1.2.  } R.<   a K d a a a d a a d a a a a d d a r q   g E.}   1.q..X_.oXh.2.o./ _ _ O.O.1.O._.4.2._ ^ V ^ ",
"a.3Xq.6X3X2.O. .^ B m ^ /  .o.1.q.>X0XZ.oX_.  F &.} <   a a a a a a a a a a d a d d d a r   1 &.| G    . .o.6.XXXX2.O. .O._ 1.3.G.>X;Xq.O._ B B V ",
"2.;XsXm.w.O.) / m V / B / ` / o.q.`.uX,Xc.4.. z F Y.` N   r a a a a a a a d d d a d a a   N T.*.G v   ..) ..o.1.).;X.X$X2.1.:XuXOXl.2..._ / ) ..) ",
"_ 9.6XN.k...) / V m V B m / O. .q./.iXw.1. ...  v } | }   i a a a a a a a a d d a a a a   } | N c   o._ V ^ ^ )  .O.a.XXiX;X_.2.2...) B V / V / / ",
"/ o.B.7XhX2.o. .) V B V / _  .2.d. X{.2./ ^  .  l v v z o a a a d a a a a a a a a a a a o l N c 2   _ _ ^ ..B B / / o.4.a.=Xq. ._ / ^ B B _ 1.) B ",
") ..9.qXhX5.f.7. ./ V ) ) O.4.2.G.4XoX2. ._ + e . + + * r a a a a a a a a a a a a a a a a * + O @ - 1 ) _ o.B m ^ / ) q.9.>X2..._ ^ / B B / 1.../ ",
"..1.[.pX3XXX9.9.1.o._ / ..2.r. X2Xh.P.'.o. .+ U w w e a a a a a a a a a a a a a a a a a a a e - - w > V ) 2.V V V ^  .2.d.5Xw.1.4.o./ ^ m V )  .1.",
"1.d.OX4.1.a.6X3Xq.2.O.1.q.u.:X).9.6.1.P.y.` w U d a a a a a a a a a a a a a a a a a a a a a a r r w X C / B / / ) ..1.p.-XoXoXp.4.O.../ / ^ V / / ",
"5X;XO.O. .O.O.u.yX;Xk.w.aXkXB.9. .)  .2.+XW.s a a a     a a X a a a a a a a a a a a X a a     a a a * (  .) / ..O.9.-X9Xj.O.Z.:X}.XXB.1.o. ...O.O.",
"b.1.O._ ^ ^  .O.4.q.3XsXoXC.9. .        9.< I i a a a w     r a d d a a a a a d d a r     e a r a a w g o..       -XH.9.O.)  .1.1.9.oX;Xy.q.w.a./.",
"w.O.) ) V m ^ V o.q.j.dXoXJ     - T K Y $.O d a a a w       d d d d a a a d d d d a a       w a a a e 1 m T y t @     O ) B V _ ..2.q.-XK.V.H.3X:X",
" .^ ^ V B B / / / ..9.:X  ; i y * *   * <.. a a a r   NX    w a d d a a d d d d d i w BX    X d a a e < D &   * - 0 - 0   ^ / V ^ _ O.9.8X>X4XB.2.",
"^ B m m V / B ) V ) 6.  - *   X * * * . a.+ r a a w   NX      d d d a a a a a d a a   NX      a a a w > OX  * * * X   * ;   1 V m B ) O.m.yX2.o./ ",
"_ V V m ^ o.B V _ ..  ;   # 8 9 * * ; . C.O e a a w           a d d a i r i a a a a           a a a w 1 H.  - * * 3 9 9   * o O ^ / ..9.,X:XO.) / ",
" .) ) ^ _ ..^ )  .  -   x v x 3 * & - . q.+ w r a w 4 8   c   d a a D }.}.}.' a a a   6   c . a a r * 1 w.  - X * 3 x c l   * * 1 _ o.>Xc.w._ ^ V ",
"o._ / V ^ V ) )   ; x c F G 4 ; 3 % * ; n.a.. e r a   } &.} - a a [ 2XlX3XhX:X] a a   } &.*.  r f w O 3.j - * X 3 * 9 F F c , * . O.2.2X4.1./ ^ m ",
"9.O._ ) ) ^  .  o     H H l - 3 8 % X - ) Z.. - r i i .     r p D :XS :X3X:XA >X[ i a       r i w - + o.1 - * # 6 3 3 x H H         h.-Xo.o.V m B ",
"yXq.2.../ ) )   _ _ 9.  v 7 * 7 c 4   *   M.<.: w rXL eXa a y { jXXX!.<X6X6X!.^.>X:.a i a rXL eX-   <.Z * *   5 z 5 * 7 F   ) o...  >Xh..._ V B B ",
"w.<X7Xu.6.) B V ) ..9.K.l * 4 v H 9 6   - o *XO - e a a a r ;.jX-XlX:XQ.^.^.<X:X-X>X] a a a w - X < V X *   6 9 G c 5 = 8 o. .@.9.j.2X2..._ / B _ ",
"o.9.4.:X2.o._ _ O.2._.iX  = x H G 6 c 4 o         - w w a e A >.n.>.M M k M M ,.n.>.S e a w - *         X 8 c 9 v F z 4   9.j.XX:XyXpX{.u.2.) ) V ",
") o.O.g.;Xa.O.1.w.-X>X).  7     z 6 H ,   s r X t   X - w w * h A Z n.n.Q.m.n.Z A h X w w -       * w -   8 G l l     8   b.;X[.w.1.4.0X<Xq.1.o.) ",
"V /  .@.Z.-Xw.{.uXv.2.4..   1.h.  z 6 * tXa a r *   X   - w w *   -.-.-.] -.] -.  - w w -   X   * w r s w   l b   C.j.  . 2Xh.O.o.) 1.2.x.-Xy.w.1.",
"B ^ / ..4.;XsXqXh.2.2.../ 4.9._. .    zXa a a a r e X *     - - -               w - -     X   w r r a a s e     ..1.oXq.:Xh.O._ ) ) ) O.1.5.8X;X4.",
"/ B ^ _ 2.5Xs.d.9...) o./ )  .O.q.  s d a a a a a r X - nX&     * - - - - - - - -     * vX@ - r i a a a d d e   2. X9.O...1._ ^ V m V / _ O.q.y.5X",
"V ) ) 2.B.>X0.w...) ^ B  .) / ..  u Q a a a a a a a d Q R   * *                 * * * X R ! * i a a r a a a d -   9.O...) / B m B ^ _ B / ) o.1.q.",
") ..2.g.3Xh.q.o.) V B ) V B m ^   d U a a r e d a a a   *   * VX- * * * E X * * * MX*   * o r a a a w a a a a w   o.) V V m ^ B V / ) V B B ) _ 1.",
"..0.s.3Xd.2.o. .) V B ^ ) ` V _   a a a a - d a a d a r a e X xX  * *   T   * *   zXX w a a a a a a w e a a a w   7. ./ / B V / / V B B V / ..O.A.",
"2.G.G._.q. ./ / _ ^ B ^ /  . . .  r a a e * a d d d a a a a a * * X . nXmXbX$ X * X e a a d d d d a e - a a a w   2._ ) _ B B _ ) ) B B ) ) O.1.6X",
":XdX}.j.2._ ^ V /  .) V m ) ..O.  r a a e - a d d a a a a a a r r   mXW mX! cX  e r a d d a a a a a w X a a r -   w.O.) V ^ B V ^ ) ^ _  .O.q.~.6X",
"j.uXu.q.o./ B B ^ B m B ) _ ..9.  w e a r r a a d d d a a a a a a   vX  mX  vX  a d d d d a a a a a e X a r e -   -X2.O...) ^ B B m ) o.4.9.K.3Xw.",
"9.].~.b.1.) ^ B V B ^ ) )  .0.D.  - e e w e a a a d d d a a a a d - X vXvXvXX q d d d d d d d d a a w X r e w -   p.+X).0.1._ _ / ^ ) 6.d._.,X4.o.",
"o.g.qXpX2...) _ B n V ..1.4.w.iX5X  - w X w r d d d d d a a d d d e   zXtXtX  r d d d d d d d d a a w X w w -   1.9.N.6X3Xw.2.o.) _ 1.l.pXiXg.@._ ",
"/ 6.3._.+X1...) ^ ^  .2.k.V.7XpX9.  ; - X w e a a a d d a d d d d d r X X X a a a d d d d d d d d e w X - - -   ) ..1.4.q.5Xw.2.O.w.@XpX4.q.O._ / ",
"_ / _ U.uX_.2.O._ _ q.h.qXpX4Xq.o. .  - X - e e a a d d d d d d d d d a a a d a d d d d d d d d r w - X * *   / ^ V ) _ 1.w.3X#X0.,XuXw.9.o.) ) B ",
"B V ^ #.B.,X<Xw.2.o.q.iX|.U.7. ./ ^ _ , - - w t e i d d d d d d d d d d d d d d d d d d d d r w w w - * X > / V B ^ B V / O.w.dXyX3Xw.o./ / V V B ",
"B ) ) _ 9.@X6XP.w.2.:X-Xe.7. ._ / B B m . * - w w e e a d d d d d d d d d d d d d d d d d e e w w - * X . B / ^ B m B ) ) ) 1.5Xu.w.O./ V V B B V ",
"m ) X.V ..w.q.5XdX5XyX`.0.+.) V / V B ) ^   * - - w w w w r d d d d d d d d d d d a a e w w w - - * X + j ) ^  .B m m _  .o.k.sX3.1._ ^ m V V B m ",
"m V V ) ) O.4.sXP.2.q.C.~.a.1. .V )  .V n m +   ; - - w w e r d a a a d d d d d a a r e w w - - -   > m n B m B ) V ^  .1.g.5X-X+X0.O./ ^ m ^ V V ",
"V V V ^ o.w.j.3Xw.o.O.w.:X0Xp.1._ ) / m V / V N     - - w w w w w w w w w w w w w w w w w - -     k B B B m m B V )  .9.w.;X2.2.~.%X0.o.) ) ^ B ^ ",
") / / O.w.oX5XB.2.) ) o.9.3.3X XO.1.) V / V _ _ o.=.    * - - - q q w w w - - - - - - - *     ` ) / V ^ V m ^ ^ ) O.2.~.2Xh.1.1.1.;X5X1.7. ./ ^ B ",
"V _ O.q.k.3X9.5. ./ V _ ..8.9. X_.2.o./ / ) ..1.a.%.,.$.                                  { $.o.O.o._ / B ^ / ..1.h.-X[.w.O._ ) o.1.d. X].0.) / V ",
" .O.h.jXiXw.4.../ V ^ V ) _ 1.w.:X;Xw.2...O.q.F.3X3X-Xc.O. ._ ) ) B m n n V / ) / )  .$.%.j.XXuX{.w.1...)  .1.q.oX5XN.4.o._ / V ) ..4._.4Xk.2.o. .",
"..1.j.hXp.4. ./ V m m B V ^ ) ..5.8XjX1.1.9.%XXX4.e.2.P.:Xw.O./ V m ^ n m m V ) 1.1.oX-Xh.1.@.g.+X6Xv.2...2.q.3XXX9.o._ / V B B V ^ ..2.q.=X4.o. .",
"9.B.yXq.q.5._ / m ^ ^ ) O.) / ) 6.$X<X+Xh.5X5X4.9.3.2.2.>XoX2.O...) ^ V ^ ) ..1.0.XXS.1.o._ X.0.2.4.=Xp.2.w._.5X9.2._ _ / m ^ V B V ) 7.q.N.fXC.2.",
"3XdX-X2.9.) / ^ V m V ^ ) V V /  .w.4.-X2Xd.9.O..._ _ 2.q.-X9.....^ m V ^ ) ..O.oXC.2.1._ ^ ^  .o.1.H.3X5XdX-Xw.O. .^ V ^ ) ) ^ V m ^ _ O.q.7X2X-X",
"w.I.5Xa.a. .^ ) _ ) / B V / ^ ^ _ 4.1.iXd.2.O._ / ^ ^ _ O.@X>XF.8.O._ / _ O.4.oX X2..._ / / .._  .o.1.a.,X-Xw.1._ / B n m n V ) _ ^ V / ) 9.qXuX;X",
"..q.+XG.N.1. ._ V m m V B B ^ _ O.a.K.3X2._ / ^ / / ^ )  .O.9.XX-Xg.1.6.4.~.5X Xq.o.) B B m B B V ^  .2.1X5X9. .^ V / / B V m ^ B B ^  .1.0.,X&X9.",
" .o.4.iX7XL.9.o.) V m ^  . .O.0.j.3X3Xh._ ^ +.V ../ V ^ V ` o.2.j.2X~.K.{.iXj.0.#._ ^ ) _ ) m ) ) ` 1.q.0XsXP.q.O. .) )  .m ..B ^ ) o.4.l.<Xc.q...",
"^ ) ..1.&X3X9Xg...) ^ / ..O.r._.iX X X1./ B B V V / V B / / ) ..7.k.;X3X>Xq.1. ._ / B m V ^ / ^ / ..h.8X-XXXoX7X+Xw.1.) / V / / _  .4.).3Xc.1.X./ ",
"B B V  .2.+X}.0X9.o./  .7.9.oX2Xq.p.>X3. ./ ^ B ` / ^ m / ^ ^  .1.0.7XiX_.B.O.o.) B m n ^ / V /  .1.'.-X1.O.7.x.oX<X1.o._ ) ) _ _ 9.j.3Xu.9.) ) B ",
"/ ) / V  .2.+.;X5Xa.O.9.J.uX{.w.o.O.h.>Xp.O._ ^ V V ^ m ^ ) o.2.w.5XG.w.j.>X;Xh.2...^ B m ^  .2.a._.<X2.7._  .1.9.5XiXl.9.O._ o.2.,X3Xp.9...^ ^ ^ ",
"/ V B ^ / _ o.2.w.iX X4XhXc.2.o.) _ O.4.,Xc.1..._ ^ ) /  .O.h.-X-Xw.O. .o.O.j.:XN.2.o./ )  .0.z.+X@X1...) V V ^  .2.w.-X5XC.q.q.2XK.t.O.../ V B B ",
"B B V V B / _ ..2.4.uXV.u.w. ./ ^ / _ 1.4.;Xv.2.o._ _  .7.w.>XoXr.7.) / ) 1.1.h.3XA.7.../ o.I.uXJ.4.O./ / ^ B B /  .O.1.9.:X>X-X3Xw.4./ ^ ^ B B ^ ",
"m B ^ V V B / )  .w.iXq.q...) ^ ^ B ^ ) o.2.;X3.O.../ ..1._.~.2.O._ / V V / ..1.P.-Xw.o.o.O.3XJ.y.1._ / m B B ^ B ^ /  .O.h.iXfXa.O.../ B V / _ B ",
"^ ^ V V / / B ^ _ @.>X7.o. ./ B B B m ^ ) o.1.@XoXp.1.2.-XoX7..._ ^ V B B V / _ o.O.;X~.a.<Xh.1.o._ ^ B B B B m ^ / B / ) 1.3XqX1._ / ^ ) B m B / "
};
