/* XPM */
static const char *gothic_duck_9[] = {
/* columns rows colors chars-per-pixel */
"9 9 73 1 ",
"  c black",
". c #010101",
"X c #000300",
"o c #020202",
"O c #050100",
"+ c #000402",
"@ c #101010",
"# c #111111",
"$ c #200000",
"% c #2F2F2F",
"& c #313131",
"* c #323232",
"= c gray20",
"- c #343434",
"; c #353535",
": c gray21",
"> c #373737",
", c #430000",
"< c #6E0001",
"1 c #6D0003",
"2 c #6F0303",
"3 c #760000",
"4 c #770000",
"5 c #7D0100",
"6 c #544B44",
"7 c #810100",
"8 c #810001",
"9 c #850001",
"0 c #8B0100",
"q c #880203",
"w c #8C0001",
"e c #8A0204",
"r c #920000",
"t c #930000",
"y c #930101",
"u c #970100",
"i c #940202",
"p c #960202",
"a c #900105",
"s c #9F0100",
"d c #9F0102",
"f c #AC0000",
"g c #AE0000",
"h c #BA0200",
"j c #B80103",
"k c #BD0100",
"l c #BF0000",
"z c #BF0302",
"x c #BA0401",
"c c #C60300",
"v c #C50400",
"b c #C70601",
"n c #CB0502",
"m c #C90604",
"M c #D20A00",
"N c #DF0D00",
"B c #DB1200",
"V c #E11202",
"C c #E61300",
"Z c #E61F02",
"A c #E71F06",
"S c #E42200",
"D c #F12C09",
"F c #ED4600",
"G c #E04C02",
"H c #F95E01",
"J c #F76500",
"K c #F96305",
"L c #F66E02",
"P c #F86F07",
"I c #F87A01",
"U c #FA7A00",
"Y c #F98E00",
/* pixels */
"m9IzyfSeF",
"<bdIoajju",
"V3Jo-oubu",
"7POo=o+3B",
"n$#=G=#,d",
"Zy=%6==3q",
"cYo---ozw",
"D7CL<Nm5H",
"yMKqA<xzf"
};
