/* XPM */
static const char *gothic_floor_100[] = {
/* columns rows colors chars-per-pixel */
"100 100 202 2 ",
"   c #6E0101",
".  c #740101",
"X  c #7B0101",
"o  c #840101",
"O  c #8B0101",
"+  c #8D0708",
"@  c #930101",
"#  c #9B0101",
"$  c #A30101",
"%  c #AB0101",
"&  c #A10508",
"*  c #A90408",
"=  c #AC0809",
"-  c #B30101",
";  c #BB0201",
":  c #BB0801",
">  c #B30409",
",  c #B3090A",
"<  c #C40201",
"1  c #CC0301",
"2  c #C40A00",
"3  c #CC0A01",
"4  c #C4000C",
"5  c #CC0608",
"6  c #D30402",
"7  c #DB0502",
"8  c #D40A01",
"9  c #DC0A01",
"0  c #D40408",
"q  c #DB0409",
"w  c #DC0D09",
"e  c #C51000",
"r  c #CC1300",
"t  c #CC1E00",
"y  c #D41300",
"u  c #DB1300",
"i  c #D51900",
"p  c #DC1B00",
"a  c #E20602",
"s  c #E90603",
"d  c #E60805",
"f  c #E40B02",
"g  c #E80A00",
"h  c #EB0D00",
"j  c #EC0E03",
"k  c #EB0D02",
"l  c #E50609",
"z  c #E30B09",
"x  c #EC0C09",
"c  c #F10E01",
"v  c #F20F09",
"b  c #E71000",
"n  c #E51201",
"m  c #E41301",
"M  c #ED1101",
"N  c #EB1107",
"B  c #EC1004",
"V  c #EB1302",
"C  c #E41B01",
"Z  c #EC1C02",
"A  c #E31309",
"S  c #EB1209",
"D  c #EB1C0A",
"F  c #F01501",
"G  c #F21402",
"H  c #F21B00",
"J  c #F31B02",
"K  c #F81C04",
"L  c #F5140C",
"P  c #F41D09",
"I  c #F91C09",
"U  c #CB2200",
"Y  c #CF2900",
"T  c #D32100",
"R  c #DC2300",
"E  c #DC2B01",
"W  c #E42300",
"Q  c #EB2400",
"!  c #E62A00",
"~  c #EE2B00",
"^  c #EC2C00",
"/  c #E8250F",
"(  c #ED260A",
")  c #EF2F0A",
"_  c #F32204",
"`  c #F22605",
"'  c #F42402",
"]  c #FA2100",
"[  c #FA2403",
"{  c #F12B00",
"}  c #F42B01",
"|  c #F82E00",
" . c #F92C02",
".. c #F22109",
"X. c #F82709",
"o. c #F22E08",
"O. c #F42A09",
"+. c #FA2C0B",
"@. c #E53200",
"#. c #ED3401",
"$. c #E73F00",
"%. c #ED3B01",
"&. c #F43302",
"*. c #FA3301",
"=. c #F43B01",
"-. c #FA3C02",
";. c #F4330B",
":. c #FB340A",
">. c #F63C0A",
",. c #FC3C0A",
"<. c #F63411",
"1. c #FE3410",
"2. c #FC3E11",
"3. c #E74200",
"4. c #EC4502",
"5. c #E24900",
"6. c #ED4C00",
"7. c #F54401",
"8. c #FA4402",
"9. c #F54B01",
"0. c #FA4C02",
"q. c #F3420A",
"w. c #FC430B",
"e. c #F64908",
"r. c #FD4B0A",
"t. c #EF5402",
"y. c #F55300",
"u. c #FC5101",
"i. c #FC5700",
"p. c #FB5302",
"a. c #F65B01",
"s. c #F95800",
"d. c #FB5A02",
"f. c #FB5E01",
"g. c #FE5A05",
"h. c #FC5B02",
"j. c #F45408",
"k. c #FF5509",
"l. c #FF540B",
"z. c #FE5C0B",
"x. c #FD4212",
"c. c #FF4A13",
"v. c #FF5414",
"b. c #FF5B11",
"n. c #FF531A",
"m. c #FF5818",
"M. c #F66300",
"N. c #FC6102",
"B. c #FC6605",
"V. c #FC6302",
"C. c #F56B00",
"Z. c #F96B00",
"A. c #FD6A00",
"S. c #FC6901",
"D. c #FB6D01",
"F. c #FF6C07",
"G. c #FC6B02",
"H. c #FF670D",
"J. c #FF640B",
"K. c #FF680A",
"L. c #FF6C0B",
"P. c #F57300",
"I. c #F97000",
"U. c #F87200",
"Y. c #FC7302",
"T. c #F57B00",
"R. c #FC7B02",
"E. c #FF720C",
"W. c #FF730B",
"Q. c #FF7B0C",
"!. c #FF6313",
"~. c #FF6C12",
"^. c #FF631C",
"/. c #FF7310",
"(. c #FF7314",
"). c #FF7B13",
"_. c #FF7719",
"`. c #FF7C19",
"'. c #FF6F22",
"]. c #FF7C21",
"[. c #F58400",
"{. c #FB8402",
"}. c #FF8402",
"|. c #FC8302",
" X c #F58B02",
".X c #F98A00",
"XX c #FF8901",
"oX c #FC8801",
"OX c #FC8B02",
"+X c #FF850A",
"@X c #FF8B0B",
"#X c #F49200",
"$X c #F69200",
"%X c #FD9303",
"&X c #FF910C",
"*X c #FF8313",
"=X c #FF8B12",
"-X c #FF861C",
";X c #FF8E1B",
":X c #FF901D",
">X c #FF8424",
",X c #FF8920",
/* pixels */
"X X @ # - 7 7 N.s.i.< - % % % $ # O @ X . o @ @ O O @ $ 1 1 | E.S.7 7 - % $ o X X . . o O o O $ < < a oX{.a 7 6 % $ O X . . X o O X O @ % % 1 6 M g f.p.J.7 ; ; - # @ $ $ ; o.| N.l.] 7 6 $ O O X X X X ",
"X X @ $ - 6 2 U.9 B ; - * - % $ % O o .   X @ @ O o O O ; <  .F.G.7 6 $ % # X . .   . O O o O % < < d oXXXf 7 1 $ # X X   X X o O X @ # - - 6 6 k 8 N.r.n.8 - * # # # # # ; / <.U.L.] 6 6 # O X . o . X ",
"@ # < 1 ` oX}.F < < # O o # b b b % $ @ . X X X X X O % < < H /.D.7 a - % o O o X X o @ # % % < f B s.~ B._ [ a % % O o o . . O & @ % - 6 6 [ { XX$XM 6 3 - @ @ . O $ X X # - ;  .g.S.j j - % # o O X X ",
"< < [ 0.S.9 i 1 - - @ O o O $ m S < : # X o o o # * % 6 k f k.F.f.m u < ; @ O o # @ # % % < 2 1 9.0.1 0 k P.`.H 6 6 - $ O O O * $ % - - 1 7 !.F.m m 1 ; ; $ O O X o o X X O $ % 6 5.XXM V ; ; - $ @ o O ",
"< < [ p.l.d f < # $ X o X O @ % % b ` f $ $ @ @ # : ; 6 ' J g.^ 9.d.i.7 7 - # @ % % ; 6 6 M l.0.=.=.1 1 k C.*XH 6 6 ; % $ @ @ % < 6 a k 0.y.p.d.H H 1 % * O X o . @ @ X X o $ $ 6 %.Y.0.D.I d 7 1 1 % % ",
"V Z R.Q.k ; < $ o @ X o @ X o O O % - b J V < < a g f 0.{ { 1 ; < W &.&.*.7 ; ; 6 7 9 J H 0.i 6 ; ; # % ; a W S.| | j 1 1 - ; 6 X.| N.N.=.m 7 8  .>.- @ O X X o @ o X O @ % < 1 J r.8.6 w 7.g.!.k j 7 7 ",
"A.G.XX).g < % @ o X $ O @ X X o O $ - 6 C Z < 1 9 S.V.0.L F 1 - < k m Y.}.7 ; ; 7 1 f.u.g.R 8 6 - - # $ - s ! J.R.[.b 1 1 < < 7 `.{.y.f.>.g 6 7 } ,.; @ O . X o @ o X @ O % < < F.^ Z 7 6 Z 8.S.8.r.9 9 ",
"y 8 g.~.j < < $ O O @ O . X o . . o @ % 7 f J C f.r.z.6 ; ; # O # < ; %.4.| 7 f -.=.N.8 8 < ; % X X o O # < 1 a C ~ 0.C M 9 9 [ (.u.d f 1 ; % % _ { 1 % $ O . o o O O $ $ < G M =.Z 9 % $ % - 1 u.S.R.R.",
"7 7 u #.i.7 6 ; # # X X   . o O o o @ $ 1 1 C.+XC.d z 1 % - @ o O % ; B C N.@X{.i.!.9 6 7 - $ O @ @ . X @ $ - 1 k M V.Y.f.[.[.G.p d 1 < - % $ $ 8 r ' - - O X . X @ # < < M W.N.k 9 1 # @ & % 1 3 1 f k ",
"- - 7 u r.p.0.7 ; ; $ @ O o X O O % ; 6 j j p.Q M 1 1 - O @ X X o # $ 9 7 G.%X{.G G 7 < < # # # O O X X . # $ - 7 7 [ @XR.R.|.&.6 7 - ; # O O O % - Z V D - $ @ O - - 6 0 M !.8.6 < - O o O @ # ; < d f ",
"@ # - - 7 d.F.f.6 7 < ; % $ @ $ % < 6 k R.R.K J 6 $ $ o X X O # # ; - w.8.f.u f < < % # @ o X . . . @ $ $ o o $ < < M *XF.F F 7 < - # @ o   o X @ @ % < < b < < ; 7 6 [ [ R.u f ; * # X X . . X @ @ % - ",
"O O # = 1 E j.A.8 7 1 < - $ $ % % 1 6 f +X+XJ M 1 $ $ o . X X * % 1 1 C.P.N.8 9 ; - # O O X + @ X X O @ # @ # % 1 1 a ).R.j c 7 < - @ @ X   . . O O $ - ; F 1 < < 6 7 Y.Y.>.C 9 % * O O O . X X o o # $ ",
". X O O $ ; < 7 N.f.-.1.7 6 < 6 9 } z.{.d g ; % O $ $ $ X . o # - 7 6 }.[.j 6 < $ # o X X O O @ @ o . X O $ % < d d s.9.&.6 6 % @ O . . X   . X X X o O # - Z Z J R.R.l.N.a 6 ; O X .   X O O X . . X o ",
". . . . o @ @ ; 3 6 N.f.N.p k *.| R.(.f - - @ O X X o # @ O @ % < k c C.G.a - % O O X . X . o O X . @ # # < 1 g p.p.%.^ } { } < % $ o o @ @ o o . . @ $ $ ; 7 6 f.C.V.| } 1 < % @ @ o X o o O O X . o @ ",
". . . . o @ # % 1 6 [ &.B.E W 8.8.=.x.7 - % @ O . . X # @ @ @ % < L.K.G.C.7 ; - @ O X . X X o O   . O $ $ 1 1 u f.d.9 u 8 *.{ < % $ o o X @ o O . X @ # $ ; 6 1 f.w.w.#.-.1 ; % @ # @ @ o X X o o X o # ",
"@ $ O o . o X o $ $ 6 6 ' &X%X} [ 7 8 - @ O o o @ o o X % $ - < 9 p.s.{ 8.[ 6 6 % % @ o o O o o @ @ % < 1 g ! |.j c 1 ; - &.-.d < ; $ # o X X o @ @ - 1 6 f 8.7.7 < < =.=.} 6 9 < ; % @ @ X . . O O $ - ",
"o O ; , o X o o # # ; < 9 +XXXV V < : $ o o . o # o X o # # < u C < ; 6 3 g.8 6 < < % $ $ @ @ # % - 1 9 m %.r.E.x f ; $ $ ; ;  .< 1 % % @ o O O # $ ; 7 C s.>.>.9 % = ; ; 0.! ^ m 7 < % % O o o @ $ % - ",
"o O ; :   O . . O O % - 9 T.Y.a d ; = @ X . . X o X X @ - - Z +.a - - 1 1 &.J.u.9 a < - % # $ % 1 1 d [ [ N.g.H 6 6 % # # ; ; n l.8.| 6 < % $ $ < < 9 -.J.k 1 1 % # $ ; ; 9 N.s.G P 7 < ; % $ # ; ; 6 6 ",
". X O # o X o O $ $ 1 6 c A.f.6 6 % # o o o @ # O O @ ; M m z ; % @ o $ $ < Z } N.a.j 6 6 1 8 9 U.R.N.9.*.7 7 < % % @ O O # # - 8 s =.8.u.d 1 1 f m a.P P 1 $ $ O @ o # @ % < 1 -.9.V.c j 6 6 1 f f ` ^ ",
". . o O o . X O $ % 1 6 M Y.N.6 6 % # o X X # @ o O O < V m 6 - % O O # $ 1 C [ N.S.c 6 6 1 6 9 R.oXa.7.*.7 6 < % = # o o @ # - z k -.0.9.f 1 < Y.Q.a.M B 1 $ * o @ O # # - ; 1 -.9.M.L F 6 6 6 u 9 F.C.",
"X X X X o # # % 6 6 M 9.D.p.p.{ { 7 1 - @ @ X . o % - b - % @ O o . . o o $ < < F b s.^ W e.&.7.}.@X9 < ; $ $ @ O o ; - % o o O & $ < 1 a 8.+X%XG.F.a < ; @ o o . X   X X o @ # ; < 9 9.e.' J M Q.Y.' [ ",
"@ @ X . X - ; 6 9 8 0.g.k.< R N.N.m m 6 - - # @ # 6 8 < O @ X . . . . # @ O % % 6 7 #.|.|.%X~.`.t U 6 ; ; $ @ o X X # @ @ o o @ @ # - ; 7 { *X%Xd j 6 % # o o o @ X X O o X o o $ % 1 8 6 J.N.}.T 8 ; < ",
"# # O o @ - ; 9 J.N.p.u 6 ; 1 8.r.Q.'.9 < ; $ # $ 7 8 $ O o X . . . X O O O $ % 1 6 H {.%X-.j M 1 5 % # @ @ O X X X @ O X o o o o O # % ; 9 L.U.d k < % % # O o o . X o O . . o @ $ ; 9 9 N.C.s.7 a ; ; ",
"; ; $ $ - 7 3 Y.g.z.6 ; - # % ; < ~.`.S.g d < ; 6 % $ O @ O O o O X o X . # - ; a z f.{ F 7 ; 7 9 9 < % $ O o # @ @ $ O X . X @ o X O # - 7 :.&.Y.P.G 6 6 ; % % @ O O X X o O @ - ; 6 M H s.a.a ; - @ @ ",
"; ; % % < 6 1 R.V K 6 - * @ @ ; < z e.W.a a 1 < 6 % @ O @ @ @ O o o o X o # ; ; d 9 F.[ [ 5 ; 7 z b < * $ O o o O # # o X . . @ o o @ $ ; a +.*.R.Y.m 6 1 ; - % # O o o X o @ @ - < 7 8.J.z.z.9 - - @ # ",
"d d 6 6 7 f.R.H 6 7 % @ o X X O O - < 7 V.V.H D ; @ @ $ ; ; % $ # @ @ # @ % 1 7  .S.-.7 7 - # $ 1 1 -.1 < $ O o X X . o o . . o # # ; 1 a ' a.z.8 7 y.p.b.j 1 1 ; # $ O o O # $ 6 6 V V.N.a d ; @ O o o ",
"M.N.W.L.&.f.v.7 - $ O o X . X o o @ # - 6 6 i.F.,.< < < 7 7 n D 6 - - $ $ 1 z k R.-Xk ; - O O @ $ - 1 x.w.< % $ X X X o o X X @ - < a ! G.M.i y ; < < W W p.}.R.k 6 6 % % - < 1 M m 9.f d ; ; # X X . . ",
"N.f.OX+X0.8.w.6 % % O X o o X X X O # % 6 6 -.W.0.6 6 3 7.8.f O.&.< < % % 1 9 c R.=Xd ; - O O O $ $ 1 ,.8.< ; # X X X o o X X # ; ; d #.V.d.6 6 - % ; 7 m 8.{.T.V 6 1 % % 1 6 6 G.W.} 7 7 ; ; @ o X . X ",
"6 0 [ 4.Y.f 9 % @ O X   X O O X . O O O % % 7 9 N.7.=.p.0.8.< < { f k < < k L.V.k V < # # . . X O @ $ < 6 8.< ; @ # X X o @ @ ; 8 7 -.i.M 6 - % O @ # $ - ; 9 d G.C.V.9 7 6 m F C.F.Q 1 1 $ # O . . O O ",
"; - 8 i Q.j M ; # # o X . . # # X   o # $ % a 9 }.u.z.z.8 1 - ; ;  .{ V d u.J.g.9 f - O O @ $ @ X . # - < 8.p.j ; ; @ # # ; < 7 !.N.m b 9 < # # X X X # $ - < ; 6 ,XQ.p.s.V.V.N.a 9 < $ $ @ @ X O @ @ X ",
"$ $ 1 < N.F F ; # # O X . . O O .   X o % % g d }.C H 7 < < $ $ $ C S  .d s.&.c 1 1 # X X @ # O X . @ % - &.k.j < < $ # $ ; < a !.N.d g 1 % @ O X X o O O # - - 6 V M f.a.A.C.N.a a ; $ # @ O o @ @ o . ",
"o o $ - a V.S.g < 1 $ @ O O . X X O # % 1 1 8.y.0.9 9 ; # # O o o % % b Y.s.1 6 $ $ X . .   X X .   X @ $ 1 4.Y.q 6 < 1 1 a a u.C j ; - # o # @ % * X . X o @ O % 1 6 f.S.F 9 7 % * @ o o   . o - - o o ",
"o o $ % 6 D.U.g 1 < $ @ O o . X o @ # % 6 7 }.Y.p.7 7 $ o @ X X X $ % J W.F.1 6 - - # X X . . X .   X @ # < < }.7 6 < 2 2 9 9 s.C j ; ; # o O @ * = X . . X O O $ 1 1 R.R.k 7 6 % # O o o . . X < 1 % $ ",
"# @ - < 7 N.C.A.C [ 6 - - @ O o o % - 6 J J 8.>.1 k f % o o . X X # @ 9 z.p.6 6 % % @ O O . X . X o @ % ; 6 < R.M G | L.R.N.V.j 1 ; @ @ X X .   . O % o . X # # - f k S.N.H 9 6 - - # @ @ X o . O O $ # ",
"; ; f >.8.u y 2 l.l.J.8 7 ; ; $ % 1 3 p.0.0.7 9 % 1 < 6 % $ O O @ $ - 6 7 N.W M 1 5 - @ @ @ O O # # < 6 9 e.~.u.0.0.6 8 8 { ~ ,.6 6 % % O o X X o X o @ @ $ < < j N.s.O.;.0.r.w.7 6 1 % - @ O o X o @ @ ",
"< < g w.0.a 7 1 G M D.8 7 < ; $ % 6 3 f.0.0.7 1 $ < 1 6 % % @ o O - % 8 7 f.Q F 6 6 - # @ O O O $ % < 9 9 i.W.u.8.0.1 1 7 [  .-.6 6 % % O o X o o X o @ @ $ < < M N.f.f a b r.0.a a 1 - - @ O o X o @ @ ",
"M M N.i 6 ; - $ < < f B.S.f M 6 6 J { G.7 9 % % o $ $ - 7 9 - $ $ 1 < s.D.-.W.B.| :.7 ; ; $ $ ; 1 1 M J.N.F M 7 ; < # $ - 1 1 -.N.0.7 6 - $ $ $ o O @ - ; 6 9.r.Y.a g ; < < 6 M 0.g.7.9 7 ; - $ - ; < 1 ",
"=.=.e.i 7 % - $ < < k L.G.U.T.A f 0.j.l.1 6 $ # X O O * 1 8 C 1 < ( ;.R.R.,.W.F.K./.Z 6 1 - ; 6 ;.=.oXJ.^.J n 6 ; - o # % 1 1 ;.a.f.7 7 ; % @ @ # # - 8 9 _ $X%X~.C f ; - ; < 7 i R s.u m 1 < ; 8 O.~.~.",
"s.p.6 ; - o O X @ @ - 5 6 F.Y.%.Q G.C.j ; ; o X . X o @ - ; b 6 1 =.=.U.(.7 6 9 f.K.u.a 7 1 < 6 r.y.{.3 9 1 ; % # # o O @ % % 1 Q { | ^ 6 < $ $ $ % < 9 8 N.R.Q.7 ; ; # @ @ - - 1 6 d u.u.l 8 6 f { Y.Q.",
"6 6 % @ O . X X o o # % - 6 9 R.R.p.s.9 % % O o X X o O # # < 2.8.N.f.9 z - $ - 6 w C 9.} 7 9 u.z.F 1 - - @ O O X X o X X @ @ ; 3 9 &.8. .9 < < < < 9 s.L.e.7 7 - @ # X X X O @ $ $ < d ' -.a d =.f.a f ",
"6 6 $ @ O O @ X o o @ $ % 1 1 f z a.M.| 6 6 % % @ O @ * ; < k e.f.a l < 1 % % - 6 7 F s.}.U.N.V.p.M 6 - - # @ O X X . X o O O $ - ; 7 Q u.0.k k H ! C.P D 6 1 1 - # # X X o O O $ % < d 9 N.P.R.S.D.9 a ",
"$ $ X . . @ @ X X . X O O % % 7 7 s.N.*.6 6 - $ # @ @ $ < : M c.f.a 9 - % O o o % % < ` ].(.V.J.a < % O O X o $ O O     . o o $ - ; 6  .9.0.M x J ! D.F S 1 % $ @ X . . . O X . @ O @ < 1 B.R.R.d d ; ; ",
"# # X .   X O $ X o . o o $ < - - 9 8 N. .[ 7 6 ; $ % 1 j k R.t.k ; ; # $ # X X @ @ % < 6 6 S.~.9 - % O O X . X o O o @ @ $ $ O O @ - 1 9 B R.{.U.Q.J 6 < $ @ @ o O @ X o O O   o O % 7 6 Y.C M < 1 $ # ",
"% - @ @ . . O - O o X @ @ $ - $ $ < 2 #.S.K.M B 9 ; ; 9 ^ *.E.t 1 % $ X X O X . @ # @ - 1 1 A.L.V 1 1 # # o . . X X O - ; @ @ # @ O $ ; 1 8 {.OXF.L.*.6 1 % O O . # $ @ # o X o @ $ ; M j A.b a ; % @ O ",
"% % # # X X o # @ @ @ % % # O @ @ % < a V.V.K J d 6 6 ' T.U.M < ; @ # . . O X . O O $ % 1 7 f.J.[ 7 6 % $ o o o o O $ 1 6 o o @ # # $ % < 1 U.D.k a { M m ; @ @ X @ @ - % @ o o $ % < J P p.6 7 % $ o X ",
"1 1 $ @ o @ @ X % $ % # # X X o o # ; 0 | | {.oXW.7.7.f.f k ; % @ X X o o @ X   X . o # - ; 6 =.u.H ' < ; # # $ - - 6 ; % X X . X X O # 1 7 8.8.0 1 < { x.6 % % o X X O @ $ - @ ; 1 g C.V.j 1 - O @ X . ",
"1 1 $ # O X o X # % @ O o X . X X # ; 6 W.W.8 r Y 0.7.S.f f < $ # X X @ o @ . . . X X $ % - 6 ;.p.).:X< ; % $ $ ; 1 1 % $ X X . X X O $ 6 7 8.=.6 < < { ,.6 % % o X X X o * = @ - < k C.K.g 6 ; O @ . . ",
"g k < < $ O O o # # o X . X o @ # < 1 M G.G.9 6 ; 6 6 0.&.&.6 < - O @ X . . X X . X X @ # # ; 9 f |.&X7 6 < 1 d Z J $ @ O .   o @ @ % < 9 P g k ; - # 1 C } 1 1 $ o o . X X O $ 1 r B.I H 1 ; # o O . . ",
"R.Q.W y 1 - $ O O O o o O @ # < < B &.J.9 9 ; ; # - < < l.0.w.@.7 ; % O @ o o O @ @ @ # % ; 1 a g 7.p.8 3 1 r 8.; - O . . . X @ * - 5 f e.Q.1 6 $ @ @ % % ..C m < $ # O O # - < B ! Y.d a - $ O X X @ o ",
"R.R.y.W 7 - - @ X O X o O $ % 1 1 F &.N.d d ; $ O # # < f z i.%.k < ; $ # o o O @ @ @ $ - < 1 k j 8.p.Y.XXD.W.=.; ; O X   X X @ * ; 6 d 9.{.5 1 # @ O # - a } { 1 $ % O O % ; 1 F ! Y.g f % # o . . O o ",
"6 8 0.W.=.a a ; @ @ # % % 6 6 H J R.-XV < ; @ @ X X X $ < < f 8.u.f c 1 ; % % % ; < 1 6 7 k *.f.G.k < 6 7 J Q 9.1 1 $ O o O O - 7 6 H p.r.9 % % o X . O O $ J _ -.6 7 - ; 1 9 [ U.R.p. .{ 1 1 % @ @ O O ",
"1 6 >.J.N.9 8 ; @ # # - - 6 6 7.9.Q.>XG < ; @ # X X X @ - - 9 &.l.m b 1 < - % % < 1 1 3 8 e.p.L.!.A 3 1 6 J Q B.6 1 - @ # @ # ; 6 a #.v.n.9 - = o X . X o & < 3 7.7 7 < < 1 i 8.W.Q.g.=.=.1 < % # @ X X ",
"% % 1 i d.S.z.6 ; - < 9 7 &.*.Y.Y.B S < @ @ X o @ o o . @ @ ; 6 a 8.=.p.! 6 6 7 F V N.OX{.' Z 9 ; ; # $ - 1 1 H a a 1 ; ; < 1 7 &.#.f.7 6 - O @ O @ X X X O $ $ 9 -.8.l d w.+X7.7 7 1 u.p.*.{ 1 % % @ @ ",
"o o % - 5 M ! y.7 g F J.U.F.R.9 z < 6 z % % O @ X o o # X X @ $ ; 6 9 V.+XT.S.M.y.y.b 3 8 - < % O @ . o O # % < f.M.J M d F M S.Y.Y.1 - % @ . . O O @ . . X # # ; m H U.P.{ 8 7 ; % $ 1 1 =.9.y.7 7 - ; ",
". X $ % 1 c &.p.l d F (.R.2.-.7 7 1 1 M % $ O o . X X $ X X @ $ ; 7 9  .+X}.V.G.u.d.d 6 1 < ; % @ O X o o $ - < !.~.J.3.! #.#.Y.W M 6 % % O . . X o o . X X $ # < m I R.R.M 6 7 - % * 1 1 ,.r.p.7 7 ; ; ",
". . X O $ < 1 -.N.f.S.&.k 1 1 % % # $ 6 Z Z - % O O O . O O # $ - 6 6 [ oXR.j k 6 7 - @ # @ O X X X X . X @ @ - 1 1 8.}.%XA.Y.-.1 6 $ @ O X @ O . . . X O $ < 1 f 7.f.F F 1 % $ @ @ o $ # < 1 f f.d.k d ",
"% $ X X O - ; f {.OXd 6 1 % % # # o o $ ; < z w - $ # # * $ < 1 d e.0.9.d ` f f ; - # X o . O O @ # X X O % % < 9 9 R.^ F 6 8 p ,.:.6 % - @ o O O O O @ $ < G B R.M.m 6 6 % O o # # o X o $ $ ; 8 7 s.u.",
"$ % X X @ ; ; x OX Xg 1 < % % # $ o O # ; ; 9 m < # # @ % % 1 6 g 0.9.7.d [ a d - ; # X . . O o X X . X O $ - 1 a 7 R.W F 6 6 6 =.*.6 - - @ X o X X O @ $ < v G R.J.F 1 6 * O X X X X o o # # ; 9 a s.p.",
"X . O # - 7 6 -.-.8.1 - # o o . . @ O @ $ $ < p { 0 6 < 7 7 V 8.a.G F 6 ; 9 0.8.7 6 % O O . . . . . o @ $ 1 1 V Y.R.H 8 1 - - % 8 m =.1 6 - $ $ O O O % - 7 T.W.H ; < # # O o   . X # O O o o # ; < d %.",
"O O % ; 6  .7.G.f a - # @ X X O # @ X X @ @ % < C [ O.w.$X$Xp.7.m 1 1 ; $ - 3 3 ,.,.f - - O O O O O % < < K J.D.u p 1 % $ @ @ O $ - ~ 0.0.f < ; $ # $ < 1 J }.}.< $ $ o o # > o X X o # @ X X O $ $ 1 3 ",
"O O % < 6  .r.Y.l a - @ o . . O # X X   X X @ $ - ' J 7.OX%Xp.%.B < ; $ # - 1 1 =.7.9 - - @ @ O @ @ % < 1 F J.Y.j g ; $ # O o O % - 7 0.9.k < < $ $ $ < 1 J Y.U.1 # $ o X o @ o @ o X O o . X o # $ < < ",
"- - 1 m H A.J.a - ; @ @ O X . o X O @ O @ @ % ; 1 k d R.g g 6 < ; # # o o O $ $ 6 1 8.M M < < % $ % 6 P G S.R 7 ; ; # @ O . X X O @ % 1 1 8.=.} 6 6 1 d m u.H J % @ O X X   . X $ $ .   . @ @ $ 1 1 j ~ ",
"- - 6 C ' Y.z.7 - ; # @ @ o X o X o O O @ @ % < 1 f a R.g g 6 < - @ # o X o # $ 3 1 q.H M < < - % - 6 C Z F.R 7 ; - # O O . . X o O % 1 6 w.=.{ 7 6 1 d u a.Z P % @ @ o o . . X % % X   . @ @ $ 1 1 w.l.",
"k j *.+XF.g 9 ; O @ X o O $ % X o . O # % % 6 7 F U.U.c 6 1 % $ O O @ .     o O % - < a f -.-.7 6 7 ' A.G.a 1 ; @ @ O . . o o X o X @ # $ 1 V J h.f.d.0.J.0.d d < % $ @ @ X X o O O # X o # $ 1 M F f.N.",
"N.N.+Xr 9 1 ; @ X . o o o $ # o o O O # 1 1 G r.F.a.h.6 $ % @ o . o o O O X . . O o $ ; 1 r.9.&.`.).R.r 7 ; % @ o o . . . o O % @ o X O @ ; 7 a {.[.b 6 3 Y.p.u.d 1 0 ; - @ O O . . . @ # < < d m.s.k k ",
"S.S.XX7 a < ; @ . . o o X o o X X O @ $ 1 1 G 0.Y.g f 6 % $ o X . X X O @ X X X o o # < < w.w.9.}.oXM 7 6 - % O o o . .   X X % @ o X O # ; 9 a R.[.j 6 8 y.p.y.a 6 1 - - $ O o . . . @ # < < d J.g.g k ",
"7 7 0.J...1 1 % O @ . o . . X O @ $ - ; 9 a p.L.9.M V < % % O O o . . o o @ O X o @ # ; < I ! OXp f 0.p a - $ @ .   O # $ . X . O o # - - a ,.u.M G < $ % < M M V.7.0.7 a < % # O O $ - ; d f p.m M < ; ",
"7 7 8.W.N.7 7 % @ @ X o o . X # $ < 6 g y.u.K.J.g.M J 6 < 1 % # @ X X X X X o o # # - 7 g B.S.9 f 9 0.l.{ 6 5 % O o o # $ o o O @ # ; 7 f 0.z.g.k M < $ $ ; f x q.W.U. .+.6 ; $ O @ # 6 1 j.g.d.m k ; ; ",
"- - d !.B.l 9 6 ; ; # # @ X o % % 1 8 u y.y.H M 1 d f 0.1 1 % # # o o X . . o O % % < 7 9 i.s.f < ; 7 r.8.6 1 - @ O X o @ X X @ $ - 1 f k p.l.F 6 6 $ o O $ < < a Y.V.*.*.1 < - % % < 6 6 p.y.F 1 1 # # ",
"@ @ ; 6 M f.J.7 - ; # o X O $ ; < H 0.R.' H 1 ; % - - 0.M M 6 ; - # # O O O # $ 1 6 M N.N.g a ; % # - 8 f 7.r.6 % % O X X O O - 1 1 M +XU.} 6 6 % $ O . X o # $ ; 9 a g.s.| 7 a < 1 k C.S.J F 1 % $ o o ",
"O @ # % < G #.U.d k 1 $ # % 1 a a Y._.G < < $ @ o @ # ; =.8.y.Q a 1 < % - - < 6 -.=.V.f 7 < < $ @ o # - < C Q #.< 1 - $ $ - ; 7 J Z z.C m 1 ; ; # # o . . X O O # ; ; n 9 0.=.=.*.=.S.P Z 1 1 % @ O X . ",
"O o # % < j ~ R.M v < $ $ - 5 d d R.].M < < $ @ o # # ; u u p.Q j 1 < ; % ; < 8 Y.Q.V.a a ; - # O o @ % ; d u 0.6 1 - % $ - ; 7 ~.).f.H k 1 % % # @ X X X X O O O ; ; 6 9 O.A.L.Q.R.C.G G 1 1 $ @ @ . . ",
"o o o O % 1 1 F N.f.F 6 1 1 c Y.Y.v M 1 $ $ o o O X o # - % 6 c.u.H H 7 7 8 u f.I H 6 - ; @ @ o . . X O @ - ; 9 } [ a 1 1 a d D.9.-.9 8 ; $ O @ X . O @ O   X X o @ @ - - 6 P.Y.{.+Xj 1 1 $ # O . . o o ",
"X X X o O $ - 6 C Q Y.! d 8 J.7.0.j S < @ @ @ O X X . o # $ ; 8 6 p.p.@X*Xr.g.K.M G 1 % $ O O X X X O O o % $ < *.| l.W S W.(.N.W V 7 < - @ o o . X $ - , X . . o # $ - ; 6 R.Y.9 z 1 $ $ o O X X X X X ",
"X X X o o % % 1 G H Y.|.R.V.U.F F 6 < $ o o # o . o . X O O % 1 7 r.r.oX%Xu.#.F 1 1 % O O X . X X X O @ @ o @ - 6 7 f.S.G.R.R.} 7 7 - $ @ o   . . . O % * . . . O # % ; 1 7 R.R.a 9 < $ $ o X X @ @ X X ",
". o # # o @ @ ; g f U.K.u < C -.=.6 5 - O @ . o o $ $ O . . @ $ - 6 7 Y.*XF 9 6 # $ o # $ @ o X . .   . X @ O @ % % < D H }.{.9 < - @ o .   . . O O X . X X o o # 1 < 9 a ' G.f.9 7 % @ @ X X X # $ X X ",
". X # # O @ $ ; m C W.'.k 1 P -.r.8 y ; # # o o o # @ O . . o $ % 6 8 +X;XG 1 1 $ $ o @ # $ @ X .   . X X # @ O $ % < S J oXoXf ; % O o .   X . o O . X . O O @ ; L P d.l.g.@.g.7 8 ; $ @ o O X O o . X ",
"X . . X O - ; 9 N.s.| ( 1 - ; a 9 0.-.a ; ; $ @ O X X . O O . O @ < < V.y.6 - $ O O . o o $ % @ . . O o . # o X O O # < 1 U.U.9 < - O o o . @ @ X   . X o @ $ % < J J u.y.=.g } -.O.6 < ; $ $ @ o X o O ",
"$ $ O # - 6 1 g.| *.6 5 & @ % < < M >.s.M G 1 < % @ O o o O @ % % 7 7 p.%.; % @ @ O X o o X & $ X o . X X @ # @ $ $ ; S j Y.Y.F f 6 % % @ $ # @ . . o # $ - 6 6 j a.g.k k < < < 7 #.a.Z H < < $ @ O X o ",
"# # O # % 6 3 N.}  .7 1 $ @ % < 1 j =.f.F F 1 < % O O . o o # ; ; Z C y.q.< $ @ O O X X X X $ % X X . X X # $ @ $ $ ; B F U.U.P b 6 - $ O $ @ O . . o # $ ; 7 0 k f.s.g j 1 - ; a =.J.Q ' 1 < $ O O o X ",
"@ @ % < 6 8.Q.f.0 7 - $ O X X # $ ; 1 f s.s.0.=.6 % - @ O O - 1 6  . .J A 1 % $ O O X o @ # X . . . o @ @ o o # ; ; 9 e.s.=.=.R.z.J 6 1 - # O O o O $ ; 1 7 [ [ u.f a < ; # O @ - ; 9 H Z 0.0.6 - % @ O ",
"- ; 8 p r.f.#.9 - ; # @ X   X X o @ $ - 6 6 =.7.#.7 6 - - - 7 J ` W.A.L.~.J 7 6 - % # O O o O O X X X o @ $ % 1 g a l.B.a.< < 8 @.d.W C 7 ; % $ $ % < M C k.y.a.1 - - # # o @ @ @ # - 1 1 9.6.r.< 5 - % ",
"; ; 9 F.p.0.^ 7 - ; # O .   . X X O $ % 1 6 | 0.z.7 7 < ; ; 9 J [ G.C.V.S.J 7 9 ; ; $ O o X # @ . X X X @ $ % < d d p.u.8.< < 6 m { d.u.f 1 ; ; % ; 6 j C f.0.9.1 % % O O X @ @ O # % 1 1 8.8.0.1 6 - - ",
"a a 0.G.f.7 8 ; @ @ X . @ @ o X X o o @ % $ 1 6 b 0.0.g H I N.y.8.6 8 6 6 8.=.&.j k 1 $ # o O @ o o @ $ % 1 8 F f.f.! < 1 $ # - ; < f { g.m f a a B =.N.!.V 6 0 $ @ @ X X X @ @ . X O % % 6 6 0.Y.&.7 a ",
"a l 0.p 9 7 6 - # @ X . O @ O . X X o O $ % 1 6 g y.j.k z.j.C.2 < 7 6 1 6 9 r.-.d g < # $ O o O o o @ $ ; 1 Q | b.z.M 1 < # $ % - < 1 u W 8.9 a a 9 7.N.!.M 1 6 % @ @ X X X O o . X O $ $ 6 6 9.Y.&.a l ",
"V.B.Y.8 B - - @ X o . o X O @ O X @ X X o o % ; 1 ] J D.U.S.d < < $ $ $ % < C P R.T.M 1 < % $ o @ @ % < 6 [ L.V.7 a < % $ O O O @ # ; < 6 [ F.S.{.}.| a f < % $ o X o X O % - O .   . o o - - a a A.|.z.",
"u y M.i.G < < $ O O @ X . X O $ @ X o o o o # - 1 M j R.l q 6 ; % @ @ @ # % 8 [ Q.).N.M g 1 1 - % $ 1 9 G A.y 7 < < # @ O X o O O @ # - ; 1 #.7.%X@Xa 6 1 % O O X     . . # & % o X . o O $ $ 7 6 P.#.#.",
"9 7 y.N.l.f f ; * # $ # . . X O @ X O O # * ; 1 z L.L.W.9 7 - # # X X o o $ ; 1 k 9 i.b.z.z k < ; ; B l./.W.y 7 ; ; # @ @   . O @ X @ # - 6 7 g R.Q.V 6 < % # @ o . . o O O # O o o X @ @ < ; G ).Y.k F ",
"- - 6 r.d.s f < $ $ @ o X X .     o o @ $ $ 1 1 k U.U.l - % O o o O o X . @ # $ - ; 7 d.f.k j 1 1 < M e.Y.7 6 ; @ # X . . . . . . X X X @ $ - 5 p.p.J 6 6 - $ $ O o o @ @ O O   o o X # # < < G *X0.6 6 ",
"$ % ; 1 m V.z.k 1 1 $ @ o X . . X @ $ - 1 1 f f d.k j 1 $ % O X X - - X X o @ @ $ $ ; a f s.y.a x d B.J.k 6 ; - # $ O O # # # X o # o O $ ; 8 z s.p.&.0.v.d < < % O O X . O . . o o # - ; a d j.~ g - ; ",
"# # - - 1 Q S.E.V L 1 - - @ @ @ # ; < 7 8.8.W./.&.6 6 % O @ o . . O o - > X @ @ # $ ; a g N.f.0.s.R.S.N.b < % # X o . . @ ; - X X o # # 1 a M +.&.&.1 0.d.l.f k < $ $ o o . X X $ $ - 9 9 r.r.d.8 7 % % ",
"o o $ % < f C S.k M 1 - - # @ # # ; 1 7 -.8.G.U.| 6 < $ O O O . . o o $ $ X X X O X # % < d 9 S.W.^ a 8 < # @ # o X   . O % $ X X o $ $ 1 a W 8.O.&.1 d u s.k k < $ $ O O X X o $ $ ; 7 7 0.p.g ; ; @ @ ",
". . X o # ; ; k N.f. .7 7 ; % < ; [ q.y.J J 7 6 8.f B < $ % o . . X o X . . o o o @ # 1 1 [ | V.Y.} *. .a < ; $ O o X X O X o @ # % < 1 a p.f.^ 1 ; % < < d u.p.H 1 1 - % @ @ $ < 1 d u.p.{ ' < # @ X X ",
"@ O X X . @ # ; R R R.y.e.7 7 B S N.S.!.D C 6 1 ) w.n.< ; - % O o X X O @ . O @ $ $ ; 6 6 f.M.a 8 < p.7.u 6 1 < $ # o X . o o # : < f d J.F.%.m ; - O # $ < 1 1 Y.2 3 < < - - ; 8 8 C N.S.C D < @ o X X ",
"# # O o . @ # - 7 6 J E.S.a 7 F F d.=.f < ; % % < 8.4.8.7 9 - @ @ X X @ @ X O @ % - 6 f d u.a.a d <  .0.u.B 9 6 % $ o X . O O % < 6 F F C.H 6 1 $ $ o @ # ; 6 6 N.g.s.d s < < 7 *.%.N.V H < 1 $ @ @ . . ",
"# @ . X @ X X @ % % 1 f &.D.Y.0.p.6 ; * @ @ O O $ < < l.u.9.d ; - # # o O @ % - 6 7 M N.d.7 7 - - @ - 5 a s.b.F < < % # # % % 6 M M C.U.x < % $ O o o X o @ % $ 1 b k p.a.k k 8.a.r.9 4 ; # # o . . O @ ",
"O @ o X @ . X O * % < z O.{. Xl.p.7 < - @ @ O O $ < < g 9.p.a - - # # o o @ * - 9 7 D.g.p.7 a ; * @ - < 9 g.l.P < < % @ @ $ % 0 W ^ G.C.c 1 $ $ O O X o o @ % % 1 g c i.g.u C 9.y.w.g ; < # # o . . O O ",
". . @ O . X X X O o $ < < D.U.6 6 % @ @ X X O O . @ # ; 6 7 7.^ k ; ; # # - 1 6 =.=.' 6 6 % % O X . @ $ - 7 u 0.g s 1 ; ; 6 6 | E.f.7 7 - $ O O . . o O X . o o # ; < g j R.R.J 6 1 - O @ X X X O O . X ",
"X X . X o O o o X o # $ % W.Q.< < @ O o X o X o O O # # 1 1 r.i.r.; < % $ - 0 9 N.J.m 6 6 # # X X . o O # ; ; i u.0.1 1 7 W W g.e 6 1 6 % # @ @ o X   o X o o o o $ $ < 1 N.N.6 < - # o X @ O X X o o O ",
"X o . . o o O o o O # - < V.V.; ; @ O o X o X X . X o @ % % 1 C &.' ' 1 < 7 u a.G M 1 % $ @ O X X . o O @ - < 1 x M [ b M s.s.' 6 6 % % o o . . X X   X X o O o o # # < < u.y.1 $ $ @ X X @ O . X . o @ "
};
