/* XPM */
static const char *gothic_floor_127[] = {
/* columns rows colors chars-per-pixel */
"127 127 215 2 ",
"   c #6E0100",
".  c #740101",
"X  c #7B0101",
"o  c #840101",
"O  c #8C0101",
"+  c #930101",
"@  c #9B0101",
"#  c #990408",
"$  c #A30101",
"%  c #AC0101",
"&  c #AC0807",
"*  c #A3050A",
"=  c #AE0409",
"-  c #A60809",
";  c #A80808",
":  c #B30101",
">  c #BC0201",
",  c #BF0A04",
"<  c #C40201",
"1  c #CC0301",
"2  c #C40A00",
"3  c #CC0A01",
"4  c #C10309",
"5  c #C90608",
"6  c #C5090A",
"7  c #CB0909",
"8  c #D30401",
"9  c #DB0502",
"0  c #D40A01",
"q  c #DC0A02",
"w  c #D30509",
"e  c #DC0609",
"r  c #D00808",
"t  c #DD0A0A",
"y  c #C41300",
"u  c #CC1300",
"i  c #D41300",
"p  c #DB1301",
"a  c #D41C00",
"s  c #DC1C00",
"d  c #DF1209",
"f  c #E30602",
"g  c #EA0603",
"h  c #E30B02",
"j  c #EA0D02",
"k  c #E70708",
"l  c #E30B09",
"z  c #EB0B09",
"x  c #F10E02",
"c  c #F10D08",
"v  c #E41301",
"b  c #ED1001",
"n  c #EB1400",
"m  c #EB1700",
"M  c #EE1206",
"N  c #EC1302",
"B  c #E41D00",
"V  c #E41B01",
"C  c #E91804",
"Z  c #EC1B01",
"A  c #E31408",
"S  c #EA1309",
"D  c #EE1A0A",
"F  c #F21402",
"G  c #F81603",
"H  c #F21A01",
"J  c #F31B02",
"K  c #F81D02",
"L  c #F21308",
"P  c #F41D0A",
"I  c #F91E0A",
"U  c #D42300",
"Y  c #DD2300",
"T  c #D42A00",
"R  c #DE2B00",
"E  c #D82E0A",
"W  c #DC3400",
"Q  c #D93800",
"!  c #E52600",
"~  c #E32300",
"^  c #EC2301",
"/  c #E42C01",
"(  c #E82900",
")  c #EB2B01",
"_  c #E42508",
"`  c #EE270A",
"'  c #EA2B0B",
"]  c #F52100",
"[  c #F72202",
"{  c #F32005",
"}  c #F52204",
"|  c #F42301",
" . c #FA2303",
".. c #F22900",
"X. c #F02F00",
"o. c #F72E00",
"O. c #F42C02",
"+. c #F82E00",
"@. c #F92F01",
"#. c #FA2C07",
"$. c #F92C03",
"%. c #F4230A",
"&. c #F92108",
"*. c #F32C09",
"=. c #FA2B0B",
"-. c #E53401",
";. c #EE3000",
":. c #EC3301",
">. c #E53B00",
",. c #ED3803",
"<. c #EC3B01",
"1. c #ED310C",
"2. c #F23400",
"3. c #F43700",
"4. c #F43402",
"5. c #FA3402",
"6. c #F43C01",
"7. c #FA3C02",
"8. c #F4320A",
"9. c #FC340A",
"0. c #F43A09",
"q. c #FC3C0B",
"w. c #F63814",
"e. c #E44400",
"r. c #EC4200",
"t. c #E24A00",
"y. c #ED4C01",
"u. c #F54401",
"i. c #FA4302",
"p. c #F54B01",
"a. c #FB4C02",
"s. c #F6420B",
"d. c #FC440B",
"f. c #F64C09",
"g. c #FE4C0C",
"h. c #EF5300",
"j. c #EF5A00",
"k. c #F65401",
"l. c #FB5002",
"z. c #FB5402",
"x. c #F75D00",
"c. c #F55B00",
"v. c #FB5D00",
"b. c #FB5D02",
"n. c #FC5E03",
"m. c #FB5C02",
"M. c #F4510E",
"N. c #FE530C",
"B. c #F05E09",
"V. c #FF5C0B",
"C. c #FE4312",
"Z. c #FE4E12",
"A. c #FF4D18",
"S. c #FE5314",
"D. c #FF5B12",
"F. c #FF591A",
"G. c #EF6200",
"H. c #ED6A00",
"J. c #F66100",
"K. c #F66400",
"L. c #FB6202",
"P. c #F96000",
"I. c #FD6600",
"U. c #FB6401",
"Y. c #F16E00",
"T. c #F56B00",
"R. c #F96800",
"E. c #FD6B03",
"W. c #FF6801",
"Q. c #FA6C00",
"!. c #FE6B04",
"~. c #FC6B02",
"^. c #FF630B",
"/. c #FF6B08",
"(. c #FF6B0C",
"). c #F57301",
"_. c #FE7004",
"`. c #FC7302",
"'. c #F67B00",
"]. c #FC7B02",
"[. c #FF730B",
"{. c #FF7B0B",
"}. c #FF6213",
"|. c #FF6B12",
" X c #FF6C1C",
".X c #FF7413",
"XX c #FF7B13",
"oX c #FF7619",
"OX c #FF7B1A",
"+X c #FF791A",
"@X c #FF4E21",
"#X c #F68300",
"$X c #FD8701",
"%X c #FF8601",
"&X c #FF8604",
"*X c #FC8302",
"=X c #F68B00",
"-X c #FB8905",
";X c #FC8A02",
":X c #FF860B",
">X c #FF870D",
",X c #FF830B",
"<X c #FE8C08",
"1X c #FF8A0D",
"2X c #FD9303",
"3X c #FF9B06",
"4X c #FF930D",
"5X c #FF9B0D",
"6X c #FF8211",
"7X c #FF8413",
"8X c #FF8C10",
"9X c #FF8D14",
"0X c #FF9415",
"qX c #FF911D",
"wX c #FF8622",
/* pixels */
"X X O + $ : 0 9 ( L.>Xv.,.< < % % : % $ $ O O o X . . O + + O O O O $ : 1 1 o.#.U.!.9 9 : : $ $ @ X X X . X o o O o o @ $ < < f h <X%Xf f 1 r : : + O o . . . X o O o X O + @ % % 1 0 N N ;.v.n.l.0 q < < : > $ + + $ $ > < +.+.L.L.[ ] 8 9 $ @ O O X X X X X ",
"X X O + $ : 0 9 ! L.OXn A < > % % : % $ @ O O X X . . o + + O O o o + $ 1 1 +.#.E.E.9 9 % % $ $ $ . . .   . X o o o o @ $ < < f h -X%Xf f 1 7 $ @ X X X .   . X o o o . O + @ % % 1 0 N N 4.n.v.z.0 q : : + @ @ + + @ $ > < +.+.x.J.] ] 8 8 $ @ O o . X . . X ",
"+ + > < C } :X%X/.m 0 < > @ @ o O % v q 9 % % + + o . X X X X X o X % % < < J J E._.9 f : > @ o o o X . X X O O + $ $ < < h h v.n.3.Q.B ] q h % % # O O X O . . O + + + % : 1 8 9 {  .9X&X6Xn h 8 : % + O X X O $ $ X X + @ > > ..X.Q.Y.j j : : @ + o + o X o ",
"+ @ > < C ] <X;XL.N f 1 > @ @ o o % v m v $ $ @ + o . X o X X X o O % % < < Z G E.!.9 q : : @ o o o + X o O @ @ @ % % < < j j m.m...T.^  .9 h % % $ + o o o . . O O + @ % % < 8 9 %.O.4X=X>XN h 8 : % + + X . o @ @ X o @ + > > O...Q.Y.j j : : @ @ O o X X X ",
"< < P K (.v.v j 0 < : % @ O O o X O + 3 0 d d > % + O O O o @ @ : : 8 9 G F k.l.k.k.7.6.0 5 > @ @ o o $ @ $ : : > 1 t Y ~ i.a.8 1 9 j `.Q.m K 8 8 3 : & + + + + $ $ : > < < p p p V.E.Y G V 1 < : @ @ O o . o O o o X X O O % % 1 1 *X%X+./ 2 8 > > % @ O + @ ",
"< < ` %.|.z.q h 8 < : @ @ X o o X + + % % m m m v 2 $ $ + + $ @ : : 0 0 K K l.a.a.p.k.m.0 9 1 : : + O % % > < 1 1 h m a.a.6.u.0 1 8 n ).!.m ] 0 8 < > : $ $ + + % % 8 8 f j d.a.z.v.z.) J v 1 > % + O o X . X O O + . . o O $ $ 8 8 `.`.p.&X^ F 9 9 8 8 > % % ",
"0 0 XX].R h q q 1 > & + O . X + + o o + @ < 2 v { 3 % $ % % < 1 8 0 p p c.c.1 3 < 1 U.!.y 0 0 < < @ @ > 1 9 q v v N.N.8 0 > > > > > < h h E.Q.s h q 0 < > : % % < 1 v v r.<.n.m.m.,.d.i.#.i : % @ o X X X X X o o O o o + @ : : q 1 ,X>Xg.,X<.6.k h 8 8 < < 1 ",
"Z Z ,X].:.h < < % @ + O O X X O + X X O O $ % 1 v Z m D < > q f N L a.l.F m 1 3 > < v 5.m.5.^ 9 9 > > 0 8 k g K H a.a.8 0 > > % @ % > f h U.U.7.#.K h q 1 1 > > 9 f #.#.L.L.u.h N 0 0 g.o.u : $ + X X X o @ @ o X X O O % % 1 1 H C u.u.9 0 Z H Q.Q.V N f 9 q ",
"!.~.`.`.Y f < : + O o X X $ @ o o o X X X + @ : > i | } < 1 f f U.E.p.p.q f < 1 : : 9 9 _.`.c.h h 8 8 J D J.J.z.z.< < 1 8 % $ @ + $ % 1 0 ! ( ].*X!.Z V q q 9 p K P '.].V.(.7.n S 3 8 C.9.i > $ + X X o O O + o X o + @ > > q 0 !.[.q q 0 8 J H Q.~.[.~.c.k.k.",
"-.:.k.k.}.N < < % $ + O o + + . . X O X . o O @ % : h h J F 6.u.|.(.0 8 < > @ @ @ @ < < }.x.!.o.o.h q X.o.U.U.~ ! < < % ; X X o o + @ > < h h p.k./.a.3.n j f f ..$.z.a.h h 1 1 > % % _ ..` 1 > % O O X X X o O O + $ % < 1 m v a.m.q f % $ % % 1 1 u.Q.].].].",
"8 9 q.N.W.l.i 0 > : & + O X X . . X o O O o O @ $ % 1 3 E.W.).Q.h h 1 1 : > + + O O % > 8 m (.v.L.;X=Xm.m.f l 0 0 < < + + o o . . O + : : 8 8 h n s.n.L.N.N.|.(.Q.Q.^ ^ h q 1 < < % % d | *.h 2 % @ + X X X o O # @ < < M V n.L.v m 9 9 : @ % % 1 1 3 3 >.c.n.",
": : 8 q 9.p.k.p.8 8 1 > > % @ O O o . O O % % < < 8 h h k.z.N m 8 1 : : O + X . O O @ @ > 9 9 E.!.-X=Xm m 9 8 > > @ @ + @ O O o o X X + @ : > 1 9 m ..{.`.x.*X#X5.o.9 9 > > @ @ + O O $ : 3 H ^ m > : $ @ + @ % : : 8 8 x V 7.i.8 1 : % O o O O $ @ : > 8 h h ",
"% % < 1 _ C.]._.i 0 3 < : $ @ O O + . o + % % 0 h B XX.X4.6.N N < < : % + + o o o o @ @ : q 0 %X<X0 i 0 9 < < : % + + O o o o O O . . O + $ % < 1 v F {.5XQ.>X9X#.#.9 9 > > @ @ O o o $ % 2 ^  .C > : $ $ $ $ : > < q 0 {.{.9.5.1 9 % : O X o o @ + : < 8 j j ",
"+ + % : > q k.m.!.v.N.q 0 < < : $ $ + $ % < 1 h j p ].].K H 8 1 $ $ o o X X O O $ $ < < 2 p.XXv.n.h f < < % @ @ + o X X . . X O + $ $ o o @ $ : < 0 j |.)./ F N 9 9 : > + + o X   X X + + @ $ < > v n 1 1 > < 8 9 0 ..( ].].h h > : + @ X X . . X X + + $ % > ",
"# + ; % < 0 M.N./.v.V.9 0 1 < > % $ @ % % < 1 h j p ].].H H 8 1 $ % O o X o o X $ $ > < 2 p.:Xv.n.f f < < $ + + + o . o o X X O O $ $ O o @ $ > < 0 j |.`./ j F 9 9 > : @ + o o   . . O + @ $ : > m m 1 1 < > 8 q 0 `.`.[.oXh h : : + + o X .   X o O O @ % > ",
"X X O O + % : > 0 q i n.L.7.q.q 0 < < 8 9 =.O.{.].>Xh q < > + + $ $ $ $ . . X o @ : 0 0 u *X0Xj j < 1 $ @ o X X X O o + O + O o . o O $ $ < < q h ) z.(.5...8 8 % % + o . X o X   . . X X X o O + : : m m H J .X*X#X`.{.f j 1 3 + + . .   X O o o . . X X o O ",
"  . o O + $ : : 8 9 i v.Q.6.6.f w 1 < 8 0 N.u.*X&X9Xh f > > + + @ $ % % X . o O % : 0 9 u ;X0Xj j < 1 @ @ X X X . o o @ @ + O X X o O % % 1 1 f q -.Q.L.4.=.9 9 : % o O . . o o . . . X X . X O + % : m m K Z {.].#X$.$.h f > > o X . .   X + + X .     X X O ",
". .     . O + + $ : : 1 0 6.i.U.U.j j #.#.1X].U 9 l : : + + X X . X @ @ + O @ + > < j N ].U.(.9 9 % : O O X .   X . X + O . . o O @ $ < < h j s.z.}. .^ O.7.O.O.< < $ $ o o O + O o o X X X + @ @ : : 0 9 c.n.c.a.p.o.o.1 1 % % + + O o X o o o O + X X . o @ ",
". . .   . o + + % % : 8 8 } ..U.L.J.c.n.n.s p q 9 9 : % + + X . . X @ @ + + @ @ < < L.c.).U.}.9 q : % + O X X . X X X O O . . O O % % 1 8 <.:.c.m.-.8 1 < < 4.X.< < % % O o X X O O O X X o + $ @ > > 0 9 v.n.U ~ ! a.a.< < : : @ $ + + + X X . X O o X X O $ ",
"+ @ O O o . + X o o + $ : 1 8 J | 2X2X:...9 q > : : O O o X + + o o o o % % : % q 9 v.n.^ X.N.} ] 0 8 % : + + o o O + o o + + $ % < 1 h j *X*X/ j q < > : : 3.6.j h < > $ @ o O X X o O + @ : < < f j u.i.f 9 1 1 < 6.6.O.=.0 9 < < $ $ + + X . X X o O O $ < ",
"O $ + O o X + X o o + % : 8 8 K ^ 2X2X....9 f > : % O O X X @ $ o X o o $ $ > : v m 0 8 0 ..g.....8 0 % % + + O O O O O o + # $ : < < j z #X#X/ j q < > > : 7.6.h f > < $ $ O o X o o O + $ : 1 9 m.l.a.i.q f < < r 3.7.X.#.9 q < > % % + + X X . . O O O $ < ",
"o o : : @ . o X . . X O @ % : 9 9 _._.f h > : @ + O X . . . O O X . + + % : Z Z v h > > > 1 ^ 5.5.p.y.q f < < % % + + % % 1 1 h h #.] J.L.m J q 0 < : $ @ @ > > C v i.i.+.^ < > $ @ $ : > 1 9 V 3.N.V.8 3 > : @ $ $ > < q s m.m.F F 9 9 < < % % @ @ : > < 8 J ",
"o o : : @   o X . . . O + % % 9 9 ]._.f f > > @ + O X . . . o o . . + + : : Z Z f f : : > 1 ^ 5.5.z.k.f f < < : : @ @ % % 8 1 h h #...U.L.F F 8 8 < % $ @ @ > , q q i.u.O.| < < % $ $ : < 1 9 Z 7.j j 1 1 % % @ $ @ > < q p m.m.F F 9 9 < < % % @ @ > > < 0 J ",
". . O + O o X . o O + $ : 1 1 j v _.n.8 8 $ % + o o o o @ @ O o O + < < j m h h % % + O + $ : < <  ...n.L.N x 8 0 1 1 f f ).`.v.L.,.9.9 9 < 1 : % $ @ O O o @ @ : : h z 7.7.a.z.h 8 1 0 h ( m.V.H 1 1 $ $ O O + O o @ @ % % 1 1 7.6.L.U.j N 8 8 1 1 f j h ..].",
". . O O O o X . o O + $ : 1 1 j v `.U.8 8 % % O o o X o + @ o o O O < < v v 8 8 % % O O + @ : < < ..] n.L.j F 8 8 1 < q 0 `.`.W.x.6.5.9 q < < % % $ + O o O @ @ > > h h i.6.a.a.h 1 1 0 V -.m.N.N < 1 $ $ O o + O o + @ : % < 1 i.i.n.U.N F 8 8 1 1 j j v ) `.",
"X X . X X O @ @ % : > 8 f j v Q.).l.z.N N q 8 > : % + + X . X o % % v v < < + + O o . . o o + $ $ 4 < ( ! m.m.F N j j 5.7.].].q q 1 < % % @ @ o o @ > < % % o o O O $ # < 1 q p d.(.6X~.!.(.h e 1 % % O + X . .   . X X o O @ + > < q e p.a.H K j F /._.:Xg.=.",
"X X . . o O + # % : > 8 9 N v `.`.z.k.u.i.9 0 > : : + + X X o o % : v v : : + + o o . . X o + $ $ < < m F m.m.].].2X2X).Q.*X*X9 0 < < $ % + + o o $ : > % $ X o O O $ $ < < f v p.`.2X].V.N.f 9 < + + o X . . X   . X X o O + + > > 9 9 a.a.| K ,.;.b.].*X| h ",
"+ + o X X o : > 8 9 q 9.a.a.g.8 3 < < m.m.#.$.q q 9 > > $ $ $ $ 9 9 % $ o O X X . . X . O + O o o % % 1 w H m <X$X).{.! :.w 8 : > @ $ + + X X X X o + O X o o O + O O + $ $ 1 0 9 W #X(.j q 1 > % O O O o + @ o X . o O X . o o + + > > 9 e ^.v.*X#Xr.f 9 > > ",
"+ @ O o o + : : 8 q i a.!.l.s.0 0 < 1 7.u.k.k.s f q > > % $ $ $ 9 q $ $ O O X X . . . . o + o O O $ % 1 1 K m ;X=X6.7.n N 1 8 % % + + O + X X X X O + O X X o o o X O + @ $ < 9 q -.).n.j q < > % @ @ O O o o X X . o + X . X o @ @ > > 0 9 ^.J.`.k.p 9 0 > > ",
": > $ $ $ : 8 9 .X`.,XJ.D.0 8 > > $ < > > ].].Y.J.[.f f < < 1 8 : > O O O O O + O O X X X X X + @ : > f h v.n.| C 9 0 1 q t q > < $ @ O o + @ O + & $ $ X . X X # + X X O + % < q B <.^.2.:.9 1 9 : % $ $ O O O + o X o o o O O % % < < h q /.K.0 q 1 > > $ $ ",
": > % $ $ > 9 9 oX].9Xm h 0 3 : $ + % > > j v (.U.[.j h < 1 1 8 % $ O O O O + + o o X X X . o + @ > > f h L.L.H K 9 1 < 9 f f 1 < % $ O o + + O + % $ $ X . . X O + X X + + : 1 f V 5.{.`.|.n 9 8 > > % % + @ O o o X X o o + + : : 8 8 m G m.m.0 9 < : % + @ ",
"h h 8 1 8 f S.N.>X%X[.0 < % % O O O X + @ : > 3 0 3 U.J.| H < > + O @ @ : : $ % @ @ + O O @ + % % 9 8 $.V.6.6.9 9 % $ % % < 8 8.*.1 < $ $ o o o o X X X o X . X o o @ $ > > 9 j m ;.i.+X{.XXm.a 1 0 8 1 5 > > % $ # o o O + $ $ 1 3 N L U.U.f f < < $ @ + o O ",
"f h 8 8 9 9 V.v.u.K v 8 < % $ O o X X O + : : 1 9 3 U.U.|  .> > + + $ $ > > % % @ $ + + O @ @ % % 0 9 O.l.7.6.9 8 : % $ % 1 1 6.7.< < $ $ o o X X . . X o X . . X o $ @ > < f P ] x.m.0 0 ~ k.E.z.q j 1 1 > > $ $ @ O o + + % % 1 8 v m U.L.h h > > $ O O o O ",
"D.N.y 3 0 q (.E.! D A < : @ + o X   X o O @ @ : < > y y E./.p i > : < < 9 0 0 p < < : % $ @ % 1 8 N j -X%Xh h < > @ + @ @ : < ) *.Y ~ 1 > @ * X X X X o o o X X + + : > h h T.4X].V.V.1 8 3 y s.V.6.6.y.u.m v 8 9 > $ $ % % 1 1 N F m.k.h 9 1 1 $ $ O X X X X ",
"L.L.2X$XK.p.p.i.0 9 < % @ o o X O o X X X O + $ % % 1 8 7.6.i.p.1 1 < 1 q p h h 8 8 > > $ $ % < < j x ].].h g > : O O + + % $ 1 1 i.i.> < @ @ X X X . o o o X X @ @ > > h h E.{.z.0 0 : % : > 9 9 i.i.].].N m 8 1 1 % % > > 8 0 4.7.i.i.h h > > @ + o X . . X ",
"m.n.4X;XQ.a.u.i.0 8 < % $ O o . O + O X . O + $ $ : 1 1 7.q.l.k.p p ^ ~ i.i.h h 3.5.q q < < 8 j g /./.q 0 < 1 @ @ o X X o @ + > > 0./ C Z < : @ @ O X X o O + + > > 9 0 i.i.V s 8 8 8 % $ % > 8 0 p.i.%X*XU.U.r.) C 9 0 0 8 N F U.Q...O.0 9 : > @ + o X O O + ",
"w 0 *.#./.`.v f 1 : $ O o X . . X o + o . . . o O + % % q q U.U.i.6.z.l.i.i.< < *...v h < < 1 N j L.T.j j < < @ @ X . X X + O $ $ 5 8 u.7.> > @ @ O X X o O + @ > < 9 9 6.u.j S 8 : % + O @ @ % % > > q f _.Q.[.E.p.f 0 1 8 F n K.J.K K > > + O X X . . o o O ",
"% % 1 1 W Q.Z N A > : @ + o X X . . @ @ o   . O @ @ $ % f f #X#X6.6.g.Z.8 1 % % % % C ^ *.%.h z.k.;./ 8 0 $ $ o o O @ + + X . + @ > > ~ 6.m j < > % + + @ $ > < f f m.m.f q 1 1 : @ + o X X X + @ % % > > 8 1 F.(.(.k.v.U.!.U.J.h f < < $ $ + + X X o + + O X ",
"% % < 1 / n.C F S < > @ + o X X . . + + X   . o o O % % h f %X;XZ K 9 9 < > $ $ $ $ A V X.O.f m.m.m j < < @ @ X X o + + + . . O + % : p 3.v N < < % @ @ $ $ > < f l n.n.f f 1 < % + O o X X o O O @ @ : : 8 8 h F V m.L.!.).L.U.h f < > $ @ + + X o O + + o X ",
"o o @ $ < f |.U.N.f 9 5 > $ $ + O O . X X + + $ : > 1 1 i.d.p.a.f 9 > > @ @ + O o o & % > h !.c.x.8 8 $ $ o o . .   . X X X   X X # $ 5 1 `.`.e.0 1 < < 8 8 f f N.k.f j > > @ + o $ @ & $ # X . . o o + + $ $ < 8 0 L.).m m 9 9 : : + + X X   . X o : % % o X ",
"o o + $ < f |.U.z.h f < > $ @ O O O   X X O + $ % : 8 0 i.i.a.k.q q > > @ @ o o o o $ % > v !.v.L.8 8 $ $ o X . .   . X . .   X X @ $ > 1 ).`.e.8 9 < 1 1 8 f l z.z.n v > > @ @ o # + : % + X . . o o O O $ % > 1 0 U.).m F 0 0 : % + + X o . . X o > % & o o ",
"O O @ $ > 0 [.]./.0 q 1 < : % $ @ O X o o @ @ : > 1 v v <X>X/ -.q 8 @ + o O X . X X @ @ > C !.!.!.9 9 : : $ @ O O X X . . X . o O $ $ < 3 7X%Xt.9 q p -.|.|.g.p.N.N.v p % % O O O X X + @ @ O . X X . + O $ % r q 0 ].*Xn N 1 1 % % + + O O . X X X > < < % @ ",
"@ + : : 3 9 (.U.:XE..X..q 8 < : : + o o o $ % > 0 9 H H i.i.1 1 h f % $ o o . . X X # + > h U.l.m.8 8 % % @ @ O O . . X . X o + @ : > 9 8 6X].~.F | $.r.*X<XL.U.n N > > + + X X o . . . o $ $ o o X X + @ : > 9 j f U.U.&.Z 0 9 : > @ @ + + X X X . O O $ $ @ ",
"% % < < ' ^ /./.*X[.{.N.i 1 1 > : $ $ + + : : < i u n.n.4.8.1 1 j h > > + O o X O + @ $ % 8 1 U.L.f q > > $ $ o o + O O o O O $ $ > < 1 9 U.E.!.z.g.*.u.{.,X[._.j N < < $ @ o o o . X X o + $ O O + + : % < 0 C.d.u.!.Q.p.i.8 0 < > % % @ @ O o X X o X X O o ",
"< < h j N.a.0 f 8 1 f L [.E.-.9 9 > > $ % < 1 3 k.`.a.a.9 9 % $ < < 9 8 $ $ O O O O % : > 8 0 v.n.m F 8 8 : : + + O O O O $ $ < < 9 f V.z.p.a.i.i.:.1 8 0 9 $.| 7.7.1 0 % % + o X X X + X X X O + $ $ < 1 n j ^.m./.f f h v l.p.h f 1 1 : % + O o o . o O + + ",
"q q a.a.d.s.q f 1 1 9 N {.!.Q f q < > : % 1 8 y 2X2X~ ^ q 9 @ @ > < h f $ % @ + O + > > 2 -.<.`._.v n 1 0 > > $ @ O O + + $ : > < :.) (.E.s.N.0 0 A 8 < 0 9 { ) a.g.1 8 > : + + O o o + X o o + @ % : < > ~ B }.D.S.q q 0 p z.V.0.:.8 1 > : @ @ o o O + @ $ $ ",
"n N K.K.8 9 > > $ $ % < e g (.T.(.j S 8 8 h K 6.Q._.f 9 % % O o $ @ : : q f : : $ $ < 1 , L.,X6.6.U.Q.4.5.9 f > > $ @ : > 8 1 F N L.n.C F 8 9 < > > @ $ : : 1 1 7.6.k.p.9 9 : : $ @ $ O o + + % : 8 0 p.a.].`.s j f < > > > 9 h p.p.i.i.9 9 > > $ $ : > > 1 1 ",
"V Z |.|.0 9 : : $ $ % < 9 j }.K.T.{.{.q q p 4.y.|.oX9 9 % $ X X O + % : 0 d d d > > 0 p t.{.XX7.i.`.Q.z.k.q f 1 < : % < 1 0 i ,X%X(.(.| G 0 9 > < % O @ % : 1 1 C.d.z.z.8 8 > % $ + + + + $ % < 3 0 v 4X2X{.[.s h h < : > > 9 9 :.0.k.a.9 9 < < : : < i a -.W ",
"v.m.8 8 : : o o o X o + $ : > 8 Y `.].| } ) E.OXv N > > o o .   X o + O : > v m 1 1 ..6.].Q.i q q 9 l m.m.i.6.9 q < > 0 9 %.a.;X$Xf 9 < 1 % % @ @ O o o O + % % 1 1 O...m F 8 > : @ @ @ @ : > 9 9 9.4.#X#X9 q 1 > : @ + @ @ : : < 1 h v z.a.9 9 1 1 q 2.,.`.].",
"m.k.8 8 : % O O X X o @ $ : < 8 0 R <.].].]._.{.j N : : O O X . X o O O $ $ < 1 q.7.v.x.h z f 9 0 q f Z.S.`.`.p.i.f 9 q g.^.].T T f f < < % % @ @ O X o O + % % 1 1 o.O.a.l.#.9 9 1 < : < 9 q N.m.Q._.h f 9 f < > : $ @ O + : : 1 1 f j l.k.7.7.f h h :.r.`.'.",
"8 8 $ $ + O X X X X X o O @ @ % > 8 0 {.].).m.}.9 q % % O O X X o o o O @ @ < < 6.7.U.L.q f 0 : % : : 0 0 N F p.d.f q C l.V.F 8 1 : : @ @ o o X X o o X X o + + > > q 9 ..^ #.f q < < : 1 8 f n.m.p v < 1 > : $ @ + X X X o O O $ $ < > N ..7.6.f g Y L.|.f h ",
"8 8 $ $ + O + + O X X o O + @ % > 1 1 q q D.m.(.X.9.8 8 % : + + + + $ % > < j j x.m.h f < 1 > % : : : 0 8 x L k.,X).L.U.n.V.F 1 1 : : @ @ O O o X . . . o o O O $ @ > > 9 9 7.u.k.j j h Z (.Q.N.J 1 8 5 1 : : $ # O X X o o + O $ $ < < q 9 L.L.`.].Q.E.|.f f ",
"@ $ o o . . O + o o X . X o o O @ % % q q S.x.(.5.#.8 8 : : @ @ + O % $ < < N v c.m.q q : : @ O o o O $ $ < 1 ..{.`.U.L.p f 1 : $ O o . . $ ; + O X     . X o o $ @ > : 0 0 6.p.p.n n v | (.E.N.m 1 3 % $ + + X X X . X O o . . O + + $ < 1 U.U.].].f f t > > ",
"+ + o . .   . X ; $ - X . X o o O % 1 : : 0 q i K.T...| q 9 : > $ $ 1 1 j j *X].f h > < @ $ $ @ @ X X + + % : < 1 0 !.Q.0 q > : $ O O X X o X o o + o O + @ $ $ O O + O : < 1 N n ].].`.)._.K f 1 $ $ + + o o o + + o o + + X . X X $ % 8 9 `.`.F N 1 1 > $ $ ",
"+ + o o X   X X $ $ & o . . o o O % 1 : > 9 9 i U.`.$...9 f > > % % 1 1 j j *X].g h > > @ @ % @ $ X X + + $ : < 1 8 Q.Q.0 9 > : $ O O X X X X o o o o O @ @ $ $ + O O + > < 1 j m *X%X`.`._.J q 1 $ $ + O X X o + + X o O o X X O O $ % 9 9 `.`.F N 1 < > $ $ ",
"% % @ + + X . X @ $ $ + O X + $ ; @ O O + : : 5 h q L.U.H J h f 8 8 K  .).`.h j > > @ @ X . X + + . . O + @ @ : < 1 L.L.;...9 9 < $ @ O o X X o O + $ : 1 r o O + + @ # $ % : < > ).).j v ^ 6.7.j : : + + X . + O $ % : o o o o $ $ < < J I z.z.8 9 % $ O o o ",
"% % @ @ + X X X @ @ $ + + + @ $ % @ O + + % % 1 q q U.U.] K h j 8 8 [ ] `.).h j > > + + X . X O O . . O O $ $ : < 8 L.v.) ..9 9 < % $ o o o o o O + $ : 1 5 o o + + @ @ $ % : 1 < ).).j h J 7.7.N : : + + X X O + @ : > O O o o $ $ < 1 J K l.l.8 8 % $ O X X ",
"< < % @ O X O + o X + $ : : : $ $ X X o o O @ > 1 1 +.+.*X].`.).q.0.n.^.k.k.q 0 $ $ o o o o + & & .   X . O O @ % < 1 0 z.n.9.{ 0 > > @ + @ $ % % 2 r < % + X X . X X O O @ : 9 0 k.k.9 9 < < 9.5.1 8 : % O X X X X @ $ % : # + : > h j J.J.f h : > + + O . . ",
"< 1 % $ O O o O o X o $ : @ + o X . . o X + $ < 1 8 5.4.*X%X].'.i.i.n.v.h j > < @ @ X X o O O + + . . . X o o $ % > 9 9 z.l.( ^ 9 > > @ $ $ $ % > > 1 < @ @ X X .   X X O @ : 9 8 i.i.0 8 > < O.5.8 8 % % O o X X X o O % % + + : < v h Q.T.j j > : O + O . X ",
"n j < 1 : $ O O o o o % @ o o . X X o + + % 4 q j h Q.Q.f f > 4 0 0 v.v.f h w 8 $ $ O o o X X X X o X . X o O $ $ $ < 1 f f %X].a 0 8 < 1 q q ^ Z B $ $ O O . . X o O + $ > 8 G | ) ^ 1 < % % 0 1 $.#.1 < $ @ O o X . X o o $ $ 9 3 ^.E.m.V.0 0 : % o o o X X ",
"h h 1 < : $ O O o X o @ + o O   . X o + @ > < 9 n j Q.Q.9 9 > > 8 8 i.a.4.4.0 8 % % O + X X . . . X X . X o o O + @ > > h f %X#Xp 9 0 < < f h } C V $ @ O o   . o O + + % < 8 | | j h > > @ @ < 8 O.$.8 1 $ $ O o X . X X X $ $ 1 r L.K.K  .1 1 @ @ O O + . X ",
"|..Xy 1 : : @ @ o o O + O o O X X O O % : 9 9 @XZ.Z./ / 1 9 : $ < 3 < 2 a.a.p p > > $ @ o o X . . X o o o + + + @ $ < > f h y.h.0 q q 1 1 A.g.u > % O o . . . X O O * % > 0 q N.V.9 9 : % O @ < > 8.9.8 0 % % @ O O O O O O : : q l _.).m m < < @ + O o + o X ",
"{.].c.p.0 9 > : + + O X o X X O O $ % 1 1 S N |.L./.j h > > O O $ $ < < g f k.z.h h < > @ $ O o o O O + + + @ % % > 1 8 j j i.i.p.].%X!.Q.6.3.2 > $ O X     X X + + : > 1 j J %X#X3 3 % @ O O @ $ l h O...1 < % % @ O + $ % 1 1 F L !.Y.f 9 % : o o . . X + o ",
">.y..X].u q < 1 % @ + o o o O @ @ : > 8 0 4.6.|.^.}.q 9 % $ o o O O : > q q N.V.7.7.1 1 < > + + + @ @ $ $ % > > 1 1 q s ) / N.6.-.wX0X{.XXp.6.> < % + O . X X o @ $ < < 0 s 2.qX9X< < ; + O X + @ > > q.q.~ ~ < 1 : $ % > > q q a.i._.!.h f > > @ + o X o @ + ",
"8 8 d.k._.7.9 9 < > $ + O @ @ % : 8 8 J H ].].p.C N < > + @ X . X X @ @ > : q q k.a.C N 1 < : % % % % > > 1 3 9 9 j o.^.L.L.n 1 < 8 0 H K /.a.3 1 > $ @ o o O O : > 0 8 | m.k.q q % % + o . . O o $ $ Z C 7.7.8 9 < > > 1 3 K ..Q.`.k.z.O.o.1 1 % % @ O O X X ",
"< 5 p s (.{.a s 1 < : $ @ $ % < 1 0 0 /./..X.Xs.v S : : O + o X X X O O % % 8 3 q.0.4.X.< 8 < > : : > 1 1 u u T W <.U.^. XM.q > < < 3 m D oX(.i 9 1 > % % $ $ % < 1 q a a.i.g.8 0 % $ O o X . X X @ @ > 1 a.a.p q 1 1 < 1 0 V.^.|..XA.g.z.a.0 8 : : $ @ + o o ",
"% % < 5 s.m.Q.U.0 0 1 : % < 1 q q 4.5.`.`.j j q < < @ + X X + $ O o X X O + : > f h 7.7.k.k.0 9 9 9 9 N c L.L.].*Xr.H 9 9 < > $ @ % % 8 8 D J ^ q q < < > > < < 9 q #.`.m.9 9 : : + O O O + X . X O o $ $ 8 h a.i.v f 0 i.u.u.u.f f 8 7 a.p.5.5.8 1 : % $ + O ",
"# @ > 5 _ ,.{.].2 0 1 < > 0 0 Y a ].{.}.D.m N q 1 < @ @ X X # # + + o o O O : % 0 h *.*.x.k.u i 0 0 i ..^ /.[.XXOX:.C h 9 : : + O @ % < < S ^ *.V s 1 8 1 1 0 t 0 p `.].g.8 0 : % O o o O # O . . o o $ $ < 0 0.N./ R R ).`.0.8.9 9 > 1 / -.^.V.U a 2 < : $ $ ",
"X o % % > 1 j N !.c.~ f f F ) `.].u.7.9 9 1 < S v C % $ O O . . X X @ @ X X + + > > q q O.*.#X*X$XU.K.l.z.h j 8 1 < > % $ + + X X o o @ % < < E Q.V.] | j j F F !.Q.Z K 1 : % O + . . X X O o . . o o @ @ > > 0 J [.`.].m K 9 9 > : $ % 1 1 7.6.k.k.p 9 w > > ",
". . O O $ < q q x.L.r.( <.u.m.{.{.1 1 8 0 : > 0 ^ D 0 2 % @ o o X o o o o o @ + : : 1 0 q n 2X2X2XQ.`._ ) 0 q : : > $ O @ O X X X X X + @ : : 8 1 R U.).2X3X).`.,X,Xq 0 < @ @ O o o o X . o o . X + + % : 1 8 p 4.(.[.oXq h < : @ $ @ + : > < < n.n.,.6.0.q 8 ",
". . X o + $ < 1 B 7.XXL.).Q.(.n j 1 8 % % + @ : < 9 m Z > : + O O O . X O O @ $ : : 8 1 $...$X`.{.j j 0 9 : > @ @ + + X o X X X X . X + + $ : 1 1 s i.K.2X3X`.].3.4.8 8 % @ O o X O O X . . . X o $ $ < < h j ~ m.;.F S 1 < $ $ + + o o @ @ < 1 f h V.m.N.j 9 ",
"@ @ o X o O % : q h 7X<X].<.6.h h 1 < % $ + + $ > > } { < > + @ + + o o + + % $ < < 0 0 ^.v.B ;.6.j j 8 1 & % + + O O + @ + $ o . X o @ @ : : 1 0 Y n.`.{.(.s Y 3.3.0 0 > @ @ + o O @ o X X O o o % : 8 9 / / <.(.5.h z < : @ @ % % o O + + < < q 9 F.V.F.C v ",
"$ $ O X X O : > t h qX=X[.j h < < $ % @ $ o o + + @ > > q h > > @ $ + + % ; < < h f p.p.p.p.g ..+.j h : : + @ X X . o O O o X X . X O $ % < < q h W ].(.F m 0 8 1 1 3.6.0 < : % + o X o X O O + + > < F N 7X'.9XF 9 8 3 % $ o o o o o o X o $ $ > < 0 q v m.a.",
". X + O @ % 9 9 =.9.>XQ.V.9 8 % % O O X X O O O O @ % % 1 8 V V > < : : 8 8 N A N.g.z.N.i p 9 Z H g.a.1 3 $ $ o X X . O o . . X o O + : > q 9 _ ~ y.,X^.F S 8 9 5 3 d.i.p 0 < > $ + + + o O + $ $ 1 1 s.s.[.[.B.0 > % % + + .   . . o o O o + + : : 5 0 v N.<X",
". X O O $ % 0 9 q.7.,Xi.( 1 < $ @ O o X . + + O O + $ $ > > *...8 8 < 1 9 q F m m.m.F H w 8 : q 9 i.u.9 9 % % O O X . . . . . X o + $ < 1 S N .X)._.H v 1 < : : $ $ d 0 7.X.8 8 : % $ + O o O $ % 8 9 ].'.6.F < < % @ @ + + .   . . + @ + o o o @ @ % > 1 h ;X",
"o O * $ < 1 =.=.XX).Q f 0 > : + + o X o O + + X X O @ @ : > B ^ } %.' 1.4X5Xz.n.4.4.0 q 1 < % > < Y ~ 9.8.9 9 % % O o o o o o $ % > > F K ).).j.y.<.q 3 : % $ $ + + > > d.i.g.S.0 < > $ $ + $ > > N m 2X2Xi 0 : % @ o O @ $ o X X X O O $ O X X O O @ % : 0 h.",
"O O $ % 3 8 =.o.*X!./ f 0 : % O o . . o O o o .   . X X O + % > H ^ i.i.=X2Xk.z.j j < > $ $ + : : 1 8 6.6.f 9 : % + + O O O + % % 1 1 J K ).`./ j 8 > : $ @ O o O + % > q 0.p.N.j < < % $ @ $ < 1 K H Q.`.1 1 $ $ O X X o O o o O o X X o o . . o o + $ % < 6.",
"$ $ > 1 S m |.(.y 0 < 1 < $ @ O o . . X o # # O o o o o @ @ : > q f ,X,XW R a V 9 8 > : O + O $ $ > : ~ *.d.C.0 h 1 : $ % @ @ < 8 N S {.[.0 0 < < > % $ @ + o X X o $ @ : > 3 3 d.:.v 3 < < > 0 f N.N.,.6.: : + @ o X X   . o o $ @ X X . X o O + @ % > < 9 L.",
": : 5 8 J K Q.`.8 9 < : : @ + O O . X X X + O O O o + + % % 1 1 j n ].].j j 8 8 : : @ @ O o o O O $ $ 8 8 i.u.F n 1 < % % $ % 8 0 H H Q.!.h 9 < > & @ + O o . . . X + + % < 1 8 i.N.$.0 9 1 1 h f k.k.m H % % + O o X .   . X o $ $ X . . . + + $ $ > 1 1 n U.",
": : 1 1 ! ^ {.[.3 9 1 : % @ @ @ + o X X X X X O O O + + : > 8 8 v B *X&Xg h 1 3 % % + + O o . o O $ $ 1 1 0.0.4.8.< 1 > % $ : 1 8 >.6.}.}.9 9 > : * + O o X . X . . o + ; : 5 < ' d.6.8 0 8 8 q h E.U.Z G % % @ + # o X .   . . : > X X . . + + $ % > 8 0 V.].",
"j j 9.5.].`.q 9 > : % O O X X O @ $ : X X . . + @ @ % : 8 8 N N !.!.F F 8 1 % % O O O + . .     X + + % % < < f f l.7.1 0 8 0 K H T.Q.9 9 > > @ + + o X . . o o X X o X + + $ % 1 q J m.x.k.m.m.a.k.a.9 f < < % $ @ + O . X o o O O @ @ X o @ $ : 1 q m V L.L.",
"j j q.4.{.`.f f > : $ O o X X O $ : : o X . X o O @ % : 0 e L F !.).G j < 8 : % o O O + X . . . . o O $ $ < < q q n.m.1 9 0 9 ,X].|./.f 9 : : + O O o X . X o O $ $ o o O O @ % 1 q F }.).].U.c.p.J.m.9 f < < : % % @ + X X $ $ X X # # X O $ $ > 1 q m v v V ",
"U.U.<X;Xj h < < @ + O . . o o X o o o o X O O @ $ ; 1 1 N G _.`.^ ) 8 8 % % O O     X . O O o X X . X o o @ @ < < 0 i.3.5.,X;X`.L.9 9 : : + + X o X . . . . o o % % o o X o @ $ > 1 f D.*X6Xj q 8 m.z.c.z.f h 1 1 < : : + @ o o .   X o + @ < < f f 4.z.V.h j ",
"Q.U.%X$Xc h > > @ + O   . X X o X o X X X + O @ % % 1 1 m Z `.'.f f 1 < @ @ o o . X X . O + + o o o X X X + @ > < 1 h 4X2X2X;X-.N 0 8 % : O o X X . . X . . . . + + O O o o @ : > 1 f N.#X.Xj 9 9 N.k.x.k.9 q 8 8 > > > = $ o o .   X X @ @ 1 < l f 0.m.V.j j ",
"9 9 q.p.<.#.1 1 : % * O O . X o . . X O O $ % > > > q f k.m.a.p.M m 1 1 % % O O o o . . o o O + + X X o O @ % > < 9 } 2X$X_.h N.i.1 9 < : + + X . X + @ $ @ . X . X o o @ $ : < h B k.i.N h 1 : $ < < N v U.L.k.i.^ 9 q < > @ # O O $ $ : > h h N.k.6.N N < < ",
"9 9 q.a.m.N.9 9 > % $ O O X . o . . X + @ < < f h h k.z.m.h.a.a.m m 8 8 1 1 % % + + . . . X o X o o X @ + > < f f r.!.u.f.s.h N.a.^ h 1 1 $ $ O o X O @ $ @ X X X X + @ : > f q 7.i.z.i.L q 1 : $ > < S x E.!.].].k.m C 1 1 $ @ O O @ $ 1 1 0.4.m.m.6.N S > > ",
": : 9 f W.U.9 9 8 8 3 > % + # + + o O @ @ > < q j h z.z.G H 1 8 h h p.p.1 1 % % + + o o . X X X X O o $ $ < < f f n.k.q h 9 < 9 9 g.i.1 8 % : @ O X X o O O X o @ @ : : 1 8 f q z.V.F h 1 < $ + O $ % < < q f |.U.!.5.9.8 0 : : % % > > 8 8 k.z.( F 0 1 1 @ $ ",
"% : < 1 u.u.V.n.p 9 0 > : + + O O O @ < < h F OX*X#X| Z 8 8 1 1 1 1 p.p.h f 8 8 > : $ @ O o o O O $ $ 1 1 L j x.J.~ ( h h q > 0 9 a.a.B B 2 8 : @ O o X o o O + % : 3 8 j 6._.{.^.R N h 5 : $ + o $ $ > < q q 0 0 :.W.^.v Z 8 r < < h h ^.(.V.N.! F 0 1 5 @ @ ",
"+ + : > q n v.n.0 9 r : : + + o o + $ > < S J 7X].%XK K 1 8 % % : : d.d.m m 0 8 : : @ @ + O O O O $ % 1 1 N N L.L.8 h < < > $ : : q f i.p.8 0 < % $ O o X o O O : : 1 8 N k.`.[.O.8 8 < % @ O X X o O @ @ > > q h q n.n.o.4.q q < 1 h z U.E.^ J 1 1 : $ $ o o ",
"O O + $ : < v v ,X!.|.j h 1 > @ @ : 1 f f .X`.-.n h < < $ % O o + @ < < u.u.N.l.f f 1 < % : % : : 8 0 9.5.L.E.0 q > 1 : $ @ O @ $ > 1 0.q.p p 3 < < : $ $ $ : : 9 q G |.n.p.! / 8 < < % $ @ X . . X X O O @ $ > > < q 0 a.!.5.9.o.+.Q.E.m m 1 8 > : @ + @ X X ",
"+ + + $ : > S N 6X_.XXj f < > @ $ : 1 h h oX`.-.x x < < $ $ o o + @ > > 7.7.z.k.h h 1 < : : % : > 9 8 6.6.U.!.f q < > $ @ + o @ @ > > q h N.a.:.1 1 : % $ $ > > 9 9 [ L.x.i.j j 8 : % $ + + X . X X . o O + @ > > < q q a./.6.5.6.3.E.).J G 1 1 % $ + O + . . ",
"o o X o @ $ 5 1 m F m.x.V.F S 1 1 q j !.Q.R v p 1 1 % % o o O o O o @ @ > 4 3 3 p.l.m m 9 0 0 0 9 N.A.[.[.1 1 : : $ + + o X . o o + @ > % w.N.4.v h q 8 1 1 f h }.}.].%X0 9 < 1 % O + O o o O @ + . . X o X o @ @ $ > < 9 p.`.).*X'.g j 1 0 $ $ O O o o X o o ",
"o o X o + $ < 1 v m N.n.^.F j 1 1 9 N !.).~ x 0 < < $ $ o X O O X o @ @ % : 8 8 z.z.C m f 0 q 0 0 m.n.F K 8 0 : : $ O + o . . X X + @ % : w 9 %...| h 0 < 1 f l !.).i.7.f q > : $ O O X . . O + + . . . X X O O + @ : : 0 Z.!.).'.#Xj j 1 1 $ @ O O . . . o o ",
"X X o X o O @ % < 1 q H ,.).n.j h B Q.B m 8 9 > : : o O + + . . . . X X O + % % 9 w l.z.#X#XK.p.z.4.6.8 9 : > @ + o X X X o o O O O o O @ % : 0 *.p.c.u.N v ).).o.;.8 q < > @ @ O X . . X o @ > % o X . . o O # $ : > 1 9 r.`.].f f < < $ $ o o X X X X X X X ",
"X X o X o o + % < 1 q F 2.`.`.].`.U._.C F 8 8 % % & o o + + . . X . X X O O % : 0 0 a.a.=X;XT.k.k.F F 1 1 $ $ O O X . X X X X O O + + X O % : > 9 0.n.U.U.).].'.O...9 9 : % + + o .   . . X O % % X . . . o O @ % % > 8 9 <.].].f f < < $ $ o o X X + O O X X ",
". X * $ O o o + @ : < h a `.*X#X]._.`...| 8 1 : % $ O O . X o o $ $ O o X . + + % > q q #X%X>.X.3.N x < 1 $ $ $ $ + X X X . . X X X X O + + + $ % > < s ^ ~ $X;Xf q < < @ + O o . . . o o O o X o O o O o + $ > 1 8 q n | 6.n.x.q 9 % $ o o X . X o $ : : O o ",
"  . + @ + o X + % > < h s `.,Xj q 8 ] 7.7.8 9 > : % + + X . o o @ @ O O . . O O % : 0 q ].].~ F F 1 1 $ $ o o $ $ @ o X . . . . . . X + + O + $ % > 1 q m v %X2Xg j : % O o . .   . . X o O . . . o X o o + $ < < q f h  .u.n.x.f 9 % % + + X X X X O O o . X ",
"X X X X O @ % : 0 9 s V./.) ;.1 1 > < V V a.i.0 q l > > $ @ + + o X . X o o X . + + < 1 H.Y.1 9 8 : : + O X X o O @ $ + O . . O O X X @ $ o X o O @ % > 8 < ).*X9 9 : : O o X X . O O O o X . X X O + $ $ < 3 G F g.z.^.6.o.X.2.7.7.0 9 : : $ $ + O o o X o O ",
"X . . . o + : : 0 9 ~ m.(.+.5.1 < : > f f a.p.0 f h > > $ $ + + X X . . O O X X + + < < K.U.1 8 9 % $ O O X . o o + $ + + . . O + X . @ + X X o O + $ : 1 < !.].q 9 : : O o X X . + + +     . X o + + $ % < 1 F G g.z.^.6...X.4.7.7.q 9 > < $ $ + + o X X o O ",
"@ @ + O @ % 8 8 F.v.|.6.) 9 8 % $ + % < 1 m v D.c./.F F 1 1 % $ O O + o O @ + + % % q q k.k.> < < $ @ + + X X o o . . $ $ o X X X X X O O + + @ @ : > q h q `.).F F 8 0 % % + + * $ @ + . . o @ @ % : 8 8 j j E.m.v j v < 2 < < 0 i n.v.m K < < $ $ + + o X O ",
"@ $ + + $ % 8 9 }.L.(.5.*.9 0 $ @ + % < 1 L N V.m.!.J m 1 1 % $ O + o X o + @ $ : % f q k.N.> < < @ + + + X X o X X X @ $ X X X . X X O + + + + $ : > 0 j q Q.).H G 9 8 % % + + % @ O O X . o @ @ : : 0 8 N F !.m.h j f < < < < 9 9 L.U.H &.1 < $ $ + O X o o ",
"+ O $ : 1 8 d.d.K.v.W 9 1 : % O O X o @ $ : > 0 g q m.c.d.g.8 0 % % + + O + : : 9 8 O.$.~ J < < < $ $ O O . . o O $ $ X X . X o o + + o o # @ : < 8 9 ~ c.!.6.6.].).J K f 1 : % + O X X O + $ > < 9 9 [ ] k.k.s m q 9 0 > : % : < < f.i.l.z.g.g.r 1 > % $ O O ",
"+ + % : 1 8 i.p.U.n./ 9 1 : & O O X X # @ : > 0 q 9 m.v.a.p.9 8 % : + + O + : : 8 0 $.o.~ Z 1 1 1 % % O O . . o O @ $ . . . . o o @ + o o @ $ : < 8 q Y m./.6.7.`.`.| ] 0 0 : : + O O o o + $ > > 9 9 &...c.l.0 0 1 : : @ + O + % % 9 9 G F z.z.1 3 > % $ O O ",
"% % < 1 s ) W.!.0 q 1 < > @ @ o o . X o o @ + : > > 1 3 p.p.0 i 1 < $ $ $ : 1 1 m D (./.(.^.:.S h < < % % + O O O o O o o . X X X o O @ $ > < 0 f B 7.f.L.M.< 7 3 0 k.n.0 0 < 1 % $ + @ @ $ : 1 h s.d.n.U.9 8 < < % $ $ O O O + @ @ < > 8 8 m.k.a.q.1 < > $ $ ",
": > 0 q N.N.k.a.0 q 1 : % + + o .   . X X O + % : : 1 8 o.+.m.m.9 9 < < > > 9 9 ] ] E.U.U.U.k.J K 9 9 > > $ @ o O X o + + . X X X X + $ $ < < q j ~ k./.i.1.< < 8 8 $...m.m.h f 1 : % $ : > 0 q N L.v.z.p.1 1 : $ @ O O X o + O + + % % 1 1 i.i.W.p.1 8 1 : : ",
"9 9 d.i.*X*Xq 9 < > : : @ O O o .   . . . o o # $ % > : 3 0 L.v.8 9 < < 8 1 i v a.N.9 9 1 1 / m.J.q 8 > > $ $ + O X o $ $ O X X o O + : : 0 q { *.6.J.S.< 1 > : 8 8 9 1 E./.i.6.1 < < % > < w 0 h n.L.0 f > < $ @ + o o . o $ @ X o + + : : 0 q 6.[.y 1 1 1 < ",
"f f g.a.m.m.9 9 < : $ + O X X X + O O . X X X O + + $ % 1 5 j j a.a.j j J m U.U.i.i.0 0 0 1 B 6.i.3.5.j j 1 < $ @ O o + O o X + + $ : 1 1 F J g.b.D.j q < < @ @ : % < < f f z./.7.Z f 8 h f 7.l.v.m N 1 1 % $ + O o X X o o + + . . O O $ % 8 0 ) p.`.o.O.f f ",
"0 0 N.c.h j 8 8 : % $ O O . X X + @ + X X O O o o O $ % 1 < h h a.z.2.;.].`.oX{.r < < < % : < 1 < 6.i.g g 1 < $ $ + O o o O o + @ % < 0 0 .X[.! p ~ 0 < > : + @ $ $ > 6 < 1 8 p l.~ g 8 l f m.m.n.v F 1 1 $ $ O O o X X o o o X . . o o @ $ 1 8 ^ d..Xp.,.9 0 ",
"L.W.:X`.h h > : @ + O X X . . o O O + O X + + X . X o O % $ 1 1 [ &.Q.Q.Q.Q.f f > < $ $ $ $ > < < ] { ].].j x 1 < $ $ # o + + $ % 5 0 ] ..U.U.0 q 0 < : $ @ O + O O $ @ > > 8 9 O.L.T.v.#X=Xo...f < < % $ o o X X o X O $ % O O   . . . o O : : 3 f h ).].n.v.",
"!.!.].*XO.m > > % $ # o o X X . o o + @ o O O . X . o o @ $ 1 1 N m ].].R R h j < < $ $ @ $ > > > H } ].'.5.i.h f 9 1 > % % $ < 3 v m ).`.q 0 0 0 5 : : + + o O o o @ @ $ % 1 1 q >.!.[.2X=XZ m f < < + + X X .   X X X = * $ $ X X X . o o $ % < 9 f *X$Xn.v.",
"q q g.z.i.J 1 1 : $ @ O O + + X   . o @ @ X X o X o O O @ @ 1 1 F L `.].9 9 > > @ + o o o o O $ $ 1 1 n j m.v.m h q 1 < : % $ < 1 N Z ).!.9 9 < > % @ + o o . . O O o o @ @ $ : 8 9 j p ].'.h q < $ @ + O X o     . . X O O $ $ o X .   o + $ $ > q q !.).F F ",
"9 q %...W.z.h f < < > $ $ $ $ o X . X o o X X O O + % % < < j j _.`.^ ^ 9 9 > : @ @ X X o o o $ $ 1 < j h ^ 4._.L.V.j h 8 8 < h j XXQ.B B f q < > % @ + + O . . o o X X + + % : 8 9 j p ].'.m h 8 : : $ $ O O X . . O + O O o o o o X o + @ < < 8 F .X).L.N F ",
": : 8 9 ^.m.h g 1 1 > $ $ O O X o o   .   o o O + @ $ $ 1 1 j j ).).f f % : O + o o O o X X X + + $ $ : > 9 0 m.n.D.j h 1 8 < v j .X`.9 q > > @ @ O o X X . . . . . X X X X O @ % % 8 1 k.x.H g 8 : : @ $ O O o o O @ + O O .   o o X X @ @ < < 8 L (.p.) 1 8 ",
": : < 1 p v U.L.p j q 1 > $ $ O o X . . . + + & : % 1 8 h h z.z.j S < < % : + + X X : : . X X o o + @ % $ 1 8 h h ^ z.q.h j f  XU.) n 9 f > > @ @ + o O + O # + o o @ @ o o + $ : > 9 0 m.n.4.i.a.f g < > $ $ + O + . X + O . . o o @ @ : : f f v z.N.h q < < ",
"@ $ > > 8 x L.v.i h 8 1 < % $ @ @ O X X o + + % : : 8 8 j v m.k.j x 1 < $ $ o o . X > > o o X o o + O @ @ > > h h ~ m.m.a.m.].).Q.! N < < @ @ X o . . X @ @ @ @ o o $ @ + + % > 1 8 j p m.L.X.i.z.9 f < < % % + O O X . X X   . O O @ $ < > f f B c.g.f 1 % % ",
"o o # $ > < h v [.U.V.N h 1 < : % + + @ @ > : 9 9 9 7.6.Q.Q.$.o.1 1 $ $ O O O o   . o o : $ $ X X o X + o + + : > 8 h V z.z.].U q 1 1 : : # @ o o .   . O O $ % X X o X @ $ > 1 f f $.N.4.) 1 v i.m.m.9 j < < $ $ + O o X . o o @ @ : : f q g.a.n.f 1 > : + + ",
"o o # @ : > j j /.E.n.Z D 1 < : % @ + @ @ > > 9 9 q i.i.Q.E.$.o.8 1 $ $ O O O O . . o o : % ; X X X . X X + + % < 1 f 9 *X$X| f g 1 < $ @ + O . .     . + @ % % X X o X % % 5 8 f 0 k.n.4.) 1 9 f n.m.7.6.0 h < < > $ $ o X O O % % < < 9 9 N.a.x.j 1 > : @ @ ",
"X . X X O @ > > 0 h 6.L.^. .{ 9 0 > : > > %...N.k.k.H J 9 9 p.i.h j < < $ $ O o X X X o X X X X X o X o O @ $ 1 1 0 $.X.U.Q...q.4.v f < < $ @ O O X . X O o X X O O $ % < 1 h h l.n.m v 1 > : > > j h N.z.^ K 1 1 < : $ @ + $ $ < 1 h h a.l.^ &.1 < % + + X X ",
"o X . . O O % % 3 t ;.W.>X].J.9 0 < > < 1 q.i.v.c.v.J F f 9 g.a.C Z 1 1 : % @ @ X X X X X o o . X O + + + $ $ 1 1 / /.u.~ ! V *.a.^ g 1 1 % % + + X X o X X X X O + : % 8 8 f p b.L.m A < > $ % > 0 q C.q.n.m.3 w < > % $ @ % % 1 3 h l k.c.) ] < < $ O O X X ",
"+ @ O o . . + + % : < 0 v ~ 6.K.}.f 9 F F z.k.p h h > > % % 1 1 7.i.i.i.9 9 : > + O X X o O + X X + + % % 8 0 h h g.c.( f q < 1 ..V.k.f j 1 1 $ $ O o o . . O O % % 8 1 F F J._.! 8 1 > $ @ o + @ > > 8 0 /.v.m.m.z.g h < < 0 9 5.5.L.L.F H 1 1 % $ + + + . . ",
"@ $ + o X . + + & : < 8 j H 4.!.!.0 0 C Z z.z.p h g < > % % < 1 d.7.i.p.q 0 > > + + X X o @ @ X X + O % % 8 8 n.n.k.l.s h j < 8 f ^.m.p j 8 8 $ $ + o X X X O O % : 1 9 x F K.(.J 8 1 < $ @ o + + > > 9 8 V.L.L.m.V.f j < < 9 9 9.7.L.J.F F 1 1 % $ + + O . X ",
"+ @ o . o O X X O + @ % < 8 8 P ].!.].p.l.0 q : % : + + O o $ $ < < X.4.a.p.f j : : @ @ O O @ + + % % 8 0 N n m.m.3 0 > > : + % > 8 q ^.m.H F < 1 : % @ @ + % % 8 8 J J !.E.j h < % $ @ O o o X X O + % $ < < f j C z.m.S S d.i.z.z.f g < > @ $ O o . . o O + ",
"+ + o X o + . . O + @ % < 1 0 F <X].#Xa.a.9 9 : : : + + o o $ $ < < j j p.a.h h : : @ @ o X O + + % : 0 8 Q.Q.k.z.8 9 > : : + % : 1 f V.m.F F < < : $ @ + @ % % 8 8 C j E.Q.j f 1 % % + O o X X X O + % % < 1 q x Z m.z.9 q u.u.z.p.j h > < @ @ o o . . X O + ",
". . O + o . X o X X o o @ $ % < > E.).9 0 % % + + O X X + + X . @ @ > > 0 8 i.a.j j > > @ @ + : : 8 9 q.7.l.V.0 0 : : @ + + X O + $ : 9 9 a.a.-.h 0 1 > > > 8 0 O.+.v.m.9 9 : : $ + O X .   o + O . . o o @ $ : > < h h `.`.^ ^ 8 1 : % + + X X o o O O o . X ",
". . o O X . X o . X o o @ $ % < : `.).0 0 % % + + O X X O O . . + @ > > 8 8 i.p.j j > > @ @ + : : 0 8 i.i.K [ 9 8 : % + O O . X + ; : 8 9 a.N.c.a.Y 1 < > > 8 8 5.5.n.m.9 9 : % $ O O X . . o + O . . X o @ $ : > < h j ].].Z Z 0 8 : : + O X X o X O + o . . ",
"X X .   X o X X O o . + @ % % < : U.U.> > + + o . X X X X X O X X X + + % : 1 8 a.a.%.%.< 1 > 0 9 z.n.g.a.1 1 % % O O X . X   . X O + : : 1 1 s.a.i.} F h V k.k.u.u.8 8 % % + O o X X O X .   X X o o o o o o + @ @ < 1 k.z.1 1 $ $ + + X X + + X . . X o o O ",
"X o X . . o O O O X . O + $ $ < : U.K.< > + + o X X X o X X .   X X + O % % 1 1 +.o.H ] 3 < < 9 9 m.v.n N 1 1 % $ + + . X X   X X + + : : 1 1 h N g...m n ^ m.c...| 1 8 % $ + o o .   X X .   o X o o + O o o + @ @ < < k.k.1 1 $ @ + + X X + + . . X . o O + "
};
