/* XPM */
static const char *gothic_duck_16[] = {
/* columns rows colors chars-per-pixel */
"16 16 219 2 ",
"   c black",
".  c #000100",
"X  c #010101",
"o  c #020100",
"O  c #000300",
"+  c #020003",
"@  c gray1",
"#  c #040000",
"$  c #050001",
"%  c #030106",
"&  c #040205",
"*  c #090909",
"=  c #0B0B0B",
"-  c gray6",
";  c #11060A",
":  c gray7",
">  c gray8",
",  c #191919",
"<  c #1D1B1C",
"1  c #270A0F",
"2  c #390000",
"3  c #230A10",
"4  c gray13",
"5  c #232323",
"6  c gray14",
"7  c #252525",
"8  c gray15",
"9  c #272727",
"0  c #282627",
"q  c #282828",
"w  c #2D2D2D",
"e  c #2F2F2F",
"r  c gray19",
"t  c #313131",
"y  c #323232",
"u  c gray20",
"i  c #343434",
"p  c #353535",
"a  c gray21",
"s  c #373737",
"d  c #690100",
"f  c #6C0000",
"g  c #6D0000",
"h  c #6D0100",
"j  c #6D0101",
"k  c #730000",
"l  c #740001",
"z  c #770000",
"x  c #770100",
"c  c #750200",
"v  c #760203",
"b  c #7A0000",
"n  c #7B0000",
"m  c #790102",
"M  c #7D0101",
"N  c #7E0001",
"B  c #7C0201",
"V  c #7F0102",
"C  c #6C1C00",
"Z  c #7D0417",
"A  c #77051C",
"S  c #7B071C",
"D  c #4A433D",
"F  c #4E4945",
"G  c #830100",
"H  c #820201",
"J  c #840000",
"K  c #850001",
"L  c #860000",
"P  c #870000",
"I  c #870100",
"U  c #860001",
"Y  c #850003",
"T  c #870203",
"R  c #880000",
"E  c #890001",
"W  c #8A0000",
"Q  c #8B0000",
"!  c #8B0100",
"~  c #8A0202",
"^  c #8C0000",
"/  c #8F0100",
"(  c #8D0002",
")  c #8D0102",
"_  c #8C0202",
"`  c #8D0303",
"'  c #8A0204",
"]  c #8B0305",
"[  c #900000",
"{  c #910100",
"}  c #920000",
"|  c #930101",
" . c #910002",
".. c #920202",
"X. c #930303",
"o. c #950100",
"O. c #950002",
"+. c #980000",
"@. c #990100",
"#. c #9A0000",
"$. c #9B0101",
"%. c #980300",
"&. c #9F0102",
"*. c #9C0202",
"=. c #9C0105",
"-. c #940906",
";. c #820113",
":. c #A00100",
">. c #A30000",
",. c #A30001",
"<. c #A50000",
"1. c #A80000",
"2. c #AB0200",
"3. c #AE0200",
"4. c #AF0102",
"5. c #B00000",
"6. c #B10101",
"7. c #B20000",
"8. c #B10200",
"9. c #B20202",
"0. c #B70100",
"q. c #B60001",
"w. c #B40200",
"e. c #B40104",
"r. c #B60404",
"t. c #B80000",
"y. c #B90000",
"u. c #B90101",
"i. c #BA0001",
"p. c #BB0303",
"a. c #BD0000",
"s. c #BC0301",
"d. c #BE0201",
"f. c #BF0301",
"g. c #BA0400",
"h. c #BB0400",
"j. c #B80403",
"k. c #BF0400",
"l. c #9E2705",
"z. c #AE2E07",
"x. c #A53C00",
"c. c #B93310",
"v. c #C10100",
"b. c #C30200",
"n. c #C20201",
"m. c #C10303",
"M. c #C40001",
"N. c #C50301",
"B. c #C40400",
"V. c #C50504",
"C. c #C90302",
"Z. c #C90602",
"A. c #CD0601",
"S. c #CC0502",
"D. c #CD0505",
"F. c #CE0606",
"G. c #C40800",
"H. c #CC0800",
"J. c #CF0801",
"K. c #CB0F00",
"L. c #CD0C07",
"P. c #D00602",
"I. c #DC0703",
"U. c #D10900",
"Y. c #D30900",
"T. c #D30801",
"R. c #D10B02",
"E. c #D60C02",
"W. c #D30905",
"Q. c #D10A05",
"!. c #DB0A03",
"~. c #DA0C00",
"^. c #DB0D00",
"/. c #D90E00",
"(. c #DA0905",
"). c #DF0907",
"_. c #DD1204",
"`. c #DF1006",
"'. c #D61800",
"]. c #EB1606",
"[. c #D72000",
"{. c #DA2000",
"}. c #D32900",
"|. c #DC3500",
" X c #EF3305",
".X c #EE3C00",
"XX c #F33F02",
"oX c #E54200",
"OX c #EE4800",
"+X c #F55602",
"@X c #F05B00",
"#X c #F65B00",
"$X c #F55F01",
"%X c #FF5B09",
"&X c #EB6100",
"*X c #F76102",
"=X c #F66707",
"-X c #F86000",
";X c #FA6103",
":X c #F96702",
">X c #FB6205",
",X c #F36B00",
"<X c #F76D02",
"1X c #FB6902",
"2X c #F96F00",
"3X c #F86A04",
"4X c #F87100",
"5X c #FC7700",
"6X c #FA7901",
"7X c #FF7211",
"8X c #81786F",
"9X c #857E74",
"0X c #FB8200",
"qX c #FF8D00",
"wX c #FF8C08",
"eX c #FF8C0B",
"rX c #FF9217",
"tX c #EF9437",
"yX c #FAF8F9",
/* pixels */
"9.N.h.` V.Y.V L.*XI &.qXQ Q 1X| ",
"N.0.| wXQ 4.P.m I rXC.' <._.@.d.",
"` n.'.I ` ~.d.@.Y.0.0.` -X+X>.| ",
"V  X_.2.I # O 4 - O & 7XQ O.D.S.",
",X` k W.[.;.e u i u Z | >XG.S.O.",
"{.4Xu.H.K.8 u u u u 4 ` >.$X9.H ",
"I ` <X0 c.u O i i yXu C < I u.6X",
"r.4.A 1 -.u ; tXx.# e 2 3 S ~.m ",
"h.N.OXO = F 8 l.z.8 D O O 2Xk.n.",
"e.n.' @.u i O > : O u u d.g Q >.",
"#Xd V }.4 i u 9X8Xi u e &X9.Q :X",
"H !.wX` , q i i i i 8 = g n.).H ",
"V 5XE.2.x % 4 8 8 8 O x | @X(.I ",
"|.Q O.&.].H.-Xx 9.B.h.D.Z.g | .X",
"@.u.I =XQ I I XXW.g x %Xu.x 9.n.",
"V @.oX=.Y.u.~.d.Y.N.0XI | 3XI.m "
};
