/* XPM */
static const char *gothic_duck_22[] = {
/* columns rows colors chars-per-pixel */
"22 22 124 2 ",
"   c #020101",
".  c #0C0000",
"X  c #0C0C0C",
"o  c #100000",
"O  c #0D1313",
"+  c #141516",
"@  c #181617",
"#  c #161815",
"$  c #191718",
"%  c #1B1B1B",
"&  c #210000",
"*  c #36030A",
"=  c #39060F",
"-  c #320A13",
";  c #3E0815",
":  c #211215",
">  c #242424",
",  c #262628",
"<  c #2B2B2B",
"1  c #333333",
"2  c #3C3334",
"3  c #393939",
"4  c #5C0100",
"5  c #590414",
"6  c #670001",
"7  c #6A0202",
"8  c #730101",
"9  c #7B0101",
"0  c #7A1400",
"q  c #73051C",
"w  c #750A1A",
"e  c #482B1D",
"r  c #552519",
"t  c #43403D",
"y  c #4A4849",
"u  c #55504C",
"i  c #830101",
"p  c #8C0101",
"a  c #930101",
"s  c #9B0101",
"d  c #A30101",
"f  c #AB0101",
"g  c #B30201",
"h  c #BB0201",
"j  c #BA0804",
"k  c #872001",
"l  c #B6360F",
"z  c #C30201",
"x  c #CC0501",
"c  c #C20901",
"v  c #CD0A02",
"b  c #CF0C08",
"n  c #D20603",
"m  c #D30A01",
"M  c #DC0B01",
"N  c #D80C0D",
"B  c #CD1300",
"V  c #D41700",
"C  c #DC1201",
"Z  c #D41C02",
"A  c #DE1D00",
"S  c #E20E00",
"D  c #E31202",
"F  c #E91802",
"G  c #D72600",
"H  c #E82509",
"J  c #E52F0A",
"K  c #F22505",
"L  c #F52F00",
"P  c #EB3800",
"I  c #E9330B",
"U  c #F13100",
"Y  c #F83F07",
"T  c #F4380B",
"R  c #C41126",
"E  c #D91A2C",
"W  c #EF4D00",
"Q  c #F64304",
"!  c #F24D01",
"~  c #F6400E",
"^  c #E95600",
"/  c #F55201",
"(  c #F85102",
")  c #F55C03",
"_  c #F85E04",
"`  c #F85F01",
"'  c #F84210",
"]  c #FF5510",
"[  c #FF5412",
"{  c #F36000",
"}  c #F26402",
"|  c #F76005",
" . c #F66001",
".. c #FA6500",
"X. c #F06900",
"o. c #F76A01",
"O. c #FB6801",
"+. c #FB6C04",
"@. c #FE6C03",
"#. c #FD6309",
"$. c #FF690D",
"%. c #FF6F0D",
"&. c #F57300",
"*. c #FF7103",
"=. c #F97801",
"-. c #FF7805",
";. c #FA7E00",
":. c #FF720D",
">. c #FF7A0C",
",. c #FC7A08",
"<. c #FF6A10",
"1. c #85776C",
"2. c #897F75",
"3. c #F58300",
"4. c #FC8301",
"5. c #F88700",
"6. c #FF8406",
"7. c #FB8302",
"8. c #FB8E00",
"9. c #FF9202",
"0. c #FD9903",
"q. c #FF920C",
"w. c #B1A6A0",
"e. c #CEC5BE",
/* pixels */
"d 9.d h p a D x i d m _ h 9 a G m 9 i ! z p ",
"5.d 8 8 V -.f z I N g f / M =.g d 9 a $.n +.",
"a ^ h z o.d i m x 9 9 9 h S f 6 p z 4.a 8 9 ",
"p i C D p s g m m a s v | d h 9 h A [ c i a ",
"8 p 3.#.d a d   z   3 %   s   X.x 8 8 z { Q ",
"z ! d i <.z n R y 1 1 1 1 < E J ' d i z Y p ",
"x c 8 8 s 8.s 5 & 1 1 1 1 o 5 s p b } g 8 9 ",
"F c M g ^ c i > 1 1 1 1 1 1 > 4 i j _ h i i ",
"h 8 h q.f 2 . 1   1 1 1 1   1 . 1 B 9 x O.A ",
"9 s s @ ; $ . 1   1 1 1 1   1 . % - + p L s ",
"M i   w $ X H < + r 0 0 e O < V X : q   _ 8 ",
"n Z c 6.* q 3 u > 0 l l k > t > 5 = x B >.s ",
"8 v x h z t 1 1 e.  % %   w.< 1 , n z 8 p C ",
"M D s 9 s 1 + 1 1     X   1 1 % 1 d 8 9 9 h ",
"` p 9 i K < < 1 1 1 2.1.1 1 1 % > ..h 9 n M ",
"p 4.s M n   % 1 1 1 1 1 1 1 1 +   p C ~ x i ",
"p f 0./ i 9   % > 1 1 1 1 > % . 9 8 h z 9 i ",
"a m z g ) s i c # % > % % + f 9 p z D T x i ",
"K m 7 a s *.,.m O.h p f ) f M P W g 7 9 n Q ",
"m x a 8 d %.s a s [ z ;.f 9 9 x v i p 9 g @.",
"8 v C x &.@.p a 9 g 7.z a 9 g :.b W h m ( a ",
"i 7 f n p i x g z n i f  .f U p 9 a C v i d "
};
