/* XPM */
static const char *gothic_floor_9[] = {
/* columns rows colors chars-per-pixel */
"9 9 81 1 ",
"  c #760404",
". c #7B0100",
"X c #7D0100",
"o c #7D0300",
"O c #7F0301",
"+ c #7E0401",
"@ c #7A0204",
"# c #800301",
"$ c #870100",
"% c #870102",
"& c #8A0000",
"* c #890200",
"= c #8C0200",
"- c #8D0102",
"; c #8F0002",
": c #910000",
"> c #930101",
", c #900103",
"< c #920202",
"1 c #950100",
"2 c #970301",
"3 c #960202",
"4 c #9B0101",
"5 c #9A0201",
"6 c #9B0103",
"7 c #9D0301",
"8 c #9F0102",
"9 c #A30001",
"0 c #A50100",
"q c #A60203",
"w c #A70502",
"e c #AC0000",
"r c #AC0401",
"t c #B00201",
"y c #B40200",
"u c #BB0000",
"i c #B90300",
"p c #B80201",
"a c #BA0202",
"s c #BF0301",
"d c #BD0102",
"f c #BE0203",
"g c #BA0403",
"h c #BE0502",
"j c #BC0404",
"k c #C70402",
"l c #C80200",
"z c #C90200",
"x c #CE0100",
"c c #C80500",
"v c #CA0403",
"b c #D20000",
"n c #D20700",
"m c #D50501",
"M c #D70705",
"N c #D80703",
"B c #DC0703",
"V c #DD0705",
"C c #D10800",
"Z c #E30802",
"A c #E10C06",
"S c #EA0B03",
"D c #EA0905",
"F c #E71300",
"G c #ED2901",
"H c #E23000",
"J c #E93800",
"K c #F53300",
"L c #F73B00",
"P c #F33B05",
"I c #FC3309",
"U c #F94301",
"Y c #F84502",
"T c #FB5200",
"R c #FF5C01",
"E c #FB6003",
"W c #FE6F06",
"Q c #FF7700",
"! c #FD7D00",
"~ c #FE6D10",
"^ c #FF8209",
/* pixels */
"h>TpwsK-J",
"$A3GZ9pj0",
"U#xLk$rMp",
"*^-V~4s4F",
"lHg8P@30p",
"W>!tc*C+-",
"cQ4E.mOy8",
"BOSI>sNOb",
"3RY>n eDl"
};
