/* XPM */
static const char *gothic_floor_31[] = {
/* columns rows colors chars-per-pixel */
"31 31 133 2 ",
"   c #6F0100",
".  c #740101",
"X  c #7C0101",
"o  c #840101",
"O  c #8B0101",
"+  c #940101",
"@  c #9C0101",
"#  c #A30101",
"$  c #AC0101",
"%  c #B30201",
"&  c #BB0201",
"*  c #C40201",
"=  c #CC0302",
"-  c #C20900",
";  c #CA0B00",
":  c #C6010A",
">  c #D40401",
",  c #DB0501",
"<  c #D50901",
"1  c #DD0902",
"2  c #C81000",
"3  c #D41100",
"4  c #DD1500",
"5  c #D81F00",
"6  c #E30702",
"7  c #E30B01",
"8  c #EB0E03",
"9  c #E50408",
"0  c #F10D00",
"q  c #E41302",
"w  c #EC1302",
"e  c #E41B03",
"r  c #EC1C02",
"t  c #F21401",
"y  c #F21A03",
"u  c #E52300",
"i  c #EA2301",
"p  c #E52E00",
"a  c #ED2C01",
"s  c #E62208",
"d  c #EF290D",
"f  c #F62004",
"g  c #F62305",
"h  c #F52300",
"j  c #FA2402",
"k  c #F82A05",
"l  c #F92B03",
"z  c #F32309",
"x  c #EC3100",
"c  c #F63104",
"v  c #F33302",
"b  c #F93501",
"n  c #FE3603",
"m  c #F73A00",
"M  c #F73D02",
"N  c #F53D01",
"B  c #FD3B06",
"V  c #FE3905",
"C  c #F3360E",
"Z  c #F73A0C",
"A  c #F83D0A",
"S  c #E34300",
"D  c #E64D01",
"F  c #F54702",
"G  c #FC4501",
"H  c #FA4501",
"J  c #F14E00",
"K  c #F94E00",
"L  c #FB4E00",
"P  c #FA4F01",
"I  c #FB4B03",
"U  c #F1470C",
"Y  c #FC450C",
"T  c #FC4D0C",
"R  c #FF490B",
"E  c #F55205",
"W  c #F45000",
"Q  c #FA5100",
"!  c #F85301",
"~  c #F95500",
"^  c #FB5700",
"/  c #FA5601",
"(  c #FA5503",
")  c #FC5401",
"_  c #F75800",
"`  c #F35C01",
"'  c #F65C00",
"]  c #F65D00",
"[  c #F45A04",
"{  c #FA5B00",
"}  c #FC5C03",
"|  c #FF5709",
" . c #FF560D",
".. c #FF5A09",
"X. c #FF590B",
"o. c #FF4C11",
"O. c #F66200",
"+. c #F76600",
"@. c #FB6300",
"#. c #FA6700",
"$. c #FE6005",
"%. c #FB6502",
"&. c #FF6A07",
"*. c #FC6B02",
"=. c #FF650A",
"-. c #FF6A0E",
";. c #FF6C09",
":. c #F57300",
">. c #F67600",
",. c #F87100",
"<. c #FE7002",
"1. c #FF7007",
"2. c #FE7405",
"3. c #FD7302",
"4. c #F77E00",
"5. c #F97800",
"6. c #F87F00",
"7. c #FB7F03",
"8. c #FD7C03",
"9. c #FF7E0D",
"0. c #FF6510",
"q. c #FF6E17",
"w. c #FF6B10",
"e. c #FF7711",
"r. c #F58100",
"t. c #FA8001",
"y. c #F88400",
"u. c #FF8404",
"i. c #FD8202",
"p. c #F68E00",
"a. c #FF810D",
"s. c #FF9217",
"d. c #FF9119",
/* pixels */
"o e -.$ < + . + + k , + . + # u 6 # . O X * ` ; # $ @ a., O X ",
"* Q * X + w # @ > Y / % $ > ..* T < # # > Q y $ X + o > P , $ ",
"> c # o O O > &.= + & | ' > # X & w w E o.& z # X O < k % = u.",
"@ m #.* @ = 8.> O o * { * @ X O O * :.8 % . + & = 1 5.% X X $ ",
". o $ g [ 4 % X @ @ O., + . O O = _ = - @ O . @ > u * @ + . O ",
"O . . $ 2.& . o + r % b 9 % $ 7 @.> @ < N $ - V = # < t * @ > ",
"X o % 8 / < + o q + . # t 7.,.> # O $ o & G  .* o   o & P $.h ",
"& & r.> # 8 8 > O + X + 7 h * = o + . O O , 3.> $ o o % g 1 @ ",
"} / , o . + = P = 7 * * 7.& + * & X o O > / $ , t.= = +.1 + . ",
"$ ' & o X . $ y., # e / * X + O d : @ 1 q.$ . O % t 1.1 @ O X ",
"@ < ,.> O $ y = $ . @ ( $ O X + > p u.q $ X X o @ 8 G & + . # ",
"v , @ 4 8 h 1 o % % * m b * % I t & $ Z u @ o & J 7 & I , $ = ",
"= O . + = } * o + 1 1 % > { #.> @ X X # > A y i = @ o # 7 8.1 ",
"% . $ o # & *.7 w x # O O $ #.> o o = + + = x 7 O @ o @ y , O ",
"7 + X o o & 3.& 1.= o O . @ = t.* r O X @ w > e - X O = ;.% X ",
"D < @ O & N 1 o & ..* + # & 3 N 9.& X + < s.+ + V = & I 7 + @ ",
"+ 2 a q 8.q # + + # 4 U R S 1 O & N 1 Z 5 # O X # R 3.< - U $ ",
"# O 3 7 % O < $ + & R h & o + X # , e d = + O O t x % # X * ..",
"+ > e.% X O o ; H ) * $ m % O $ t w @ O 1 6 $ * >.@ @ o O o * ",
"8 e.& o $ . $ w q $ + . $ V < y 6 @   X + * } P 7 # X @ X * @.",
", 7 + . . $ 7 J & X . + . $ d.a @ . o X + 7 w $ r H $ X % ) = ",
"+ u , + # y h $ I > @ O = $.> % I $ X # 8 l $ X # 6 l * #.= X ",
"o # q t w 0 # O @ > y > i $ + X % l = =.7 # X + X + > i.= O o ",
"X o & >.j > + o O + , t # @ X . + $ t , +   o . o * h 1 + X . ",
"@ % #., $ w y $ X @ 1 * + o @ X + @ 8 r % @ . @ > } * , y # o ",
"& { 1 + . + = } * , *.y & o + . # 8 N = ;.= $ 8 P # X + = I % ",
"%.8 + . + + o = *.6 # * 4.= @ # h 7 @ O % j y.7 # X # . o 6 p.",
"% =.= +   O % u , O + + & =.q e 1 @ . . X $ / > # O + X @ w > ",
"X % 0.= # * Q N $ o o X X % , 7 # . X + + i n 1 ) = + * 4 s + ",
"# o + > 2.< @ $ ) * o O * } ; % } & + & C = # X $ w.< =.q + O ",
"X X . + i.# X X % I & % F , + o > W * v i @ . O o % u.= O X X "
};
