/* XPM */
static const char *gothic_floor_73[] = {
/* columns rows colors chars-per-pixel */
"73 73 188 2 ",
"   c #6E0100",
".  c #740101",
"X  c #7C0101",
"o  c #840101",
"O  c #8C0101",
"+  c #930101",
"@  c #9C0101",
"#  c #A30101",
"$  c #AB0101",
"%  c #AA0608",
"&  c #B30101",
"*  c #BC0201",
"=  c #BE0802",
"-  c #BF0508",
";  c #BF1500",
":  c #C40202",
">  c #CC0301",
",  c #C50A00",
"<  c #CC0A01",
"1  c #C30708",
"2  c #D30401",
"3  c #DB0601",
"4  c #D40B01",
"5  c #DC0A01",
"6  c #DA0608",
"7  c #D50B09",
"8  c #DE0D08",
"9  c #CF1500",
"0  c #D31100",
"q  c #DA1300",
"w  c #D11C00",
"e  c #DC1B00",
"r  c #E20601",
"t  c #EB0704",
"y  c #E40B02",
"u  c #EB0D02",
"i  c #E3050A",
"p  c #E40C09",
"a  c #E9080C",
"s  c #F00C04",
"d  c #E41201",
"f  c #EC1202",
"g  c #E31B00",
"h  c #EC1A01",
"j  c #ED1209",
"k  c #E6180A",
"l  c #F21402",
"z  c #F31C02",
"x  c #F91D03",
"c  c #F11308",
"v  c #F61D0C",
"b  c #D42201",
"n  c #DC2300",
"m  c #DB2A00",
"M  c #E52300",
"N  c #EC2400",
"B  c #E42A02",
"V  c #EB2D00",
"C  c #EB2109",
"Z  c #EC2E0A",
"A  c #F42401",
"S  c #FA2404",
"D  c #F52C01",
"F  c #F92C03",
"G  c #F3210B",
"H  c #F72808",
"J  c #F92B0A",
"K  c #E43300",
"L  c #EC3300",
"P  c #E33C00",
"I  c #EA3901",
"U  c #F43302",
"Y  c #FA3402",
"T  c #F43C01",
"R  c #F93F04",
"E  c #FA3C02",
"W  c #FC3309",
"Q  c #F63E0A",
"!  c #FE3B0B",
"~  c #F53B14",
"^  c #FB3E14",
"/  c #FA3F12",
"(  c #DE4100",
")  c #EC4300",
"_  c #ED4B00",
"`  c #EE450A",
"'  c #F24100",
"]  c #F54301",
"[  c #F84002",
"{  c #F94701",
"}  c #FB4402",
"|  c #F74C00",
" . c #F44B01",
".. c #F94E00",
"X. c #F94D01",
"o. c #FB4C02",
"O. c #F9470B",
"+. c #FE440B",
"@. c #F4480A",
"#. c #FC4B08",
"$. c #FE4C0B",
"%. c #EC5D00",
"&. c #F55000",
"*. c #F65401",
"=. c #FA5201",
"-. c #FB5700",
";. c #FF5406",
":. c #FF5707",
">. c #FB5302",
",. c #F65B00",
"<. c #FC5801",
"1. c #FA5D00",
"2. c #FF5E03",
"3. c #FC5F00",
"4. c #FB5B02",
"5. c #FF5108",
"6. c #FF540D",
"7. c #FE5C0B",
"8. c #FF4714",
"9. c #FF4B13",
"0. c #FF5010",
"q. c #FF5512",
"w. c #FF5911",
"e. c #FE5C10",
"r. c #FF591D",
"t. c #F56300",
"y. c #FD6001",
"u. c #FC6202",
"i. c #FE6100",
"p. c #FA6500",
"a. c #FF6006",
"s. c #FC6402",
"d. c #F16F00",
"f. c #F66B00",
"g. c #FB6800",
"h. c #F96B00",
"j. c #FB6D00",
"k. c #FD6C00",
"l. c #FF6B05",
"z. c #FF6B07",
"x. c #FC6B02",
"c. c #FF600A",
"v. c #FF640B",
"b. c #FF6D0A",
"n. c #FF6B0B",
"m. c #F57501",
"M. c #F97500",
"N. c #FB7506",
"B. c #FC7302",
"V. c #F77B00",
"C. c #FF7F05",
"Z. c #FD7B02",
"A. c #FF770D",
"S. c #FF730C",
"D. c #FF7A0F",
"F. c #FF7B0B",
"G. c #FF6212",
"H. c #FF6C11",
"J. c #FF611B",
"K. c #FF6F18",
"L. c #FF7214",
"P. c #FF7D14",
"I. c #FF7D16",
"U. c #FF7719",
"Y. c #FF7818",
"T. c #FF7E26",
"R. c #FF7028",
"E. c #F58500",
"W. c #FA8600",
"Q. c #FF8601",
"!. c #FF8403",
"~. c #FC8302",
"^. c #FF8806",
"/. c #FF8D07",
"(. c #FE8B03",
"). c #FF820B",
"_. c #FF8F0B",
"`. c #FF8A0E",
"'. c #FF8F0D",
"]. c #F59200",
"[. c #FD9502",
"{. c #FD9A00",
"}. c #FF9909",
"|. c #FF8312",
" X c #FF8F11",
".X c #FF8E18",
"XX c #FF9316",
"oX c #FF8920",
/* pixels */
"X + + * 3 u.5.> $ & $ # O O . . + O O + : > F g.3 * & # X . . o O o # : y /.`.r > # o . . . o o O + $ 2 3 u 4.:.3 & # @ + # * F u.A H 2 @ O . . . ",
"+ : > A Q.h : @ O O d y & # + . X . X @ * 1 z j.r * & o o . X O + # : y 1.} d.A y $ O o O . O + $ & 2 S I ^.u 2 $ + . + # X + * H g.I.u & @ o O o ",
"& G V A.L 5 : @ O o = h & $ O X o + % * > 3 #.l.3 : & + o + O # # * > ..< > 0 N.z 2 $ + O O @ @ $ & 3 w.b.L 5 > $ + . o o o O & > Q..Xu : $ @ X o ",
": B P =.y : @ X O o + $ 3 H d # + # * : 2 R O.< <.< 3 & + $ * > 2 z :.: : * 5 0.L 2 * # # + $ 2 y y =.>.a.z : $ O X . + @ . o $ 2 M.C.g.z 3 > : $ ",
"c.W._.u : @ O O X + . O # $ 4 h : r #.' 4.l < : h D.| 3 * 3 ^ U L ..2 * # @ * y p.&.u > 2 * 3 L u.l.u 2 g D * + . X @ o . O $ > N { F 2 z k.u y 5 ",
"4 >.s.u : # + + X . o . o + $ y z 4.&.e.< * @ @ : m V D y E l.7.4 : $ . o o @ * y N ..y j 5 S =.y y * $ $ A : $ O . . O O $ : f T i 2 # & > 4.f.Z.",
"& 4 5 >.g > $ @ o . X + # $ 1 8 *.u 2 > $ + . O @ & 5 g.W.h 3 * : @ + O X . o + * 5 F B.p.!.U 3 * $ + O + & h 4 # + O $ $ > l ] 2 & $ O O # - > y ",
"+ & & T <.1.3 : * # + # : 2 u Z.z > # @ o X O o # $ 5 1.y : & @ + o . . O @ @ o @ * u m.G.l 3 & @ + . o o + $ 4 4 $ * 3 2 S M.u * @ + . . X + @ & ",
"o O + & & @.B 4 > : & > q V w.e 5 * $ $ O X o & 2 4 ).U 2 $ + X O . + O o o + # * p #.u.q.u 2 $ O X . . . X + @ k 5 > 2 y B.5 2 # X o + X . X X O ",
". o O # & r u.<.4 6 > 2 l.Z.E.r * + # & @ X O & 2 , ^.u : + O X . o + + o o + $ 2 N M.T Y 3 & O X o X . . . . + & h z ).!.D y * O . . X + X   . X ",
".   . O + $ > A S.g.y U q.r.3 & + . . O @ O @ * 7.).u.3 & + X . . . +   o @ # : u <.h C N D : # o . O o . . + @ * 2 7.+.#.U > $ @ + @ X . X X . O ",
"+ O o o X o # > d A {.A 3 7 & O o + O o O # & 4 o.5 V A 2 $ # o o O o + # * > d W.f : & * E y : # + . o o + $ 4 +.} r : : T D 2 : # # O . . O O $ ",
"o * * . . . O $ 2 3 M.y & $ + . . O X O @ & h y * & 2 Y ;.r > : $ @ $ > y f A a.z 2 $ @ @ * h } D > $ # $ * 3 T g 2 & @ # * i 4.f 3 2 * $ @ * * 2 ",
"  O + o . O $ > d B u.2 # @ o o + o o @ : d p & + O # : A u.V u 2 < y B.1.v.Y 3 : $ + O o @ & y E >.y > > f ,.l > # O + o + $ > U s.a.u 2 > u y A ",
". . . O @ & > u S.b.>.y 2 = $ + . X # * h < @ O . X o $ : n.l.6.u u U !.5 < < * $ O * $ & O + $ : +.N n w B.5 2 $ + . . . o O @ * 4 9 >.z h m.V.=.",
"o . . O # & 2 $.N.s.4.{ 2 > & @ o o $ < d $ O X . X O @ : l K.B.Z.[.m.Q.3 > : $ + o & & & X O $ : r } /.[.u r & O X X . . o o + & 4 4 +.] Q.A.N.z ",
"@ O o + & 5 g.>.2 > < { C.T.r : # # 3 4 # o . . . o O O # > d L.[.E f > $ @ + + X X + o X o o O @ * 3 n.Z.u > $ @ O o . . O . X + & * 4 u.<.i 3 * ",
"& # # * 2 Z.z 2 & @ $ * u O.t.u : > 8 @ O O + o X X . @ * y M M.z 2 3 5 > & # o + + # X . . + X O & 5 J ) B.j 2 & $ + O o . o + # > 2 z <.5 * & @ ",
"y 2 > 5 4.A 2 $ + o X + & : 6 p.z * + @ # * $ @ + O + $ 2 F F.N 3 & # > Y e : # o X . o o . o @ * 5 A 1.U 2  .<.f > * @ # O O # > j e u.y * + + o ",
"g.!.'.$.' 3 # O o . . X + @ $ > E E : : : 5 y > & # @ > f !.2 4 & O + # > M O.: @ . X o o X @ * y j.&.6 - & 1 3 ' Z.u > > $ & 2 l ;.>.y * + . X . ",
"0 v.v.B.W 2 @ X   o O . O @ + & 5 s.7.+.$.} > U y : > u g.u : & @ . X + $ * V R & + . X O + * 5 E y 3 * $ + # & Z e.k.a.4.y 2 f g.K H 2 # + . o O ",
"* 2 0 N.u * + o X . @ @   o @ $ r W.(.7.v.2 & * F N d =.7.5 * $ O @ O . @ $ b #.u * + @ @ : r 1.d 3 : @ O X X # & : 2 oXD.=.p.p.y : 1 # + . O @ o ",
"@ 1 : a.l : # O O o . X . o + & 5 ^.I.z 3 1 # @ , 8.+.k.u 1 # O . o + . O @ $ 0 >.: @ # $ : y g.y > # $ @ o X o + & : j d ).M < * # @ O . + # # . ",
"o + $ p g.5 : # + O . X O @ $ 2 R >.2 5 & @ o o $ & T 4.2 # O .   . X   X + # 2 Z.2 : 2 2 y ;.f * # o + # $ . . O O $ > 2 p.h 3 & + O X   o * & O ",
"@ & : 2 p.k.A 2 & $ O o $ & 2 z { > 2 5 # o . . @ $ q ;.2 $ @ + O . . o + # * 2 Z.h D ).Z.g.u * + o X . . O $ o X @ * y u p.z 2 & @ @ + . . O # @ ",
"* y g { y > c g.3 2 : # > < <...3 $ & 2 3 # O O $ & 4 1.l 2 * # + O O # : 2 y >...} > 4 3 A E 2 $ @ X X O X O + # : u v.1.y f ..t > : & + o . o + ",
"f p.@.2 * # * y u.7.y 2 z A s.5 $ o + # * 4 * @ < : 1.R g.U 5 2 * @ * < h #.p.z 3 * @ # & > E | r * @ @ + O @ & 2 ..N.y y : * 3 { T ! 3 * # & * > ",
"<.< < : # @ = y ` 4.m.z n.p.d * O . X o @ : h < W !.B.q I k.j.! 3 * 2 ..E.( < 2 * # X + @ & : 7.j 2 & + + @ * 3 J E.4 > : @ $ > > G.<.#.3 < y U M.",
":.2 > $ O . + & 2 4 q Z.j.b.u & O . . o O @ : } 1.q y 3 5 M <.p.V 3 #.B.< 2 r > $ @ X O + $ > D ..V 3 : & : 5 4.N.3 3 * * @ O & : 5 g >.E y +.] D.",
"2 # @ O + . o + $ : > y ,.u.J 2 # + o + # 1 p p.5 > > & & 2 u h !.B.f.{ 2 * & @ o . . X o + # & 3 E $.y 5 z f.h 2 > & @ @ X o + @ * > 5 u.V.g.l.r ",
"@ X . . + X . o + + & 3 e I ] 3 * @ @ + $ 1 y 4.p * & O o # * 2 < 0.g.y $ + X X $ + . . X O # & 2 N =.d 4 V n.z 2 $ + X . . @ . o + # > t.S.y y * ",
"@ o o   . $ X . o + : & 3 < g.A 3 * $ & > u Z.y * $ @ + . + @ : 2 e.x.5 & + O . . o o + @ # + O & 2 y !.V.M.z 2 # + X O + o o . o # & 3 M.l : 1 # ",
"$ @ @ . X @ + + $ $ + + & : 5 p.x y 3 2 A B.u * + o . O . O @ # > q.1.S 2 $ @ o o o # 2 2 o + @ # & > B.y u D f & + . + + & + o @ : 2 z -.2 $ @ X ",
"> # @ o + . # @ O X . o + * 2 D ~.Z.) >.t.u : @ o O O +   . X o $ 2 i >.A > & @ # & > @ # .   . O & 4 ] > 2 : F 2 $ o X . O # @ & s 4 s.u * O O . ",
"u > > # O o @ X . . o @ : > c g.3 * 2 e &.U 2 & O o X . X . X o @ & : r !.3 2 : y h # O O   o + $ > A y > * @ > D > # O o . X @ > t.D.x > @ o @ . ",
"Z. .~ 2 & @ O X O O # > u L u.u * @ $ : 1 o.:.r : + @ o O + + + $ > 5 f } V K B E * O     . + & 2 h !.> $ @ + # d A > # # O # > f B.H.r & O . X O ",
"_ D.n.4 > @ o o @ @ : 2 U 7.4.2 # o O @ & 5 4.R : : $ + @ # $ : > 5 V L T 7.XXY.T : + X . X @ : 2 D XX> * @ X @ * ! M : : # * 3 $.M.L.5 * + X o @ ",
"2 9.c...r * + @ & * 2 N M.|.l : @ X . o @ & 3 | f > < $ # * > > 5 { u.7.< > 4 x <.2 $ O + + : 3 N =.3 & @ o . o # > T r 3 : 2 N m.f.>.U 2 $ + O X ",
"$ > < ,.g.2 & * 3 2 W B.j j : + . + O X . + & 5 E 1.7.3 2 j G.t.!.A 5 * @ @ & 2 z y > * * : 3 l.<.2 & O o O X . O # 2 E +.5 4.] y > < =.Y > $ $ + ",
". $ $ > f -.r l Z.C.] 3 > 2 f $ O . X O @ X + * 3 J ) !.p.=.M y > * # + . X O $ : l.x y u l B.z 2 $ O . . X o . o @ * f g Z.h 2 * @ * > E >.5 5 * ",
". . o # : E g.g.u y > & @ $ 3 h & + o o X O @ & 2 H &.M.u 2 : & @ + X . . . X + & > } }.{.B.Y 2 # O . + O . . o # : y ] v.l > # @ O O @ : y *.7.u ",
"# o X O * y (.u > * $ @ o O @ * y * # + + $ : t { 4.N A y & # + . . o o . . O $ : y Z.y h 2 > U 2 & + X o . O + * l M.v.h 2 $ o O X X o # * y 5 -.",
". O @ $ 3 E +.> $ + o . + O O # * A > 2 > 3 j -.l 2 > 3 } 2 : $ O . . . X + @ > l m.z 3 2 * $ d E 2 * # @ O + $ 3 M.z : * # O . . o @ O o @ * : d ",
"O $ & 2 F g.a $ + o . O O . . O $ 4 S U { ].*.y : & $ $ > T N y & + O O $ 1 > x k.y : @ # O O $ d ] 5 : * # $ > z V.< # @ . @ o X X O O . o # # : ",
"+ & : d >.K 3 $ + o . o + O X o + $ 5 ] C.H.O.y : @ @ $ : / +.B > & @ @ * 4 q v.n 4 & # @ o o $ * n ! < 4 : & 3 +.c.: @ + o . o @ X X X o O # & > ",
"& > 3 V k.3 & @ + o . o O + O + $ < u _ W.u 2 & + O o O # 2 $.$.f : & $ 2 j M g.3 * @ O O . . O $ > E } H 2 > y >.l $ + + X . X # o . . + # > > d ",
"u Y |.).y * O X o # $ X . O @ $ 2 f M.|.f > $ O O X . . O $ * > y R 3 3 7.C.S.3 * + O . . o o o + # > h N 1.1.....y : # # + . O + @ + o # > l h u.",
"p.(.V t : + . X o o o o O + # > l N.h g > # O . X O O . . o O # : { U (.t.e r & + o . . . o $ o . @ * 2 4 F.u 2 <.>.r > > & @ o . . o @ > y c.*.u ",
"3 #.A.z > $ O . O . . O # & * y >.{ h y : $ o o . X o + . o @ $ : N (.y 5.Q 3 & + . + # # . . o @ * 5 ! 4.s : # : f u.] o.r : # O @ # * y >.u u : ",
"* y L N.3 & @ O + o . # : 2 y ..z > f R $.> $ @ o . . . o # $ : y *.y : 4 U ] 3 $ + . O O X + & > 5 { 6.h 2 # O # : 3 A.p.U 2 # + # & 2 =.l > > # ",
"+ * > N <.3 * + o o # * l ..!.z > * * n >.h 2 & @ + o O @ > y u u.y : $ * 2 M { 2 $ O X o O & 2 u M.D 2 2 $ O . O # * 3 r 4.D 5 : p 5 g.z > $ # o ",
"O + # : l B.u > # @ : r f.U.c : # o + & : } *.y > & & & 2 E  Xg.3 * # O + # : g L : & $ # * 3 z 4.d > * & @ o . . O @ * * p =.Y z s.b.h > & O + . ",
"o X O $ 2 L a.j : > y S.S.R.u 1 @ o O # & * 7.:.d 3 2 < 4 (.N.7.5 & + o O + & : >.> : : : 5 4 Z.T u > @ % O o + . o . $ & 2 3 B.!.5 q 2 & @ O o o ",
"X . o @ & j 7.#.4 2 N N.l j > @ O o . O + $ > U | b b 4 1.h y 2 & + O . o o O & 2 A q 2 2 0 F.z r * # + o . + @ . . X + # & 2 N.p y p $ O o . . X ",
". o o o # : l B.!.t.B.l > * @ o @ . o . o O & 2 U /.(.>.f > & # o . X X O + O O $ 2 <.g.j.M.F 3 & + o   . . O $ . . o # & 2 y Z.y & * + X . + + X ",
"  @ # o + * y M.q 2 z E 2 2 & + . o @ @ o . O & 3 Z.M.z > # + o @ o . . . . X + + $ : l z !.u $ O .   . . O . . X o + > > 3 S 4.y & $ + X . O o . ",
". . . + & 5 1.D > * * y { Q r * # + o . o O . + : l.s.2 $ O o . O # + . O O . @ . O @ < < j.3 & O X . + +   . o + # : z h =.E F T 3 2 * # O o . O ",
"# O + & 2 <.D 2 & @ $ : l E 1.l > $ + o o O @ $ 5 <.=.: # + o o X X # o . . . O + # * u u B.l 2 $ @ + @ + . o @ & 2 u 1.6.u : : 3 u.g.z : # + o o ",
"+ $ * > { 4.5 & @ O o @ & : 5 <.{ 2 & $ + + & 2 D T z > # O o . + # . . o + + o @ * 3 c.g.E N.h 3 * @ O . + # * 3 A =.h h 3 * # * 5 4 A ..2 $ # + ",
"& 4 4 ) 1.5 & @ o . X X + # $ 2 T L 2 > * & 5 G S.N.l.h 2 & # O O o O . X o + # > u 6.t.G.: 4 4.M 4 : $ @ $ : f 7.*.2 & $ @ o + + * & > ] 5.< < $ ",
"* 4 g.p.M 2 = + O   . X O # & < J 4.4 3 : * y D I 9  .7.4 * $ O o X @ . . X + # > y >.= < : 2 2 4.H > * & * 2 f 4.5 > # # O . @ O # & : +...2 2 & ",
"y ..G.6.3 & + X . @ + . o O O $ : u =.$.s v g.+.2 > 2 S Y t 3 $ # o + o + @ * < z t.t : : # $ : 4 <.' 5 3 y E >.f > $ O O X X + . o O # 2 ..B.! y ",
"p.Z.I y & + X . O O + O + X . o $ > S  .Z.g.r : # # $ : z Z._ j : # o + # * 2 S p.3 * # $ O O # * 2 A b.k.W.F r : $ o X o O $ + o   . o & y q m.4.",
"5 7.n.g > # O + X   X @ . o X O # > f  .).3 * @ o o o # : f H.s.f > & $ : 2 <.k.3 * @ O O . O o @ @ > 5 u Z.y : @ O X   . . O # + . . O # 3 4 j.l ",
"& 2 n g.y : $ @ o X . . o o O # : u N.|.5 & O o O o . + & : 2 2 <.f > > d g m.r : + o . . . . . o o $ * 2 ,.z 2 & # O X . O O . o X o @ : l M.6.2 ",
"@ * * y u.y > $ + O . X + # $ > y <.q u * # o X & O X o + # $ * y <.+.Q g.N.f : # + O o + @ X @ O + : 4 y >.D >.y * # O + . o . o + # * r <.3 5 & ",
"o @ $ * u g.l > & # + @ * > 3 E g.J > * @ O o . o $ @ . o + + + * y ..,.w 5 : # @ o   . O # . o @ # 5 h L U > g <.u : @ # O . o @ & * 5 { U * * + ",
". . o @ * u u.F 3 < & * S [ =.z 3 { g 4 : $ o . X X . . o o @ # > A p.S.U W y < # O X o O o + # : 5 $.4.M : & : y =.z > > $ + # : y 5 ;.A : + + X ",
"@ O X . + & 2 N.g. .5 f =.E y * $ > E 6.8.3 & O X X + . O $ : 2 y >.y 4 4 L >.u 2 # o . . O $ 2 l G.n.> : # O @ * 2 u.*.<.y : 3 W a.u.h : # + + . ",
"@ o . o X @ & 2 M !.M.=.4 < : @ + $ : b v.U : @ o o + O $ 1 5 5 :.2 : : & < $.1.h * # + O # < d $.] > : * @ o o + & : J.n.D 4 h v.L.S.5 & + o X O ",
"O O O O . O @ 1 d %.[.T 6 : & + O # : 2 d ..5 & @ O X @ $ 4 T S.$.3 & @ # * 4 6.h > $ + @ $ 2 7.g.d > $ # O X o + $ < u j <.#.7.u.5 y * @ o . . O ",
"  O O . o . o # : ; B.2 $ + + . O . + $ * 3 ..y * # @ & 2 } L.S 2 $ + . X @ & 3 =.#.> * * 2 U 4.3 * # O o . X O . o @ * * u Z.M 3 & $ + X o O O . ",
"X . . X o o O @ : , s.* O O . o . . X O + $ > D A > > 2 <.f 3 < $ + . . . o + & > h S f y >.S 2 $ + o . . X   X o O X @ @ : >.> & + + . + . . . O "
};
