/* XPM */
static const char *gothic_floor_56[] = {
/* columns rows colors chars-per-pixel */
"56 56 171 2 ",
"   c #6E0100",
".  c #740101",
"X  c #7B0101",
"o  c #840101",
"O  c #8C0101",
"+  c #930101",
"@  c #9C0101",
"#  c #A30101",
"$  c #AC0101",
"%  c #B30202",
"&  c #BB0201",
"*  c #BD0900",
"=  c #B90409",
"-  c #C30201",
";  c #CB0301",
":  c #C30D00",
">  c #CD0B01",
",  c #C80108",
"<  c #D30401",
"1  c #DB0502",
"2  c #D40B01",
"3  c #DC0A02",
"4  c #D30308",
"5  c #DD030A",
"6  c #D30909",
"7  c #C61300",
"8  c #C81600",
"9  c #CC1A00",
"0  c #D31300",
"q  c #DD1300",
"w  c #D51C00",
"e  c #DB1D00",
"r  c #E30602",
"t  c #E90700",
"y  c #E40B02",
"u  c #EB0D02",
"i  c #EB0C0A",
"p  c #F10E01",
"a  c #F00F09",
"s  c #E41302",
"d  c #EC1202",
"f  c #E41A00",
"g  c #ED1B01",
"h  c #E71109",
"j  c #F21403",
"k  c #F31B02",
"l  c #F81E03",
"z  c #F91A08",
"x  c #DF2000",
"c  c #DE2A00",
"v  c #DD3100",
"b  c #E22400",
"n  c #EB2300",
"m  c #E62C00",
"M  c #ED2B02",
"N  c #EE2008",
"B  c #F52302",
"V  c #FA2305",
"C  c #F42B02",
"Z  c #F92C03",
"A  c #F2230A",
"S  c #E53400",
"D  c #EE3302",
"F  c #EC3C00",
"G  c #F63003",
"H  c #F33202",
"J  c #FB3707",
"K  c #FA3602",
"L  c #F33E07",
"P  c #F53D01",
"I  c #FA3B02",
"U  c #F53509",
"Y  c #FE330B",
"T  c #FC3F0B",
"R  c #E64501",
"E  c #EE4201",
"W  c #E54900",
"Q  c #EE4C00",
"!  c #EE4900",
"~  c #F34200",
"^  c #F74100",
"/  c #F64001",
"(  c #F54301",
")  c #FB4302",
"_  c #F44F00",
"`  c #F54B01",
"'  c #F84A01",
"]  c #F84C00",
"[  c #F94D01",
"{  c #F84F00",
"}  c #FA4F01",
"|  c #FD4E00",
" . c #FB4C02",
".. c #FF400F",
"X. c #FA400D",
"o. c #F74E0B",
"O. c #FD4A0B",
"+. c #EE5500",
"@. c #F65400",
"#. c #F95000",
"$. c #FB5100",
"%. c #FC5302",
"&. c #F95402",
"*. c #FC5700",
"=. c #FC5204",
"-. c #FE5105",
";. c #FB5402",
":. c #F65C00",
">. c #F55B00",
",. c #F95800",
"<. c #FB5A02",
"1. c #FC5F00",
"2. c #FE5D05",
"3. c #FC5B02",
"4. c #FC550A",
"5. c #FF5C0B",
"6. c #FF4210",
"7. c #FF4F12",
"8. c #FF5210",
"9. c #FF5D14",
"0. c #FF5D12",
"q. c #F46000",
"w. c #F66400",
"e. c #FE6100",
"r. c #FE6102",
"t. c #FA6700",
"y. c #FF6702",
"u. c #FB6301",
"i. c #F56C00",
"p. c #FC6B00",
"a. c #FA6B05",
"s. c #FD6B04",
"d. c #FB6C02",
"f. c #FF6308",
"g. c #FF670A",
"h. c #FF650D",
"j. c #FF640B",
"k. c #FF6E09",
"l. c #FE6C09",
"z. c #FF6A0D",
"x. c #FF6D0B",
"c. c #F67300",
"v. c #FA7500",
"b. c #FF7304",
"n. c #FF7307",
"m. c #FC7302",
"M. c #F47F00",
"N. c #F97E00",
"B. c #FF7E02",
"V. c #FC7C01",
"C. c #FC7C02",
"Z. c #FF720E",
"A. c #FF750C",
"S. c #FF7D0C",
"D. c #FF6212",
"F. c #FF6119",
"G. c #FF7512",
"H. c #FF7A13",
"J. c #FF7C11",
"K. c #F58500",
"L. c #FC8301",
"P. c #FC8B00",
"I. c #FE8A01",
"U. c #FC8B02",
"Y. c #FF830B",
"T. c #FF8C0E",
"R. c #FD9204",
"E. c #FF9908",
"W. c #FF8314",
"Q. c #FF8A11",
"!. c #FF9B11",
/* pixels */
"X + % 1 q.s % $ $ O X . + O O # ; Z Z.; # o . . o o # - t M.r # . . . o X + $ ; d 1.%.1 % # + $ Z e.B 2 @ o . . ",
"+ ; B I.d & O # g $ + . o X o $ - k b.1 @ O o O @ $ - u <.a.V $ + o . O + $ < B I.d < $ O X @ O & Z p.u % @ O X ",
"- A =.y - @ o O + d y # + @ % 2 k &.t.9.; @ $ & < d [ / ; i B.2 & # + $ < y ' <.j ; $ O o . + X # < v.[ k 1 ; $ ",
"k.N.t - # O o X X # < g - 1 f.[ j ; ; :.L - ; h.=.| 2 & @ & 3 B.q ; & 1 &.e.l 2 C & + . . @ . + ; / ~ 2 g s.d 3 ",
"1 *.d ; # o X . O o # ; y.g.y ; % + @ & z.S _ 3 2 - # X O + - y &.u 3 k.[ y - $ B < # O X o O & n J 1 % $ ; 2.N.",
"$ ; ..b.> % + + . $ y H.H u - $ + o O # 2 Q ; - % + o o O . + - g E.Q.Z 1 & @ o $ n d % @ $ - F.G < % O o + - t ",
"o + & 9 A.2 - $ = > q 1.g ; $ o X o % 5 !.M & + o . @ o o + @ < C B.u 1 % + X . o @ $ k ; - 3 ! 2 # o + . X . + ",
". . o + 6 v y.C d T.w ; # O o # O @ - x k.; + . . . O X + @ - O.p.C C - @ X @ X . O @ & ; t.Y.g $ + X X O o . o ",
"@ O . o o % 1 c v.y $ O o + o o # % 3 4.4.3 % @ O O o + $ - r S ; % I u & @ O X + % ; y ( 3 - O.1 - # + . X O # ",
"o % . . . @ & 4.y & + . . O . + % n y % n *.< - $ + $ ; y C s.3 % @ & g P C & # & 3 K 5.< $ # 2 2.j 1 & $ @ & 2 ",
". O o . O % 3 c.2 # o X + O O & s y $ o % s s.j < ; 3 v.u.G 1 % + O @ % t P &.; u *.k ; # O o # ; I e.d < ; u B ",
". . O @ % 1 s.&.n 3 % + . o % s $ + X . + % j *.n ' ( V.2 - # O % $ o O # - y Y.2.y - + o . . X @ & 3 O.B p v.B ",
"+ o + % 1 2.1 - H M 1 & # # 3 # O . . . o @ ; k P.P d ; $ + O . + o o o O @ ; h.r - $ @ o O . O . + = 1 e.4.3 & ",
"& # & 2 N.u % + % u i.t ; < # O O + O O o # 3 u.k 1 1 y - # o O $ . . O . + - U m.d 2 % $ + o . @ % 4 B *.r % @ ",
"y < 3 1.B - + . o % 1 f.z & @ # & $ # O + - Z E 1 % # ; I ; + . . o . X # - h ,.1 &.*.d ; % @ o # ; *.w.y & O o ",
"1.P.| ) < @ . O X O $ ; P &.2 4 ) y P - - s W.y % O + # ; ( ; O . o O % 2 n S.< $ - 3 ) L.Z.2 - h d.C 1 & + X o ",
"& 2 b.u & + X . @   + # 3 L.2.5.; & & J y y.0 & O @ O . @ : %.- + @ & r u.s 1 @ . o @ % & ; A.y.f.y - # + X + O ",
"X # y u.r & + o . + $ ; ( _ 3 & @ O o % s.0 $ X . . .   X @ 7 W ; ; r ' d & @ # $ o . o O $ 6 J.1 % + o   X $ o ",
"+ % 3 e.i.y % + X # ; k ^ ; y $ o . o @ e.2 % @ O . . o + % 2 b.B L.u.d & + o . . # o . @ & y A.< & # + . . # # ",
"& y ' y 4 G.1 & # - =.[ 1 $ - 2 # O O $ 2 [ < % + O O # - r 1./ ; 1 Z I < $ O X + X + # - y h.3 | r ; $ + o o + ",
"d t.1 & @ 5 d.u < y p.r $ o # % 3 % # , Y.y._ 1 & @ & ; d t.g - # % ; I &.2 % @ o + % 2 | v.y & 1 O.) 1 & # = ; ",
"*.< % O . # < m.n D 3 & O . o O & s ; C.0 < 7.e.2 - 1 [ U.1 , @ o + $ ; C d ; # # & 3 ( L.3 % + = ; y  .1 < Z v.",
"< # O X . O $ ; f b.2 % + X o O # ; f.M > $ - u 1.Y.b.k < % + X X X + % 6 A 3 ; ; b 5.u ; % O X O # - g [ j.i.y ",
"+ .   o + X o # ; < s.V 3 % # - y J.3 & # o O % - 2 d.< @ o . # O + # + @ & g S.v.n 2 % @ o o O O . @ ; v.f < $ ",
"$ + X . # O # @ O % 3 t.k y 4 V v.d & + X o . @ % 4 q.A % @ X o @ ; o + + # - m.i P u % + . # % o @ - g &.1 # o ",
"; # o + X % + X o + < Z L.v.( 1.u - @ o O O . o @ & 2 j.; = @ $ ; % . . . + 1 ^ < - C < $ X o # # & u y.u % + . ",
"u ; # O X + . X + & u d.3 & ;  .G 2 $ O . . . o + @ - W.t 1 , B $ O . o + % k u & @ ; C ; # X o @ ; t.l ; @ + . ",
"V.&.2 % @ o o # ; u t.y & + # - 3 2.t % O X O @ $ ; y ) _ L.p.* O . . + % < L.; # O @ y B - @ + ; d p.r $ o . + ",
"2 %.I 1 % O $ 4 k C.d - @ X . @ & 3 @.y % # % ; 1 u u.u ; < l > # o O = 1 M 3 $ o . o $ g O.- ; l m.=.C < $ O X ",
"$ ; *.y.1 $ 1 Z v.u - @ X + O . + & y 5.1 < h t.N.z 1 & @ % < b ; & ; 1 *.:.$ O O X . O # q s M ! 3 < &.K ; $ + ",
". # < p @.t v.P r - s $ O . . @ X + & s K.d.,.u < & $ O . O $ v ` 3 s b.g < @ . o o . X @ & m.@.1 & $ ; P &.r = ",
"@ X O % y v.y ; $ + $ g & + + o + # - 9 f s ; $ + + @ # . o @ ; p.S.e H 2 & @ + X O o % < H G ; @ $ o + - 1 5.g ",
". O $ 1 / S $ O X + O # & Z 4 - 1 d 1.f ; ' ; $ O . . . o @ ; z.q.s ; % M T < # + O $ 2 B.e $ + . . + + o # - q ",
"O $ < Z d.< + . . O . o @ % A ) R.&.u & @ ; ) r % + O O % - F m & + O O $ 5 ' - # # - k c.- O o o O . O . o # ; ",
"% < B p.1 % + X . + O + $ ; y B.u < % + o @ ; P g - $ $ 2 d D.& @ O . . + $ ; P < ; y &.k # o . . # X . + # ; u ",
"u K m.y % O o $ o . @ $ < d s.j ; $ o O   o # - r J 1 2 k p.3 @ O . o . o + $ g u.<.[ [ y - @ . o + @ o @ ; j e.",
"t.L.y - + . o o X O # ; j A.d < # O . X o . X @ - ~ G I.j 1 % o . . X # o . @ 3 L.d < *.@.y - # o . . + - y *.u ",
"1 ' Z 1 $ o X   o $ 2 s *.| g ; & # o . + O O $ 2 B I.y ' y $ . O @ . . + % 4 T u - # - d s.b 4 @ O @ % y <.d & ",
"% 1 *.4.1 % + X = h K.C 1 ; 3 ' 1 4 % + o + - i g.( y - 1 [ 3 $ X O O # ; y f.) < # o $ - 5 ' 6.; & 3 E 1.j ; @ ",
"O # - j m.y # # 1 G.j , @ o + - ^ &.y & $ & f w.r & # o @ - b e % $ % 1 l e.3 & @ o . . O # , U J Z d.j < $ O . ",
"o o # ; j 5.; ; ! b , # o O X @ % < *.u 1 < h.5 $ + o . X @ % C 1 ; y c._ 1 & O X O + . . O @ ; v.L.u ; # O . o ",
". . o $ ; H L.u.h.< $ o + . . . O % < b.d.1.< # O . . o O O + & e.w.V.C 1 % + . . + $ . . O % 2 v.y - # o X + X ",
". @ o O % e F <  .< % + . o @ O . + % 5.b s $ o # O . . . . + # - j L.y $ O . . o . . X o $ 3 B 1.1 $ + X . + . ",
". . + & y k.2 % 1 &.y & # + . . O . # R ; - + . o # + . + . O o @ ; m.1 % O X + o . o + $ <  .' t I 3 - # + X o ",
"@ O % < >.V & + - j u.j ; # + . o @ & _ & $ O . X . # X . . # + & d m.k 2 % O + . o @ & 4 e y ; % r e.B ; # O o ",
"+ $ 1 &.0.4 + X O % y 0.,.1 % + + & 2 Z.; & O . o # . . X + o % 3 q.U H.O.2 % O o # - 3 <.D - # o $ r k u.< $ O ",
"1 ^ L.1 - @ O   . o # & ; 1.< - - q O.; m q - # + . # . o + & A f.; & < < y.~ - % 2 y u.r - + o $ X + $ 2 k.< ; ",
"4.C.u & @ o o # o @ X @ % < <.k.p.e - # = 8 0 < $ + X O # 2 P 0 ; # O + % - 3 0 2 y.O.h = + O o + . X O % 3 A.T ",
"y =.k ; # O . . @ . o O # ; j v.1 & + o O % S 1.d ; % # ; m o.& @ O . O + @ $ q J.3 - @ + . . X = O . o # 1 m.d ",
"% 1 *.r ; # o X . o O # - u m.1 % + + o . + % 2 2.p ; - d c.3 @ o . . . X X + % 4.g < % # O o + o o . + - d  .< ",
"# & p 1.y - @ O X + % < u 1.u - # X . % X + + & y ,.' N.p.u % X . O @ o @ + & 1 D.C %.r - $ O . . O @ & y <.r % ",
". X # ; P z.- $ & q H 2.z.O.1 & @ X . o O X . + & y c.Z y ; $ . . o O o @ & r ' I ; 2 j.@.B - # + ; y U y.3 $ O ",
"+ o   + = F t.u j &.3 - % - ~ X.< % + X + o # < y @.y & P *.h # O . O $ ; d p.; $ O @ & 5 u.O.< - Y f.M - # + . ",
"@ . O . O - d p.[ 2 $ + O # & ) &.r % @ @ @ - j <.5 % + & i h.- $ @ $ < j d.u $ O o X + # ; g 8.u +.i - # o . + ",
"  + . o . @ - i.2 $ + . + . @ & 3 [ t % + - 2 D 2 $ + . + % < S ; = < C 1.3 % O . X O . o @ - f N.< % + . o O . ",
". . o X . + & t.- + X X . X X + $ ; K N - < 2.; $ + .   . + & U C u <.B < $ o . o   X o o o @ - 2.$ + X + . . O "
};
