/* XPM */
static const char *gothic_duck_13[] = {
/* columns rows colors chars-per-pixel */
"13 13 146 2 ",
"   c black",
".  c #010101",
"X  c #000103",
"o  c #020401",
"O  c #070707",
"+  c #050908",
"@  c #110D0E",
"#  c #101010",
"$  c #111111",
"%  c #1E1518",
"&  c gray11",
"*  c #1D1D1D",
"=  c #360000",
"-  c #21161A",
";  c gray13",
":  c gray15",
">  c #272727",
",  c #282828",
"<  c #2A2A2A",
"1  c #2A2A2C",
"2  c gray19",
"3  c #313131",
"4  c #323232",
"5  c gray20",
"6  c #343434",
"7  c #373737",
"8  c gray22",
"9  c #3A3A3A",
"0  c #580404",
"q  c #690100",
"w  c #730301",
"e  c #740100",
"r  c #760000",
"t  c #770002",
"y  c #780001",
"u  c #790102",
"i  c #7D0000",
"p  c #7D0100",
"a  c #7E0000",
"s  c #7E0001",
"d  c #7F0102",
"f  c #7E0003",
"g  c #7E0202",
"h  c #820201",
"j  c #870102",
"k  c #870203",
"l  c #800205",
"z  c #830304",
"x  c #840204",
"c  c #8A0000",
"v  c #8B0101",
"b  c #8D0100",
"n  c #8C0003",
"m  c #910000",
"M  c #920000",
"N  c #920001",
"B  c #900201",
"V  c #940000",
"C  c #940001",
"Z  c #9A0000",
"A  c #9D0000",
"S  c #9E0000",
"D  c #9E0301",
"F  c #9B0205",
"G  c #921B00",
"H  c #9B0415",
"J  c #A40000",
"K  c #A60304",
"L  c #A90000",
"P  c #AA0100",
"I  c #AB0101",
"U  c #AC0000",
"Y  c #AE0000",
"T  c #AE0200",
"R  c #AC0202",
"E  c #B20000",
"W  c #B50100",
"Q  c #B20403",
"!  c #BB0000",
"~  c #BE0100",
"^  c #BF0101",
"/  c #BA0401",
"(  c #BA0204",
")  c #BC0507",
"_  c #A00010",
"`  c #9F2100",
"'  c #C30100",
"]  c #C00300",
"[  c #C60000",
"{  c #C10402",
"}  c #C00403",
"|  c #C50400",
" . c #C70601",
".. c #C40403",
"X. c #C30505",
"o. c #C70704",
"O. c #CA0401",
"+. c #CD0400",
"@. c #CF0400",
"#. c #CD0601",
"$. c #C80606",
"%. c #C40800",
"&. c #CF0906",
"*. c #D00500",
"=. c #D10700",
"-. c #D30700",
";. c #D30A00",
":. c #D20902",
">. c #D70802",
",. c #D50D00",
"<. c #D70C06",
"1. c #D90801",
"2. c #DD0A00",
"3. c #D80C03",
"4. c #D10B08",
"5. c #C2100C",
"6. c #DC1200",
"7. c #DE1B00",
"8. c #D91509",
"9. c #E10D02",
"0. c #E21500",
"q. c #E21600",
"w. c #E41800",
"e. c #F33C02",
"r. c #AA4413",
"t. c #E04C02",
"y. c #F14000",
"u. c #F74D02",
"i. c #F35702",
"p. c #F55501",
"a. c #F55F00",
"s. c #FF5A1C",
"d. c #F76600",
"f. c #F76405",
"g. c #F86201",
"h. c #F96400",
"j. c #FB6703",
"k. c #F66804",
"l. c #F76C05",
"z. c #F86E01",
"x. c #F67500",
"c. c #FC7603",
"v. c #FF7E00",
"b. c #FB8902",
"n. c #FF8C0A",
"m. c #8F887E",
/* pixels */
"x.B 7.4.d.) ..~ =.>.u &.{ ",
"I ( f.Q <.J s w.I u ..Z n ",
"B 0.S ! S +.: Y ~ b.k s.2.",
"n.t B k._ 5 6 6 H Y Y g.n ",
"i.3.l.p.: 5 5 5 ; t o.' s ",
"q t + 5.5   5   5 r.o t +.",
"a.B - $ * ` t.G * @ % 0.V ",
"I { s 8 5 O $ O 5 8 O.u { ",
";.s E < 6 5 m.6 5 1 [ s h.",
"F 1.X.= < 6 6 6 : 0 h 6.z ",
"' S ;.s 8.      $.s h./ K ",
"z.s v =.v =...V w c.V t e.",
"k 9.+.,.x y.Y W u.k %.v.z "
};
