/* XPM */
static const char *normal_floor_11[] = {
/* columns rows colors chars-per-pixel */
"11 11 93 2 ",
"   c #0DB4FB",
".  c #0BB1FD",
"X  c #08B2FD",
"o  c #0DB3FD",
"O  c #0FB2FD",
"+  c #0CB4FD",
"@  c #0EB4FE",
"#  c #0EB4FF",
"$  c #0FBBFB",
"%  c #17BAF5",
"&  c #14B7FA",
"*  c #10B3FE",
"=  c #10B3FF",
"-  c #10B4FC",
";  c #11B5FC",
":  c #11B5FD",
">  c #13B4FC",
",  c #10B7FD",
"<  c #12B4FF",
"1  c #12B6FE",
"2  c #13B7FE",
"3  c #13B6FF",
"4  c #14B7FC",
"5  c #14B6FE",
"6  c #15B7FF",
"7  c #13B8FA",
"8  c #17BBFA",
"9  c #16BBFB",
"0  c #12BBFE",
"q  c #15B8FD",
"w  c #14B9FD",
"e  c #16B9FC",
"r  c #16BBFD",
"t  c #14B8FF",
"y  c #16B8FF",
"u  c #15BAFE",
"i  c #14BBFF",
"p  c #16BBFF",
"a  c #15BDFE",
"s  c #15BCFF",
"d  c #17BCFE",
"f  c #17BCFF",
"g  c #1FBFF9",
"h  c #1EBEFA",
"j  c #18B9FD",
"k  c #19BBFC",
"l  c #18BBFE",
"z  c #1ABBFF",
"x  c #19BDFC",
"c  c #18BEFC",
"v  c #19BFFD",
"b  c #19BCFF",
"n  c #18BDFF",
"m  c #1ABDFE",
"M  c #19BEFE",
"N  c #1BBFFE",
"B  c #1BBEFF",
"V  c #1CBEFC",
"C  c #1DBFFD",
"Z  c #1DBCFE",
"A  c #1FBEFF",
"S  c #20BFF9",
"D  c #1FC2FB",
"F  c #1CC0FD",
"G  c #1DC1FF",
"H  c #1FC4FE",
"J  c #24C0F9",
"K  c #24C0FB",
"L  c #22C6FB",
"P  c #20C3FE",
"I  c #22C2FE",
"U  c #23C3FF",
"Y  c #24C3FD",
"T  c #24C4FF",
"R  c #2BC6FE",
"E  c #2BC7FF",
"W  c #2DC7FD",
"Q  c #2EC8FC",
"!  c #2DCAFF",
"~  c #2CCBFF",
"^  c #31CEFB",
"/  c #32C9FE",
"(  c #33C9FE",
")  c #35CDFF",
"_  c #36CCFE",
"`  c #38CCFC",
"'  c #57CFF4",
"]  c #41D2FF",
"[  c #4AD1FF",
"{  c #58D9F9",
"}  c #5FDDFF",
"|  c #76DFFD",
" . c #77E0FD",
/* pixels */
"d ^ D W 8 J q q q q q ",
", , , _ q , | Q , , h ",
"  q b b q ' d G b q q ",
"  X P q b h 4 0 E b P ",
"q q 7 4 ( D * * P q , ",
"4 b # d # E d # b A o ",
"G & * j q } T A Y ( Q ",
"d L # , j J b  .A * j ",
", q 8 b 8 Q [ q F ] X ",
"q 4 $ S , q q % 8 j , ",
"_ q q b ` A o { q o H "
};
