/* XPM */
static const char *normal_floor_73[] = {
/* columns rows colors chars-per-pixel */
"73 73 171 2 ",
"   c #17B6EE",
".  c #1AB5EB",
"X  c #1ABFEF",
"o  c #0DAFFA",
"O  c #0FB2F7",
"+  c #0DB3FD",
"@  c #0EBAFC",
"#  c #13B6F6",
"$  c #1AB7F3",
"%  c #15B9F6",
"&  c #1CBBF5",
"*  c #12B5FD",
"=  c #1AB6FB",
"-  c #15BAFD",
";  c #1ABDFD",
":  c #21B3EE",
">  c #23B9EC",
",  c #2FBDEE",
"<  c #24BFF4",
"1  c #2BBEF4",
"2  c #21BEFC",
"3  c #29BFFA",
"4  c #0DC3FF",
"5  c #16C0F3",
"6  c #1CC1F5",
"7  c #16C1FD",
"8  c #1DC1FE",
"9  c #1CC9FE",
"0  c #23C0ED",
"q  c #29C2EE",
"w  c #35C4EE",
"e  c #25C2F5",
"r  c #2CC3F5",
"t  c #2DCAF7",
"y  c #23C3FD",
"u  c #2AC6FD",
"i  c #25C9FE",
"p  c #2CC9FE",
"a  c #33C3F4",
"s  c #3CC6F4",
"d  c #35C9F6",
"f  c #3AC9F6",
"g  c #30C7FE",
"h  c #36C7FE",
"j  c #32C7FB",
"k  c #39C5FA",
"l  c #32CAFB",
"z  c #37CEFB",
"x  c #30CAFE",
"c  c #33CAFF",
"v  c #37CAFF",
"b  c #31CCFF",
"n  c #32CCFF",
"m  c #33CDFF",
"M  c #34CCFD",
"N  c #34CCFE",
"B  c #35CCFF",
"V  c #37CDFF",
"C  c #37CEFF",
"Z  c #33CBFE",
"A  c #3CCDF9",
"S  c #3ECFFB",
"D  c #38CAFD",
"F  c #39CDFD",
"G  c #3ECFFC",
"H  c #3ACDFE",
"J  c #36D0FF",
"K  c #33D0FF",
"L  c #3ED3FE",
"P  c #3CD1FE",
"I  c #45C3EB",
"U  c #4AC5EF",
"Y  c #43C7F7",
"T  c #43CBF3",
"R  c #43CCF4",
"E  c #49CAF6",
"W  c #41CAF8",
"Q  c #40CEFE",
"!  c #44CEFE",
"~  c #49CDFC",
"^  c #53CEF6",
"/  c #5ACEF6",
"(  c #53CEF8",
")  c #46D0F7",
"_  c #41D2FF",
"`  c #44D1FF",
"'  c #46D0FE",
"]  c #46D3FF",
"[  c #44D2FF",
"{  c #4BD3FB",
"}  c #4FD0FA",
"|  c #4AD1FE",
" . c #49D2FF",
".. c #4CD3FF",
"X. c #49D5FF",
"o. c #4BD5FF",
"O. c #48D6FF",
"+. c #4CD4FE",
"@. c #47D9FF",
"#. c #4FDCFF",
"$. c #4CDAFF",
"%. c #5ED5F7",
"&. c #53D4FB",
"*. c #57D5FE",
"=. c #55D6FF",
"-. c #54D4FD",
";. c #5FD5FB",
":. c #5BD6FD",
">. c #53D8FF",
",. c #53DAFF",
"<. c #58DBFF",
"1. c #5DDCFF",
"2. c #5FDEFF",
"3. c #5CDBFE",
"4. c #73D7EF",
"5. c #61CFF4",
"6. c #63D2F4",
"7. c #63D9F3",
"8. c #6BD8F7",
"9. c #6EDAF7",
"0. c #61D7FD",
"q. c #63D6FB",
"w. c #68D5FB",
"e. c #62DDFF",
"r. c #64DBFD",
"t. c #6DDCFA",
"y. c #6ADCFE",
"u. c #72D7F6",
"i. c #70DAF4",
"p. c #7ADCF7",
"a. c #70D6FC",
"s. c #70DBFB",
"d. c #73DDFD",
"f. c #7BDDFD",
"g. c #5CE0FF",
"h. c #63E2FF",
"j. c #6FE5FF",
"k. c #6DE2FF",
"l. c #63E8FF",
"z. c #68E8FF",
"x. c #74E3FF",
"c. c #79E1FC",
"v. c #7EE2FC",
"b. c #7CE3FE",
"n. c #75E9FF",
"m. c #7BECFF",
"M. c #7CF2FF",
"N. c #84DFFD",
"B. c #8CDFFC",
"V. c #95DFFA",
"C. c #87E4F6",
"Z. c #8AE0F7",
"A. c #81E4FF",
"S. c #85E3FE",
"D. c #88E3FE",
"F. c #8AE7FF",
"G. c #8CE4FD",
"H. c #85E9FF",
"J. c #83EBFF",
"K. c #8BEAFF",
"L. c #93E3F6",
"P. c #96E6FD",
"I. c #92E5FD",
"U. c #9AE6FE",
"Y. c #91ECFF",
"T. c #94EFFF",
"R. c #98ECFF",
"E. c #9AEAFF",
"W. c #8FF5FF",
"Q. c #9FF2FF",
"!. c #A7EBFD",
/* pixels */
"- - - * + + - - - - - * * * - 8 u p ; - * ; 8 ; - + * * - - + - ; ; ; ; - - - * * * * * - ; u ; 8 - - - ; _ ; - * * * * * * * - ; ; 8 8 - - - - - ",
"- - ; y - - - - - - - y u ; * * - ; y h s.A 2 - - ; * * + + * - ; * * * - - - - - * * ; g y * % X.R.I.=.B y u { ; - - - * * - ; u p u & ;.y ; ; - ",
"; ; ; - y Q < ; ; B p y - y y x y y y - - - - - 8 y y - - - - - ; - - - ; y z A.8 - - u * + * * - ; u u 8 - - 8 F p ; ; ; y m & ; ; - - ; u p y 8 ",
"| Q.6 - ; y >.1.G B ; - = 3 | p 8 ; * + * - y t 8 - - 8 y - * - - ; @ . 8 j Y.y X.g - = o * * - - - - - - * * - - 8 8 H.<.D - - * - * + - - ; J B ",
"u y d t.; - - - * - * - ; ; ; - - ; ; * + * * - * * * * - 2 y ; ; - F.&.; ; ; - - - y N ; - + + * * * * + * - - - 8.9 2 y 8 ; - * + + + * * - ; ; ",
"8 y y m =.% * + + * + - - * ; D.b.l ; y - + + + * * - - ; ; ; 8 A c.L y ; ; = + * - - 8 u y - * * + - * * + * u e.y 2 y y y y ; ; # * + * - - 0.{ ",
"* * 8 8 & u B ` J y X.x.` ` e y r T 1.x y y 8 y p 1.#.y % y u 1 > ; y ; * * * - ; * + + * % y m B 8 - - - 8 ; y 8 ; % * * 8 ; ..B 8 ; ; B X.W 6 ; ",
"- ; ; - * - 8 u ! !.-.p 8 8 8 - * ; ; u *.;.b.c.B 8 - - * + - - * * - y ; ; 8 ; * + + + + - ; 8 u L T.y 8 ; 8 8 y y 8 8 8 8 D D b.%.u y H.; ; ; * ",
"- - * + + ; ; ; y B p y 8 - * + + + - - ; u ] e.B 8 - * + + * ; ; ; - - ; ; - * + + * - ; 8 ; - - - ; b.T 8 % * - 8 8 8 p Q N 8 y k.b.y.7 ; * * + ",
"* * * + + + - - * * % - * * - + + + + * - y F l 9 w x.p ; * o + * * ; - - * * - ; ; y H.r { y.8 ; y m 8 - ) r.; * + - & * - ; * - - % p J ; - - * ",
"* * * ; ; ; ; ; ; ; - * * * - * * * * - y y - - - 8 8 -.I.8 * + + + + + * - - - - i :.p ; ; 8 K.| g ; ; * ; 8 p - * + + * - * * * * - * ; N u - - ",
"; * ; - 8 ; - - ; p *.8 ; - - * ; y i y ; * + + * - ; 8 u <.& - * * O * - - - % u <.8 ; * - - - - * - ; 8 8 8 - ; ; ; - * + + * * + * - ; ; u F u ",
"* ; ; ; ; ; 8 B p y 8 8 E b.J l 8 - - * + * * * - - ; - - ; i N p ; & G p p y ; - - - * + + + + * * + + + - - 8 e.E.i ; ; - - - * * - - - + + - * ",
"+ * u y.E.t Q G ; - * - - * ; ; ; - + * - - ; ; - - + * - - - - * - * - ; - * * - * - - * * + * - - - - - 2 x r.p 6 ] f.z ; - - - - - * + + * + * ",
"8 F I._ y B ^ y - * + + + * * * + + + * - - - - * + o + * ; ; * + + - * * - - * * * + - - - ; 8 A j y y m G.~ y ; 8 ; y A a.i 6 ; - - - - ; - ; - ",
"o.& 8 8 * + * u u % - * + + + + + + - - - - - - - - * * - - 8 y ; - + + * 4 S.1.* - - - ; 8 y y ; ; m.x.% - - - * + * - ; 8 9 r G ; y ! p 8 - 8 L ",
"; = + + * * * * + = - - - - - - ; 8 <.b.J.k.n.; * & u N p ; ; - - - ; r *.> ; % Y 1.y - - - * * ; 8 ; 3 u ; * * ; 8 - 8 m u % - - & * - - - ; % % ",
"+ + + + + - ; - * * - y k y - - y x x y y 8 ,.v.F - - ; - + * - 8 u t.K.; ; + * 8 2 I.` r ; y y ; * * + * + * * - 8 H x ; * * * - - - + * - - - - ",
"* - - * + + * - - - - - y y u N p ; - - - y y p u.8 - - * + + * p p y - % * * + - 8 8 8 ; ; - - * + + + * - ; - - - - ; - - * * * * * ; - - - - - ",
"y - - - ; - - ; r w.x ; - - * - - * ; y * + + + @ * & 8 - * * * + + + * - ; 8 F y 8 + * - 8 ; ; - - - + + + + + * * - - - ; y ; * + + * - ; 8 y u ",
"| | d.J ; ; _ x.y - ; N f.x ; - - - + + + + * - - - - 8 8 ; - ; - * * - J N 6 - * * * * r U.0.y 8 - - - * + + - * - y N.D ; % u y * + ; ; u r.m | ",
"- - 8 x.%.B.6.r 8 ; - - 8 8 8 - - - % + + + - * + * * * 7 u G.T ; - ; t 8 - * * * - ; l x.y ] b.e - - * - - - - - t H.J d.w.2 - - ; ; $ p L.m 8 8 ",
"+ + * * - % y y ; + + + * * - - - y 8 F y - - * + * - y f.x 8 8 y w.m - - * * - ; ; r 8 ; - y u e :.F.o.p y.j d.l ; 8 * - ; e p ; >.y./ y y - + + ",
"+ + + + + * ; ; - + + * * ; 8 ; y i { X.` 8 7 - - ; y 3.m y + - ; y D X.2 - * * - - - - ; A u 8 - - y >.=.y 8 F u 8 - + + - ; 8 ; - ; y 8 8 - * + ",
"+ + + + - - - * * * * - 8 p i 6 t d.F.y N <.x 5 6 R k.8 ; * * + * - - - 8 8 - = - * + - B L ; - + * - - y p y 8 ; - * + + + - 8 x % * * * - 8 8 - ",
"- - - u d.k | l.8 8 ; 8 % - 8 * * ; - * 8 8 - * @ - * + + * - * o + + - - + * u 8 y p y - * + + * - ; u y - * - * * + * - y u y - x D ; - * * * - ",
"y x k.w.u 8 y R I.B 8 ; - - * * + * + * - 8 B *.A * - + + + + - * ; * + * - - * x.4.8 - + * * - y 8 - + * * * * * - ; p u y ; * * + - y y - * * - ",
",.<.u ; - * + - u <.h.y ; ; y F J y - * - * - ; e u p m u - - - * - * * * - =.y.` ; ; - - ; u y p u y y - * * - ; L <.h.1.m =.; - * - - - x ] i y ",
"8 - * * - - + - 8 y y A &.B y - * * - ; * + + + + - - y ; ; - ; ; ; - - k 7.8 * + - ; 8 ; p y - * - ; u u 8 ; u w.r.8 8 - - 8 ,.y % - - - ; 8 v.` ",
"y y ; - - ; 8 y y - - ; y _ y 8 - * + + + + + - - - - * * g N F p.f.p 6 *.y 8 * + + * - y - * + + * * - 8 R S.9.y 7 8 * * * @ = N u ; * - - - - y ",
"+ * ; - - - - * * * - y ; - * 8 y ; - * + - - y d.L ; - * ; ; y y y | ] y ; y u ; - * * * + + + + * - u p ; 8 y y 8 - * * + + * * * ; 8 - * * * * ",
"* + + + + + * * * + ; - - * + * * * 8 ; % n.J.T.m x.x.& - * * - 2 y ; ; - * * ; p >.k.R y ; * * # @.=.i - * * - ; u u y - + * + * * - - - ; - $ 8 ",
"x 8 - - - ; ; - - - ; - - - - m <...8 y.d.i - ; - - - y 0.G p u = - * * + + + * p u p - y u u N m & * + + + + + + - * - ; 8 8 * * * * - L p.;.u - ",
"y u B u y ; ; ; y Q p 8 - * - ; ; D b.x 8 ; - + + + ; ; - i 8 - * + + + * - 8 u p y - - ; y _ K.! & * + + + * * * + * - - 8 N D y & & m A.y - - - ",
"- - y u r K.6.3 - - * * * - - 8 8 ; ; y 8 - * * * * * + - - + + + + + ; y y - ; - - 8 m d.r ; ; ; r _ u - % - = ; * * * * + * 8 m <.d ; * * * + * ",
"y x B p 8 y y ; = * * - - y B 8 - * - % y 8 - * * + * - * + + - - - 2 8 8 8 x - 8 F r.>.- ; * * + - - 8 x u y ; ; 8 ; - - 8 ; 8 p y ; * + + + - ; ",
"u ; - - * ; 8 y y ; ; y ..l ; * + + + * * - 2 - * * - ; - + * ; 8 ` y - u B y 0.B N y - + + + * + + * + * - - ; % 8 F K.f.y ; 8 - ; ; + + + - - ; ",
"- - - * * - * ; u i P !.c.y - + * + + + * % - u p B y - ; ; p >._ x I r.y - * - ; y 8 y % + + + - ; * + + + - - u i.S.p J Z.i ; * * - - - - 8 D x ",
"- * * * - - * - L r 8 8 8 % >.y - * - ; y 8 ; y ; 7 1 r.K.| ; 8 ; - * # * * + + * - * - 2 F F ; - - - - ; - ; & # % - * - 7 $ , g ; * y g <.3 - - ",
"- ; ; ; * ; x H.y - - + = ; ; F 0.p i - - * + - ; ; ; y ; ; % * * * * + + * + - * * * + * ; 8 G u u X.B.U ; - * * * * + + * ; 8 8 y y y a % - - + ",
"* * * % ; y y - ; * * * * - - - u D y y y - * * * + - ; ; ; - * + * * * - - ; - ; 7 % * * * + - i Y.6.y B d.8 - * * * + - y y - - 8 8 - * * + + + ",
"; $.n.J.p - - * * * 2 ; * * * + - - * % % ; 8 8 - - - - ; ; * * + + * * - - i h.%.=.n.8 * y p @.k $ ; - - & . y y ; - ; % - + * * * * * - ; ; 8 8 ",
"0.F 8 y a ` - - ; ; * * - * * * - 8 8 ; ; - - - % ; y 8 ; - + + + + * 8 8 K :.F y 8 N b.^ p 8 * - * * + + + - - - x y - - ; 8 * + * - ; X.P.J y y ",
"p 8 8 8 8 o.( ; 8 ; * * - * + * + * 8 - - * - -   K.o...r ; + - - ; 8 u 1.1.u 8 ; * 8 y 1.H y - - ; * + + + + ; y ; - + + - y 8 - ; &.A.:.p k.:.2 ",
"+ + * + + - - ; u y - - - - - ; * * * * * ; _ V.{ 8 8 8 p q.y ; - - * - - * + + + - y 8 = * ; u y ; - - ; - * + * + * - - - - 8 n.w.y 8 - * - - u ",
"+ + + + + * * * - 7 p y ; ; i N.G.y ; - y -.F - ; ; * - - ; f.^ u y m ; + + + * 8 y ; - + * * ; u y ; ; ; ; - * - ; t I.>.; - x ; - - + + * * - - ",
"- - - - - * * * * + - 8 N r H.p y n.t y 2 8 - - - * * * * * * - 2 - * + + + * - - - - - + * * + * ; ; - 8 y 8 8 8 E H.p Q d.y ; * * * * - - ; - * ",
"8 p e.y ; ; ; 8 - - - - ; - - - - * * ; N y 8 - * * * + + + + * * * * * ; - ; p 0.F 8 - - - * + + + - 8 J E.r.t y 7 y - - * + ; x u y y y ; * * * ",
"8 8 8 :.:.~ / u u R.y - - - + + + * - - - ; m m % - * - * + * - + - 7 * y f d.~ y ; - - - - - - - * y =.N.p y 3.m 7 - * + + + + - y y * + + + * * ",
"* * ; ; e < 8 B r e q b.` ; * + + + - * + + * # - 8 * + * - ; y G G B e > ; y ; ; * ; 8 ; p <.y ..n.j % - - * - & t o.D y - * * * * - y ; ; - - * ",
"- - - - - x B ; * ; y y :.y ; - - * * + + - 8 - * + + * ; y 8 - - ; y y 8 8 * - * - + * * ; y 0.F y - * + + + * ; - - Q G y * - ; 8 y u w.u ; ; ; ",
"- ; ; u y ; - - * - - 8 - 8 _ p 8 - * - ; ; ; * * * * * ; ; * - + * * - - * * + + * + - ; y u y 8 y 8 ; * + * + + + * - - % u u u p m ; - >.y.^ ! ",
">.Q ! y % * - ; 8 ; * * * * - ; y y 8 u 1.y ; - - - L s.-.m @ * * * - - * * + + * ; * - * = + + + + * - ; - * ; - - - - * * * ; u ; * * - ; y y Q ",
"G ; - - - + * + + - - * * * * - - y F :.y y.u.8 y ..F ; - y y 8 y y - * - - - - y N l - * + + + + * * * + - ; y y y y ; - * * - * * * - y y y - - ",
"- - * - ; - + + + + ; - - * - - y F x ; 8 8 0.w.B y 8 - * - 8 =.I.! i * * - - ; B y i g - * * - y ; * * + + * - 8 J F.x ; * - + + * * y 8 ; * + * ",
"* * * + + - - * * * ; B & 8 8 e p 8 - - * - 8 G p - * + * ; X.x y L r.G ; - - - * - * * - ; ; y | N y ; * * = & s.n.m 1.b.0 < - - - 8 y - * ; ; * ",
"- - - - - - - - - - - - e &.^ ; - * * + + + - - % y p - * - - * * * * - u u y ; - - p k.W.p y ; % - - y 8 u | u ; - + * - @ E _ & ; * - * + + + + ",
"- ; p Z.u ; ; - - - ; B y ; - - ; ; ; * * + + + + + + - 8 - + * * + * + * * - 8 y d.D.9 % s.:.M y ; ; y y ; - - + * + + + * * ; p u ; ; - ; - u ` ",
"- N.I.u &._ y y p D D y - + - - ; y y y - - - - + * - ; - ; 8 % - - - - - - ; y S.p ; ; - - u G { ! y ; * * * - - * + ; * * + * ; y x ; 8 ; ; - % ",
"p.D 8 8 ; s.5.` ! D - - * - * + * + - ; p y - - - ; 8 8 * y G.u.u y ; ; y u A ` ; - * + + + * - - ; ; * + + * * ; ; * + + * * * * - G I...y y 7 8 ",
"y y - + + ; y ] u - * + * + + + + + + * ; i G 0.F p 8 8 y f.D u >.&.x - ; ; 8 - * + + - * + + - 8 - * * * - - - - 8 8 * * * + - 8 J G ; | s.` F p ",
"- + + + - 8 8 * y y ; * * * - + * - + + * ; ; 8 8 J w.S.k.J 8 ; 8 8 ! ] = - * * + + + * - 8 p L 8 * - % b.&.- ; * * ; 8 8 y % y _ x 8 - ; i z.y.y ",
"* * ; ; - * + + + - % y 8 @.m.8 - - ; ; ; ; 8 8 p L y ; ; * * + * + * - ; ; y p ; - - - * * + * - ; >.:.y y n.F - ; - - - - ; ; * * + + * * ; ; u ",
"; y - * + + + + + - - y 3.y 8 y.L y ; ; m A 8 x ; - - * y ; * * * + + + * + * ; B L 8 - - - * - ; H.1 ; ; ; ; y c.] 8 ; * * * * ; 8 - + + + * ; - ",
"; - + * * + - * * - p %.y 8 8 8 9.w.{ 8 8 % y * + + * ; - ; - * - - * * + - * * 8 y - - 8 g u - E , ; ; * * - 8 B I.y.A ; - + + * ; y # + * + * + ",
"x ,.o.y - - 8 p u y * - * + + + * - 8 p y * * + + + * + + - y B Q p 8 y _ ,.E 6 x >.; - * * ; - - * * * * * - 8 8 8 ; - ; y y ; - * - - 8 y >.u - ",
"8 ; p y.` 8 y b.T 8 - * * * * * - 8 8 - 8 8 * + + + + + * - * * 8 B r.0.f y - - - u r.i - ; 8 - + + + + + ; y y 8 - * * - y &.b.u y ; 8 p C.r.! 8 ",
"* ; ; y B A h.>.n.x.8 - * * % - y - * * + % e - * * * * + * * - ; % <.M.; ; ; + - - ; n.1 ; + + * * * - ; 8 - * - - - - y x.,.d J.r y y u - - - y ",
"* - 8 o.d.1 - * - - y X.m 8 8 * + - - 8 p H.s X j.y - - - ; 8 y y ; - - y ; * * + + + - - ; y y y y ; * + * * * * * y ! y - * * * ; 1.>.- - + + + ",
"- y ~ N y @ * * * - ; - - u - - - - y %.A 8 ; ; - w.| ; ; B u 2 = - * * ; p 8 - * * + + + * * ; y <.0.- - - - * * 8 u ; - - * + * - ; 8 g 8 - * + ",
"D G ; - - - * * * * * * - - - - 8 N N * - - * * - * l A w.d - * * * + + * - 8 u ; ; - * - ; y &.L.: m p._ ; 8 % y - - + * * * + + + * ; ; p D 8 8 ",
"- * * * * ; & * * * * * * * - y A 2 - - + + + + + * * ; y ; + + + + + + + * * - W Q 8 - ; y &.y ; ; - ; t :.F y - * + * + * * + + - ; ; ; ; u =.G ",
"- - - - * * * ; * * * * * - ; * * * - * - * + + + + + * * * - + + + - 8 * * * * * - 8 ; - - * - * + + + * - - ; ; 8 ; - * + + * * * - - ; * * - * "
};
