/* XPM */
static const char *normal_duck_93[] = {
/* columns rows colors chars-per-pixel */
"93 93 241 2 ",
"   c #010101",
".  c #0B0301",
"X  c #060801",
"o  c #0C0902",
"O  c #02030A",
"+  c #07070B",
"@  c #130100",
"#  c #1B0300",
"$  c #140900",
"%  c #0E1014",
"&  c #240900",
"*  c #330200",
"=  c #311701",
"-  c #332000",
";  c #000824",
":  c #001C3C",
">  c #2C2C2C",
",  c #481401",
"<  c #581600",
"1  c #450B00",
"2  c #512C00",
"3  c #5A3500",
"4  c #4A2F00",
"5  c #7D210A",
"6  c #614407",
"7  c #001D46",
"8  c #002B46",
"9  c #00305A",
"0  c #096179",
"q  c #555351",
"w  c #B51702",
"e  c #AA1301",
"r  c #8F290A",
"t  c #BF2300",
"y  c #D92C01",
"u  c #D83000",
"i  c #CB2C00",
"p  c #E22D00",
"a  c #E63900",
"s  c #9C5B0C",
"d  c #98700C",
"f  c #BA6A05",
"g  c #BD7500",
"h  c #B07718",
"j  c #EC4802",
"k  c #F44A04",
"l  c #F55400",
"z  c #FA5C01",
"x  c #F55704",
"c  c #CD6D00",
"v  c #C67302",
"b  c #CB7501",
"n  c #CC7901",
"m  c #D37B02",
"M  c #D57800",
"N  c #FC6302",
"B  c #FD6C04",
"V  c #F76200",
"C  c #FE7202",
"Z  c #FD7903",
"A  c #BC9617",
"S  c #DC8401",
"D  c #D58300",
"F  c #D08C19",
"G  c #E28501",
"H  c #E48B01",
"J  c #EA8C01",
"K  c #E98707",
"L  c #EC9502",
"P  c #ED9A03",
"I  c #E69B0B",
"U  c #EA9C0C",
"Y  c #E69203",
"T  c #F19401",
"R  c #F29A02",
"E  c #F69B05",
"W  c #E99912",
"Q  c #F08E0C",
"!  c #EFA400",
"~  c #F5A401",
"^  c #FAA404",
"/  c #F4AB00",
"(  c #FCAB03",
")  c #FFAE0B",
"_  c #F9A20A",
"`  c #FDB502",
"'  c #FDBA02",
"]  c #FDB408",
"[  c #F5B401",
"{  c #F1AF14",
"}  c #D28F2A",
"|  c #D5BB24",
" . c #CEB920",
".. c #FBA32A",
"X. c #FCAA36",
"o. c #ECAC2A",
"O. c #D2A913",
"+. c #FDC502",
"@. c #FECD03",
"#. c #FFCD0C",
"$. c #FCC70D",
"%. c #FED303",
"&. c #FED30A",
"*. c #F7D202",
"=. c #FCC817",
"-. c #FDD414",
";. c #FCD816",
":. c #FAD725",
">. c #FEDF37",
",. c #FEE13A",
"<. c #FFEB3E",
"1. c #FFE12F",
"2. c #908E55",
"3. c #FCDF42",
"4. c #FDE54B",
"5. c #FDEC5C",
"6. c #FDED62",
"7. c #FCF060",
"8. c #156E8F",
"9. c #057EA3",
"0. c #0C70A9",
"q. c #005C89",
"w. c #0069CA",
"e. c #0276DD",
"r. c #016FD1",
"t. c #017CE3",
"y. c #017CEB",
"u. c #0A88B3",
"i. c #1389B2",
"p. c #268BA7",
"a. c #518286",
"s. c #1693C5",
"d. c #18A0DC",
"f. c #0084EC",
"g. c #008CED",
"h. c #0487E4",
"j. c #0694EA",
"k. c #018DF1",
"l. c #0193F3",
"z. c #0198F8",
"x. c #0AADEC",
"c. c #02AAEF",
"v. c #14ABEA",
"b. c #08B2ED",
"n. c #14B2ED",
"m. c #1BB4ED",
"M. c #1AB4E8",
"N. c #03A5F4",
"B. c #02ACF6",
"V. c #0AADF3",
"C. c #01A7FC",
"Z. c #02ABFD",
"A. c #09ADFC",
"S. c #04B2F6",
"D. c #0CB3F4",
"F. c #0CB8F6",
"G. c #05B2FD",
"H. c #0AB5FD",
"J. c #06B9FE",
"K. c #0CB9FD",
"L. c #13B4F4",
"P. c #13BAF6",
"I. c #1BBBF4",
"U. c #11B5FC",
"Y. c #13BCFD",
"T. c #1BBDFD",
"R. c #1AB5F5",
"E. c #13ADF3",
"W. c #28B9ED",
"Q. c #24BCF3",
"!. c #2ABDF4",
"~. c #23BEFB",
"^. c #28B8F4",
"/. c #36BAEB",
"(. c #29A5DB",
"). c #15C1FE",
"_. c #1CC2FE",
"`. c #2CC4F6",
"'. c #24C3FD",
"]. c #2BC5FD",
"[. c #24C9FF",
"{. c #2CCAFE",
"}. c #24C1F5",
"|. c #3BC5F5",
" X c #33C5FB",
".X c #34CBFE",
"XX c #3BCCFD",
"oX c #37C6F7",
"OX c #3CD1FF",
"+X c #34D1FF",
"@X c #24C1EE",
"#X c #41C1EF",
"$X c #44CCF6",
"%X c #4CCDF5",
"&X c #43CDFC",
"*X c #4BCEFB",
"=X c #43C3FF",
"-X c #52CEFA",
";X c #58CCF8",
":X c #44D2FE",
">X c #4BD3FE",
",X c #4CDAFF",
"<X c #4CD3F8",
"1X c #54D1F5",
"2X c #5DD3F5",
"3X c #53D3FC",
"4X c #5BD5FC",
"5X c #54DAFF",
"6X c #5CDAFE",
"7X c #58D8F5",
"8X c #57CCEE",
"9X c #65D3F4",
"0X c #6BD5F4",
"qX c #63D5FD",
"wX c #63DBFE",
"eX c #6BDBFD",
"rX c #6AD8FA",
"tX c #73DCFD",
"yX c #7BDEFC",
"uX c #74D8F5",
"iX c #74D8EF",
"pX c #58E1FF",
"aX c #64E2FF",
"sX c #6DE3FF",
"dX c #74E1FF",
"fX c #7CE3FF",
"gX c #7CECFF",
"hX c #77E9FD",
"jX c #7EF2FF",
"kX c #8A8887",
"lX c #B2B0AF",
"zX c #81DDF9",
"xX c #83E3FE",
"cX c #89E4FD",
"vX c #84EBFF",
"bX c #8DE7FB",
"nX c #93EFFF",
"mX c #9DEDFF",
"MX c #95F7FF",
"NX c #A6EEFF",
"BX c #F3F1F0",
/* pixels */
"Z.G.G.G.G.Z.Z.C.Z.Z.Z.G.Z.C.C.C.C.Z.G.H.H.G.A.Z.A.H.H.G.Z.Z.C.Z.G.H.H.J.G.Z.C.C.Z.Z.Z.Z.G.G.A.G.Z.Z.Z.S.G.G.G.C.Z.Z.Z.Z.Z.A.H.K.K.H.H.Z.Z.C.Z.G.G.Z.Z.G.G.Z.Z.Z.C.Z.C.Z.Z.Z.Z.G.G.G.G.G.G.",
"Z.G.H._._.{.H.H.G.C.C.Z.H.Y.G.G.G.K.'.&XXXXXK.H.G.Z.Z.Z.Z.Z.G.H..XXX6X.XH.S.Z.C.C.C.C.Z.H.Y.Y.G.A.H.Y.{..X_.K.G.Z.C.Z.G.G.H.OXxXxXXX).K.G.Z.C.Z.Z.G.H.Y.yX4XS.S.Z.C.C.C.C.Z.A.H.[.&XXX'.H.",
"Z.H.T.+X.X3X>XY.H.G.A.Z.Z.C.H.Y.Y.[.[.H.5X6XwXH.H.S.Z.Z.G.H.T..X6XpXH.5XXXU.H.S.A.G.G.Y.T._._.}.].:X X X X5X:XJ.S.Z.S.K.U.:XdXH.].tXeXK.K.H.Z.G.G.J.{.5X0XfX0XW.G.G.Z.Z.Z.G.H..X.XT.m..X.X",
"H.].].L.G.H.m.wX6XL.H.H.Z.G.'.{.'.H.G.G.K.Z.m.4XxXD.S.S.T.'..XD.H.H.H.H.S.{.XX{.[.{.'.T.Y.G.G.'.>X!.S.G.H.H.H.*X,XH.Y.&X>XXXH.H.K.H.J.7XyXK.G.Y._.>XsXK.H.K.H.,XqX,XH.G.[.{.{.H.H.G.G.G.K.",
"'.T.J.G.Z.G.H.Y.6XwX3XXX].'._.H.G.A.Z.C.A.S.H.F.{.4X1X1X{.'.G.A.Z.C.C.C.Z.H.H.K..X'.H.G.A.Z.G.S.H.H.G.Z.Z.G.H.K.,X<X:X_.T.H.G.Z.G.H.J.K.,XqXqXwX1X_.H.K.Z.G.H.K.L.5XOXOX&X].H.G.C.C.C.C.G.",
"G.G.G.Z.C.C.Z.G.G.H.H.S.H.G.G.Z.C.C.C.Z.C.Z.Z.Z.G.H.H.S.H.H.G.H.H.G.Z.Z.Z.G.G.G.Z.G.A.G.G.G.Z.Z.Z.Z.C.Z.C.C.Z.G.H.H.H.H.K.Z.C.C.C.Z.Z.Z.H.H.J.J.H.H.A.Z.C.Z.C.Z.G.H.H.H.H.G.Z.C.C.Z.C.C.C.",
"Z.Z.C.Z.C.C.Z.C.Z.C.C.C.C.Z.C.C.C.G.K.Y.S.G.C.C.C.C.C.Z.G.G.Y.>XqX4XH.H.G.Z.H.H.K.H.A.Z.G.G.H.Y.K.U.G.Z.A.C.C.C.Z.Z.Z.Z.Z.K.H.G.C.C.C.C.Z.H.T.Y.Y.C.Z.G.H.H.C.C.Z.G.Z.A.H.H.G.C.G.G.G.G.Z.",
"C.Z.G.H.H.G.Z.C.G.Y.Y.Y.G.C.Z.H.K._.wXxX).Y.G.C.C.C.G.G.Y.:XXXL.H.S.$X:XH.H.Z.Z.C.Z.G.H.K.K. XfXeXI.K.H.Z.C.C.C.C.C.A.H.H._.6XJ.K.G.Z.C.G.Z.Z.H.H.K.K._.sX3XH.H.G.C.C.C.C.Z.C.S.K.5XrX4XK.",
"C.H.H.5XsXJ.H.G.C.C.C.G.H.H.H.'.{.rXD.].uXwXY.H.Z.H._._.`.H.H.Z.Z.A.S.'.XXY.S.H.Z.Z.H.K.qXtXwXK.K.1XqXK.H.G.Z.C.Z.G.K._.XX3XvX3X_.H.H.Z.C.C.C.Z.G.J..X3XwXwX;XI.K.G.C.C.Z.Z.H.Y.<X.XH.D.&X",
"G.].&X^.m.dX}.H.H.Z.Z.H.K.T.eXtX5XK.H.H.H.].tXY.H.Y.K.H.G.Z.C.C.C.Z.Z.G.H..X.X{.T.J.).eXjXH.H.G.H.H.H.qX&XT.K.G.H.Y.3X6X>XK.G.H.5XwX:XY.H.G.G.H.H.&X5XK.G.H.H.{.3XY.K.G.K.K.'.XXH.H.G.Z.G.",
"_.'.Y.J.G.H.wX8XY.H.H.)..XdX|.m.H.S.Z.Z.G.K.S.eX3XF.S.K.Z.Z.C.C.C.C.C.C.Z.G.H.S.].uXqXU.K.H.C.C.Z.Z.G.S.3XdX3X3X3X3XG.G.H.Z.Z.Z.S.R.I.>XOXH._.,XXX}.G.Z.Z.C.G.G.G.3X;X%X6X$X*XG.Z.C.C.Z.Z.",
"Z.G.Z.Z.Z.Z.H.H.tXvXdX4XgXH.H.B.Z.Z.Z.C.C.Z.Z.H.H.aXoX X[._.H.Z.C.C.G.H.K._.`.6X6Xc.H.G.Z.C.C.C.C.C.Z.Z.G.H.H.S.{.T.H.S.G.Z.C.C.Z.Z.G.S.5X&X3XI.H.G.Z.Z.C.C.G.G.S.G.B.B.D.B.H.H.G.H.Z.C.C.",
"C.Z.Z.C.C.Z.G.H.Y.hXgX.XT.K.G.C.C.C.C.C.C.Z.C.Z.G.H.H.S.Y._.Y.G.Z.C.G.H.K._._.S.K.K.H.A.Z.Z.Z.Z.Z.Z.Z.G.G.H.H.H.H.K.T.T._.Z.C.C.C.C.G.G.H.Y._.Y.K.Z.Z.H.Y.B.H.H.Z.Z.G.H.G.G.Z.H.K.K.H.A.Z.",
"C.C.C.C.C.C.Z.Z.G.G.H.H.T._.K.Z.Z.Z.C.C.C.C.Z.C.C.Z.Z.Z.A.G.H.S.H.Z.C.A.Z.G.G.A.G.H.Y.H.H.G.G.G.Z.G.A.H.H.A.Z.C.Z.Z.A.Y.Y.Y.H.Z.Z.Z.C.C.Z.Z.G.H.Y.Y.Y.K.K.H.Z.C.C.Z.C.G.H.G.G.G.Z.Z.Z.Z.S.",
"C.C.C.G.G.H.A.Z.Z.G.G.G.H.G.K.{.]._.K.G.Z.Z.Z.C.C.C.G.G.Y.XXeXxX3XH.H.Z.Z.C.C.C.C.Z.G.K.F.J.    c.G.G.Z.C.C.C.C.C.C.Z.G.Z.H.P.H.H.G.A.C.C.Z.G.A.Z.Z.Z.Z.Z.C.Z.G.G.G.H.oXeXrX:X'.G.Z.G.G.D.",
"C.C.C.C.C.Z.H.S.H.5X6X>XK.H.G.A.Z.Z.Z.H.G.H.G.Z.Z.H.Y.I.4XY.H.K.T.3XF.H.G.Z.G.Z.K.K.G.Z.V.  %.%.  G.Y.Y.S.A.A.Z.Z.G.H.K.T.&X4XrX4XXXP.K.H.G.C.Z.C.C.J.K.H.S.Z.Z.S.H.&XXXL.H.S.[. X].~.XX.X",
"H.G.A.C.C.Z.G.Y.>XD.G.J.oX>X_.H.H.G.Z.C.C.C.Z.G.H.Y.9XqXY.G.Z.G.G.S.XX&X:X_._.'.Y.G.v.m.o $.4.+.  i.i.H._.T._.G.S.K.T.3X,XK.H.H.H.:XeX6XY.K.H.G.H.Y._.sXsXJ.H.K.I.{.H.H.Z.C.C.Z.H.Y.U.H.G.",
"XX{.T.H.G.H.:XOXH.A.Z.Z.G.L.>X9X>XK.H.G.Z.Z.H.K.].rXH.K.].].Y.S.Z.Z.S.H.].&X.XY.S.. o o . :.:.^   + $ X c.T._.[..XXX4XH.H.H.Z.Z.Z.G.G.U.rX4X}.Y.Y.rXrXJ.K.qX|.].H.Z.Z.Z.C.Z.C.C.C.Z.Z.G.G.",
"G.XX6X3X>X:XS.S.Z.C.C.C.Z.A.G.K.R.eX5XY.H.K.[.>XwXH.H.G.Z.B.T.U.K.G.Z.G.G.G.u.u.0.  $.+.$.-.%.M { ;.+.  i.u.i.K.S.H.H.Z.Z.Z.C.C.C.Z.Z.H.K.Y.qXnXyXD.H.H.S.H.XX&X&XH.G.Z.C.C.C.C.Z.C.C.C.Z.",
"G.H.+XpX5XY.K.Z.C.C.C.C.C.C.A.H.H._.gXtXqXrX%X{.K.G.Z.C.C.Z.Z.Z.H.H.Z.Z.Z.v.. @ . . %.%.%.%.+.g %.-._ @ . $ . (.Z.H.G.Z.C.C.C.C.C.Z.Z.G.L.>X3XQ.K.Y.H.Z.Z.G.H._.,X.XR.B.Z.C.Z.Z.C.C.C.C.C.",
"C.Z.G.G.H.H.G.H.A.Z.Z.Z.Z.A.Z.Z.Z.H.K._.`.K.H.G.Z.Z.C.C.H.D.S.G.A.G.S.N.O   g ' %.%.%.%.%.%.%.*.%._ n ' ' ` R o O N.H.A.A.A.C.Z.G.S.S.XX&XK.K.G.G.C.C.C.C.C.A.G.H.H.{.'.[.T.S.Z.Z.Z.Z.C.C.",
"H.Z.Z.C.C.C.C.C.G.G.G.Y.{.{.[.T.Y.H.H.G.A.G.G.C.C.Z.K.Y._.H.Y.U.K.G.C.O ` @.%.%.%.%.%.%.%.%.%.%.^ D @.%.%.%.%.` J X N.Z.G.K.K.H.[..X.XH.G.G.Z.H.H.H.Z.Z.G.G.C.C.C.Z.Z.G.G.S.Y.K.H.H.G.A.C.",
"Z.H.G.Z.Z.H.G.G.G.H.K.Z.Z.Z.Z.H.H.K.S.Z.C.C.C.A.H.K.H.H.Z.Z.Z.Z.A.A.  / %.%.%.%.%.%.%.%.%.%.%.%.%.%.%.%.%.%.%.%.' P O G.Z.G.K.H.G.Z.G.Z.C.C.C.C.Z.G.S.'.XX'.Z.S.Z.C.C.C.C.C.G.Y.<XcX].K.S.",
"C.Z.G.H.K.3XeXT.G.Z.Z.C.C.C.Z.S.H.G.Z.H.G.Z.S.K.5X6X*XXXH.Z.Z.Z.d.  ( @.5.7.:.&.%.%.%.%.%.%.%.%.%.%.%.%.%.%.%.%.%.' ^ O s.A.Z.C.Z.C.Z.Z.G.H.H.Z.Z.H.Y.Z.A.Z.T.T.Y.G.Z.A.H.H.}.5XY.K.tXeXK.",
"G.H._.5X3XK.K.6X>XH.H.Z.G.H.K.>XqX>XK.G.H.Y.:XqXJ.H.K.`.&XT.H.7 # / @.-.6.6.:.%.%.%.%.%.%.%.%.%.%.%.%.%.%.%.%.%.%.%.` R 3 ; G.G.A.G.G.H.XXwXI.K.H.A.Z.C.C.C.C.Z.G.K.K.Y.>X%X:XS.G.G.G.H.>X",
"G.:X<XM.H.S.H.H.&X5X:XK.T.:X:XH.K.&X9X_.Y.F.'.G.H.Z.Z.G.G.'.Y.% =.@.%.6.6.-.%.%.%.%.%.%.%.%.%.%.%.%.%.%.%.%.%.%.%.%.@.` `   S.G.H.Y.Y.$X&XK.5XsXpXY.H.Z.C.C.A.H.K.'.qXqXn.U.H.Z.Z.Z.Z.G.H.",
".XR.P.H.G.C.C.Z.H.'.`.:X3X:Xx.G.H.S.D.3X.XOXH.Z.Z.C.C.C.G.S.8 h #.%.<.6.>.&.%.%.%.%.%.%.%.%.%.%.%.%.%.%.%.%.%.%.%.%.%.+.` P   H.'.>X$XL.H.H.H. X&X5XXXK.G.G.K.Y.F.hX=XG.H.G.Z.C.C.C.Z.Z.Z.",
"S.G.G.Z.Z.C.C.C.G.H.H.H.H.H.G.C.C.Z.H.K.5X,X{.T.Z.G.Z.Z.Z.G.: A @.&.6.5.%.%.%.%.%.%.%.%.%.%.%.%.%.%.%.%.%.%.%.%.%.%.%.@.[ ~ . T.[.Y.H.H.Z.Z.G.H.H.K.eXtXD.m.qXfX9X>XU.G.G.Z.C.C.C.Z.Z.C.C.",
"H.Y.H.Z.C.C.C.C.C.C.A.H.G.G.Z.C.C.C.C.G.H.H.H.Y.Y.K.S.G.A.s.= #.%.,.6.%.%.%.%.%.%.%.%.%.%.%.%.%.%.%.%.%.%.%.%.%.%.%.%.%.@.` Y + G.G.A.C.C.Z.C.Z.A.H.H._.iX9XK.Y.K.H._.`._.H.Z.Z.C.C.C.Z.Z.",
"C.G.H.K.K.Z.Z.Z.C.C.C.Z.Z.Z.G.A.Z.C.C.C.Z.Z.Z.G.V.H.G.G.G.0 4 %.%.-.%.%.%.%.%.%.%.%.%.%.%.%.%.%.%.%.%.%.%.%.%.%.%.%.%.%.@.' ) O C.C.C.C.C.Z.Z.Z.Z.C.Z.S.U.J.H.G.Z.C.A.H.Q..X{.G.C.C.C.Z.G.",
"C.Z.Z.Z.Z.H.Y.Y.H.H.H.G.K.].XX.X'.T.Z.C.G.D.'. XT.'.Y.K.G.  P %.%.%.%.%.%.%.%.%.%.%.%.%.%.%.%.%.%.%.%.%.%.%.%.%.%.%.%.@.+.' ^   H.H.H.K.C.C.C.C.C.G.G.C.C.Z.C.C.C.C.C.Z.Z.G.G.T.Y.H.G.Z.G.",
"G.A.C.C.C.C.G.G.Y.hXyX_._.Z.Z.Z.Z.S.K.G.G.G.G.Z.Z.S.S.H.G.  ' # . X X X X X X X X X *.%.%.%.%.%.%.%.&.. X X X X X X X X X . (   C.G.Z.G.Y.T.T.U.K.Z.Z.G.H.G.G.Z.Z.Y.T.Y.Y.Z.Z.G.H.H.H.H.Z.",
"Y._.Y.H.G.G.H.sX4XL.J..X:XY.H.C.Z.Z.Z.G.C.C.C.C.G.H.Y.Y.  M [ X O O                   *.&.&.%.%.%.*.                        Y v   P.K.H.G.Z.Z.A.Z.Z.H.Y.yXeXD.H.H.Z.Z.C.Z.A.A.H.I.eX6XK.H.",
"Z.Z.Y.Y.T.pX6X].H.S.H.J.XXXX.XH.H.Z.C.C.C.Z.Z.H.Y.>X X X      O BXlXkX> X                             BXlXlXq                     :X`.{.K.G.Z.Z.G.K.{.rXY.G.6XwXOXH.G.Z.G.G.K.XXXXH.V.OXOX",
"C.Z.G.Y. X3XK.H.H.C.C.G.K.'.&XXXT.G.S.Z.Z.B.G.V.*XH.H.H.+       BXkXX                   @ . . .       BXq >                 X     P.F.$X>XH.A.H.H.b.sXK.H.H.H.OX9X>XH.G.Z.D..XT.H.H.S.S.OX",
"Z.G.+X:X].H.H.C.C.C.C.Z.Z.G.H.}.&X&X:XS.H.m.4X>XK.S.Z.C.  G .   kX%                     F H Y H =     kXo                     b   L.Z.J._.3XsXgXsX7XF.H.Z.Z.G.H.G._.XXY..X].H.H.Z.Z.Z.A.G.",
"K.{.T.G.G.Z.Z.C.C.C.C.C.C.Z.Z.G.G.H.).3X*X>XV.H.G.Z.Z.C.  ` H                         s ( %.%.*.( s                         m L O U.Z.Z.H.K.n.I.n.H.G.C.C.C.C.C.Z.S.H.'.Y.G.C.Z.Z.Z.C.C.Z.",
"Y.A.G.H.G.C.C.C.Z.Z.Z.G.T._.Y.H.A.Z.Z.G.H.S.G.Z.C.C.C.C.  ` / .                       S |  . .| | H                         R L   L.C.C.Z.Z.G.G.G.Z.H.H.H.Z.C.C.Z.C.Z.H.K.Y.Y.G.C.C.Z.C.C.",
"C.C.C.Z.A.G.Z.C.C.C.Z.Z.Z.Z.Z.K.Y.K.S.Z.Z.Z.S.H.K.H.Z.Z.  / %.3                     4 d < , , , 1 d 2                     2 ` H + K.C.C.C.C.Z.G.S.H.G.Z.C.C.G.G.C.C.C.C.Z.Z.H.K.K.Z.C.Z.C.",
"G.C.C.C.C.Z.K.Y.K.Z.Z.C.G.H.Y.wX4XeXT.H.Z.Z.C.C.C.A.H.K.Z.  @./ @               O   H + j C C z y   T   O               # P (   S.S.G.Z.C.Z.H.).'.dXXXK.G.C.A.G.H.G.C.G.Y.Y.tX6XH.G.A.Z.C.",
"G.H.Z.Z.G.G.Z.B.A.G.G.H.Y.XXwXoXK.S.wX>XK.S.A.C.G.H.].}.{.  ( %.%.~ .           m K   k X.X.Z Z k y . H K             L ` ' R   V.Y.Y._.G.K.6XdXwXH.!.3X).H.G.Z.Z.G.K.{.nXuXXX<X3X:XH.A.Z.",
"Z.K.9XgX{.H.G.C.C.H.G.[.3X&XK.H.H.H.H.>X#X+XH.G._.}.V.B.Z.  Q @.%.@.[ J G M   . # < k X.X...Z C B j a 5 . @ @ c G R ] @.@.` W   B.G.Z.G._.$X/.m.H.H.H.H.3XOXY.H.Z.G.Y.8Xv.Y.H.H.b.1X>XH.G.",
"K.{.K.H.oX:XS.G.Y..X:X>XH.H.G.Z.C.C.G.H.>X&X$X X'.G.A.Z.Z.G.  +.&.%.%.%.o.  k j l z ..X.Z B B B C C C j a a a   { @.@.@.@.(   S.Z.H.H._.{.D.J.G.G.Z.C.G.H.sXwX>XF.eXeXJ.H.G.Z.Z.G.H.n.&X.X",
"_.H.G.G.H.J.3XrXwX'.K.H.G.A.C.C.C.C.C.Z.G.G.H.H.H.G.G.Z.Z.Z.  ` +.%.%.%.  N C Z ....N N l l l l l z B C C B V l   @.%.@.` L   A.Z.Z.G.G.H.G.Z.C.C.C.C.C.G.H.U.!.zX{.K.S.Z.C.C.C.C.Z.G.H.K.",
"C.Z.C.C.C.G.H.S.Y..X}.J.G.C.C.C.C.C.C.Z.C.A.G.G.Z.8       A.B.  W ` +.%.  a V B B j *               * a z l j i   @.` ( Y   N.Z.O     O G.G.Z.C.C.C.C.C.C.G.K.K.H.K.K.H.G.Z.C.C.C.Z.Z.Z.Z.",
"K.G.Z.C.C.Z.C.Z.Z.B.Z.{.XX{.K.Z.C.C.C.Z.G.G.Z.Z.9 6 ;.=.  Z.O   . b ( @.{ . a u r . . w w w w w e e . . r t i   o.' ^ v .   O V.  ;.;.$.O G.Z.G.H.G.G.H.H.G.Z.Z.Z.Z.Z.Z.G.H.Y.H.A.C.C.Z.Z.",
"Z.Y.T.U.H.Z.Z.Z.C.C.C.Z.D.].[.'._.H.Z.G.Z.Z.Z.x.o O.:.@.      [ ) 6 S ' ] F     @ r x p p p y y y y j r *     } ] ~ v = h ~   O   ;.,.@.d 7 Z.Z.G.H.[..X.XD.A.Z.C.Z.Z.A.Z.G.Z.G.G.Z.C.Z.Z.",
"C.Z.H._.T.K.G.Z.Z.Z.Z.Z.Z.A.G.T._.Y.K.S.Z.Z.G.H.@ [ ,.%.J   R +.' ) b m ` ) F o., y V N N N N N z z z y & } } ) ( L f ^ ^ ^ T   c :.4.%.o.; G.G.L._.K.A._.'.Y.F.K.G.Z.Z.C.C.C.C.Z.Z.G.G.K.",
"C.C.C.C.C.C.Z.G.G.H.K.G.Z.C.Z.C.C.Z.Z.G.H.H.R.  I :.4.@.+.h @.%.%.@.~ n m ~ ^ ^ f   p N N N N N N N u . s E ~ ~ D f L ' ' %.' h ! ,.,.%.-.3 8.G.Z.Z.C.C.G.H.).aXyX[.K.A.C.C.C.C.G.H.L.XX_.",
"C.C.C.C.C.Z.G.F.>XvXeX4XY.H.Z.C.C.C.G.H.XX{.oXX ' 4.-.%.%.v %.%.%.%.*.' Y b L L L S                   S L Y Y v Y ] +.%.%.%.@.n @.,.%.%.&.- 0 ~.H.A.Z.G.K.XXsX!.K.I.2XH.H.A.Z.H.].XX[.H.Z.",
"G.A.Z.A.G.J.{.&X:XH.H.Y.3X^.H.G.Z.H.`.5XoX:XM.$ %.>.&.%.%.@.@.%.%.%.%.%.@.+.[ ) R R G S S S S S S S H P L ( ( ' @.%.%.%.%.%.%.@.%.%.#.%.%.4 q._.}.'.H.K.:X4Xx.G.H.H.H.*XW.L.Y.T.S.G.Z.C.C.",
"'._.H.S._.:X{.H.H.C.Z.S.H.3XrX~.H.>X:XK.H.m.. H %.:.-.%.%.*.%.%.%.%.%.%.%.%.%.%.+.` ~ L L L L T T T R ` +.%.%.%.%.%.%.%.%.%.%.%.%.%.%.%.%.P # u.G._..X>X_.H.Z.C.C.C.H.Y.5X3XXXG.Z.Z.C.C.C.",
"H._.>X5X'.H.H.G.C.C.C.C.Z.H.K.sXeX).H.G.Z.Q.. +.%.%.%.%.%.[ %.%.%.%.6.6.1.%.%.%.%.%.@.` ` ` ` ` ` ` +.%.%.%.%.%.%.%.%.%.%.%.%.%.%.%.%.%.%.' # 9.Z.H.Y.K.H.Z.C.C.C.C.C.G.H.S._._.H.U.H.G.Z.",
"Z.G.G.G.H.H.G.Z.Z.C.C.Z.G.G.G.H.S.T.Y.G.Z.I.. ` %.%.%.%.@.S %.%.:.6.6.5.4.%.%.%.%.%.%.%.%.%.%.%.%.%.%.%.%.%.%.%.%.%.%.%.%.%.%.` %.%.%.%.%.` # 9.G.Z.H.K.S.Z.C.C.Z.Z.C.C.Z.H.H._.2XvX5XJ.H.",
"Z.Z.Z.Z.Z.Z.H.H.H.'.}.Y.Z.C.C.C.C.Z.H.H.H.@X. ^ %.*.%.%.+.b %.%.,.6.6.5.*.%.%.%.%.%.%.%.%.%.%.%.%.%.%.%.%.%.%.%.%.%.%.%.%.%.%.m %.%.%.%.%.R & p.[.H.C.Z.H.K.Y._._.C.Z.G.H.H.*X:XK.H.H.3X&X",
"K._.H.Z.Z.C.G.H.Z.C.Z.Z.H.H.G.Z.A.C.Z.L.3XdX. G %.%.%.%.T b %.%.,.6.6.@.%.%.%.%.%.%.%.%.%.%.%.%.%.%.%.%.%.%.%.%.%.%.%.%.%.%.%.n ( %.%.%.' H # i.L.:XL.G.Z.C.Z.G.G.Y.K.Y.eX>XK.S.C.Z.G.H.S.",
"Z.A.T._.T.H.H.H.H.Z.Z.K.H.A.A.Z.Z.G.:X5XZ.Q.. m ` %.%.` v g %.%.3.6.5.%.%.%.%.%.%.%.%.%.%.%.%.%.%.%.%.%.%.%.%.%.%.%.%.%.%.%.%.n b ' @.+.( m & 9.Z.G.wX4XH.Z.C.C.Z.H.XX>XL.H.G.C.C.C.C.Z.G.",
"C.Z.H.H.Y.eXyXuX0XH.H.Z.Z.Z.Z.Z.Z.3X4XH.C.C.R.. L ' ' R n @.%.%.*.%.%.%.%.%.%.%.%.%.%.%.%.%.%.%.%.%.%.%.%.%.%.%.%.%.%.%.%.%.%.%.b E ` ` _ # 0.G.Z.Z.G.wXeXY.G.H.'.'.H.H.Z.Z.S.A.C.C.Z.C.C.",
"Z.H.T.>X2X:XH.D.pXaXL.H.G.G.G.Z.T.tXH.Z.Z.L.>X+ S ~ ! n U %.%.%.%.%.%.%.%.%.%.%.%.%.%.%.%.%.%.%.%.%.%.%.%.%.%.%.%.%.%.%.%.%.%.&.P b ) R H # 8.].K.Z.C.S.3XaXS.K.H.Z.G.C.Z.G.Y.>XY.H.Z.C.C.",
"B.5XaX,XH.H.H.G.K.wXwXsXH.H.G.G.&XeXH.C.A.v.vX/.2 ) U b ` %.*.%.%.%.%.%.%.%.%.%.%.%.%.%.%.%.%.%.%.%.%.%.%.%.%.%.%.%.%.%.%.%.%.@.( v U R F 8.I.pXsXC.C.C.K.cXW.B.G.G.Z.Z.S.A..X:XXX~.V.Z.Z.",
".X%X{.H.H.G.C.C.H.H.K.U..XY.Z.Y.4X&XZ.C.`.fX6XZ.X S f R ' ' *.%.%.%.%.%.%.%.%.%.%.%.%.%.%.%.%.%.%.%.%.%.%.%.%.%.%.%.%.%.%.%.%.' ` L f S   B.Z.XX-XV.C.C.G.>X2Xv.Z.G.Z.Y.'._.G.G.J.OX{.S.Z.",
"G.H.H.G.Z.Z.C.C.Z.G.A.H.S.A.C.wX.XU.Z.A.0XhXU.C.f.  K ( ' ' %.%.%.%.%.%.%.%.%.%.%.%.%.%.%.%.%.%.%.%.%.%.%.%.%.%.%.%.%.%.%.%.' ' ` ^ G O k.XXB.S.A.>XC.C.Z.H.qXv.Z.G.Y.H.Z.Z.B.C.Z.S.S.}.'.",
"C.C.C.C.Z.Z.Z.Z.H.G.H.G.Z.C.Z.'.tXF.Z.Y.qX>XZ.U.k.O L P ` ' ' %.%.%.%.%.%.%.%.%.%.%.%.%.%.%.%.%.%.%.%.%.%.%.%.%.%.%.%.%.%.' ' ` ^ R H   k.3X4XR.N..XS.Z.G.tXW.B.C.A.G.Z.C.C.C.C.C.Z.Z.H.Y.",
"C.C.C.C.C.Z.H.H.L.fX3XQ.G.Z.C.H.gX5XC.C.wXvXqXN.l.; } ^ R ` ' ' +.#.%.%.%.%.%.%.%.%.%.%.%.%.%.%.%.%.%.%.%.%.%.%.%.%.&.' ' ` ' ` E H } ; k.N.cX-XI.'.G.G.4XsXH.A.C.C.Z.G.G.A.K.K.H.H.G.Z.Z.",
"G.Z.Z.Z.Z.H._.XX$XJ.J.XX].G.Z.A.[.rXA.C.Y.>XiX!.l.f.+ G ^ ~ ' ' ' ` %.%.%.%.%.%.%.%.%.%.%.%.%.%.%.%.%.%.%.%.%.%.%.@.' ` ` ' ` R Y H   y.k. XzXfX].Z.Z.G.0XJ.Z.C.C.C.Z.Z.A.G.H.5X<X].H.H.Z.",
"'.D.V.H.H.{..XS.H.G.G.H. X'.G.Z.S.3X!.Z.C.V.$XtXL.l.t.O H P P [ [ ` ' ' @.*.*.%.%.%.%.%.%.%.%.%.%.%.%.%.%.*.%.@.` ` ` ` ` ` R E M   t.g.N.fX#XL.C.Z.H.:XqXG.G.Z.G.Z.C.H.H.Y.4XY.H.pX5XD.G.",
").4XxXdX&XG.G.A.C.C.C.Z.G.H.Y.G.Z..X6XY.Z.C.C.XXtX'.l.y.w.b R Y ~ ` ' ' ' ' ' ' %.%.*.%.%.%.%.%.%.%.%.%.@.' ' ' ` ` ' ( ( J T v w.t.j.H.tX*XN.Z.C.Z.K.uXXXH.[.5X5XK.K.>XwX2XY.H.G.H.n.4XXX",
"G.H.H.Y.Y.'.G.C.C.C.C.C.C.C.Z.H.G.G..XqXH.H.Z.C.].eXeXj.l.t.w.E L Y R ` ' ' ' ` ` ` ' ` ` ` ` ` ' ' ` ` ` ` ' ' ' ( R Y Y Y w.t.k.z.~.tX&XA.C.A.G.T.eXXXZ.Z.H.H.D.4XqX].I.H.H.Z.C.C.H.H.K.",
"C.Z.G.G.G.G.Y.H.Z.C.C.Z.A.A.Z.C.C.C.G.K.9XxX3XZ.C.Y.rXtXtXN.l.t.r.T T E P P P R [ ` ` ` ` ` ` ` ` ' ' ` [ P P P L T T J e.e.h.z.Z.zXfX%XG.Z.K.:X*XyX XH.C.C.Z.Z.H.K.D.].T.G.Z.C.C.C.C.C.G.",
"C.C.Z.C.Z.G.K.Y._.Z.Z.G.H.H.G.Z.C.C.Z.G.>XdXtXfXC.C.Z.E.sXyXdXl.g.e.e.2.W W E L P P P L L L L L L L L P L R I U U 0.r.t.l.l.wXyXxXvXwXG.C.N.wXmX0X'.G.C.C.C.A.G.H.H.Z.S.Y._.Y.C.C.C.C.Z.C.",
"C.C.C.C.Z.H.Y.Y.K.H.H.OXeXwX XD.G.Z.C.Z.G.D.].yX/.N.Z.N.Z.{.dX8Xj.j.g.h.f.t.a.U I U U I I U U I U I I I U F t.t.t.g.l.j.j.8XeXtX_.H.A.Z.C.@X1XXXY.Z.C.Z.Z.G.H.S.Z.C.C.Z.G.G.Y.K.A.Z.C.Z.Z.",
"C.C.Z.Z.Z.C.C.Z.H.>X%X'.H.H.XX4X5XH.K.Z.C.Z.Z.K.rXwX3XXXU.C.H.0XNXyXdX;X^.l.l.g.f.f.f.f.f.f.f.f.f.f.f.f.f.f.l.l.!.;XeXyXcXuXU.Z.C.C.C.C.%X4Xx.G.Z.K.H.G.G.Z.C.C.C.C.C.C.C.C.C.Z.H.G.Z.Z.G.",
"S.G.C.C.C.Z.H.H.&XT.U.S.G.G.G.T. X>X].G.Z.C.Z.C.G.G.G.G.G.B.C.C.Z.K.3XtXrX6X;XqX4X=X~.C.z.l.l.z.z.C.U.=X-XqX;X6XeXtX XA.A.Z.C.Z.H.Y..XwX-XH.Z.C.Z.G._.OX.XG.Z.A.C.C.C.C.C.C.C.Z.G.S.G.H.G.",
".XD.H.H.G.H.P.*XK.G.G.Z.C.C.Z.H.S.H.+X[.D.H.Z.C.C.G.Y.L.Y.V.G.Z.C.Z.Z.Z.{.tXnXxXxXwX XY.H.G.G.C.G.H.].3XyXxXtX3XT.Z.C.C.C.Z.H.T.uXnXeXR.Z.Z.Z.C.Z.K.H.K.wX5Xv.K.S.Z.C.C.Z.Z.H.K.qXfXeXL.H.",
"G.$XwX|.D.3X3XG.G.C.C.C.Z.Z.G.Z.Z.Z.Z.G.K.K.K.G.Z.C.A.G.n.eXtXY.Y.G.C.Z.C.Z.Z.Z.G.K.H.G.G.Z.Z.A.Z.Z.G.H.A.A.A.Z.B.Z.H.}.XX3X4XeX).A.Z.C.C.C.K.K.K.G.C.Z.G.J.3XaX:XH.H.G.H.K.3XqXG.H.D.>X.X",
"Z.G.G.{.XXD.T._.G.Z.Z.C.C.C.Z.C.C.Z.C.Z.G.H.G.H.G.Z.C.C.Z.S.c.eXcXfXfXsX>X.XT.Y.G.Z.Y.3XgXxXmXfXdXwX XY.Z.S.H.'.$XXXY.B.B.S.H.G.Z.C.C.Z.H.H.A.C.Z.C.C.C.C.C.G.S.L.XXXX.XaX4XP.H.Z.Z.Z.S.G.",
"C.Z.G.H.H.H.Z.Y.Y._._..XU.Z.Z.C.C.Z.Z.Z.H.[.4XMXT.G.Z.C.C.Z.H.G.:X>XcXyX2XXXQ.[.H.Z.U.[./.uXcXbXzX0XXX'.Y.Y._.{.Y.G.G.G.S.P.dX>XH.Z.Z.H.H.Z.Z.C.Z.Z.Z.C.C.C.Z.G.H.H.:X%X`.G.K.G.Z.C.Z.Z.G.",
"C.C.C.C.C.C.C.C.G.K.Y.U.Y.Y.G.C.C.C.G.H.wXfXvX%XwXH.G.G.Z.C.C.G.Z.G.G.H.G.H.G.G.K.G.A.Z.H.G.H.K.K.K.H.H.K.H.G.Z.Z.Z.G.].{.:X!.5X3XQ.H.Z.C.C.C.Z.Z.Z.Z.C.Z.K.H.G.Z.A.H.H.H.H.Z.C.C.C.C.C.Z.",
"C.C.C.A.G.Z.Z.Z.Z.C.C.C.C.Z.Z.Z.Z.H.H.3XL.I.H.H.U.3Xx.L.G.Z.C.C.C.C.C.C.C.Z.S.H.G.S.Z.H.Z.H.C.C.Z.G.G.C.C.C.C.Z.C.K.'.V.H.G.G.H.F.,X{.H.G.C.G.H.J.M.Q.Y.H.Z.C.C.C.C.C.C.C.Z.G.Z.Z.C.C.C.C.",
"C.C.C.C.C.H.K.H.G.Z.Z.C.C.C.Z.G.H.,X6XH.K.G.Z.Z.A.H.3X0X3XH.Z.C.C.C.C.Z.H.Y.wX9X1XK.H.C.Z.C.Z.C.C.C.C.G.K.H.K.H.H.K.A.A.Z.C.C.C.G.G.Y.XX{.H.Y.>X1XtXrXwXG.G.C.C.C.C.C.C.Z.C.C.Z.H.G.A.C.C.",
"C.C.Z.G.G.H..X4X5XH.H.G.Z.H.Y.XXXX.XS.G.Z.C.C.C.C.Z.G.H.{.&XT.H.H.G.H.U.XX5Xm.K.H.3X XH.G.Z.C.C.Z.H.H.Y.qXxXwX>XH.G.C.C.C.C.C.C.C.Z.A.S.Y.[.-XsX&XU.H.].>XJ.G.Z.C.G.Y.K.K.A.C.C.S.Y.L.L.H.",
"Z.C.Z.H.H.XX'.G.XXeX3XH.K.Y.{.Y.G.H.Z.Z.C.C.C.C.C.C.Z.Z.G.G..X}.[.T.K.5X3XH.H.G.G.S.:X>X_.H.H.A.H.K.F.4X.XH.J. X3XS.K.G.G.C.C.C.C.C.Z.G.H.>X6X~.H.C.Z.H.{.4Xx.B.S.G.Z.C.Z.Z.G.J.&X6X-X&XXX",
"C.G._..X].G.H.H.H.T.I.>XH.G.Z.C.Z.C.Z.A.H.Y.G.Z.C.C.C.Z.C.Z.Z.H.H.J.4X-XH.G.Z.C.Z.H.G.H.$X&XS.H.H.6X3XK.S.H.H.H.K.3XqXG.H.H.Z.C.C.Z.G.K.3XeXS.G.Z.C.C.Z.G.F.,XwX:XZ.Z.C.Z.Z.H.XXH.H.G.G.H.",
"S.[.].S.G.C.C.C.Z.H.H.H.-X:XH.A.Z.G.H.H.Z.Z.Z.G.Z.C.Z.C.C.Z.H..XXX3XQ.H.Z.C.C.C.C.C.C.H.G.J.>X&X>XL.G.H.C.C.C.C.H.H._.5X5Xb.H.G.H.K.L.3XU.H.Z.C.C.C.C.C.C.G.H.Y._.].K.S.T.{.XXH.G.Z.C.Z.Z.",
"'.S.G.Z.C.C.C.C.C.Z.Z.H.H.Q.&X{.T.H.Z.C.C.C.C.C.C.Z.Z.Z.G..XXX>X&XK.G.S.H.S.Z.Z.C.C.C.Z.Z.H.H.).H.S.A.C.C.C.C.C.C.Z.S.U.L.3X>X3X3XwX*XH.G.Z.G.G.G.C.Z.C.C.C.G.Z.G.K.].]..X{.G.Z.C.C.C.Z.C.",
"Z.Z.Z.C.C.C.C.C.Z.C.C.C.Z.Z.G.'.'.T.T.Z.Z.A.G.G.C.Z.T.F.`.OXH.G.G.A.C.C.Z.G.S.G.Z.C.C.A.Y.'.'._.T.K.A.C.C.C.C.C.C.C.Z.G.Z.H._.aX].Y.H.Z.C.C.C.Z.G.H.H.Z.Z.A._.[.`.].K.G.G.G.Z.C.C.C.C.Z.C.",
"C.C.C.C.C.Z.H.H.G.Z.Z.C.C.C.Z.Z.Z.Z.H.Y._.,X3X{.H.Y.}._.Z.G.Z.C.C.Z.A.H.T.oX.X{.H.A.A.H.H.Z.C.Z.H.Y.Y.H.A.Z.Z.Z.Z.C.Z.Z.Z.T.T.G.H.Y.).Y.G.C.C.C.C.C.Z.H.Y.T._.U.A.Z.C.C.Z.Z.C.C.C.Z.C.C.C.",
"C.C.C.Z.Z.H..X.X XT.H.Z.C.C.C.C.C.A.S. X:X].v.|.:XH.Z.C.C.C.C.C.Z.Z.G._.I.B.D.D.].Y.Z.Z.Z.C.Z.C.C.C.Z.H.H.'.~.T.G.G.K.Y.Y.B.C.C.Z.Z.Z.H.T.Y.Z.C.Z.Z.G.G.Z.A.G.G.G.G.A.C.C.C.C.C.K._.T.K.G.",
"H.G.G.).[.[.G.G.H..X]._.G.A.Z.G.H.[.{.S.G.G.G.G.H.&XD.H.A.C.C.C.Z.Z.G.Z.C.C.Z.G.Z.'.{.S.Z.Z.C.C.C.A.H.Y.%X4X6X:X].H.Z.C.C.C.Z.C.C.C.Z.Z.Z.H.Y._.Y.H.Z.Z.Z.G.K.'.;X;XY.G.Z.C.H.K.K.S.C.B.H.",
"K.'..X{.{.G.Z.C.Z.S.S.].{.K.G.T.[.{.S.G.C.C.C.Z.H.].*X&XT.H.G.G.A.Z.C.C.C.C.C.C.Z.G.[.[.[.G.A.G.G.S.`.>XR.D.H.H.'.{.H.Z.G.C.C.C.C.C.C.C.Z.C.Z.Z.A.Z.Z.Z.G.H.>X5X:XR.XXY.G.A.G.Z.C.C.C.C.C.",
"G.H.G.G.Z.Z.C.C.C.C.Z.G.H.[.`.[.H.G.Z.Z.C.C.C.C.Z.G.K.F.XX].H.[..X'.Z.Z.C.C.C.C.Z.C.G.H.Y._.'.[.:X$X*XK.G.C.C.Z.H.H.{.].'.H.Z.Z.C.C.C.C.Z.G.XX:X.XG.Z.G.[.|.D.H.H.G.H.{.{.}.B.Z.C.C.C.Z.Z.",
"C.A.Z.Z.C.C.C.C.Z.C.C.C.Z.G.G.H.H.Z.C.C.C.C.C.C.C.C.Z.G.S.K.~.U.H.H.Y.U.C.C.C.Z.C.C.C.Z.A.G.Y.{.OXL.H.G.C.C.C.C.Z.Z.G.Y.Y.'.Y.Z.Z.Z.Z.Z.Z.'..X{.'.T.H._.].H.G.G.C.C.A.G.K.).~.H.C.C.C.C.Z.",
"C.C.C.C.C.C.C.C.C.C.C.Z.C.C.Z.C.C.A.G.Z.C.C.C.C.C.C.C.C.C.A.Z.C.Z.C.Z.G.H.G.Z.Z.C.C.C.C.Z.Z.Z.Z.Z.Z.Z.C.C.C.C.C.Z.C.Z.A.Z.Z.H.H.S.Z.Z.H.Y.G.Z.Z.Z.G.Y.H.Z.Z.C.C.C.C.C.C.C.Z.Z.K.K.G.G.Z.Z."
};
