/* XPM */
static const char *normal_floor_82[] = {
/* columns rows colors chars-per-pixel */
"82 82 172 2 ",
"   c #14B2EF",
".  c #1AB7EF",
"X  c #1DBFEE",
"o  c #0CAFFC",
"O  c #0FB3F6",
"+  c #0DB3FD",
"@  c #0EB9FD",
"#  c #14B5F6",
"$  c #15BAF5",
"%  c #1BBBF5",
"&  c #12B5FD",
"*  c #18B7FB",
"=  c #15BAFD",
"-  c #1ABDFD",
";  c #23B5EE",
":  c #23BBEB",
">  c #2BBBEE",
",  c #31B8E7",
"<  c #23BDF3",
"1  c #2CBCF1",
"2  c #22BEFC",
"3  c #2EBFF8",
"4  c #33BFF2",
"5  c #1DC1F5",
"6  c #15C1FE",
"7  c #1DC1FE",
"8  c #1EC9FF",
"9  c #2DC1EE",
"0  c #33C1EE",
"q  c #25C2F6",
"w  c #2DC4F6",
"e  c #2CC9F6",
"r  c #23C3FD",
"t  c #2AC5FD",
"y  c #25C9FD",
"u  c #2CC9FE",
"i  c #33C3F4",
"p  c #3AC4F3",
"a  c #33CBF7",
"s  c #3BCAF5",
"d  c #34C6FF",
"f  c #32C6FB",
"g  c #3BC7FC",
"h  c #33C9FB",
"j  c #31C8FD",
"k  c #32C8FD",
"l  c #33CBFC",
"z  c #31C8FF",
"x  c #30CAFE",
"c  c #37CAFD",
"v  c #34CBFF",
"b  c #30CCFF",
"n  c #33CBFE",
"m  c #39CBFA",
"M  c #3ECAFB",
"N  c #39CBFC",
"B  c #38CBFE",
"V  c #39CCFF",
"C  c #3BCDFF",
"Z  c #3CCEFF",
"A  c #3BCDFD",
"S  c #2FD1FE",
"D  c #35D0FF",
"F  c #3ED1FF",
"G  c #3CD1FE",
"H  c #44C3EE",
"J  c #42CBEF",
"K  c #51CDEF",
"L  c #42C7F4",
"P  c #42CAF2",
"I  c #42CAF4",
"U  c #41CAF4",
"Y  c #4CCDF4",
"T  c #44CFFA",
"R  c #43CDFD",
"E  c #4BCDFB",
"W  c #54CEF3",
"Q  c #5ACFF0",
"!  c #50CDF9",
"~  c #5BCEFA",
"^  c #58CEFC",
"/  c #49D1F7",
"(  c #43D0FD",
")  c #44D2FE",
"_  c #49D0FD",
"`  c #49D0FF",
"'  c #48D2FF",
"]  c #4ED3FF",
"[  c #4DD0FC",
"{  c #4FD7FF",
"}  c #4BD3FE",
"|  c #46D9FF",
" . c #4CD9FF",
".. c #52D3F7",
"X. c #5AD5F7",
"o. c #5DD4F5",
"O. c #50D1F9",
"+. c #54D3FE",
"@. c #54D4FC",
"#. c #5AD6F8",
"$. c #5BD2FC",
"%. c #5DD2FD",
"&. c #58D6FF",
"*. c #5BD6FF",
"=. c #5BD4FD",
"-. c #56D8FF",
";. c #57DAFF",
":. c #53DAFF",
">. c #59D8FF",
",. c #5CDAFF",
"<. c #61CAE8",
"1. c #63D2F5",
"2. c #68D7F5",
"3. c #6BD8F5",
"4. c #62D6FD",
"5. c #63D4FC",
"6. c #6AD6FB",
"7. c #62D9FF",
"8. c #61DCFF",
"9. c #63DBFE",
"0. c #6ADBFD",
"q. c #69DBFF",
"w. c #6FDBFF",
"e. c #68DFFF",
"r. c #6CDBFD",
"t. c #74D5F5",
"y. c #73DBF6",
"u. c #7BDFF7",
"i. c #71D7FD",
"p. c #72D6F8",
"a. c #74DDFC",
"s. c #79DEFC",
"d. c #7FDEFE",
"f. c #7BDDFC",
"g. c #5BE0FF",
"h. c #5FE9FF",
"j. c #67E4FF",
"k. c #65E1FF",
"l. c #68E0FF",
"z. c #6DE1FF",
"x. c #6DE2FF",
"c. c #73E2FF",
"v. c #7CE3FF",
"b. c #74EDFF",
"n. c #79ECFF",
"m. c #83DDFB",
"M. c #8DDFFB",
"N. c #87E2F7",
"B. c #8FE0F3",
"V. c #8DE3F6",
"C. c #85E4FA",
"Z. c #84E2FD",
"A. c #8AE6FD",
"S. c #8BE4FE",
"D. c #84EBFF",
"F. c #8BECFF",
"G. c #94E2F6",
"H. c #91E2F5",
"J. c #98E5F7",
"K. c #9AE7F7",
"L. c #94E3FF",
"P. c #93E6FE",
"I. c #9AE7FD",
"U. c #94EAF9",
"Y. c #94ECFF",
"T. c #9CEAFD",
"R. c #82F1FF",
"E. c #8BF3FF",
"W. c #94F4FF",
"Q. c #9BF4FF",
"!. c #AFE9F7",
"~. c #A3EDFF",
/* pixels */
"= = = = @ @ @ = = = = = & & & = - - t u - = = = = - - = @ & & = = & + = = - - - - = = = & & & & & = = - t - - = = = = - M - = & & & & & = & & = = - 7 r 7 = = = = = ",
"= = = 7 - = = = = = = = 7 r r & = & = - r k t.i.%.F = = - & & @ + + & = - = & & & = = = = = & & = k n 5 = V #.<.G.B.X.+.r w ] 7 = & & & & & - - t t u 9.*.~ r - - = ",
"= - = - t u q - = = q t t r - r - - - - r 7 & & = & & - r 5 = & & & & - - = = = = 7 r f i = = = r d - & & & = - - k t 5 7 = - m - = - = - c &.w - - = = = = t j - = ",
"c a r = - r V q.O.R B 2 = & & r } u r - = + = = 7 t t 7 - - 5 - = - = = = - = - t r L.;.7 } k = = & & & @ - = = = = = = = & = = r t e *.T - = # & & = + + = = - m B ",
"] J.d.r - = = r t t = = & & r u - = & & + + + = - - - & & + = r M V - = = - t S.c w.- - - - h k r t - & + + & & & & @ & = = = - - U.4.t = = = + + + + + & & & = - r ",
"t r V l.$ - = @ @ @ + + & & = & # = O = 7 = & + + + + & & = = - - - t = - % C.>.r - = = + = - 7 u t - = & & & + @ = + + + & r 8.g.r r r r - - - - = & & & @ & & $ r ",
"= & 7 7 i ;.y 7 - = = = - - u { } I f.z.u r 7 - = = = = - - r r r - u j.q.P t - & & & & & & + + & = = r r 7 = = = = = & = r - - - = & = 7 r r - = - - = = = - e.} 2 ",
"& @ 7 7 - - u M @.E t v S.S.;.v 7 r 7 r 3.R t 7 r r r k 3.%.r = - j r & - - r r = & & = - - # + + & & & r M R k r = = = - 7 r r - & & = 7 7 } s.w r - - r F ;.t = - ",
"= = - & & & & 5 t ) ~.T.f t 7 7 7 = & - - t =.6.a.v.n.v 5 = = & @ @ = = & & = 7 r - - 7 - & + @ + & + & = 7 u l R P.r 6 7 7 7 7 r 7 7 - 7 v ) u S.n.} 7 | R - - - & ",
"= = & @ + = - - 5 r v B t 7 7 - & + + + = = - t v >.,.v 7 = & + + + = - - - = = - - = - & + @ & = = = 7 - - = - - - q.) 7 @ & = 7 7 - t M i 5 r y R d.3.4.- - & & @ ",
"= & & @ + + + + & = - - 7 7 = = & @ + + + & = - 7 t l V S.t = & + + + & & = - = = @ + & & + - - w P.I.} - - = & = - t ;.W - = & & - u u = = & & = - r } u $ = = = + ",
"& & & - = - - - 7 - = = = & = & = & # & = = r t % $ $ = 7 2 ;.Q.r - & + o + + + + & & = - - y ,.4 - 7 % q E. .u t - - @ r % u & @ + + + & & & & & & = = # % v r = = ",
"- & - - 7 - - = = - u E < 7 - = & = - r u r 7 = + @ @ & = - 7 u q.c.y = & & + @ = = = = - u a.r = - & = * = - = O - 7 r - - = - - - = & + + + & & @ + = & - = l } y ",
"7 - - = @ @ = - = - q u c.w.G = = B B r = - & & & @ & & = 7 7 7 r w q.u = t k - - = 7 r t - = = = @ + + & & & & @ @ @ = - = = 7 - - = & & # + + + & = & - - - - - r ",
"@ - - - - - - 7 ) l r - 2 q Y Z.V u - = = & @ & & & = = = = = = - - r B j - = k u u r r = & = = & & & + + + & & @ @ @ & = = r *.~.n - - = = = = & & = = = & & & = & ",
"+ & u c.Y.9.% ) G - & & & = = = - - - = & + & & = - = = & + & & = = = = & = @ & = - = & & & & & = = & & + & = = = = = = % c 8.u 7 ) s.m $ - = = = = = & & & & & & + ",
"q P.i 2 7 - 2 ,.u 7 = & + + + + + + @ + + & = = = = = = & + + = = - - - = & & @ + = = = & & & + = - - = - r V M } b.c.>.1 % - - + & - < i  .F.r - = = = & - 7 = - % ",
"{ 7 7 7 & & @ @ u u - = & & + + + + + + = = = = = = = = = # & = # = r r - = @ + & @ F.Z.: = = = = - 7 - r r - = % 2.9.6 = = & & @ + & = - r 7 } f % % w } r - = r M ",
"7 - = = & & & & & & = - = = = = = = - - t z.S.O.O.} = & - u k B r - - = & = = - E ] w - i E g r = & = = & = - 7 - r w r - & & - - = - t u - - = - q 3 - = = = 5 r 7 ",
"@ @ @ + & & = - = & & = = r k r = = r k k 7 7 r c 5.Z.v = = - = = @ & = 7 r q.Z.- - = & & - 7 M.] R y 5 7 7 - = & & @ + & & & = r V B - & @ & & = = = = + = & = = = ",
"& = & = + + @ & = = = = - - 2 r t l u 5 = = - y r 5 t a.7 - = & @ + + & u u r = - @ & + & & - 2 - - - - = - & + + + + & = = = = = = - = = & & & & & + & - = & = = = ",
"= = & = & + + & = u q.$.- = = = 7 = = = = y r # = = - = +.M = @ & + + + + + & & + & = = r r r 7 = & = & = = & + + + + & = = = & & & = = = - & @ + + + @ & = = = = = ",
"f q < - - - - = n !.r % f.n = = = = = = & & + + @ + & = = = - - = = = & + & & & & r r y r = = = = = - Q w - - = = & = & & & & & & - = = 6 - r r # & @ & = - 7 8 P.h ",
"# % > e.} ,.,.*.9 r - = 7 < g u - = = = + + + + & & = + + + = - 7 M &.q = = = r u r = & & & & = r l.R $ 8.l.r = = = = = = & = = 7 ,.o.O.+.= = - - - = = = t n.} r r ",
"& = - 7 y ,.F r - = + + & & & & = = = = r r - & & + + + + & & r Z.x.t | I.} t r = = = & = r #.R O.y 7 7 8 u Y.) t y 7 y 7 r r 1.p.y 6 7 n ! r = = = - t { r.S - 7 + ",
"+ + & = - = - r r - + + + + + = = = = r 7 V r - = = & + = = r f.u r r r y 9.k - - = & & = = - t - - = = 7 t y w ..S.@.u w.u r.u 7 7 & = 7 r c = - m $.w.G r r = @ @ ",
"+ + @ @ @ = = - - - + + + & = - - - r y { +.R r - 7 = = = y 2.v 7 - @ = - y n } c = = & = = = = = = - V t 7 = = & r #.*.r n V t 7 = + @ = - - r - = = - 7 7 r = & @ ",
"& + + + = = 6 = & & + = - = 7 t r 5 e f.S.r u ;.} n 5 5 [ z.7 - = & & + & = = = - r $ = & = = @ = r ) G - & @ @ = = = r u r 7 - = & @ @ & = - u u 7 = & & = = 7 7 = ",
"= = = - q F W.J % = = - 7 - - - q > w 2 - - 5 7 - % ; , = = & & & & = & + + + = = = t r t = = r t r - & @ + + & = - r 7 r = = & & + & & - t t 7 r h R r = & + + = - ",
"y u z.o.t - 7 y 9.Y.u 7 7 - = = & & & & + & = 7 t M ;.k = & + @ & + & & @ = + & = & & = = c.v.5 = & + + & = - - - - & & + & & & + 7 t r r = = & + + = $ t 7 = @ + & ",
"r w.V 7 - = @ - - n P.> - - - = = = 2 @ & & = 7 - - r O.t @ & = = = + = = - & + + & # + d.q.r = & + & & = 7 m F y = @ & + + & - - l Z.3.y - = & @ & = = - r c 7 - 7 ",
"q.= - - = & + & = = r l.W t - 7 r { F t = & = + @ = = = r c m u = - & = & @ & & & = Z.Z.f - - - = = = 7 w r - $ r r y = & & = - | P.u r A Z.y = & = = = = = t *.t e ",
"r = & @ = = = = 2 r r r r F ,.) r = = & = - & @ + @ + & = = 7 7 7 - = j 9.9.r r i c.1 7 = & = r r - r r 7 = & & = - t t 5 < 8.c.>.7 7 = = 7 c.E B u = = & = = 7 c.) ",
"- r - = = = 7 r r - = = = = - - 7 r & & & & @ + @ & = = = = & = $ v R s t r w.c.h - 7 - = @ & & & = = = @ + + & & = = 7 r < t r - = & & & & = = & & = = # = & = & = ",
"+ & @ = = = = # & & & = 7 - - & & = - - = & & = = = q a.) - = & + & # 7 7 r r - = - 7 r t 7 = @ & & + @ + + @ & + - u u - - r r - = & & + + @ & & & & r 7 = & & & & ",
"& & + + + @ @ & & & @ = = & & & @ & & & - - 7 Q.D.>.;.y ) P.q = = & & = - - = = = & & @ = r V z.D.9.v - & & = 1 :.u 7 = & & & = r r r - & + & @ & & & & = = = = t r ",
"u 7 - = = = - - = & & = - & & & - n >.@.7 ,.a.G 2 = - & = = u =.A G t t & = & & & @ @ + & u t u - = r r u V n n - & + + + + + + = & = - 7 7 & & & & & = = G f.&.r = ",
"r t c r r t = - = y ) f 2 5 = & = 7 = B Z.v 7 5 - & + + & - = = 5 t 7 = & @ + + + & = - t u 7 = & - 7 y V S.E r - = + + + & & & + & = = 7 r B t 5 - 7 5 c f.r - = = ",
"+ - 7 q 9.s r R s.R r = = = & & & = - r y - - + & + + + @ & + & & - # @ + + + + & 7 r t = & & & = 7 D M.G 7 M 1.A.r = & & t r & + + @ & & = - u 9.v.N.S.c - - = & + ",
"= = r t t u R 7 - = = + & & & = = 7 - = - y 7 - = & & & & & + & & & & & & # & = r 7 - = - = 7 - O.R.:.7 - = = - r M u - = = = - = & & & = = - r u k t 7 = & + + @ = ",
"t n u 5 = = r r r - & = - - - t n = & & & # = 7 - - & & & & = & & + & = = = 7 - = - k k = r l R # - = & & & & & & & & = y y - - 7 - 7 - = - 7 r r r - = & + & & & - ",
"- = = & & & = - 7 r y r R.F.l.7 = @ @ @ @ & & = = - y r 7 - - = - - r n | l k 7 c q = & 1 r r r 7 - & + + @ & = & & @ & & = - 7 :.z.Y / f.t - = & & & = & = = = 7 u ",
"+ + + + & & & & & - ,.D.q r l ,.y = & @ + = - - 7 7 r r c Z.u 7 7 n Z.E = 7 a j = & & + & = - = r r u - & & & = = & & & = 7 ) s.T 7 7 - u f.v.t & & & & = = 7 *.k - ",
"= = = + & & & & - ) h 5 7 7 7 $ O.r - = - r 2 - - = r - - r :.v.u.) - - - = & & = + + + & & & & = = - M M r - = = = = - = - - = - = + & - 7 r j u r = & t / ,.r = = ",
"= - - - & & - u y.r - = & & - - - V q.c t = & & + & & - 7 - - 7 - - = & & & + & + @ & & & + & & + & & - 7 V t t h E m.B - = & & & & + + & - - - 7 r q r r t - = & + ",
"& & # - = r r 7 = = & & & & & & = = t B r r r - = & & & + = - - - 7 = & @ & + & & - = = = - 7 = & & & & @ = y 0 I.*.5 v c.7 - & & & @ = 7 r - = - 7 7 7 = & & + + + ",
"= < z.v.i 7 = = & & @ & - & & & & = = = = 7 y y 7 7 = & & = = = - - 7 - & @ & & = = 7 y i D.v.p = & @ # 5 ) *.:.r 7 7 7 t } G - & = - r - & & & = = & & & & & = = - ",
"8.s % q T ,.r = = & = r = & & & & & & - - - = = = = - - - r - = - & + + + + & - - -  .>.0 2 r 0 n.l.,.u r $ = & & & @ @ & = = 7 u r = = = - - & @ & + - -  .W.v r 7 ",
"t 7 - 7 7 t #.j - - - & & & = & & & & = - - = & & & - 6 V.] } t = = + = = = = r V =.V t r = & - r v 2.V - = = - - & + + @ & - r 7 = & + = 7 k = = = 7 m.Z.[ S w.$.r ",
"= = & + = = 7 #.r - = & = = = = + + & @ & + & & & = - J.*.7 u Z.r 5 = = = = & & = - - 7 - & & & r r t k u r = = - - = @ @ & & & @ + & & & = 7 7 5 r ..@.y - 7 7 F q.",
"& @ @ @ @ & = = 7 r r r 7 - = - = $ O = & & # # L Y.Y.) 7 7 7 r l.9.: $ = = # # = = @ @ & & * r y - & & 7 t t - = = = - = & & & + = $ $ 7 = - v Q.E.u - - & + = = r ",
"= & & & @ & & & & & + - r r u r e.E Y *.r - r < q r = - & & & & & O # r r = # & & + & & = 7 = & & & + & & & = - - - - - - - - = u l.K $.:.- - = & = = & + & = = - = ",
"= 7 = = - - - = & & & = = = i &.7 7 r 7 ] d.7 7 = = @ & & & & + + + & & & & + @ + = = = - = 7 - = & & & & + @ @ = = & 7 v t 7 k ^ 7 7 y 7 u.V - = = & = t t r - & & ",
"7 u 9.r - - 7 - y - - = = = = = = = & = = - l r y 7 = & = @ + + + + + @ & & & & = - - 7 t 9.F 7 = = = & & + + @ & = 7 u A.,.u 7 7 7 = = = & - r c u y r r 7 = & & & ",
"7 7 7 &.1.Y w.@.y e P.Y - = = = + @ @ & = = = 7 t u u - = & = & @ & & & + = = 7 = u f.a.m r = - = = = = = = = = 6 r +.m.e r ,.n 6 = & + + + @ @ = r t 7 = + + + & & ",
"& = - 7 F +.t 7 v l.{ b.n.s = # & + + @ & = = @ @ = 7 r y - & & = = - r t q u :.E. .r r - - = 7 y u ) n w 7 r : H { t - - - - F F < $ = & + & & & & & = = & & & # & ",
"& = = = - t n n - & - r r q ;.7 - = = & & + + & - - = & + + & - - 2 7 = = 7 r r 7 - = = & = & & = & = = y 4.v t - - = + + + & - = = M M u = & = - - - u r ;.r = - - ",
"= = = = 7 r q - = & = 7 7 r r r - = - & + + & - 7 7 = & + + @ - = r = = = = = - 7 = = = & + & + & & = - t 7 r 7 - = + + + & + + & = = y r r q r 5 r u t y < &.[ 6 - ",
"- - v c r = = = = = = = & & = r } k r = = = 7 - = & + & = = r c 7 - @ = + & & = - = @ + + + + & & 7 u u - - & & - y - = & & + + + & = = = = 7 r D c n = = = 7 l V.w.",
"a.) h y - & & = 7 7 = & & & & = = = r r 7 M S.n r - = = = A O.V A V = & & & = = & & + + + & 7 & & & & & + + + & + & = - = - - = = = = & & & = 7 r - & & & = - y t F ",
"G - - = = & & & & & = = & & & & @ = = y R >.y 9.F.l.5 y ) c - = = 5 r 7 7 r - = + = = = = u c c & & & + @ @ & & & & + + = - r r r r = = & & = = & & & & = r r r = = ",
"& & & @ = - = @ + + @ - 7 - = = = = t D r - 7 7 t [ l.k 7 - & + & = f h.D.) p = = = = = 7 u 7 7 t - = = = = t t r & + + & = - 7 ! F.E $ - - & + & & = u t - = = & & ",
"& = = + + & & = = = = = n k ) n u { - = = & + = = = t k y = # & - t % = - - . >.u 7 = = & + & = & = = - r n i q r y - = = t k.Z.X 5 < I z.) - - y y 7 - & & & = + & ",
"= = = = = = = = = = = = = - < &.+.- = & & + + + & = = - r u = = = = = & & & = & 7 u r r 7 = = u Z.T.:.r r - - = = = r y r } t - = + & = = t ) t = - = = & & + + + @ ",
"= - n Y.t = - - = = = - k k r = = = - - - & & + + @ @ @ + @ = 7 = & + & & @ @ & @ & = - 7 r w.Z.5 - n s.*.c r r - 7 r r 7 = = @ & + + + = & = r k u - - = - = = t ) ",
"= v.H.t ..v.u y y u V B m q = + = = - r r r = = = = = + & = 7 = - 7 7 = = = & = = = = 7 r S.t = - = = = f Y ..,.v 7 - = @ & = = & + = & & & & & r r h u 7 - - - = 6 ",
"k.W V - 7 g Z.) ) ) M - = = & = & + # + = - t y 7 = = = - - 7 = = r l.] q y = - 2 t c k ] - - & @ @ + + & & = = - = @ + + & & - - & & & & & & & = = 5 G c.v y 7 = 7 ",
"y 7 = + @ = = y ] w - & & & & + + + + + + & = r k R :.v t - 7 y v.r.u y %.#.u - = - r 7 = & @ + = & + + + = 7 - = & & & = = = = - - = & & & & = 7 t M V - #.w.) v u ",
"= & & @ = 7 r 7 = r r % = & & = = + & - + + & - - 7 - - F A 7 w.R t 2 7 7 7 } R - & = - # + + + + - = 2 j v 7 = & = = u R - = & + - r 7 = # = r ) M r = - - t P.*.r ",
"+ + @ = - 7 = & @ & - 7 r r = = = = = = = & + & & = 7 7 7 ) S.t - - & & @ = - r u = - 7 = & & + & & & 7 = & = = - 7 u.S.:.{ - = & & = 7 t M V t 2 = = & = = r = f l ",
"& & - - = & @ @ @ @ & = r r 2 1.I.y - = - - - - - - 7 V ) y 7 - = & & + & + & = = - 7 r u 7 = = = & & & & & & - - #.+.y t ) +.= = = = = = - 7 = & & @ & + & & - - t ",
"- r - & + + + + + @ & - - r ;.r r 0.) y - - c l u q k - = = & 7 r - + & & & & + @ & & = - v F 7 = = = = & = -   P.t - - - - t s.G 7 = = + + & & - - 7 & + + + & - = ",
"= = @ & + + & = & & = r j.z.r 7 7 7 c.q.@.5 7 - y r & @ + & = = - = = # = & + + + & = = = 7 r = = = 7 c t - ! n.t - = & & = 7 v Y.2.s $ = + + + = - r r & & & + & @ ",
"k } } y = = = r t t q = = = & + + + & = 7 t y & & & + + + & & & # = r v B u r 7 t  ...] i V ) = = = & & 7 = = & & & + & & = - 7 7 = - - 7 r 7 - & & = = 7 7 r | r - ",
"7 - u q.+.r 7 v F.0.r = & & & & & & = 7 7 = 7 7 = & + + + + + & & & & = 7 v q.9.9.t = = = = r ,.r - - - 7 = + + + + + & - y r r - & & = t w Z.m r y 7 7 7 v Z.3.) r ",
"& = - r c n v Z.R z.s.2 = = & & & - 7 - & & + = 6 7 = & & & & + + & + = - - { c.l = = - & = = - a.F y = & + & & & = = r 7 = & = = - = r z.Z.u *.P.c r t r q = = = t ",
"& = = = r &.f.- 7 7 n D.< 7 = = = = & & + & = 7 6.F.+.7 = = & & & & = - - t r r r = @ & + & & = - ) q.k - & = = = r 7 - & & + & = r r *.R 2 - - r P.&.y - = & # & & ",
"& = y ) c.>.- - & = = 7 } } v 7 7 & + = = - f M.9.G 2 6.r = = = = - r y r - = = 7 u & & + + + + & & & = r r r r r = = + & & & & & y M q = = & = & = - a.Y - & # & + ",
"= r E v - = & & & & = - - = - r = = = = r o.R r - - - 7 9.} - = 5 M u 2 & = & & = 7 u 7 - & = + + + & & = = t 9 1.#.7 = = = & & - t 7 = = + & + @ = = = 2 u 7 = & & ",
"t % & & & - & & & & & & = & = = = = 7 B % & * = & & & = = 2 w ,.. r = & & & + @ @ & + # t - - & & & = - r q.5.w = 2 c.] 7 r u 2 = & & & & & & + + + + & = 7 % m r 7 ",
"= = & & & @ 2 = & & & & & & & & = r V - = = @ + + + + + & = - r - - + + + + & + + & & & & M R - = & - r +.r = - = - - u ,.B r = & + + + + & & + & & - - - - - r &.V ",
"= = = = + & @ & - = & & & & & = - = & = = @ = = @ + @ + + @ & & & & = @ + + = r = & & & & & = - - = & & & & @ @ @ @ @ & = = = - 7 - = & + + + & & & & = - - = & = & "
};
