/* XPM */
static const char *normal_floor_24[] = {
/* columns rows colors chars-per-pixel */
"24 24 93 2 ",
"   c #1CB3ED",
".  c #0EB7F2",
"X  c #0DB3FD",
"o  c #0FBBFD",
"O  c #14B6F7",
"+  c #19B9F7",
"@  c #12B5FD",
"#  c #15BAFD",
"$  c #1ABDFD",
"%  c #33BDEB",
"&  c #22BDF4",
"*  c #22BFFC",
"=  c #15C2FE",
"-  c #1DC2FE",
";  c #29C0EF",
":  c #22C1F6",
">  c #2CC3F4",
",  c #23C3FD",
"<  c #2BC5FD",
"1  c #27C8FF",
"2  c #2CC9FE",
"3  c #37C8F7",
"4  c #3BC8F4",
"5  c #31CBFF",
"6  c #31C8FD",
"7  c #36C9FD",
"8  c #37CAFE",
"9  c #32CCFF",
"0  c #36CDFC",
"q  c #37CFFF",
"w  c #33C9FE",
"e  c #3DCBFB",
"r  c #3DCEFA",
"t  c #3BCBFD",
"y  c #38C9FE",
"u  c #3BCFFD",
"i  c #3BCDFE",
"p  c #39CFFF",
"a  c #3DCEFD",
"s  c #39CAFD",
"d  c #3CD1FC",
"f  c #3FD1FF",
"g  c #48CCF3",
"h  c #41C9FB",
"j  c #40CAFB",
"k  c #45CCF9",
"l  c #44CDFB",
"z  c #42CFFD",
"x  c #42CEFF",
"c  c #46CEFE",
"v  c #4CD0F6",
"b  c #47D2FD",
"n  c #45D3FF",
"m  c #41D1FF",
"M  c #4CD6FB",
"N  c #48D1FD",
"B  c #4AD2FC",
"V  c #4ED3FF",
"C  c #48D5FF",
"Z  c #4FD4FF",
"A  c #4CD9FF",
"S  c #56D5FF",
"D  c #5DD3FB",
"F  c #5BD7FD",
"G  c #5AD5FE",
"H  c #5CD8FA",
"J  c #5CD8FE",
"K  c #5DD9FF",
"L  c #5CDAFF",
"P  c #5DDDFF",
"I  c #73D2EE",
"U  c #6DD7FE",
"Y  c #61DBFF",
"T  c #69DBFF",
"R  c #6BDBFF",
"E  c #74DDFD",
"W  c #7ADFFD",
"Q  c #64E2FF",
"!  c #6BE6FF",
"~  c #75E7FF",
"^  c #7AE1FF",
"/  c #7FE3FD",
"(  c #88DEFF",
")  c #86E2FB",
"_  c #83E3FC",
"`  c #85E4FF",
"'  c #8EE1FF",
"]  c #8FE5FF",
"[  c #8CEAFF",
"{  c #94E6FB",
"}  c #9CE2FB",
"|  c #9CE8FF",
" . c #A3EBFF",
/* pixels */
"# # # # # # g # @ X # @ # @ 2 $ } 2 - @ # 2 D # ",
"- $ # X # # @ @ @ # # Y $ # < X X @ $ , # X @ $ ",
"# @ < V - @ C ` # X @ - $ X @ - x $ - - t [ / $ ",
"@ $ - @ # @ - # - h X X # , $ ] 1 # @ X @ @ $ # ",
"#  .8 @ @ # X # X # # @ @ @ # @ # $ q ^ # # @ X ",
"@ @ @ # # # 4   , - # , , R $ @ - , $ , # $ # $ ",
"# $ q F # # - X $ @ X X , - # # # X @ # , X # ' ",
"X # < X # # p @ # 3 - $ @ # $ 1 H B < @ , : , X ",
"# E ; - $ # # X X X X # @ - $ X # $ @ @ 2 + # @ ",
"# # $ 1 4 # # X # $ : $ - # $ # # 1 I - - < # _ ",
"$ @ @ @ @ # 2 , Z $ @ @ X , L $ F @ # , @ @ # M ",
"# 2 * @ @ - , @ @ # X $ # # { $ 1 # $ @ @ a # @ ",
"X @ @ x L # # - ( - e 6 X # 1 @ # # U , ) @ # 8 ",
"$ , # X @ # < $ @ $ $ @ - | @ 2 < < # - @ # @ # ",
"@ # , @ # @ @ # = > # @ $ @ 1 < # @ @ @ # - $ f ",
"$ $ # # L , B @ X X @ X # < @ X @ & 9 - W # 2 @ ",
"# - 1 < # X X # @ # $ , $ @ # ! p @ $ p @ # , # ",
"f # $ @ @ # Q . A 6 @ @ @ 2 @ X @ # , # @ # # 1 ",
"# X # # r $ X - $ $ $ b # @ o 2 $ # l - l 1 @ @ ",
"t - b # # @ , # - # R $ h # X @ - X $ @ @ # v $ ",
"X # X - # # # - & O X # , @ @ @ # - # # * # X $ ",
"2 # , $ X # 2 @ @ @ 6 $ P t # $ @ @ - < $ @ $ $ ",
"# ~ # > $ @ , % # # , # @ X O $ - X @ m #   # X ",
"# @ @ @ @ p # X # # X X @ c # , # S # @ @ @ $ S "
};
