/* XPM */
static const char *normal_trail_155[] = {
/* columns rows colors chars-per-pixel */
"155 155 205 2 ",
"   c #008FEE",
".  c #0091EE",
"X  c #029AED",
"o  c #089EEF",
"O  c #008FF1",
"+  c #0094F4",
"@  c #0199F6",
"#  c #089CF4",
"$  c #0097F8",
"%  c #019CFA",
"&  c #0A9DFA",
"*  c #09A6EE",
"=  c #13A4EE",
"-  c #03A4F5",
";  c #0BA4F6",
":  c #04AAF5",
">  c #0AABF5",
",  c #01A3FC",
"<  c #0AA5FA",
"1  c #03ABFD",
"2  c #0AADFD",
"3  c #14ADF6",
"4  c #1BABF4",
"5  c #12A5F9",
"6  c #13ADFA",
"7  c #1AAFFA",
"8  c #0AB2F6",
"9  c #05B2FD",
"0  c #0CB3FD",
"q  c #05BAFD",
"w  c #0CB9FD",
"e  c #14B4F5",
"r  c #1FB2F7",
"t  c #1DB9F7",
"y  c #12B2FE",
"u  c #12B5FD",
"i  c #14B5FD",
"p  c #16B6FD",
"a  c #15B5FE",
"s  c #14B5FE",
"d  c #15B7FE",
"f  c #13B4FD",
"g  c #1CB5F9",
"h  c #18B6FD",
"j  c #1AB6FD",
"k  c #18B7FE",
"l  c #1AB4FD",
"z  c #1EB5FC",
"x  c #1AB6FC",
"c  c #15BBFE",
"v  c #14BAFD",
"b  c #18BAFD",
"n  c #18B8FE",
"m  c #19B8FE",
"M  c #1BB9FE",
"N  c #1CB9FD",
"B  c #1FBBFE",
"V  c #1CBAFD",
"C  c #24A2EE",
"Z  c #24ACF4",
"A  c #23B2F5",
"S  c #2BB3F6",
"D  c #24BAF7",
"F  c #2CB9F3",
"G  c #23B5F9",
"H  c #22BBFB",
"J  c #20B9FD",
"K  c #20BBFD",
"L  c #22B9FC",
"P  c #22BFFE",
"I  c #25BEFD",
"U  c #23BDFD",
"Y  c #2BBEFC",
"T  c #3AB2F3",
"R  c #30BFF7",
"E  c #3DBBF7",
"W  c #33BEFB",
"Q  c #38BBFA",
"!  c #42BFF3",
"~  c #4FB6FB",
"^  c #0EC3FE",
"/  c #14C1FD",
"(  c #1CC2FD",
")  c #17CAFE",
"_  c #25C1F7",
"`  c #24C1FD",
"'  c #2DC4FD",
"]  c #2CC2FD",
"[  c #23C9FD",
"{  c #2CC9FD",
"}  c #35C2F7",
"|  c #3DC3F6",
" . c #34C4FE",
".. c #33C4FD",
"X. c #3BC4FD",
"o. c #3BC5FC",
"O. c #34C9FD",
"+. c #3FC9FE",
"@. c #3FCDFE",
"#. c #3CC9FD",
"$. c #41C7F6",
"%. c #4DC4F2",
"&. c #4ACAF7",
"*. c #45C6FC",
"=. c #43C6FB",
"-. c #4BC5FB",
";. c #49C6FA",
":. c #43C9FD",
">. c #43CCFE",
",. c #44CBFD",
"<. c #48CAFE",
"1. c #4BCDFD",
"2. c #59C4F6",
"3. c #52CCF6",
"4. c #5CCCF6",
"5. c #55C7F9",
"6. c #53CEFC",
"7. c #5BCDFB",
"8. c #44D1FD",
"9. c #4CD1FD",
"0. c #54D3FD",
"q. c #54D2FD",
"w. c #5AD6FC",
"e. c #5CD5FF",
"r. c #5CD3FD",
"t. c #51D9FC",
"y. c #59DBFD",
"u. c #5DD9FE",
"i. c #5CD9FE",
"p. c #69CFF7",
"a. c #61C7F8",
"s. c #63CFFA",
"d. c #60D0F6",
"f. c #6AD3F6",
"g. c #63D5FD",
"h. c #69D5FB",
"j. c #6BD6FC",
"k. c #63D9FD",
"l. c #65DAFD",
"z. c #68DAFD",
"x. c #6CDFFD",
"c. c #6CDAFD",
"v. c #70D0F5",
"b. c #7AD6F6",
"n. c #72DAF7",
"m. c #72D5FB",
"M. c #7AD6FB",
"N. c #75DEFD",
"B. c #74DCFD",
"V. c #7CDCFD",
"C. c #66E3FE",
"Z. c #6BE1FE",
"A. c #74E1FE",
"S. c #7AE1FD",
"D. c #78E2FD",
"F. c #7DE2FD",
"G. c #88D6F7",
"H. c #84DAF7",
"J. c #82D6FB",
"K. c #83DDFD",
"L. c #8ADEFC",
"P. c #93DDF7",
"I. c #93DFFC",
"U. c #9BDFFB",
"Y. c #85E7FE",
"T. c #84E2FD",
"R. c #8CE3FD",
"E. c #83E9FF",
"W. c #8BE9FE",
"Q. c #98E0F6",
"!. c #93E4FD",
"~. c #9BE5FD",
"^. c #91ECFE",
"/. c #95EAFE",
"(. c #99EBFC",
"). c #9FECFD",
"_. c #9DEEFD",
"`. c #9CEAFE",
"'. c #93F0FE",
"]. c #9AF2FE",
"[. c #A3E6FD",
"{. c #AAE7FC",
"}. c #A3EAFD",
"|. c #ACECFD",
" X c #B1E6FC",
".X c #B3ECFD",
"XX c #BBEDFD",
"oX c #A4F1FE",
"OX c #ACF1FF",
"+X c #AFF9FF",
"@X c #B4F2FD",
"#X c #BBF2FD",
"$X c #BCF9FE",
"%X c #C4EEFD",
"&X c #C4F3FE",
"*X c #CAF3FE",
"=X c #CBFAFE",
"-X c #D3F5FE",
";X c #DCF6FD",
":X c #D3F9FE",
">X c #DBFAFE",
",X c #E3FCFE",
"<X c #E9FBFE",
"1X c #F2FFFF",
"2X c #FFFFFE",
/* pixels */
"% % % % % % % $ + + + + + + % % % % % % % % @ $ $ + + + + % % % , , u u k M % , % $ $ $ % % % % k j U % % + $ + + + + % % % % $ $ + + , % 2 1 1 < 1 1 , , , % % % $ $ $ $ $ + + O $ @ $ $ $ $ $ , 1 u 0 , , % % $ $ % % % % % % $ I U % < % % $ + $ + $ $ $ $ % % % % $ $ + $ % $ $ % 1 1 1 1 1 1 % % $ $ $ $ @ % % % ",
", % % , , % % % $ $ $ + + + % % % % % % % % % @ $ $ $ $ + + % % , , M k k k I ` a a % % 9 9 u.(.g 1 , % , $ $ + + $ $ @ % % % @ $ % % y y k 1 < < 1 1 < , , % % % @ @ % % $ + + O O + $ $ % % % 2 2 y y I :.+.% @ % % % % % % N.j. .V V j , , $ $ $ $ $ $ $ $ % % % % % + + % % % @ % 1 1 u.y.D.x., % % $ % % % % % % ",
"% % 1 1 , 2 a a 0 1 % % % % % % % % % % % % % < a v v M % $ $ % @ % % % , 0 2 0 M M E.N.z.^.:.;.% % % % , % , % % $ $ + + + + + . @ % % , , % % $ % % % % , , , % % , , , % @ + $ + + % , a V P 2 2 % 1 ,.o.<.9.>._._._._.q.0.*.;.1 1 1 P @.' , , % % $ $ $ $ @ % % % % , , , , , 0 k U U D.k.T.W.w.e.0 0 % , % @ % % ",
"% % , % % 2 y j j j 1 % % % % % % % % % % % % < a a a M % $ $ @ % % % % , , 1 1 a M k.h.0 9 % , % % % % % < < @ % % @ + + + + + + + + @ % % % % + $ @ % , , , , % % , , < , % $ $ + + % % j V U , 1 % % , , , ,.q.R.R.R.T. . .0 0 1 1 1 ] ] Y , , $ % $ $ $ $ % @ % % % , D.V.l l a Y v u , , , , 1.,.u 2 , , % % % % ",
"$ % % % % % , , y Y =.W , , % % % % % % % , :.V 1 1 % % k 0 % % @ @ % @ % , 1 1 1 1 % % % % % @ , , v % % k V a 2 , , $ @ % % @ @ @ @ % % % % % % % 1 , 1 0 , , , , S F.1 1 % % % , , y a Y , , $ $ $ $ % $ $ , , , , 0 u u 1 1 1 1 1 , , 1 , ` V + @ $ $ @ $ @ @ % % u y ....y 0 1 1 , % , % % , % , M k M ] @ % % @ ",
"% % % % % % % % 1 1 a ] ..,., , % @ % , V 1.M M 1 1 % % 2 2 0 0 k B 1 1 1 1 1 1 % % % % $ % $ % , 1.,.V k V a l ..] ] , , , , % % % % % % % % % % % , , h.0 , , $X}.R.6.<.e.0 % % % % 2 y $ $ $ + + + $ @ $ % % % , , u 0 y 0 1 1 % % % % , , M M 2 0 , , 1 1 1 , ..1 a j % , $ % 1 1 , % % % % % % % 0 y k M 0 1 , , ",
"v y u 9 , , % % % % , % 0 a z.1.I I v M a v , % $ $ $ % 1 ,  ...0 v 1 1 , , % % + + % % % % 1 1 ` I p 1 1 , , , % u 0 V U , , , , % % % % 1 % % , 1 % , ....2 ` V.K. .0 1 a #.y 2 % % % % + + + + + $ $ % 1 , % % % % % % % % % % % % $ $ % % % % 0 1 0 u ` ` k.w.P U , , % % + $ $ @ % % + + + + % % % % , , ..] U P ",
"..I q.0., % % % % % % % , % T./.T.6.1.>.u y , % $ $ $ % 1 , 1.Y v 0 , 1 , , % $ + + @ @ , % < l =.M 2 1 1 % % % % 1 1 U k.x., , % % @ % % h $ % 7 1., - u I _.`.0 9.M , 1 u 1.P 1 % % % % $ + + + $ $ $ , , , % % % % % @ @ % % % @ % + + % % % % 9 ..- 1 #X}.F.:.' a % % % % $ $ $ + % % + + + + @ % % $ , , ] ] P P ",
"P M I I o.R.1 , % % % % % % , , 1 1 , 1 % % $ $ @ $ , 1 1 U , , % % $ $ $ $ + + + + + $ 2 6 >. ., , , @ $ $ $ + + $ % , 1 y j ..l.1 1 % % , , % q..X|.B.0 , ,.<., , , , , , , a j I ] 1 1 y , , $ $ + + + $ $ + $ + + $ $ . + + $ % % % % @ $ , , 1 1.}.T.o.+., 1 % % % % @ $ + + + + + + + + + + + + $ % % % % % 1 9 ",
"1 1 % , &X|./.R., 1 % % % % $ @ % @ $ @ $ $ @ % % @ % @ , , , % @ % % % @ % , % + . + + @ @ + + $ @ + $ $ + + + + @ @ , , % 1 , , M M % % , , , ^.#XB.B.1 1 , , , , , % , % % % <  .>.Y ..V , , % $ + + + + + $ $ $ + @ @ + + + + $ $ % , , , , , 6.:.9 9 1 , 2 1 1 , % % @ % % @ +     . + + + + + + $ $ @ @ % % , , ",
"u 0 1 >.T...#.6.&X, , , , , @ @ @ % $ $ $ + z.@ % % % % -X@ , @ $ $ $ % , , , , , , $ O O   + + + + + + + $ $ % % % % , , , 1 , , P I % % , : , /.Y.#.:.1 a , % % % % + $ $ % % 1 ` <.]  .y 2 1 % , @ $ $ $ #XC + $ $ X $ + + + + + + % % 0 0 ` e.9.@.1 1 1 1 1 1 1 1 < , % , , 1 1 , + $ + + + + + + % % $ $ $ + , , ",
", , 1 , 1 , 0 0 I ..F.R.1 6.F.1 % $ $ $ % % @ , , , % , ;.~.j.B.`.w.=Xy.0 0 , , , , $ + O O + + + + + + $ % % % % , V #.o.k.' v o.h.g.O.1 M B.V.Y P , , , 1 % % % $ $ O + $ @ , , % , 1 1 0 M y 1 2 % % $ $ @ @ $ + % > 3 $ $ $ + + $ @ % 1 0 r.q., 1 , , , 2 2 1 2 2 2 2 % , , 1 1 1 $ $ + + + + $ $ % % $ % +.,.] I ",
"$ $ + $ , , , , 1 9 [ 6.>.;.9 h., , % % % % % , , , q w 1.| /.}.B.g.V.N.B.O.0 0 , , , , % @ $ $ $ $ $ $ % , , 1 1 a ..1 1 1 % , % ` 6.|.e.6.0 0 0 0 % % % % + $ + + + O + + + + $ $ + $ $ % , % 1 2 a M 1 9 @ , 2 T.V.- , , 1 $ $ , , 2 2 , , , % , , , , $ + $ @ 1 1 0 2 < y , 1 , % , 1 % % % % % % , 1 W 1.u V , , ",
"$ $ + + , , , , v 1 [ B u ..1 6.% % % % % % % % @ $ =Xn.r.> { `.9 ] O.h.T.l.0 0 @ , 1 1 % , @ % @ % + $ . , % < , y 0 1 1 , % , , w , @X}.T.a u 2 1 @ % % % + + + + @ % @ @   + $ + + + + % , % 0 0 1 a 0 v @ @ {.L.L.: , , , % % 1 % 1 , 1 1 , , , % , , $ + $ % 1 < 0 2 0 y , , , , , N.% % % % % % , M @Xj.` B , , ",
"+ + $ $ , , , % , % % % 2 0 a 2 :.#X9 0 , % &X|..X*X*XXX] #.1 1 , , 9 0 V ` F.` 0 u , 1 , 1 1 1 1 , M.q.1 ] :.] ..1 1 % % % 1 y 0 1 V % @ a 1 1 , , < 1 % % $ $ $ $ % , ` ,.w.% % + + + . $ $ $ % % 1 1 M Y w.~.`.;.r.|..X0 ` % % 1 1 1 1 y 0 2 < , , @ $ $ + % % 1 , % % Y k U v 1 6.F., , , , %  .V.X.1.9 0 % % % , ",
"% % % % % % $ $ $ % $ $ % % 1 1 a {.!.`.{ #.P ] !.&XI V.0 9 , , $ $ $ % , 9 T.F.B.c q c q / ( B 0 : .X{.1 (.R., , , % $ % $ % $ $ % $ @ @ $ $ @ % , 1 1 , 1 , , 0 9 0 M z.c.2 % % $ $ + + @ % @ 1.% % % o.|.|.1.' 9 9 ] ..XX*X` 1 1 , 1 1 , , 1 < 2 1 , , < , , , 1 1 v u P V 0 1 O.#XR.;.2 , 0 o.!.T., , , % , % $ $ ",
"% % @ @ % % @ $ $ $ % % % % 9 1 9 1 oX!.@X}.V 0 q.>., 1 1 , , , @ @ $ % , , , w R.R.~.R.!.-Xj.v c 2 ~.Y 9.9 0 , % M., % % $ $ $ $ % % % % $ $ % , , 1 1 0 0 , 1 :.1.9.6.9 i , v u @ $ + $ % @ @ , , % % =.o.V.9 9 9 9 0 w ~.~.< 1 , , 1 1 , , 1 1 1 1 1 < , < , , 1 1 M a P B } B ~.!.#.1.2 , =.`.~.Y , , % , % , + $ ",
"% @ % $ $ + + + . + % % , , % % 1 1 0 6 R.w..Xh.1 1 1 1 % % + + + + + + + $ % % 2 1 s.r.R.|.L.[.8.o.h.M P >.: % j .XE + + + + + + $ @ % % % , % 1 1 , , ..o.<.a ,...9.@ $ $ + 9 S m.% , , 1  .}.OX1 , , , , , , , 1 2 &X&X/.=X}.M , , @ @ $ $ % % 1 , < < , , u u c v M u < < 9 : B.0 a 7.V.B.}.3., % , < + + + + + $ ",
"% % $ $ $ + + + . + + + . + % % u.e.W W % , % , 1 , % % $ % + + + + .       . $ + + $ @ , , c .X.X;X&X7.Z.@.O.>XR.% % $ % + + + + + + $ $ % , < 1 ] ..=.1 U @ $ % + @ $ $ + + I , 9 9 8.1.=X<X*XR.'.u 9 % , % % % % % % % , 1 R.].O.] , , % % + $ % % 1 , I k 0 0 D =X, 1 , 1 oX|.1 , , , B w 2 1 % % % % % $ $ $ + + ",
"$ $ $ $ $ + + + .   + + $ $ 1 V 0 Q 1 , , , , 1 1 , % % $ $ $ + + + +       + + + $ $ % , , c .X[.R.K.%X=Xh.~.&XY % % % $ + + + + + + $ $ % , , 0 1 , , , 1 % % $ $ $ $ $ + + p , 1 1 O..X*X|.{.&XXX|.9 , , , % % % % , 1 1 9 q.w.] ..9 1 % % + $ % @ 1 , M a 0 u , o.e.] h B q.h , , 1 1 V V 0 0 , , % % % % $ % + + ",
"+ + $ $ $ + + + + + + + % $ U 0 , , $ + $ $ $ $ $ $ + $ $ % % % + + +     + + @ $ @ 1 1 ..o.~.OXr./.;.R.R.~.-XR.{.v B % , $ $ $ + + + + $ $ $ $ , , @ $ $ @ $ $ $ @ @ % % % % , , 0 9 ..~.B.p |.~.K.|.q., 1 < , , 0 u a u % , , , c T.T.1.% % $ $ $ $ + $ % % + % , , F.F..X}., , % % , 1 1 1 u ] ] I , , % % % % + + ",
"+ + + $ $ $ + @ @ + % , 2 l 1 1 , , @ @ % + % $ $ $ $ $ $ $ $ $ $ + +   + + , % , ] y g 1.c.E.|.D.@.k V ] E.}.|.g.g v 1 4 $ @ % $ + $ + + $ + $ + +   + + + % $ % % % , % % % , 1 =.;.k./.v a v E.~.q.e.< ; .X, 1 0 a v a , % % , v ' ~ X.y , $ + + + + + + + $ $ % % 1 1 , , % + $ $ , , , , B g 0 0 l y , , % $ % % ",
"+ + + $ + + % % % , 2 , , , % % 1 , , , % , % @ $ + @ @ $ % $ $ + $ $ $ + % I , , 9 u u v 1 1 , , , , , 1 >.+.: V.~.T.R.-XZ % 1 % % @ . . + $ $ $ + + + + + % % % % % % % , 1 Y.9.B.V...I @ , 1 , < [ 8 -X-XR.h.w.U 0 0 ] , , % $ , , 1 , l U % @ + + + + + + $ $ @ % @ $ $ @ %   + % % % % % % % , , V V 0 0 @ @ % % ",
", % $ $ % @ % , , , , , , , $ $ % % 1 , 0 B P 0 , , % % % % $ $ @ @ , , M Y I j 2 2 , , % @ O + + + - q 1 q...9 9 j.K.9.#.1.w.k.c , , % @ @ 5 A + $ $ % % % % % % % , , 1 V  .}.`.[ ( , , 0 1 1 .. .!.}.[.{.a j.u $ % , , 1 1 2 2 , , , , , , , % , , % % % % + $ + + .     $ % $ + $ + + % % @ @ , , , , M u ] ] 1 1 ",
", , % % % % % @ , , , @ @ , @ % % % 0 < Y c.V.&.@ , , % % % % % % % I j u 1 1 1 1 , % % @ @ . $ , 2 s._.oX@ w 0 9 L O.] 9 q.9.0.O., 1 % , 2 /.}.M @ @ @ % % % , , , , k 6 #.I T.Z , 9 , , N.m.M.] , 9 { 1 1 , % % % $ % % % , 1 , 1 1 1 1 , % , , , , , , % , + $ +   + . + + + + + + $ $ % @ , % 1 , , , 0 1 9 0 1 1 ",
", , , , , , % $ $ $ $ $ @ $ , , , W ] 1 1 a v o.j.j.0 b $ @ % % P U U k 1 1 % % % , $ $ + + + $ @ @ +   + % $ E.!...v ` e.] :.>.}.V.L.....j 1 0 V.D., < 1 , % , y y < a k j < $ $ % , : t.+ % 2 . + % % $ % % $ % % $ $ $ + $ , , 1 1 % % , , 1 , , 1 O.` o.#.% @ % % + $ + + + + + + % % % % , , , , , , , , , , 9 1 ",
"+ + , % , 1 , , , , , , , , 1 : g.c.0 2 , % % 1 - ` N.1.o.j.0 u 1 u , , % % % % + + + + + $ $ + % % % % % % , , , % , % < % Y V a q.r...h y , , < =.z.I 0 u u a 2 y V , % % % % % % % $ @ + $ % + + O O + + $ % % % % $ + $ + + $ , , 1 % 1 1 ....j.Q.7.e.7 1 2 1 % % , % % % % % $ % , , , , , , % % $ $ $ $ % % % % ",
"+ + 1 1 1 1 , % , , , , , , 1  .u.[ 1 9 % % , , , , b o.e.c.u y 1 0 , , $ % % % + + + + + + $ $ @ @ % % % % , , , @ % , , , 9 1 , w q u 0 u % % , 2 ] ] a a a y 0 0 a % % $ @ % % % % + + $ $ $ O   + + + + + % % % $ $ + + + $ $ , , , < 9 0 ' 9.&XT.u ] @ 2 P I 2 % % % % @ % % $ $ % % % , , , % % $ + + + % % $ % ",
"+ + $ $ B B ( 0 a a 1 1 , , ....2 0 % % $ $ + $ % % % $ $ % , , , , % % % % + + + $ @ @ % % , , % % % % % % % + $ $ @ % % % % % % % % % @ % % % % @ % % , 1 , , % % % % $ $ @ % % % % % % % + $ + + + + $ $ @ , , , % % % , , , , 0 1 v v w.w.B.h.1.1 v 0 ` ] , a % , % % $ % % , % @ % % % % $ $ + $ + + + + $ $ $ + ",
"% $ $ $ =.&.}.R.I i 0 y , 4 V. .1 1 % % $ $ + $ @ $ + + $ $ , % % % , % @ @ $ + + + % % % % % % , % % % , $ % + + $ $ % % % , % % % % % @ $ $ $ $ % % + , , , , % % $ % $ $ % % % + $ % % % % % $ $ + + @ % % , % , % % % , , % , , 2 ` Y B.}.M.<., 1 b u O.' I O., < , @ $ , % % % % @ @ @ @ % % + @ + $ $ $ $ % % + ",
", % w / |.L.] o.~.~.c.V.V.|.r.v % % % % $ $ + + + + + + $ + $ $ $ + + + + + + + . $ , , % % % , , , % % % $ $ + + $ + % @ % 1 1 0 % % + + $ + $ % % % % $ $ % % % , % % % % % $ + + + % % % % % % % , % 2 y ] ] I a y , 1 1 9 M B P M M ..1 , , , , , , @ 1 1 ' M 9.B.9.6.2 % , 1 , , % % % % , , , % , , % % , % , , ",
"v B ;.}.R.1.1 1 6.6..X/.D.9.}.1.0 0 , , % % $ $ $ + + + . + + . + + + + + $ % @ , , % , % % % % % , , % , % % % $ % $ % , , 1 , 1 1 1 0 0 , % % $ $ + + $ $ 1 , % , & $ % % % % % % @ % % , , 2 2 2 1 , 1 y l G 0 #.O.0 &XY r.#.o.1 9 1 1 % , @ % $ $ $ + , % , , u  .F.!./.` 1 1 , , % % 1 % , % U l 2 2 % % 1 1 v 0 ",
"` P F.F.w w 1 1 9 : q.1.c w (.T.v 0 1 1 % % % % @ $ + + + + + + + + $ + $ $ , , , % , % % % % % % % % % % , , % $ + % % % % , , , < < 2 0 , % % $ + + + $ % @ , @Xc.N. .% % @ + % % % % % 1 , 2 2 1 1 1 2 2 1 9 9 ' ' /.~.c.c.1.,.0 0 , , , , % $ + + + + % % , , u 0 O.O.E.F.] ] 2 0 % , I 0 ] I y 2 , , % % , 1 V M ",
"I .., 1 , % % @ + + + X ..g.0 s.B.h.>.=.0 M a , % % @ @ $ $ $ $ $ + ` 1 1 1 , ) 9 9 1.>.w 9 , , % % % % % 0 0 I P , , a a 0 M a P 2 1 , % % $ $ % % % % 1 , T.g., 2 0 2 1.} 9 % % % % % % @ % @ % % @ < , < < % , 1 1 0 y k M 1 9 , , % % % % , , + + +   + + % % , , 1 1 1 9 #.o.M v 1.j.V M , % % % , , 1 1 a 0 2 1 ",
"1 1 1 , , , @ $ + + + % 1 , , 1 1 ..0 , 0 u 1 % % % % % + $ $ $ + @ v @ , .X0 -XK.1 o.] 0 1.w c % % % % % 0 0 I I , , v a v M a P 2 2 % % @ $ $ % % % % ; [.h.` , < < 1 1.| v % $ % % % % $ @ $ $ @ % % % , , % , 1 1 0 0 M B z.R.a , % % % % , , + + O + $ $ , % 1 1 1 1 1 1 1 1 M V r.j.9 9 , , % % , % 1 1 k a 1 1 ",
"1 , % $ + + + . + + + + + + $ $ % % @ @ , , , V k 0 % % , % , % % , % , I =X;X>X*XK.,.p :.T.B.1., , % @ + % % 1 1 I I k 1 1 % , % , % , , % , , % , 1 , j.|.1 0 , , , , 1 , ` c...1 1 % % , , , % % $ $ $ @ % 1 1 1 1 1 1  .` =X=X|.M.&.1 % % , 1 1 1 % % 1 1 0.y 1 1 , % % % % % , , , , % % % % % @ % % 1 1 1 , , , ",
"% @ $ + + . . . + . + @ % % % , % @ $ @ @ @ , l Y  .I =.1 2 , % , , < m.-XR.s.K.*X&X~.R.q.i ` v ] R.5.- 1 , , , , 2 < % , , % @ $ @ % , , , 2 v o.m.2 +.Y u , , % % % % % 2 b B ] r.V.2 , 6 < 1 , % % % % % % , , @ 1  .M.V.V.D U |.V.#XU., , % , 1 1 y a M n.|./.1 1 % % $ @ $ $ , , % % @ @ + $ % @ % % , , , , , , ",
"+ + + + +   .   . + + @ % % , % % % $ + + $ , , 1 9 B 0 l.B., , , % V.R.6.q w { F.*X%X%X&X: 9 9 O.O.v ( &X, % @ % , , % % @ $ + + $ $ , , 1 u 0 h._.q.z., , % % + + $ , , 1 K.K.K.~.~.9.2 a 2 1 , , , % % % % % , % B Y o.1 , % < 9 9 B.V.1 , % % 1 k.t -Xr.l.1 1 >X@X$ $ $ + $ $ @ @ % @ % @ + + @ % % @ % % % % % % ",
"+ + @ @ $ $ $ + + + + + + + $ $ , , % , % % @ , , , , , v =.o.1 0 W F.[ 1 @ , , ] &XV.V.<X.X7.g.2 1 P q.y.9 1 , , % % $ $ + + + + $ + % % M M M 1 j , % , % $ $ + $ $ % 7 6.Y.B.c.c.x.R.g.2 1 , 9 1 , % , , , $ + + + + $ + $ % % , , v {.N.` , , % &.@X}.[.s.% % K.B.+ + + + + + + + $ + @ % , , % % % % % % % % % % ",
"+ + % % @ $ $ @ + . + $ + + + $ % % , , @ % % , % % 1 , 9 , :.] }.T.4 *X, % , , 9 : 7.j.&X*XG.` , 1 < 0 B  .8.1 % % % $ + $ $ + + + + % , u M M 1 1 % % % @ % + + $ $ % l h.6.1 9 v w !.Q.V.5 1 7.b.@ % , , , + + + + + + $ + % @ 2 9 1 >.R.!., % % 9 9 , 1 1 @ % , , + + + + + + + $ $ + @ % , , % % % % % % % % % % ",
"% % @ % % @ % % + + + + + $ $ $ , % c 1 X.7.0 % % % % % % , 1 1 9 , ` H.!.h.1 1 % @ w #.w .X{.~.|.B.L 1 < k ;.l V @ % + + $ + + + + + $ + . + + $ $ % % + + % % , % % j.,.+.0 2 0 , 1 1 1 ..T.B.w w 1 , % % $ + + + + + + + + $ $ % % 1 1 9 v V.|.- 1 , , % $ , , + % , , + + + + + O + + + + $ $ % % % % , % @ % % % ",
"0 9 , 1 0 , , % , % % @ % % % , M 1 j.;.6.;.0 , % , % % % % % % % % $ $ u R.R.) 1 0 Q.=XR.c.O }.& , , , % % % 1 ] ..9 % % $ $ + $ $ + + + $ + + + + + + $ % % % 0 1 1 q.;.v 1 1 , % % % % % ; :.z.k.<.v , , , % % % % % $ $ + + + $ + $ $ % @ +.`.|.B.% 9 % % , % w 1 l l 1 1 $ $ + + + + + + + + % % , , 1 9 o.;.9 1 ",
"1 1 , 1 1 , % % , % % % % @ % , B e Y.3., % o.].0 0 $ % % % % % % , $ + 1 1 Y.~.1.-XL.#X@.9 % 9 @ % , , % % % , 1 1  .% , $ $ % % $ + + + $ + + $ $ + @ $ + 5 , : 1 1 O.` v 1 , 1 % % % % % % 1 - {.Y , % , , % % , % % @ + $ $ $ $ + $ % $ % ' ( |...0 , % , , , , 1 1 1 , 1 $ @ + + + + + + @ $ , % 1 , 1 9 V.T.1 1 ",
"O...' ' x.N.9 c , % % , , @ >.w k.N.1 1 $ $ , 0 0 9 x.c.0 v , , % % , , % % 1 R.*Xh.B...% $ % < @X;.G , % % % % % 1 1 1 2 , , , , % % % % + $ $ + $ % % M : R.j. .>.8.% % % $ $ $ % % , % 1 0 w !.#XR.O.1 1 1 @ % % % % % % % % % $ $ $ % v  ., , I v I ] F.F.1 V , , % % , 1 2 2 , , $ $ @ % % % , , 0 0 1.:.v v ] ` ",
", , 1 , 1 1 w.q.b 0 <XQ.` { l.l.9 , @ % $ @ @ @ % , 1 , 9 , , 1 % % , , , , % @ + $ @ + 1 $ @ % % % + + + $ $ + $ % % , , 0 0 g ] Y.R.0 0 % @ % , 2 ] q.v x.2 ..% % % % @ @ @ $ % , , v c B.l.1.2 1 6.`.>.0.1 , , % % % % % % % % % % % , , , , , 0 9 E.e., y ..+.r.#., , % % % @ , % % , % % % % 0 9 R./.v 9 , 1 , 1 ",
", , , 1 1 1 1.9.P oX-X!.c./.+.>.1 , , % % % % @ % % , , , , , , % % % , , , % @ $ + $ I L $ % $ $ $ @ + + + + + $ @ % , , v 0 y ..1./.u B % % % % , 0 0 P 0 1 1 % % % % % @ % % $ 1 , v T.B.7.V 1 1 P `.Y.+.1 , , % % % % % % % % % % % , , , , % 9 0 D.y., 0 ]  .] ] , , % @ @ $ % % , , % % % % v 0 T./.U M , , , , ",
"+ $ 9 < U 1 1 1 b #X~.T.B u 1 1 % $ $ + + $ + $ $ $ $ $ $ + @ $ % % , % % , 2 1 1 , , , $ + + + + + O   + + + $ $ @ @ 0 0 A. .L B 1 1 ] @.e.P #.0 2 1 1 , % $ % @ % % % % 1 1 1.8.] ] 9.>.9 0 1 , 1 1 0 N.,.L ] ] 9 0 1 1 1 1 1 1 1 1 1 1 1 1 +.[ ..>.1 1 , , 1 1 u 0 ] ] , , $ % @ $ , 1 9 9 ' V e.B.O...1 , , , + + ",
"+ + < < 4 6 2 0  .0 A D  .#.1 1 1 , % $ + + + + $ + + + $ % % % % % , , < , , 1 u u , , % % % % $ + + + + + $ % % 1 , l.f.A k 2 1 , , k M U }  .y 0 , % % % $ % % @ % % % , , 7 l ..+.1 h 1 , , , , 1 , 5.!.R. .M y M M 1.< u 9 9 I  .0 1 q.g.+.c y l , 1 % @ % , 1 M ] Y 2 1 % % , , k k b M #X}.w.W 1 1 , , @ $ + + ",
"+ + @ @ % % % 1 1 1 @ 1 u M V k V 2 % % + + . $ % $ , $ % % % % % % , % 2 1 1 1 ` P , 1 , , % % $ + + + $ % @ % % 9 9 e.e., 9 1 , , , 1 1 0 +.+.v 0 , , % % $ % % @ @ % @ , , , , 0 u 1 1 , % % , , 2 1 >.l.+.R.1.I v 1.K.] P 9 0 1.q., 0 c.l.0 9 , 1 , , $ @ % % 1 1 u 0 y 0 , % , , I ..g.~.R.q.1 1 1 , @ , $ $ + + ",
"+ + $ $ $ $ @ $ + $ % % , , , , 1 1 % , + . % < 0 0 +.*.- , , , 1 1 1 1 1 1 P [ ' ..M B 1 , % % % % % % % % , 1 1 ,.,.c 0 % , , % $ $ , , , #.' ( ` 8.9.` v , % % % % % % % % % , % % % % % , , ` P v M , 0 ,.k 2 , , F.B.k.o.:.o.1 1 1 ` u 1 1 2 , 1 % % + + $ + , , 1 0 +.y 1 , % % % 6 3.B.I 1 1 , 1 , % $ $ $ + $ ",
"+ + $ $ $ @ $ $ $ @ @ % , % , , 1 1 % , @ + + 6 2 % 0 ..1.y , , 1 , 1 1 1 0 ` 0 ..I V B , , , , % % % % % $ , 1 0 1.Y 0 u 1 , , % $ $ % , 1 0 Y K.|..X*X}.! @ @ % % % % % % % % % % % @ % % , , ` P 0 M 1 1 1 % , , % ` ' 9.9.I 1.1 1 1 V u 0 0 2 , 1 % , + + + + % , , 1 y <.1 % % % % , 9 9 1 1 , < < 1 % % + % $ $ ",
"+ + $ $ $ $ $ $ % % % , , % % @ + $ $ + $ , % , , % 1 , v a M 1 , 1 0 0 q.l.z.u., , 0 0 >.>.0 0 1 1 1 , < w.V 1.#., , , % , $ $ $ $ + + + 1 1 V -.P XX~.~.[.n.R.1 , c % % % % % @ $ $ % % 0 V ] P I , , $ + O + + , , % , % % 0 u 0 0 0 0 , 1 , , % @ $ $ $ $ + $ $ $ , , 1 h R.w.1 1 % @ % % $ @ $ % % , 1 1 < , % % ",
"$ $ $ $ % % % % , , c p /.,X, , % $ $ % % % , , 1 1 1 1 9 < 6.0 r.n.o.,.M v 1 1 , , 1 1 , , B I oXz.R.|.@XM 1 % @ % % @ % % % % $ % @ @ @ @ $ $ >.9.0 0 -X9.w.0 q.` O.u 2 % % % % @ % 1 1 B 0 1 % % , % O     + + $ $ % % % % , 1 V a 1 % @ % % @ $ $ $ + + + $ $ % % , , u u 9.1.!.>X7.g.% @ $ % $ $ + $ @ @ , , , , ",
"% $ $ + % % , , 1 % M 3 F.V., 1 % + @ % % % , , 1 1 , , , , c ,.L.b.q.k.v v , , , , , , , , 0 0 _.q.;.w.w.1 1 % @ % @ $ @ % % @ % , % % % @ % + 9 0 ] 1 , 1 9 : oX(.] V 0 % % , , % % 1 0 M 0 1 % % @ % O + O + $ + % , % , , 1 , a a , % % % % @ $ + $ + $ $ @ + , , , , u 0 9 9 m.T.~.c.+ % % % $ $ + + @ @ , , , , ",
", % % , % , 0 0 1.q.0 1 , 1 q.w.1 c , , , , , 1 1 1 % % % , , % , % 1 Y ] , % % $ % 1 , 1 1 % , + % % % % % @ $ % + + $ + + % % , , , , 3.V.+ + $ + , , , , , !.}.: % 2 y 0 1 , 1 a u 1 1 % % @ $ $ + $ + + + + $ , , , 1 y 0 2 1 % , % % % % $ $ $ R.+ + , % , , 1 1 u u 0 0 % % % 9 Y o.>.] 1 , % % $ + + $ @ $ , , ",
", , , , , , 1.A.a M , , , , 1 v 7.T.' $ 1 1 , , , , % % % % @ @ @ $ + $ @ @ + $ $ $ 1 , 1 1 v V % % y $ , % % @ $ + $ + + $ @ $ % OXI., % X.-X>X) + @ % , |.&XY % @ , % 1 k p , < 1 0 $ @ $ $ + $ $ $ $ $ + % % % % , , 1 1 , % % $ . @ @ % % 1 , @ % % , , , 1 , 0 0 < , @ @ + + + + $ $ < X.k.X., % $ % @ $ % % % , ",
", 1 v 1 k.F.o.] 0 1 % , , , 1 1 +.>.}.9 B ( , , , % , , % % @ @ @ $ $ + % % + + + + % % , , v ] w.1.#.T.E.$ % % @ + $ $ + $ + + $ w j., % 1 R.V.K.% $ $ @ q 9 , % % % , y ` V.Y.l., % $ % + + + $ $ @ @ , , , 1 2 < < , % @ $ $ $ $ + $ % % $ , XX, 1 1 1 =X-Xv 0 M 0 , , % $ . + + + $ $ , , a Y Y 0 % , , , % , , , ",
", , g.k...Y 1 , , , % % $ $ % , , , v /.V.e., , , , , , 3 @ +._ % % , , @ @ $ + + + % % , , , , , , y o.^.0 B % % @ @ % % % % % % + + , % , 0 w 9 % + + $ + % % % , % 9 V.B.c.1 1 % $ % % + + $ + $ @ % 1 u u V V 1 1 % % % % @ $ + + % Y % % 1 1 1 , }.(.&X%XD ..9 1 D.0 % % + + $ + $ $ , % , , v I ` M , , , , , , ",
"9.>.% % , , , , % % $ $ + $ + + % , 1 < 1 l.A.X.9 0 , . V.1.Y Q.|.#.v M 1 1 % % $ $ @ % + O $ @ @ @ , % % a B.:.9 V k l a % % % + + $ % % % $ + $ + $ $ + $ % % y.t.9...9 2 $ , , % , % % @ % % , % 2 M 2 a 0 , % 1 1 2 2 1 1 , @ @ I % $ , , 1 1 L.>X=X|.J.V.|.}.' 0 =.>., , % % % $ % $ % % % % % % ,.q.>.:.0 2 2 2 ",
"1.1.% , , % , , % % $ $ $ + + $ % , , 9 : XX&X&XT.9 @XXX1 1 9 1 l.Q.v u 1 1 @ % @ @ % % + + $ $ % @ % % % 0 < :.>.M k a y % % % + $ $ % % % $ + @ $ % % $ @ % , |.x.Z.] 0 1 , , , % % % % @ % % , , y a 1 2 , , % 1 1 1 0 2 1 % % % , % % , , 1 2X-XR.`.,.1 b 1.#.}.}.I ] < , % % $ % % $ % % % % % % v 9 +.#.0 0 0 0 ",
"1 1 % % $ $ % % , , , , , , + $ , % ( v B.R.}.B.R.}./.!.u 0 1 1 @ - `.0 , a p 1 , , $ + + + + . + + + + $ , % 1 B 1.o.1 1 , , , % % % , , 1 , , % % % % , % o.,.1 1 1 % @ @ $ , , 1 1 1 , % , , y y 1 1 $ @ + $ + % % , 1 v u 0 0 , , , , 1 : *X;X~.B.q.0 M M , 9 V.>X}.- V B 2 0 , , % % % % $ $ @ % @ , 0 g.M.N.` B ",
"1 1 @ % $ $ % Y , % , , g., % % 1 % ` K..XT.( ` >.~.~.g.1 2 y a @ $ , /., 1 1 1 , , $ $ + + + + + + . $ $ % % , , 9 1 1 , < , 1 % % % 6.q.}.' O.1 , , 1 5 ; q.r.% 1 1 $ % $ $ % , 1 1 2 1 , 1 , 2 0 , 1 $ $ + + + % % , , I 6.a p 1 ; ~.% }.#X>X.Xu h.1 1 ` B % , 0 0 @X#X2 0 0 0 y 1 , % % % $ + % % % , u 0 T.!. . .",
"1 1 1 1 , % , , V.k.2 F .X[.1 1 e.T.e.6.a < % , 1 G ..7.1.=.2 - 1 1 % % $ $ $ + $ + + $ + + + + $ % % % , , , , , $ + @ $ % M 0 B v :X!.!.R.V./.1 1 9 9 #X#X7.&.2 9 1 $ $ + + + + + + % % 1 2 1 % % @ @   + + +   $ $ @ + , , v 1 w..X!.R./.|.} 3., , , , + + $ $ % % 9 0.J.Q.j.g.U V , 1 % % % % % % % % , % % , 1 1 ",
", % 0 1 , , , % % & R.}.K.1.q @XB.0 , , % % % % , % , @ 0 1 V.V.1 , $ @ % @ + + $ + + + + + + + @ % @ , , , , , , + + @ % % 1.N.^.K.!.T.V.` V.V...U o.!.}.|.R.1 1.+.9., @ $ + + + + $ $ + % % % , , $ @ + + + +   $ $ % % , , h.`.m.~.W V.9 0 M |.@X' % @ @ @ w 9 @ @ % , $ % $ % , 1 , , % % % @ % % % % , % % % % % ",
"+ + @ % 1 1 1 , , , w 1.1.%X>.V % , $ $ $ % , 1 y y 1 1 % $ 0 8 z...l.] 0 0 % , $ + + + % % % , 0 0 I +.1.M ` , , $ + $ + $ 1 7 F.0 L c v 1 0 0 >.0 0 m.' .., , 9 1 1 a k 0 , % % $ + + $ % $ $ + $ + + + + + + + $ % < 0 I u ] 0., # 1 0 1 1 ..Y r.XX@ 1 $ @ b >.+ $ + $ % $ % % % % % % 1 1 1 1 % % % $ $ % % % $ % ",
"+ + $ $ < 1 0 0 , 1 % @ 1 d.$ $ $ % $ $ % , 9.t 0 , , , $ + $ @ 9 , 9.P 9 0 , , % % @ % , < 4 l Y v o.,.,.M V , , % % $ $  .b < + , < #.W 1 1 , @ , , < , , % % , % , a V 2 , 7 ; # % % % % @ % @ $ + + $ $ + % $ , , < r 1 1 , 9 $ % $ % , , , , 1 z.#X[.$ ~.O % + + + + $ $ @ $ $ $ , % , 1 , , % % % $ $ % % @ % , ",
"+ + $ $ $ $ + + $ $ + + + + $ $ $ % $ $ % , 1 1 % % $ % $ + + + $ $ % % , , 0 1 , 1 , 1 9 0 h.+.Y.B.#XR.}.D U ] P , , , , b % + $ @ $ % , 0 , 1 , , v % 1 0 % % $ $ % , < 1 u q.q.Y v - % , , , , , % $ $ @ @ , , 0 1 #.] 1 1 $ $ $ $ $ . % % , , 0 9 0 0 $ v + $ + + + + + $ $ + $ $ % % % % % % % % % % % % % % , 1 ",
"% % , , % , + + + + + % , , % % @ $ $ % $ % % $ $ $ $ % @ % % $ % % % , 1 , , , 1 1 ] b A.N.D c.=X&XT.0.>.[./.P P b =.k 0 % % % % $ $ % % % , 0 , 9 % % % % $ $ + + % $ @ 1 1 0 0 :.1.F.T.o.P I a 0 % % , , 1 M M ,.1., , % % % % + + + + $ $ % % , , 1 1 1 1 1 1 % % + $ + $ $ + + + @ $ % % % % % % 1 1 u u o. .1 1 ",
"2 2 1 , , , % $ + $ $ % , , , % % % @ $ % % @ $ @ @ % @ % % % % % $ + $ l 2 , 1 ] t z.O.$.j.@ v.5 - - < < a F T.E.L.B.] ..% < < % + @ < % % % % % $ $ + $ $ $ $ $ + + $ % 0 u 2 0 k M 2 T < Y U 2 0 1 1 M 2 2 k M 3 y % , % $ % $ + O + $ + $ % % , , , % , , 2 < , , % @ $ @ $ + + + + + % , , % 1 1 ' 1...U Y V , , ",
"a >.0 2 , , % $ @ $ % , % % % % % % $ $ + $ , , % @ % @ @ % % , a 1  .] o.>.9 0 #.:.z.#.' ] % , % , % % $ , , ] v ` c =.#.M B [ % 2 2 1 1 % % @ $ + + + + $ $ $ $ + + + @ V B 0 0 0 2 % , , 2 0 2 0 0 0 T.=Xu u a % , % @ + + .   + + + . $ $ $ $ % % % % % % , , 1 2 9 , % + $ $ $ + + $ , % % % ' b c.h.>.+.< 1 % % ",
"1 1 M a I U 0 0 2 2 0 1 % % % % , , 0 0 ] ] 2 1 1 , % % $ + % % , , % , v 0 N.e.0 v < % , < $ $ + + + + + $ $ , , % , % % , 0 1 0 1 , % % $ + + + + + + . . $ % , , 1 0 a M V 0 , % % $ % , , , 0 0 P ] c.T.6.2 1 , % % @ + + + + + + $ $ $ $ $ $ $ $ % % % % % % 1 1 2 U V V 2 1 1 1 1 1 1 1 v v N.c.1 1 , , % @ % , ",
"+ $ , % , , ' 1.+.,.a u , 1 I c j.F.a a , % % % % @ @ + $ $ + @ % @ , , 1 0 % , 1 , % % $ $ + + + + + + + + $ + $ , % $ @ $ % , , @ $ + + + + + + . . + + + , , 0 0 a a < % $ . $ $ $ % % 1 0 M Z.A.` v @ @ h B.C./ ^ 1 , % % % @ @ @ % 0 k 1 % + + $ + $ $ + , % 1 0 < 1 a a l v t.>.c.x.u.Z.u 0 % % , , % % % % + + ",
"+ $ , , , , ] +.,.,.0 0 1 < ` B q.c.u 0 , % % % @ % + $ $ $ + + % @ , , 1 9 1 1 1 1 % % $ + + + + + + + + $ + $ + $ @ % @ @ , % , $ $ + + + + + . + + + + + 1 , 0 0 0 , , % $ $ $ % @ % % 1 a b R.N.0 0 , , 1 1.h.V.*XW , % % % % % % , a 2 0 % @ + $ $ + $ $ 0 0 ..#.l V 1 1 a v >.1.V.T.V.Y.0 9 , , % , @ % % % + + ",
"% % % % , , 0 y 0 2 !.(.V.B.] ` , , % % % % $ $ $ $ $ $ % % , % , , , , ~.% ] 1 , 1 1 , % % + + + + + , + $ + + + + + $ % % % @ $ + $ + + +   . + + % % 1 1 1 1 , , , % % % % % , 1 1 P 0 T.g.:., 1 , % , % , % V Q./..X! 1 1 , , % , , % , @ , , % % $ $ , 1 I Y M a ..1 I a 9 1 u a u v 9 9 , % % % + + + $ + $ , % ",
"% % , , 1 1 y 2 0 0 a H.V.&.9 0 , , % % % $ $ + $ $ $ + % % , % , , < P.2 < : 1 %X, 1 1 % % $ $ + + + .X$ + $ + $ + + $ % % % @ $ $ + $ + +     + % % , 2 < 1 1 , , , % % % % 1 , 1 1 Y ..~.4.,.1 , , , , , , % % ( h R.p 2 1 , , , @ R.. % @ , , % % @ % I a ,.W 1 , 1 , Y Y Y a a u a u 0 9 % , % % $ + + $ @ $ , , ",
"1 1 B V V M 0 0 1 , , < 2 2 1 1 % % $ $ $ + + % % % % $ 1 a B V , 1 , , , w.U.K.(.oX..1 , 1 % % + + $ % @ + + + $ % % $ $ + + + + + $ , , % % @ 1 1 1 1 % % , , M k a % % , 1 P B ,.r.+.>., , , , , % % $ $ $ $ % % , , m.y v V } 1.;...6 , , , , 1 1 P V 2 a , , a a 1 1 1 0 M U V a 1 1 , , % $ $ + + + $ $ , % , , ",
"0 0 P M k 0 1 , , % % , 1 1 1 1 , , % @ @ @ 1 , % % $ % 2 u X.u , 1 , 1 ,X-X;X-XD.E..Xq., , , , % $ @ % % @ @ @ $ % % % $ $ + + + @ % ..h , $ % 2 , , , @ % 1 , k Y a < % % 1 U I =.;.- 6 % @ , % % @ $ $ $ $ $ @ % @ < Y ;.` K.R.M Y , , , , , 1 2 Y #.#.1 , 1 , 1 1 , , 1 1 y 0 u y 1 1 % % $ $ + + + + $ % , % 1 1 ",
"0 0 , , , , % % % $ @ % % % 2 1 0 0 1 , , , Y 1 1 , ] B a a , % @ $ Z.B.;X<X#X@X#X|.- G , % 1 , % , , % @ , 0 % % % % $ @ % $ + + 9 ; Y./.w ( w 2 1 % @ % % M M , 1 M k 1.u.M M a < 1 % % $ + $ $ $ + + $ $ @ $ $ $ $ % % v v , % 1 , , , , , , 1 1 2 a u 8.T.M I 1 9 , , < , < 1 , , , < % % $ + + + $ + % % , , 1 1 ",
"% % % % % % $ $ $ $ $ @ % $ % % 1 1 0 0 9 2 ( (.}..Xw.} 1 , % % 2 I.&X*X X7...@X-XK.V.g., , , 1 1 1 2 0 0 0 < v 1 , , , , , 9 ,.6.R.}.o.q.M.K.;X/.O.0 1 M v , , $ $ + , 1 1 1 1 , 1 1 1 2 2 % % $ $ $ $ + $ $ , , , , $ $ $ $ + % @ $ , , 1 1 0 0 >.O.T.6.k.w.(.=.1.+.h 0 , , % % % % $ $ % % % % % % % % , , 1 9 V a ",
"% % % % % % $ $ $ $ % % @ + % , 1 1 u y 9 9 O.`.F.|.E.D.1 , @ ; }.<XR.M.0 h O.B.7.&X=X!.9 , % oX1 1 9 0 u M v :X1 % % , , , v k.c.} U v 9 B <.1.R._.V M a ] 1 1 % $ % , , 1 1 0 < , 1 1 < 2 % % $ + $ $ $ $ $ , , , , $ % @ % @ % $ $ 1 , , 1 9 @X@X|.}.N.9 ..8.O.^.T.w R.f., % % $ $ $ @ % % % % % % % % , , v P k M ",
"+ + + $ $ $ + $ $ % % @ % $ $ % % % , % w.o.] 0 9 1 ' c ` o.u .X.X/.` 9 % % < 1 : L.B.-X{.z.T.&Xa.9 9 O.1 u 1 R./.v 0 1 - ( (.h.w.a 0 0 0 1 1 1 6.!.K.R.1 1 1 $ + $ $ $ + % , , % , % 1 1 0 V k , , % % @ @ % % , , , , , R.9 , , , , 0 9 R.R.~.L.>.1.1 9 1 1 1 < ] ] h.OX#XT.0 0 % % $ % % % % % % % , 1 1...] o.u 0 ",
"% @ + $ + + + $ % % @ @ $ $ $ % % % < @ 0.0.U 2 1 1 ` b E $.9 {.:X( , + $ $ + % 9 9 K.[..X..k./.X 1 2 q 1 0 1 c.R.!.c.> (.T.T.,.I u a , , , 1 1 1 ] }.R.9 k k.  . @ $ $ + % , % % % @ , , 0 U P 1 y , + % % % , % , , , , : w , , 1 @ u l +.OX9.@.1 9 , , 1 , 1 1 0 9 B @.q.F.V :.% % @ % $ % , % % @ 0 j c.w.>.< , , ",
"% % % % % % $ $ $ $ @ @ $ $ % % 1 1 I >.u 1 , , 1 1 1 P U p h.r.0 j.V.0 , , @ , }.=.1 o.;.!.j.u.@X@X`.>., , , 0 1 v b #.,.R.+.V 0 , % , , , % % , , - X 1.1., >.I , % $ @ @ % % @ % $ , % % , 1 P ` V b 1 0 0 , , , , 1 1 B.&X@XL.0 0 0 1 , , , , , , , % + $ % % , , , , 0 0 ..I k v , , % % a 0 ] 6.+.o.9 1 % % % % ",
"% % , % % , , % % % @ % , 1 Y /.P ` 1 , % % % % @ $ % % 1 1 , , 9 2 |.}.: 1 o.!., , $ @ 1 , H..XR.o.o.1 1 , 1 1 1 1 1 1 1 t.1 1 1 % % @ $ $ $ $ $ $ $ % % % % 0 r.6.y , , % % $ $ $ % $ $ $ @ % , , , 1 #.] a a 0 0 0 O.#.`.}.r.6..XK.- 1 , % % % % % + + $ + $ $ % % , , 1 1 0 9 M 1 y 2 0 1 2 Y g.XX#.% % % % @ $ $ ",
"$ @ % % % , % , % @ @ @ , 1 o.s.V I 1 , % % % % $ $ , % , , , , 0 0 V.V.8.m.] ` , @ $ % , , 1 <.1 1 1 % 1 , , , 1 1 1 1 1 v 2 1 , % % $ $ $ $ $ $ + @ @ + $ , , u 0 q.1 2 % @ $ @ % @ $ $ % @ % , % 1 1 V ] M u B w w N.R.}.:.9.l.}.[.2 1 , % % % % $ $ $ + + + + , , 1 1 1 , 1 , 1 I  . .U U 0 y 0 0 % % % % % @ + $ ",
"+ + $ $ $ $ , % , % 1 1 2 y 1 , , , , , % % + $ $ $ % $ % @ % , , , < (.T._.1 1 , , 0 0 , , % % % $ $ % % + $ % % , , , , , 1 < 1 % , $ $ $ $ $ + $ @ % % % 2 < , a 1.1.Y p 1 , 1 % % $ $ $ $ $ @ % % % , , 1 v i V.T.}.R.v 1 ` V.O.T.R.v > 1 % % % % $ $ $ $ , , 2 2 1 1 , , % % , 1 1 1 2 1 , , % % % % $ $ + $ $ $ ",
"$ $ , , O.E.O.' 1 1 , , % @ % % % % $ $ $ $ $ + $ $ $ $ $ $ $ $ , , , , % , O.2 9 0 1 1 k.B , , % % % + + $ + % % % % , , , , , , < 1 , % $ $ + + + $ $ % % , , y 2 u , U Y Y.>.9., , % % $ $ $ % % , 1 w % 1 &X/.M.J.1 , 1 1 @ < ' M K.@X~.N., , % % % % , 1 0 0 1 , $ $ $ @ @ $ % % , , % % % % % % % % % @ % % , , ",
"$ @ , , r.{.R.1.0 1 , , % @ % % % % $ $ $ $ % $ $ $ $ $ $ $ $ + , , , , % , ,.}.#.( 0 1 9 0 1 1 , % , % $ $ @ % % , , , , , , , , < 1 , , + + $ $ $ + $ % % , , 2 2 0 1  .v R.}./.1 1 % % $ % % % % 0 , q.k.q.h.j.M 0 1 , , 1 - B Y.(.>.#.o...1 1 % @ % , , 1 2 2 , , $ $ $ @ @ $ % % % , % % % % % % % % % % % % , , ",
", % >. .P z.#.' <.P % % % % % % % $ $ $ % , 1 .., 1 $ + + + + + % @ , , , , @ o +.0 1 1 , , 1 1 1 2 1 , , % , , , , , % , , , % % % @ $ + $ + + $ $ + @ , , , , , 0 1 B.q.K.,.V.N.`.}.1 1 % $ % 0 u a M u u .., % % $ , , , , _.R.* 9 , % U P ] 0 1 1 % @ , , , , % % $ $ $ $ $ $ $ $ $ @ % % % % 1 , 1 2 1 1 , < , , ",
"0 l R.q.b B 1.c.Y.g., 3 , % % % , % , % 1 G 6.7 , 0 % + + + + + $ @ , % , 1 , , 1 % , , , , 1 1 1 1 1 , , , , , , % 1 , , , % % % + $ + + + + + $ + @ @ , , , 1 V P &./.I #.1 ....~.L.b ..3 # 7 y 0 k k , 1 1 % % $ $ @ , 4.#.; ; % % % , , , 0 0 0 k , , , % , , % % % % % $ $ $ $ $ $ + , % , , a M ] ] y 0 1 1 1 1 ",
"z.k.w v , , 1 1 P v :.,.1 % % % , , 0 1 o.o.1 % % , , , + + + $ $ @ % % 2 1 1 1 , , , , , , , % , , 1 , , 1 1 a v 1 1 , , , % $ + + + . + $ + + + @ % , , , 0 0 F.&.e.M 1 1 , 1 1 v P V.T.>.: o.0 v , , % % % % % + % $ r., @ $ + $ + % % % % 1 , ] I 1 2 % , % % % , 1 1 , $ $ $ $ + $ $ , 1 1 , o.`.V.T.I P 1 < 1 1 ",
"0 0 , , , , , , 1 , 0 V ] o.1 1 1 u 6.,.2 , % @ $ $ % % + + O + + + $ $ , % 1 1 , , % % @ % $ @ u 1 V 0 , l.1. .o.V U U v % % % @ $ $ % % % % % % , < 1 M 0 #.#.1 0 0 , , , @ % @ 1 1 l.2 B i #.M U , , % % % % , , , $ % + + + + $ $ % % , < 2 2 1 , @ % @ % $ $ , % 1 1 V 0 , : , , , , ..#.] 6.}.!.H.k.=.1.o..., , ",
"1 1 % % % , , , 2 0 Y o.+. .M l u Y V , , % $ % % % % % % $ + + + + + $ @ % , % % % % % + @ $ % 1 1 0 T.k.e.>...] o.I I ..$ , % @ + @ % % @ % % % % , , a 1 L ..1 , 6 , , , % @ + , , I 0 I ....a Y 2 2 < 1 % % , , , % % $ $ + + + $ $ @ , , 2 1 , % % % $ % @ $ % % , , y 2 y K.;.< u 2 c.}.B.L.#.#.u 2  .#.+. .l h ",
"% % % % $ + + $ , 1 1 - c.h.>. .0 1 , % % % % % , , , , , , $ + + + $ $ + $ + $ + + $ $ @ % % % , I 7.M.h.u M , , ..V.R.@X, 1 , % @ % % % % % % + + $ $ % @ , , , , , , , % % % % % % y 0 0 2 2 j M M M y 2 , % % % % % % % % + $ $ $ $ $ % @ + @ % $ $ $ % @ % @ % % % , 1 , , 1 0 1 b w.V.<.1 , , , , , 1 1 B 9 1.1.",
"+ + $ $ $ $ $ $ $ $ % % w j.u 1 , 1 a 0 0 1 , , , % , , , , , , , , % % @ @ . + + $ $ @ , 1 O.#.].T.h.] 0 , , , , 1 V h.c.Y ..t h 1 1 % % % % % + @ % % % % % % $ $ $ $ % @ % % , < 2 0 1 % % % % % 1 1 y 0 0 , , % % % % % % , % % % $ $ @ $ $ $ @ $ % % , , , , , , , , , , u v q.:. .T., , , , % % $ $ , % , , 0 0 ",
"+ + + $ + + + + $ $ % % 1 1 , 9 >.v u v 0 1 1 , , % , % , , 1 , , , $ @ @ + + + + @ @ $ , , w.r.Y.Y.=.v ` , , , , 1 , 9 V }.j.=.V - h , , % , % @ @ @ @ % % % % $ + $ $ $ % % , , 2 2 0 1 , % % % % 1 , 0 y y , , % % , % % , , , % % + @ + $ % $ @ $ , , , , , , , , , , , , M v 9.q.v c % , , , % @ + + , , , , 0 0 ",
"+ + + + + +   + + $ $ $ $ $ $ $ @ @ % % , 0 V 0 1 1 % , , 1 v 0 q.o.T.c.1 1 % % % , a 2 .. .y U % , , % % , , $ @ % % , % 1 1 G e.q.k.P I 0 0 a P a , 1 @ % + + + + + + % , u 2 1 , 1 % $ $ + + $ $ $ % % y y 0 0 2 1 , , , , , , , 1 % % $ @ % % , , 0 u g./.^.1.< , % , 0 0 M u 1 1 % % % % $ + + + + + % % , , , , ",
"% % @ $ @ % % % % @ % $ $ $ $ + + $ + + $ @ , 1 1 1 a a 1 1 q.R.0 1 V 9 O.q.0 1 , 1 , 1 1 1 % % , % % % % + + $ $ . + . . + , l l.< 1 ] Y Y 1 2 $ + +   + + + + $ $ @ % , 1 , @ $ % % $ $ % $ + + + + $ + + @ , % , , , , , , , , 1 , , , , 1 % % u P q.e.T.V.r.w :.Y , 1 1 , % % % % $ $ $ + + + % $ % , , , , , @ @ ",
"% % % @ % % , % % % @ @ % $ $ $ $ + + $ $ % % , 1 9 a ,.9 0 n.b.9 9 9 z.w.q.1 9 < , , , , , @ @ % % % % , + + $ + + + + + + % , , % % v X.0 % , + + + + + + + + % $ % , , , , $ @ % % $ % % + + + + + + $ $ $ % % , , , , 1 1 1 1 1 , , , , 1 , 2 ..b n.R.I Y F.B.>.1.< M ] I @ % % $ $ $ + + + $ % % % , < , , , % % ",
"% % , , , , , , , , , , , % % 1 < $ $ $ $ % , , , , 0 1 +.,., , , , , ` 9.w...b B.#., 1 , % % % $ $ $ + @ % % $ + $ + + + + + + + % % % $ $ % $ + + + + + $ % % % % , , 1 , , 1 1 1 1 % % $ @ % $ + $ $ + + + + $ $ % % % % % 1 , ' ' 0 0 , , u v =...] ] , 1 M T.A.c.T.c.X.o.1 j % $ % % % % 1 y u 2 1 1 , , % % % $ ",
", , 0 0 :.1.1 1 , , , , , 1 , , 1 1 E < , , , , % , , % % % % % + $ + $ % , G I u j.j.V y , , , % @ @ $ $ % % $ + + $ + + + $ + + + $ @ % $ $ $ $ @ $ $ % % % , @ , 1 v +.*.B.V.#.1 1 , , % % % % % + + + + + . + + $ % % 1 1 b ( /.T.' #.0 2 1 1 @ , 1 1 $ @ % % y l - < Y @ y 0 l a 1 , 0 0 1 2 1 1 , % % % % % % % ",
"1 , 0 u 6.q.1 9 , 1 1 1 1 1 % , , 1 , , OXb., , % % , % % % % % $ $ @ @ % , , , , - ....2 a 1 1 % @ % % % % @ + $ + + + . + + . + + + @ % @ @ % % $ $ $ % % 1 1 1 , 1 F.B.V.1.9 0 1 0 % % % % % % % $ $ + + + + + $ $ , , 1 1 B D L.!.] ..` 9 1 1 % , , , @ @ % % , , % % 1 , y 0 a a 2 2 0 0 0 0 1 1 % % % % % % % % ",
"1 1 1 , , , #...] P 9 0 6.g.U V 1 1 B .X,X=Xa 0 , % % % % % $ $ $ + $ $ $ @ % @ % % , % Y I V U 6 a 1 % , % % $ $ % $ + $ $ $ $ + $ @ % $ 4 1 % , , , , , 1 ..9 F.R.7.V.+.#., , , , % % , , % , % @ @ % @ $ $ $ % $ , 1 1 ( O.g.K.1 9 1 1 q.o.v a % % % % $ $ $ $ $ $ $ + $ % + @ , , y y , , % % $ $ $ + $ + % % % , ",
"% @ % @ , , 1 1 ` T.@XH., 1 W 1 w 1 =XI.X G }.oXv v % % + + + +     + + $ + % % , , % $ +   % $ 0 1 0 M v 1 , , , % @ + + $ , , % 1 1 u a % , , 1 y ..` &X@Xc.T...1 u , 1 1 0 , , 1 1 0 0 a +...0 v , % % @ @ % % 9 V Y v E.T.% $ , , , , % < X...1 U , 1 % @ % % + + + + $ $ $ $ $ $ + + , % % % + + + + $ $ $ @ % % ",
"% @ % % , , 1 , I ] ....9 9 1 2 D..XL.~.9 9 =.#X;.0 % + + + + +     O + $ + % % , , % % +   % % 1 1 u M a 0 1 , , % @ + + + , % % 1 1 0 y B., , 9 1 c.#X!.z.V.V.v 0 9 ..2 y  ., , 1 0 u 0 V o.] u v , , % % % @ % ] I N.c.P P , , , , , % , , U  .V P - 1 @ % % $ + + + + + + + + + + + $ , % % % + $ + + $ $ + $ + $ ",
"@ % % % , , % , 1 1 1 1 , , ..}.|.XXI 1 2 B 1.[.K.g.o., % % @ $ + + + + + $ % % + + $ $ + + $ @ % % , % % , % + + + + % % , L.T.1 1 , ] K..X%.&.9 9 G (...U q.+., ] 1.M a 2 , $ % , , 1 1 1 1 - v a M ..| 1 1 h ..T.R.V.m.% % @ @ + + + + $ % , 1 0 0 I ] 0 M 1 1 % % + + + + + $ % % % , , % u y 1 , , , % % % @ @ % ",
"% @ % % % % % % , 1 0 0 1 < r..X}.:.1 : 1 , 0 { |.`.} 1 $ @ @ % $ + + + + + % $ $ $ + + $ + @ @ % % , % % % % $ $ + $ # @ @ r.f.- 1 1 ] ` z..X|.$.1.B V B B 1 , $ 1 0 , , , % + @ , , , , , 1 l.<.v h ~.:X2 2 V.R.R._.1 0 % % $ $ + + + . % % , , 2 a ] > u U 1 1 % % $ + + + + $ % % , , 1 % 0 0 % , , , % % % @ % % ",
"% @ % % % % P , % 1 (...|.&X7.7., , $ $ % % 1 1 1 0 z.F.1 0 % % % % % % $ $ + + $ + + + % % 1 , , % % % % + + =.% % % 1 9 1 o.@XOXq.>., , , 9 v Y Y 0 1 , , , 1 % % % % $ + + % % $ + % % @ % 1 1 1 V.N.V.{.R.V V , , % % + + + + + + + + + + + $ % % % , U U ] ] 2 2 % $ $ $ % % , < , 1 y y y 0 T.h.1 1 % % % % , , ",
"% % % % % % 9 1  .` ] g.R.R.G , % @ $ $ @ $ 1 1 1 , Y ] U ..< % % , % % @ @ $ + + + @ @ 1 , 1 , % % % % @ 9 1 K.|.2 % 1 ( 0.#XK.h.9 , % % % , , P I , , 1 1 % % % % % % @ $ + @ $ $ $ @ @ % , , 1 h.}.k...4.~.1 9 9 0 % %   + O + . O + + + + + + % % , % % % 0 2 u 0 0 1 2 < , , , 1 0 0 y 0 y y < < I o.>.#., , , , ",
", % % , , , 1 1 B B.U ..9 , , , % @ % @ % , % , q.6 , % 1 ..w.B.y V 1 1 , , @ % , , , 1 1 , , , % % $ % % ~.7.v w R.% 2 XX6.`.q.O.1 , , , $ $ % , $ $ % , , , % $ + + + + + + . + $ + % , 1 0 9 :.V.m.B.0 V 1 r.6.] u < v , , $ + + + + + + + + + + + $ + % % , , , % B M l U 1 1 V y a B u 0 % % % , ..+.}.}.N.9.v ` ",
", , 1 , ` I I I  .P % , , , % % % % % % % % % @ $ @ % % 1 1 ' ..M V 1 1 , % % % , , 1 1 1 1 % % $ $ $ $ + % , , , j.`.~.~.|.&..XOX4.3 , , h 6 % % @ , , `.w B., + + + $ $ $ + + $ $ $ % < Y W c.q.w.1 , % % % % k o.u U a 1 , % % + + + + + $ $ + + + $ % % @ % % % , % % 1 1 1 1 V k 0 u % % % % % % , , ] 3.T.K.z.h.",
"9.u.v P 0 I 1 1 % % % % $ $ % % 1 1 , 1 , % $ + + $ + $ $ % , % % % 1 1 1 1 , 1 ` ..R.D.w v % , , , % % , , % ` ] B.#Xg.B c ` M 1 ~.~.1 1 % @ 1 1 1 ] Y 1 9 $ + + + + + @ % % 1 1 % % % % 1 , % % % + + $ $ + + + $ $ , , 1 , , , @ @ % < , , % % % % , % % % @ % % , % $ w., 1 1 1 1 % % % $ % @ % % , % 1 2 U Y ..' ",
"q.}.o.+.u u , , % % @ @ $ $ % % 1 1 1 , % % + + + $ + + $ % , % % % 1 1 2 1 , 1 ` M !.h.0 M % , , , , 1 1 ' w.T.V.x.N.Y b v ] b - +..X!.w - 1 / h.j.e.V 1 1 $ + $ + $ + @ , , ^.3.% % % % @ % % % @ + + $ + + + + $ $ % , 0 , , , @ @ % 1 , 1 % % % , , , , % @ @ k.- % % , , 1 1 1 1 % % $ $ % @ % % , , 1 1 0 u ] I ",
"B M , , % , % % % % $ $ + + + + + + @ $ % % % @ $ $ + $ $ @ % % , , % % 1 1 P 9 +.+., 1 q.q.Y 9.% 1 a ] Y w.j.V 1.1 % % # @ : - M y >..X~.!.~.!.6.1., , $ + % % % % , , % , M R.e.y V , % @ % @ $ + $ $ $ + $ $ $ $ $ $ + % % + + , , 1 0 0 2 0 2 0 1 9 9 , , , , n.k , % 9 < , @ $ $ @ @ % $ % , 2 1 1 1 1 1 % , % , ",
"a a , , , , % $ , % @ @ $ + O + + + $ @ % % @ % @ @ + + $ @ % $ , , , % 1 0 I 0 Y Y , 1 z.1.1.0.% , 0 9 1 ..V M 0 % % % $ $ ..I #.u 1 #.y.{.O...1 , % % + + % % % % , , % y B ] U U Y @ , % @ % $ + $ @ $ @ % % @ $ $ @ + $ $ @ @ , % , 1 2 u 0 1 2 G XX&X, , , , 1 T , , 1 &XA # $ @ @ % $ @ % , 2 1 1 2 2 1 % % % % ",
"% % % % + $ % % , , , , @ $ + . . + + + + @ , , % % % , @ % % % % , 1 , I I 0 u , , , , , 1 u.q.1./.l.V P , 1 , , % % + + $ % % % 1 1 ] ] Y M B 1 2 $ + $ % % % % , , 0 l Y P 1 1 1 1 k .., % , % $ $ $ 1 1 , 1 1 @ % @ + + $ , , $ $ % , , @ 2 0 -X#XV.!.>X;X, , j.-X@ , @ &X0 . $ $ % % , 1 2 2 , 1 , , % @ % % % % ",
"+ $ $ + + + + $ $ + @ , , , @ + + + + + $ 1 9 9 9 9 , % , , , , 1 , P V 2 1 $ @ % % $ + % @ , < a 7.Y u a , % $ $ + $ $ + + % , , ..q.o.I 1 v v >...1 0 % @ % % % @ @ + % + + + $ $ + O + , , , , , 1 1 U 0 y.+...l a , % +   + + l % % B OX[.N.T.L.V.9 R.!.|.=.k.2 q *X*X{.. + $ $ $ , % 1 k X.k + + $ $ % , , $ $ $ ",
"+ + $ $ $ + $ $ $ + @ % , % @ $ + + + < % @ j.= -X0 , , , , , , 0 1 V M 1 1 % % % % % % % % 1 1 ] ..Y B ] , , $ $ + $ $ $ + % , 1 o.<.U I 9.B Y ..] 0 v @ % % % % % % % % % % % @ % + + % 1 , , , 1 , , , % #...] M y , % + + + + $ % % ( M 9 .XN.>.b v P /.V.*Xo./ &X|.~.@ , $ $ $ $ , , 0 I V 2 % % $ $ , , , $ $ @ ",
"$ $ , , % + $ + + $ $ $ $ @ , % , , y XX, - c.#X[.|.m.R.w.c 0 9 ] ` , , , % % % + + $ + $ @ % % 1 1 2 k a k M % , + + % % 1 P k w.0 % % % 2 ,.:.w.w.P V u l , , % % , $ $ % % $ $ , , , 1 % , , 1 1 2 2 V k 0 1 1 , , 2 1 , , @ % % , w w ~.~.~.o., 1 `  .] #.:X=X&X+.r.&X7.g., , 1 1 < 2 2 % $ % $ % $ $ $ % % $ $ @ ",
"% @ , % % % $ + + $ $ $ $ $ , % , , % , 1 1 1 o.w.&X( #Xw.e /.9 V Y , , , % , % + + + + $ @ % , 1 1 0 V ] a P % , $ @ % % 1 1 V ` , % , % , 1 , 1 o.1.6.M j 1 1 , % , % % % @ @ % 0 a 1 #X, - , < , 2 0 M V 0 1 , , , 0 2 1 , , @ , 1 c !.!.}.Y V , 1 1 9 1 j.h.6.g.w.( !.-X6., , 1 2 2 2 % % % $ $ $ + + + $ $ $ $ $ ",
"% % % % , , , , , % % % % $ % % % % % % 1 .., 1 2 1 L.{.{.|.*Xm.1 , % % v % $ 1 + + + + + + @ @ % % , , , 2 , v 0 % , % % % % % $ @ $ + + % % @ @ % , ;.1.6.I 0 a 0 0 , , % , , 6 V M V.V.h.8 ..M 0 1 0 , , 1 , % % @ % % 1 1 0 }.O.B ,.1.0 ;., , , % + + 1 1 ( l.1 , ,.U..X.Xb I 1 9 % % % % % $ $ $ + + + + + + $ $ ",
"% % , % 9 9 ..< , , % % % @ , , % % % % , 1 1 1 1 A R.f.{.}.|.j.2 , , 1 % @ $ b.O + + + + + $ $ % $ % % % < , L l , % , , % % @ $ + + + $ $ $ + $ @ % % y , t ..j 0 u 1 , , , < < Y I R.c.F.p.o.W W r 1 1 1 1 , % % % % % , 1 2 *.:.!.] h 1 , , , % @ + $ , , , 1 2 , Y 6.1.V.3.[.0 u , @ % % % % + % % % @ @ % % # , ",
"% % , , O.D..X|.k.` 0 , % , , , , , % % , 1 : x.N.~...>.1 ( R.L.#.1 1 , , 1 % ` O % $ $ + + $ $ $ $ $ $ + $ + $ $ , % 2 1 % % @ @ $ + + $ $ $ $ $ $ $ $ + + % % , % 1 1 1 1 0 q.+.c.`.w 0 1 M b w.w.+.+.v P v 1 1 1 1 1 2 0 P P 0 , - , , % , % $ $ $ @ $ , < +XV.` 1 % - 1 1 q.>.R.>.0 1 , , , % % % % , , , u 0 ] ] ",
"% @ v p l.B.7 h 0 ..K.u.0 % , , 1 1 2 P v w _.|.>.j.% 1 $ $ 1 6.T.#.1 1 t _ k.v 1 < @ @ @ % % @ % % $ $ + + $ % % , , % % 1 1 1 1 1 0 % , % % @ $ % % @ % % , % , , 1 0 O.1.(./.`.w.c.% , % % , 1 1 q.+.g.R.l.w.q.v Y 2 P P ` + % $ $ $ % , , @ @ $ $ % h R.V.7.2 @ $ % % B h., ] /.R.c.V 2 2 , , , % % , , , 1 1 1 1 ",
"% @ b ( R.R.1 9 v c 1.!.M , , , 1 1 M ] P u w.D w 9 , , $ $ 9 9 >.}.l.V./.N.0 0 1 1 % % % % % % , , % + + $ $ % % 1 1 % % , 1 1 1 0 0 < , , % , % % , % % @ % % , , , u >.:.<.Y ] , , % , % @ % % % u I V.e.>.#.o.I M 1 1 , % % % $ $ $ % % % % % $ + , @ c.r.9 9 + $ @ % , .., @ o.u o.a a u < , , , % , , , , , , , ",
"- =.}.b.w.Y , , , , 9 2 T.~.h.] 1 1 z.B.0.V % , 1 , % $ @ % + $   , 1 : % % % % 1 1 , , , , % , , % , % , , , 1 < 1 1 % % % 1 9 1 &.: h ( % 1 1 , , , , 1 2 y y P M v ] ] k , % % @ $ $ $ $ . + . . % % % , 1 D , , , , @ + + + $ + + $ $ % % , , , , @ $ % % + + + $ $ $ $ $ + % % % , 2 0 v , # , , @ , < , , , 1 1 ",
"c.R.h.r.1 1 % % , % 1 , 2 ..T.#.v y V 3 M 7 e , 3 + % $ @ @ $ + + + + @ $ $ % % , , k k a 0 % % % , % % % , , , , 1 1 % @ % w V 1.B.6.` ..1 0 a 1 , , , , , a y l 2 < 6 2 y @ % % $ $ + + + $ + $ + $ + @ % % , , 2 , , % $ $ + $ + $ $ $ $ @ , , , , @ @ @ % $ + $ + + $ + $ $ + @ % , , +. .V.B.P j 0 0 1 < , 1 2 1 ",
"1 1 , % $ + + $ $ + , , , , a , #.F.0 , , % < @ + + + + +   + + + + + + + + . + % $ , , 0 0 P I > 3 6 2 y 0 u , , 1 1 1 9 Y._.j.z.9 9 1 , Y 1.l.0 1 , % @ @ , 1 1 1 1 % % $ $ + + + @ , , % % $ + + + % , 2 1 1 , % % $ $ $ @ $ % , % % , % % % % , , , , @ $ + + + $ + + $ % % $ , , P +.a W , 2 ..K.+.>.a 0 0 y u y ",
"1 1 , , $ @ + + + + , , , % 1 , +.z.W % , % % + + + + $ $ + + O + + + $ + + + + $ $ , , 0 0 I I 1.<.#.Y V u M 1 , 1 1 0 9 Y.B.o.+.0 0 1 1 +. .>.M B , % % % 1 1 1 1 1 % % $ $ $ + + + , , a l y , , @ , :.U 0 1 , % % $ $ % % , 2 , , % % % % % % , 1 , 1 $ @ $ + $ + $ + + , % % , , M M P 0 1 ,  ...1.1.P P M k y u ",
", % + + $ + + + % % , , 1 1 , 1 $ , 1 1 y y , , $ $ + $ % % % % $ + + $ % % + O + + + $ % % 1 1 1 , , , % B V v ` !.1 ( 9.' v 2 , 1 1 , k I 1 , o.9.P O.% % % % % , % @ + $ + + $ + + + + , 2 Y I ..z.j. .I 1 % % $ $ % % 1 1 w ~.9 M , , % % $ $ $ $ , , 1 1 , , % % $ % % , 1 9 V ] < 1 % % % % , , 0 0 V.h.] ] 1 1 ",
"% % $ + + + + $ + $ 1 1 0 1 1 1 @ @ 1 1 a 2 , , $ $ $ $ @ % % % + + + $ % % $ + + + $ $ % , 1 , , , , , % M P L g }.&Xj.1.v V 0 1 1 0 , , 1 1 U Y  .....% 1 % % % % % % $ $ + $ + + $ + + , , , 1 ] V.#.,...1 % % $ $ % % Y., #XR.>.I , , , % $ + + $ , , 1 1 , , , 1 % % , , 1 0 ..I 1 1 % % % % , % 0 0 }.R.;.6.1 1 ",
"$ $ $ $ $ % , % , , 1 , , , $ $ + + % % , % 1 1 2 1 % , % % , % % % % , , % % % % % + $ $ $ % % , , , 1 1 ' +.T.V.D R.0 9 , , a , @ % $ $ , , , 1 < 9 1 u B % , 2 0 a , < % $ $ + + $ % $ @ @ @ , , % % @ % % % % % < 1 1 #XB.W #... .h.6., , % % $ $ $ $ % % 1 , 1 2 M y k U 2 2 % % $ @ + + + @ @ @ 1 1 , 1 z.U V V ",
"$ $ + @ , , , , % % $ $ $ % $ + + + + @ $ $ 1 0 < 1 1 1 % , @ @ , , , , % % , , % % @ @ % , , , 1 1 2 y < B.F.G h , % % % $ + + + + + + $ + + . % $ % % % % , , y U  .2 < 1 , @ % $ @ , % @ $ $ $ + . $ + + $ % , , , M #.V.T.U , , < /.@Xl.% % % % @ % @ % % , % % % , 1 % , % % $ $ + + + + + O + $ @ @ , 1 , l q.V ",
"+ O $ % , , , , % % $ + + + + + + + + $ % $ , 1 1 1 1 , !.}./.XX1 w , % , , , , , v , , , , , , 1 P ,.;.] I .., 1 , , , , % + + + + + $ $ $ + $ @ % , , , , , , 9 0 0  .L Y 0 % % % % % , % + + $ $ + $ @ + + % 1 XX9 6.>.B V , , 1 1 ..U 1.T.% % % $ % @ % % % @ % % % % , , % % $ @ + + $ + + + + + @ @ , , , , M M ",
", , 9 2 , % @ + + + + + + + + + + $ $ $ @ % , , 1 1 ' 6.o.}. .+.O.9.P 9 1 , , % 9 ..q.#.' w , , `  .L % % % % % % % $ 1 1 , % % + + + + + $ $ + + + + 1 @ @ + $ % % % , < 0 U ...., 1 % % % % % % @ $ $ % , , 1 q.K.R.1 V % % % % % % % 1 ] V.6.;.9 9 1 , % % % % + + + $ + $ @ % 1 , , , % @ + + + + + + $ @ , , , , ",
", , 1 1 , , $ + + + + O + + + + + + + + $ % 1 , : , 1.6.0 v 9 O.|./.9 9 1 , % @ , , M k.N. ., 1 ` M 1 % , % % % , % % 1 1 1 % % $ + + + + + $ + + + 1 `.$ $ $ % % % , , 1 a M :.Y 1 1 % % % , % @ @ + @ % , + /.V.]  .1 9 % % % , , , % , u P ~.|.!.1 1 % % % @ @ + +   + + + $ % 1 , 1 1 % @ + + + . . + $ % , , , , ",
"% % % $ $ $ + + + + +     $ % @ $ $ $ + % $ v O.h.&.1 1 , , 1 } ;.6.F.B.z.] V M , , , , 1 r y a $ $ $ + + $ $ 2 , , % % % , % @ % % % + + % , t.+ + 1 0 + + % < % , , 2.G 1 1 < < % % % % , < 1 M a 1 1 % ; K.*.P 9 1 % % % % + + + + % , , , ..=.Q.!...+.0 a % % % @ + . + + + + % % 1 < < , % % + +   + + $ $ + $ $ ",
"% , % % % , , % % % , % % % % , , 1 1 1 a a b q., , % % % + + $ , $ =.=.N.w.q.M a V % , $ + + O + $ + + + + + , , ] 1 % % % % % $ 0 0 1 1 , , , , , % , , % -X0 8.>.} XX%X,X0 $ @ , , @ , 1 ..] ..(.j 0 D.F.l $ @ , , % % + + + + + + + + @ % % , , r.~.T.] ..a a % % % % % % % % % % @ @ , , , , @ % , % @ $ $ $ % % ",
"0 0 , , , , % % % % % % % @ % , 1 1 1 1 M y 0 9 % % % , @ + + + , , , @ M 0 ,.I j V % % $ $ + + + + + + + . + % % 9 1 , % % % % % 0 0 2 1 , % , , , % % , % @.B.,X~.}.XX!.T.0 + % , , , , , 1 : ..Y y 2 V B 1 % % , % % $ + + O + + + $ + % % , , , 1 W Y ..=.V a % % $ % % % % $ @ % @ % , , , , @ % , $ $ % $ $ % % ",
"0 0 ,. .o.] 1 0 % % % % % , 1 1 v b 0 0 2 % % % % % % $ + + + + + + % % , , 1 1 y 0 2 2 % % + + + + + + + . . @ $ + + $ $ + % , % z.c.I v ..0 0 1 1 1 1 F - >.&X|..X:X/.k.N.9 V v - - % , , % % % % , , , , + + $ $ + + + + + + + % % , , < 1 1 , , , % % 1 , , 1 1 1 1 1 1 1 % % $ @ % % % % , , 1 1 9 1 b > , 1 , , ",
"1 , % % M 0 q.9.w w 0 0 , , v v 1.6.] P 1 % % $ + + + + + $ $ $ $ % , , 9 1 1 , $ % 1 , , 1 + + + + + + + . + . + + . + $ + , , $ % % h W }.( B O.' { [ #X#X.XL., , % o.<.j.}.#X#X&X1X0 9 , , , , , 1 , % @ +   + + + + + + + $ $ 1 , 2 0 < 2 < < % , + @ % @ % % 2 1 M ` '.( 0 0 1 1 , , , , , , u u @.#.@X}.] P 1 , ",
"1 , % , v 0 w._.P 0 V.2 , < w v XX[.' 1 1 % % % $ + $ $ + + $ $ % % % % 1 1 1 1 , % 1 1 , , + + + + + + + . + + +     $ $ $ % $ % % % 1 1 ` D.B.>.] .XH.B.N.`.q., , , 1 I o..X|.*X~.K.0 9 , , , , , 1 1 % @ +     + . + + + + $ % , , y 1 1 2 2 1 % , % % % % , , 1 0 b XX|.K.0 u 1 < < , , , < , u u L.T.I Y e.h., , ",
"  $ % % , , ..v ..Y *Xe q w k.&X.X!.!.^.[ Y , , % % % % + + @ % , , 2 2 % % % $ $ $ + + % % 1 1 % @ % @ $ 1 % + + $ $ + + + $ + + $ $ , % 1 1 < V h *XL.K.c U M , , , $ % l V.F.j.~.`...} 0 9 1 % , % % + + + $ @ + $ % % , % , 1 1 1 % % % $ % % , , % % % , 0 0 1.>.r.6.B.L.D.U : XX1 1 y y  .] I V.1.Y , , k U I a ",
"+ + % % @ % 0 0 ` ~.-X&X..|..Xc.B I ~.`.R.R , % $ @ @ @ @ $ % @ , , 0 1 % , $ + $ $ @ $ 0 - - , % $ % @ % ` % + + + + + + + + + + + + , % , | E |.R.N.V.c c , , , , , + % , 9 2 0 +.N.@X}.9 , , , , % @ + + $ $ @ + + % % 2 , , 1 , , @ @ $ $ % + % , , , , , 2 1 1.y.J.1.v : /.~..XXX- , y 2 h 1.l l , , % % % , y u ",
"$ $ % % $ @ $X, #XR.q.1.k.L 1 1 , , 1 , O.~.] 0 1 1 % % % % % , , , % % $ + + + % + , , @X}.{.{.B.Y i 1 , % % % % $ $ $ + $ $ % @ , 1 ( `.!.j.K.t W 0 9 1 1 , , $ + + + $ + $ % % ] #.#.] #X!.E.u k , , @ $ $ % % , % , , 1 1 , , @ $ + + + + $ + % % 1 `., 1 u.l.P ` , < v w 0 9 /.V.~.g.2 y 1 1 % @ @ @ @ $ $ @ % , ",
"$ $ , % q 9 z.}.{.u.u 9 9 $ @ % + + % % 1 1 z.h.e.*.V P 1 1 1 1 $ $ $ $ % % , , 1 2 q.T.L.o.#.V.V.K.l.o./.9 9 % % % % , , , , 1 w q.1.1.o.+., 1 w 9 % % % , y 0 + , 1 + + + + $ + $ $ < U ..5.z.m.1.a M 0 2 0 0 0 2 1 @ @ % @ + $ + + $ $ + $ $ $ $ @ ' Y 1 v ` 1.% % % % + $ % , =.#.~.V.h.w.I P % , % % + + + + + $ ",
"$ $ % , w :.B.k.R.L.7.1.9 + % % + $ % % % , 0 =.e.=.v t 1 , 1 , $ $ $ $ % % % , 1 e.`.| v v 1 w ` B =.~.@X@.9 % % % % % , , , 1 , 0 0 u 0 1 % , % % % % , , y 0 + 1 ` $ + + + $ + $ $ 1 1 , , , ] 0 U k 1 1 2 2 2 2 1 % % @ % $ + + + + + $ $ + $ $ $ 1 1 q.~.y 2 % % % @ $ % T.M.] L ..u T.V.V M , , , % + + + + + $ ",
"% % q 9 /.T.P H.B 1 % , , :.U 9 + + $ $ % % , , , , 1 1 0 v % % , % , , % , 1 U j.x.Y 0 , , @ % , , 1 ;.j.V.V.P Y % % % % % M M ..a M , , % $ @ $ + + @ % % , , 1 1 0 , % % % % % + + + +   + $ % % % % , , 1 B B  .] #.W a k , , % % @ @ $ $ $ % 1 1 a V , , , % % % + + $ $ @ + % % , , 1 1 6.=.V k 1 1 @ % % + O + ",
"% % k.z.6.=.9 9 , , $ $ , 1 , 1 + $ + $ % % , , , , , , u 0 % % % % % % % 1 V I c.I 0 u , , % % , , , 1 < =.;.V B % % % % , V M ..a V , , $ $ $ $ $ @ % % % 1 , 1 1 1 % , % % @ $ + + + +   + $ % % , % ..V 1 K.R.c.V.r.o.y , % , % @ % @ $ % % % 1 1 g v , , , , % % + + $ % $ $ % % , , , , Y I k V 1 1 % % @ + + O ",
"o.....I 1 1 $ $ $ % , % $ + + + $ + + + + + + % % % , % % % % % % % , , B P U u , , % % % % $ + + O + % $ % % ,.Y ` u , ,.B.a ` , % @ @ $ + + + + + $ $ + + % % 9 1 1 u a u % % % $ $ $ $ $ % % , , 9 1 ..Y V.o.1., < w.e...O.] u % , , < , , 1 1 % % $ $ + + $ $ $ $ + + + + + O   + + + % % , , 1 % v y Y Y , , % % ",
"v 0 1 1 % + $ $ @ @ , , + + + + + + $ + + + + $ % % % , % % % % % % 1 , M ] % % % $ $ % $ $ + + + + + $ $ $ @ % , ....B.k.2 % @ $ $ $ $ + + + + + + $ + + + $ $ $ $ % a V V 2 , % $ $ $ $ + % % , , 1 1 =.k.&.< % % % % 1 k.~.7.q., , 1 , l M 1 1 @ @ + $ + + + . + + O + + . O +   + + + % $ % % , , , , ] y u % , , ",
", , % % % $ + + + $ @ % , 1 % % $ $ $ $ $ + $ $ $ $ $ + $ $ , , 1 1 P M 1 , % % % % $ $ + + + + + + . + + $ $ % + , 1 1.r.% , % % O O O + . + + + $ + + + + $ $ @ + % % , < V I k , , $ % % , , 2 0 o.o.1 l 2 @ $ % % % % 1 0 j.h. .o.2 y 1 1 % % $ + + + + + + + + + + + + . + O + $ , , % % % , % , , , 1 1 ....0 0 ",
"% % % , $ + + . $ + $ $ , 1 % % + $ $ $ + + + $ + $ + + + $ , , 1 1 I B , , % % , , % $ +   + + + + . + + $ $ % @ 1 , 0 1 , , % % + + + + $ + + + $ . + + + $ $ % % @ % , 2 ` Y j , , $ $ % , , 0 0 +.,.1 y 0 % $ $ $ % % % % v ' 6.1.Y k 2 1 % % $ $   + + + + + + + + + +   O O + $ , , , , % , , , , % 1 , +.o.0 0 ",
"% @ % @ % % , , $ $ + + $ + % @ , , @ $ $ $ $ $ $ $ @ % , , 1 1 % % % % % % % , % % , , % % + + + + + + $ $ $ $ $ % % % % $ % % % , , @ $ $ $ $ % , 1 , % , % $ $ % % % % % % , , 2 2 1 , % % % @ @ % % % % % + + + + $ $ % % % % % % % % , , , 1 , 1 , , % % % @ + + + + + + + + + + + $ 1 , % % , , @ @ % % % % % % ",
"% % % % % % % %   + + + + + % $ , , $ $ + $ $ % $ $ $ $ % % % % % % $ % % % % , $ + , % % % + + + + + + + + $ $ $ % $ $ $ $ $ $ % , , $ $ + + $ % , , 1 % , $ $ $ $ $ $ % % $ + $ % % % % % % % $ $ $ $ $ % + + + + + $ $ + $ $ $ % % % % $ $ % % 1 < , , % % % $ O + + + + + + + + + + $ % $ $ % , , $ $ $ $ $ % % % "
};
