/* XPM */
static const char *normal_duck_56[] = {
/* columns rows colors chars-per-pixel */
"56 56 207 2 ",
"   c #010101",
".  c #0A0202",
"X  c #020903",
"o  c #030409",
"O  c #01090C",
"+  c #0D0A08",
"@  c #130100",
"#  c #1A0300",
"$  c #1B1100",
"%  c #020916",
"&  c #380100",
"*  c #3E1D00",
"=  c #2D2000",
"-  c #000C20",
";  c #001326",
":  c #771E10",
">  c #741F0B",
",  c #573400",
"<  c #001F40",
"1  c #00294E",
"2  c #003C65",
"3  c #0F495D",
"4  c #214955",
"5  c #05446A",
"6  c #085478",
"7  c #B81700",
"8  c #DD3501",
"9  c #C42C0C",
"0  c #935518",
"q  c #BD6800",
"w  c #EA4201",
"e  c #EF4D00",
"r  c #FA4D05",
"t  c #FE5B03",
"y  c #FF5404",
"u  c #C47301",
"i  c #CD7603",
"p  c #CD7C02",
"a  c #D77C05",
"s  c #FE6104",
"d  c #FC6E01",
"f  c #F66701",
"g  c #FC7201",
"h  c #DD8501",
"j  c #DA8B06",
"k  c #DF9E0C",
"l  c #D88E1A",
"z  c #E98601",
"x  c #E48C01",
"c  c #E68407",
"v  c #F08A02",
"b  c #E79402",
"n  c #ED9501",
"m  c #EC9B01",
"M  c #E5910A",
"N  c #F19A02",
"B  c #F99E03",
"V  c #E58D1F",
"C  c #EDA605",
"Z  c #F5A303",
"A  c #FAA401",
"S  c #FBAC02",
"D  c #FDB402",
"F  c #F4BE00",
"G  c #FDBA02",
"H  c #FBB705",
"J  c #FFA129",
"K  c #FFB13A",
"L  c #FBAA35",
"P  c #D58D29",
"I  c #FCC402",
"U  c #FDCD04",
"Y  c #FFCC0B",
"T  c #F7C200",
"R  c #FED303",
"E  c #FDD30A",
"W  c #FAD507",
"Q  c #FFCD14",
"!  c #FFD011",
"~  c #FED826",
"^  c #F2C836",
"/  c #FEE239",
"(  c #BA9C53",
")  c #BEA44A",
"_  c #C1A74C",
"`  c #E1C941",
"'  c #FEE54A",
"]  c #FCED5E",
"[  c #FDEE61",
"{  c #FEEE69",
"}  c #1878A6",
"|  c #3A78A1",
" . c #006DC0",
".. c #026FD5",
"X. c #0471DA",
"o. c #007BE3",
"O. c #007EEA",
"+. c #0F84AF",
"@. c #05A6D2",
"#. c #0087EA",
"$. c #008CEB",
"%. c #1398E5",
"&. c #018DF3",
"*. c #0095F3",
"=. c #019CF6",
"-. c #0193FA",
";. c #009CF9",
":. c #0C9AEC",
">. c #03ADEC",
",. c #0DA2E6",
"<. c #12ABEC",
"1. c #17ABE8",
"2. c #0EB2EF",
"3. c #13B2EE",
"4. c #18B4EE",
"5. c #01A4F4",
"6. c #05ADF4",
"7. c #0BADF4",
"8. c #01A7FC",
"9. c #02ABFD",
"0. c #0AAFFB",
"q. c #08A5F2",
"w. c #11AAF0",
"e. c #05B1F5",
"r. c #0CB3F5",
"t. c #05B2FD",
"y. c #0AB5FD",
"u. c #06B9FD",
"i. c #0CB9FD",
"p. c #0FB9F6",
"a. c #12B5F5",
"s. c #13B9F6",
"d. c #1DBBF7",
"f. c #11B6FC",
"g. c #14BCFD",
"h. c #1ABDFC",
"j. c #1DB6F4",
"k. c #24B4EC",
"l. c #2CBAEC",
"z. c #3BBEEE",
"x. c #24BDF4",
"c. c #2BBCF3",
"v. c #24BFF8",
"b. c #30B0E7",
"n. c #4EBDF4",
"m. c #0FC1FF",
"M. c #16C0FE",
"N. c #1CC1FE",
"B. c #1FC8FF",
"V. c #30C1EE",
"C. c #27C1F7",
"Z. c #2AC3F7",
"A. c #23C4FD",
"S. c #2BC5FC",
"D. c #26C9FF",
"F. c #2DCAFE",
"G. c #3DC6F4",
"H. c #3CCAF6",
"J. c #33C6FC",
"K. c #34CAFD",
"L. c #3BCCFD",
"P. c #35C5F7",
"I. c #35D2FF",
"U. c #3DD1FE",
"Y. c #45CBF6",
"T. c #4ACCF6",
"R. c #43CDFC",
"E. c #4ACDFC",
"W. c #4FC6F1",
"Q. c #59CEF4",
"!. c #58CDF8",
"~. c #45D2FE",
"^. c #4BD2FE",
"/. c #49DAFF",
"(. c #5CD3F6",
"). c #53D4FD",
"_. c #5BD5FC",
"`. c #54DAFF",
"'. c #5DDBFF",
"]. c #54D0F6",
"[. c #5BC5ED",
"{. c #66CFF4",
"}. c #65D8F6",
"|. c #63D6FD",
" X c #63DBFD",
".X c #6CDAFD",
"XX c #6AD4F7",
"oX c #74DDFD",
"OX c #79DCFB",
"+X c #70D4F8",
"@X c #59E2FF",
"#X c #63E1FF",
"$X c #6CE2FF",
"%X c #73E2FF",
"&X c #7BE3FF",
"*X c #78EBFF",
"=X c #9D9D9D",
"-X c #858482",
";X c #84DEF9",
":X c #84E5FF",
">X c #8BEDFF",
",X c #84E6FF",
"<X c #95E9FE",
"1X c #97F4FF",
"2X c #A6F1FF",
"3X c #FFFEFC",
"4X c #E9E9E7",
/* pixels */
"t.t.t.9.9.9.9.t.9.9.t.y.y.9.9.y.t.9.9.9.t.y.9.8.9.9.9.t.9.9.t.t.t.9.9.9.9.t.i.y.9.9.9.t.9.t.t.9.9.9.9.9.t.t.t.t.",
"t.h.J.).i.y.9.9.y.f.D.t.'. Xt.9.9.y.g.Y.u.`.d.t.9.t.d.N.S.D.J.S.R.t.t.t.L.%Xu..Xi.i.9.t.K._.|.|.t.9.9.t.K.K.4.K.",
"A.y.t.y.u. Xd.y.N.t.9.9.t.t. X'.^.D.t.t.8.9.y.h.L.N.t.9.y.y.9.9.t.u.^.R.y.t.9.y.u.}._.).r.y.9.t.x.~.F.F.9.9.8.t.",
"9.9.9.9.9.t.t.t.t.9.9.9.9.9.t.t.t.y.y.a.t.9.9.t.t.t.t.9.9.9.9.9.9.9.y.y.y.9.9.9.9.y.y.t.t.9.9.8.9.y.f.t.9.9.9.9.",
"9.t.t.t.9.y.g.t.9.i.N.>Xg.t.9.9.u.~.H.y.U.L.t.9.9.t.e.i.%XoXp.9.9.8.9.9.i.c.i.9.9.t.9.y.i.N.$Xi.t.9.9.8.t.i.|.y.",
"9.K. XoXy.8.9.9.d.,Xa.i.l.@Xt.i.S.e.t.9.t.t.P.~.i.i..X1Xy.i.*Xd.t.t.i.a.l.u.@X<.y.9.9.t. X3.y.*X#Xt.t.t.`.r.i.6.",
"N.t.t.y.|.m.g.^.s.y.t.9.t.y._.R.y.9.8.9.9.9.t.y.V..Xy.t.9.9.t.y.).).S.y.t.9.9.y.].~.N.L.y.9.9.9.y.E.^.~.t.9.8.9.",
"9.9.9.9.y.I.).h.t.9.9.8.8.9.t.y.i.N.y.9.9.t.N.f.g.y.9.9.9.8.8.9.y.y.N.N.9.9.8.9.t.y.h.y.9.8.9.y.9.t.y.t.i.y.y.8.",
"9.9.t.y.9.9.t.y.A.D.N.t.9.9.9.9.t.K.oXh.t.9.9.9.9.t.f.i.; t.t.9.9.9.8.9.t.g.f.t.9.9.9.9.9.9.9.t.t.y.M.OXt.t.9.y.",
"9.9.9.9.t.~.oX~.t.9.9.t.9.t.9.t.~.d.y.g.$Xu.9.9.f.t.1 X U   M.y.t.9.9.u.).x.c. Xy.t.8.9.t.y.t.9.e.U.y.y.u.K.K.N.",
"L.h.t.f.L.t.9.t._.E.i.t.9.y.S.|.i.Z.f.9.t.t.~.f.>.. o ~ Z X $ } N.D.L._.t.9.8.t.y.XXA.g.:Xu.j.H.t.9.9.8.9.9.8.t.",
"t.K.~.g.9.9.9.9.9.i.A. XL.~.i.t.9.9.9.y.t.9.5.    ~ R E u Y A     t.t.t.9.9.9.9.t.y.E.i.y.9.9.y.`.t.9.8.8.9.9.9.",
"8.9.t.9.y.9.9.f.h.8.t.g.N.i.9.9.9.F.h.9.9.2 ` Y R R R R R G C U Y ^ 2 9.t.9.9.F.R.x.i.y.8.8.8.9.t.y.A.A.t.8.8.9.",
"t.t.9.t.t.t.i.9.9.g.i.9.9.9.t.i.t.9.9.t.< S R R R R R R R E E R R R N o t.y.g.9.9.9.9.9.t.A.L.y.9.9.9.9.i.%XD.t.",
"9.t.'..X%Xt.9.9.t.1.6.9.9.t.[.<.'.6.9.- F U ] R R R R R R R R R R R I S   t.9.9.t.t.t.t.9.9.9.9.g.9.t.4.c.i.<._.",
"F.L.t.9.t.^.s.i.L.t.d.$XM.y.9.8.t.i.5 , R { ' R R R R R R R R R R R R R C < t.g.E.h.E._.i.9.9.t.g._.).y.9.9.8.t.",
"y.t.9.9.9.t.t.y.t.9.t.y.~.F.8.9.9.9.o I [ ] R R R R R R R R R R R R R R S X f.a.y.9.t.y.#XOX6._..Xf.t.8.9.8.8.9.",
"9.y.t.9.9.9.9.9.t.9.9.9.9.9.y.t.t.9.G R E R R R R R R R R R R R R R R R I B 9.9.9.9.9.9.9.t.y.t.9.9.S.J.t.9.9.9.",
"9.9.9.y.f.f.y.N.E.S.h.9.t.A.v.A.i.O F R R R R R R R R R R R R R R R R R G Z   y.y.9.9.9.t.9.9.8.9.9.9.t.h.g.t.9.",
"g.f.t.t.~.oXH.R.y.9.9.t.9.9.t.y.g.P G               R R R R               n 0 e.y.t.9.9.y.g.<Xp.t.9.9.9.y.P.|.y.",
"9.t.g.oXi.9.9.y.L.t.t.9.9.9.).).6.    4X+                     3X              >.R.y.t.t.$X.Xu.e.).t.9.e.H.t.t.L.",
"t.P.F.y.9.8.8.9.y.F.Y.A.r.).2.t.9.j X -X              S G =   =X          X i 8.y.A.`..XZ.t.9.t.t.Y.F.I.t.9.9.t.",
"g.t.9.9.8.9.t.g.g.t.9.e.t.t.8.9.8.F B               n U W G               n n 8.9.9.9.y.t.y.9.8.8.9.t.g.t.9.9.9.",
"8.8.9.t.9.9.9.9.t.s.i.t.9.t.t.t.9.. R ,           z   d t   v           # S . 9.9.8.9.t.t.9.8.t.t.9.9.t.y.y.9.9.",
"y.9.t.t.9.9.t.g._.t.t.$Xt.9.t.y.A.o D R a       a & d L g e & c       c D N   g.N.t.].].p._.r.t.9.y.A.%Xp.).y.9.",
"y.G.L.^.t.i.`.t.t.8.9.y.R.R.C.t.9.9.@ U R I o w y J K d d g g w 8 . Y U G * 9.t.A.J.t.t.9.t.a.(.u.XXi.t.9.t.4.L.",
"t.9.t.t.&XA.t.9.9.8.8.9.9.t.t.t.8.9.X C R E f g J r         r g d r R R n X 9.9.9.t.9.9.9.9.9.y.i.i.9.8.8.8.9.t.",
"i.9.9.8.9.9.D.K.y.9.9.9.y.9.9.T ! %   + D U X 8 # : 7 7 7 7 > . 9 . D S   o 5 I H t.9.y.t.y.y.9.9.8.8.t.y.9.9.9.",
"8.y.N.y.9.9.8.9.t.A.g.t.9.t.  W U . N G u h N @ 8 s s s s t t 9 @ m B q S N   ~ E X t.i.g.t.A.h.y.9.t.9.9.9.t.y.",
"8.9.9.9.y.Q.Y.y.9.9.9.y.y.p.D ' R u R R E S i n x   . . . . . x x i Z G R U a / E S x.t.9.t.y._.<Xc.y.9.t.g.K.9.",
"t.9.t.i.R.y.i._.t.t.y.&XN.6 E ~ R E R R R R I D N x h h h h h N S G R R R R U E E R 3 S.a.i.%Xi.t.i.).L.h.t.9.9.",
"t.).J.y.t.9.9.9.f..Xg.t.9.  R R R D R R { [ R R R U D D D D I R R R R R R R R R R E . 9.f.y.t.9.9.9.t.t.S.y.t.9.",
"9.9.9.t.9.g.M.t.9.9.9.i.t.  R R R p R E [ ] R R R R R R R R R R R R R R R R u R R R . g.9.9.f.t.9.9.t.i.(.k.z.D.",
"y.A.9.9.t.9.9.t.t.9.9.S.^.o U R E p R E [ U R R R R R R R R R R R R R R R R p R R D . t.%Xt.9.9.t.g.#X).t.8.t.u.",
"9.t.i. XOXf.9.9.t.9.~.n.9.+.m G m Q R R E R R R R R R R R E E R R R R R R R k Z D x } 9.0. X^.9.N.x.t.9.9.9.8.9.",
"t.K._.t.t.$Xx.t.t.0. Xt.9.H.z A u E R R R R R R R R R R R E E R R R R R R R G u N z (.s.9.t.$Xy.t.9.9.t.E.f.9.8.",
"L.B.y.9.9.t.g./.9. XP.9.$X).@.l N G R R R R R R R R R R R R R R R R R R R U G n V 4 9.`.7.9.e.>X9.y.g.N.t.y.S.t.",
"9.9.9.9.9.t.t.9.9. X8.9. X9.=.  n G G R R R R R R R R R R R R R R R R R U G S N   &.T.9.S.9.d.S.9.t.9.9.9.9.9.h.",
"t.9.9.t.U.*XoXy.9.y.|.9.S..X;.O.h Z G G Y R R R R R R R R R R R R R R I D D n x O.-.XXS.9.y.'.9.9.9.t.9.^.H.y.9.",
"Z.j.t.F.y.t.t.K.6.8.].w.9.L.b.*.o M N D G G E R R R R R R R R R R U D D D N j % &.%.L.8.9.Y.|.9.9.8.y.>.y.y.`.t.",
"t.f.~.h.9.9.9.9.9.y.t.%Xy.9.J..Xq.#...n Z D G G D D D D D G D D D G S N b  .#.;..X/.9.t.'.R.t.t.L.P.R.y.9.9.t.A.",
"8.9.t.t.g.y.t.y.t.8.9.s..XQ.9.f.>X;X9.&.X.b N N D D D D D D D D N m l X.*.8.$X2X^.9.K..Xz.t.9.9.y.y.N.N.8.9.8.9.",
"8.8.9.y.g.t.~. XP.t.9.9.9.D..X,.6.F.%Xn.%.#.o.( ) _ ) ) ) ) ) _ | o.$.:.b.+X&X9.8.t.).i.8.8.9.y.9.9.9.t.g.9.9.8.",
"t.9.9.9.y.~.y.t.t.T.^.t.9.8.9.F.R.6.8.8.$X&Xt.5.9.8.;.*.-.=.;.*.=.J..XG.0.8.9.i. X$X9.9.N.U.t.9.9.8.8.8.9.t.t.y.",
"K.N.t.y.E.i.9.9.8.t.t.A.h.y.9.t.g.{.t.9.8.t.<.1.k.f.y.t.9.t.y.1.k.7.9.8.8.F..XW.y.9.9.y.y.u.S.T.t.9.8.9.}. XoXu.",
"9.t.L.r.M.9.9.9.9.9.9.9.t.t.t.9.9.t.q.+X>X%XJ.g.t.g.].,X&X.XJ.t.y.A.R.g.t.y.t.9.9.y.9.8.8.8.8.t.a.L.F._.t.t.9.t.",
"8.9.9.9.9.t.F.A.t.9.9.t.D..X.Xy.t.9.9.t.t.y.t.t.i.9.t.t.i.i.y.g.i.9.9.t.L.~.~.9.9.9.9.8.8.9.t.y.t.t.y.y.9.9.8.9.",
"8.9.9.t.y.9.9.9.9.t.y.1Xg.y.y.^.).y.9.9.9.9.y.3.3.9.9.9.9.9.9.9.y.t.i.D.t.9.t./.~.t.y.i.:Xi.t.9.9.8.9.8.9.t.9.9.",
"8.9.t.i.|.E.t.9.N.R.K.t.9.9.9.9.t.E.J.i.t.i.Q.y.d.R.t.9.9.9.y..XoX'.t.9.9.8.8.9.t.g.(.H.y.S.R.t.9.f.i.9.9.t.F.y.",
"9.M.D.s.t.y.}.i.9.9.9.9.y.t.8.8.8.9.9.y._.).t.9.9.t.^.E.t.t.^.y.y.y._.C.9.9.8.9.i._.t.9.9.t.i.~.K.9.9.9.R.L.t.F.",
"D.A.t.9.9.9.t.L.J.y.t.t.8.9.9.8.8.y.^.!.i.i.8.8.9.9.t.y.`.K.y.9.8.9.i.e.|.h.t.)..Xy.9.8.8.8.8.t.y.L.K.G.t.t.9.9.",
"9.9.8.9.9.8.9.9.t.D.h.y.9.u.9.9.N.L.t.t.8.9.y.9.8.9.y.C.N.h.9.8.8.9.9.8.t.g.R.y.9.9.9.t.t.9.9.h.K.y.t.t.8.9.8.8.",
"8.9.9.t.K.D.8.8.8.9.9.f.L.{.d.g.t.9.9.8.9.y.P.S.F.9.t.9.9.9.g.t.9.9.9.t.N.t.9.y.N.N.9.9.9.y.N.t.9.9.9.8.9.9.A.9.",
"y.t.D.h.t.t.S.t.9.y.A.y.9.9.y.R.i.9.9.9.9.9.9.9.9.S.t.t.9.9.y.'.u.t.i.t.8.8.8.9.9.8.9.i.9.9.9.i..Xi.t.9.y.9.9.9.",
"t.t.9.9.8.9.t.y.S.y.t.9.9.8.9.t.y.P.r.S.7.9.9.8.8.t.f.A.D.~.E.t.9.9.t.F.r.9.9.8.8.9.L.K.9.t.L.y.t.y.S.S.9.9.9.8.",
"9.9.9.9.9.9.9.9.9.9.9.9.8.8.9.8.9.9.9.9.9.y.t.9.9.9.9.9.9.9.9.9.9.9.9.9.9.y.y.9.t.m.9.9.i.y.9.8.9.8.9.9.y.i.t.8."
};
