/* XPM */
static const char *normal_floor_100[] = {
/* columns rows colors chars-per-pixel */
"100 100 186 2 ",
"   c #17B6ED",
".  c #1AB4ED",
"X  c #1DB8EE",
"o  c #0CAFFA",
"O  c #0EB4F7",
"+  c #0EB8F6",
"@  c #0DB3FD",
"#  c #0EB9FD",
"$  c #14B5F5",
"%  c #1AB6F3",
"&  c #15BBF5",
"*  c #1CBBF5",
"=  c #12B5FD",
"-  c #18B7FB",
";  c #15BAFD",
":  c #1ABDFD",
">  c #21B7EA",
",  c #27BCEE",
"<  c #2DBFEE",
"1  c #30B9E7",
"2  c #31BFED",
"3  c #22BDF5",
"4  c #2BBFF3",
"5  c #21BFFC",
"6  c #32BBF2",
"7  c #1DC1F6",
"8  c #15C1FE",
"9  c #1DC1FE",
"0  c #1FC9FC",
"q  c #24C1EE",
"w  c #28C0EF",
"e  c #34C1EE",
"r  c #3BC3ED",
"t  c #24C2F6",
"y  c #2CC3F5",
"u  c #29CAF6",
"i  c #23C3FD",
"p  c #2AC5FD",
"a  c #25C9FE",
"s  c #2CC9FE",
"d  c #34C4F4",
"f  c #3CC5F3",
"g  c #35CAF7",
"h  c #3BCAF6",
"j  c #30C7FF",
"k  c #30C5FD",
"l  c #34C7FD",
"z  c #32C6FC",
"x  c #33C9FB",
"c  c #31CCFA",
"v  c #32C8FD",
"b  c #30CAFC",
"n  c #33CBFD",
"m  c #33C9FF",
"M  c #30CAFE",
"N  c #31CBFF",
"B  c #30CBFF",
"V  c #36C9FC",
"C  c #37CAFD",
"Z  c #30CCFF",
"A  c #33CCFF",
"S  c #36CDFC",
"D  c #37CEFD",
"F  c #37CDFF",
"G  c #37CEFF",
"H  c #33CBFD",
"J  c #38CCFA",
"K  c #3ACCFD",
"L  c #3BCDFF",
"P  c #38CFFF",
"I  c #3BCFFF",
"U  c #3DCFFF",
"Y  c #3ECEFF",
"T  c #3BCCFD",
"R  c #37D1F7",
"E  c #34D1FF",
"W  c #39D0FD",
"Q  c #3DD0FF",
"!  c #3CD1FE",
"~  c #4CC7E6",
"^  c #43CCEE",
"/  c #4DCCEF",
"(  c #5ACCEE",
")  c #44C6F7",
"_  c #44CCF4",
"`  c #4CCDF4",
"'  c #43CDFB",
"]  c #40CEFE",
"[  c #44CEFD",
"{  c #43CEFC",
"}  c #4BCDFB",
"|  c #53C7F0",
" . c #52CEF6",
".. c #5ACEF5",
"X. c #52CFFB",
"o. c #59CFFD",
"O. c #45D0F7",
"+. c #4DD2F7",
"@. c #43D1FF",
"#. c #41D0FC",
"$. c #44D1FF",
"%. c #46D0FE",
"&. c #43D2FE",
"*. c #49D0FF",
"=. c #49D3FF",
"-. c #4ED3FF",
";. c #4BD3FD",
":. c #4EDAFF",
">. c #55D4F5",
",. c #5AD3F4",
"<. c #5CD9F7",
"1. c #52D7FF",
"2. c #54D5FD",
"3. c #56D6FF",
"4. c #53D4FD",
"5. c #5FD5FB",
"6. c #59D7FF",
"7. c #5BD6FF",
"8. c #5BD5FC",
"9. c #52DBFF",
"0. c #53DAFF",
"q. c #5AD8FE",
"w. c #5FDCFF",
"e. c #5CDBFF",
"r. c #6DD0ED",
"t. c #63D4F6",
"y. c #6CD5F3",
"u. c #6EDAF7",
"i. c #62D6FD",
"p. c #63D6FC",
"a. c #68D4FB",
"s. c #68D5FB",
"d. c #67DCFF",
"f. c #64DBFD",
"g. c #6ADBFD",
"h. c #6CDAFF",
"j. c #6CDCFE",
"k. c #76D9F6",
"l. c #7DDAF3",
"z. c #70DBFF",
"x. c #74DFFF",
"c. c #73DCFD",
"v. c #7CDAFC",
"b. c #7BDDFC",
"n. c #5CE1FF",
"m. c #64E0FF",
"M. c #65E2FF",
"N. c #6CE3FF",
"B. c #68EBFF",
"V. c #7DE0F7",
"C. c #73E3FF",
"Z. c #73E2FF",
"A. c #7CE3FE",
"S. c #73EBFF",
"D. c #7CEAFF",
"F. c #82DEF7",
"G. c #8BDDF5",
"H. c #82DDFC",
"J. c #8BDDFA",
"K. c #84E0F7",
"L. c #8BE2F4",
"P. c #83E3FD",
"I. c #8CE4FA",
"U. c #8BE3FD",
"Y. c #84EBFF",
"T. c #8EE8FF",
"R. c #8DEBFF",
"E. c #98E5F7",
"W. c #9CE8F6",
"Q. c #92E2FB",
"!. c #96E6FF",
"~. c #93E5FD",
"^. c #9CE7FC",
"/. c #9AE4FC",
"(. c #93E9F8",
"). c #90EBFF",
"_. c #93EAFD",
"`. c #9BECFF",
"'. c #9CEBFF",
"]. c #87F0FF",
"[. c #97F1FF",
"{. c #9CF3FF",
"}. c #99FAFF",
"|. c #A4ECFD",
" X c #AAEBFD",
".X c #A2F3FF",
/* pixels */
"; ; ; ; ; @ @ @ @ ; ; ; ; ; = = = = ; ; : : p s * : ; = = ; : : : ; @ @ = = ; ; ; @ @ ; ; : : : : : ; ; = = = = = = = = ; ; : p : : ; ; ; ; ; 8 : ! : ; ; = = = = = = ; = = ; ; : : : 9 t : ; ; ; ; ; ; ",
"; ; ; ; = = @ @ = ; ; ; ; ; ; ; ; = = = : : a a I I N $ 9 y d.: : ; = @ @ = = = @ @ @ : : ; ; ; ; : ; ; ; ; = = = = = ; - ; i a ! 1.N @ $ & 8 3 i.I Y % % @ = = ; = ; ; = ; = ; : : 9 x.h.*.% ; : ; ; ; ",
"; ; ; : i : ; ; ; ; ; ; ; ; - i a a : = = = = : 9 i N C.w.A : - ; ; : ; ; = @ @ @ @ = : : ; ; = = = ; ; ; ; : ; = = ; : l s i = : 9 *.M.T.!.8.9.N i u 3.-.: ; ; ; ; ; ; = ; a.s p s s : : %.8.a 5 : ; ; ",
": : : : ; a ] ] I : : : i F s i t ; i t N N a i i i = ; ; ; ; ; ; 9 i i a ; ; ; ; ; ; : : ; ; ; ; : 9 i ] (.3.t ; ; : i @ @ @ @ = = ; = : p p p 9 = ; ; : J k p : : : a N N $ @ : : : ; ; ; : t s p i 9 ",
"V A N t ; : i A I g.%.@.Y c : ; ; ; 5 *.s s 9 : ; ; @ = = ; t k p 9 ; ; - 9 - - = : ; ; ; : : - ; s 9 [ I.a a ' x ; = ; @ = = = ; : : = ; ; ; ; ; ; = = ; ; a a u s q.' s ; ; = = @ : @ @ = = ; : s F F ",
"-.).^.v.a : ; ; ; i s p 9 ; = ; ; i s : ; ; = = @ @ @ @ = ; : : ; = = @ @ = t p I F : ; ; : p `.Q.V z.f : : : : N N t a p 9 ; @ @ @ = @ = = @ = = ; ; = = : 9 f T.5.i ; ; ; = @ @ @ @ @ @ = = = ; : : i ",
"s i t Y h.; ; ; ; @ @ @ @ @ @ = = = = : # ; = - : 9 = @ = @ @ @ @ = = = = ; : : 9 5 p ; : 9 L.,.q.t : : ; @ @ ; ; t N N a ; ; @ = = = @ @ ; = @ @ @ = : : & p.n.i i i i 9 - : : = = @ @ @ = @ = ; ; ; i ",
"9 i i 9 A 4.9 : = @ @ @ @ @ @ = = ; = i U.U.A.A : 9 i ; = @ @ @ @ = = ; ; ; : : : : ; 9 Y b.%.t i 9 : : - @ @ = ; ; ; 9 a p i ; = = = @ @ ; = = @ @ = ; u d.9 i t i i i i i : : 9 i = @ @ = @ ; ; J t.4.",
"= = = 9 9 N 8.*.s 9 ; ; ; ; ; ; ; s -.} s s i.c.y s i t : : = ; = = ; 9 9 p a a : : k c.d.F t : : ; = = = @ @ = = @ = = ; - t a : 9 # ; ; ; ; ; = ; i : : : : ; : = ; 9 9 i p 9 : : : ; ; ; ; 9 c.f.Y t ",
"= = = 9 : : : a s T -.} [ a 8.U.~.4.F i i a 9 a C.u.[ a a i i 9 p s c.8.i.p ; ; s s i = ; : 9 i i ; = = ; : : : = @ @ @ = @ ; 9 I ' ] x a ; ; ; ; : : t i i : ; = = ; 9 : 8 %.V.N p 9 : : t %.4.p : ; : ",
"; ; : : - = = = = i p @.h |.4.s a 9 9 9 ; ; = : : : p 8.C.i.A.A.e.F 9 ; ; ; = = @ = ; = = = ; 9 9 i : : 9 9 : = @ @ @ @ = = ; ; : t s A ' ^.a p : : 9 9 : 9 i 9 9 9 9 9 i F ' A P.I.4.: 9 z.] : : : ; = ",
"; ; ; = @ @ ; : 9 : i i s C s i 9 9 ; = @ @ @ @ = = ; : i s [ p.1.F 9 ; ; = @ @ @ @ = : ; ; ; ; ; : 9 : : @ = @ @ = = ; = ; 9 : : : ; : ; : x.y.! : ; = @ ; : : : 9 a Y ;.F 9 i i i H.d.d.&.9 9 = = = @ ",
"; ; = @ @ @ @ @ @ @ = : : : : 9 9 ; ; = @ @ @ @ @ @ = ; : ; 9 V F s A.a s ; ; = @ @ @ = = ; ; ; ; ; = @ = = = @ ; : : a T.(.[ i : : ; ; ; : p t 8.*.9 : ; = = ; ; V s : : ; = = : : i ;.s a : ; ; ; = @ ",
"= = = = = @ @ = ; i ; = = = = = = = = = = = = = ; ; : ; i a I F a 9 s c.M.S 9 9 ; = = @ o @ @ @ @ @ = = ; ; : ; ; i a x.&.i Y w.y 9 9 9 s s : 9 ; I t.*.: = @ @ @ = = ; = = = = = = : 9 a F F 9 = ; ; ; ",
"= = = = : : : - : : i : : : ; = = = = = = = = = = ; ; a a a : ; ; ; 9 : % 3.^.Y.9 ; ; @ @ @ @ @ @ @ = ; ; ; ; ; i q.8.s : 9 : 9 Y.T.%.g s : : : = 9 9 i s ; = @ @ @ = = ; = = = = = ; ; = ; 8 F p : ; ; ",
": = = : ; 9 9 : : @ ; : i %.Y 9 a : ; = ; ; : i s a a : : = @ @ @ = = : : i s g p.A i : = = @ @ = = ; ; ; - i s b.d 9 : : = ; ; ; ; ; ; = ; 9 * 9 : 9 : : ; : : : ; = @ @ @ @ = @ @ @ ; = ; : : s 9.' u ",
"9 : : : @ @ @ @ = : ; : i a x j.j.E ; ; F F F i ; ; : ; = = = @ = = = 9 9 9 9 i a 3.d.a ; u N * 9 : ; ; 9 p p : ; = : = @ @ @ = ; ; = = = @ @ = ; : ; ; ; 9 : : : : ; ; = @ @ @ @ @ ; ; : : : : : : : a ",
"@ : : : : : 9 : : 9 ] J s : 9 9 i -.A.I s s 9 ; ; ; = @ = = = = = ; ; ; ; ; ; ; : : i V k : ; I x s s s i - ; = ; ; = = = = @ @ @ @ = = = @ @ = = ; ; : 9 i.|.'.N : : ; ; ; ; ; = = ; ; ; ; ; @ = = = = ",
"@ = = s j.!.c.s a %.V a ; = = ; ; = = : : : : ; = @ = = ; ; ; ; : ; ; @ @ = ; ; ; ; ; = = ; = @ = ; - ; = = = ; = ; ; ; ; = = @ = = ; ; ; ; ; ; ; i A %.h.s 9 t ' b.A : ; ; ; ; ; = ; ; = @ = @ = = = = ",
": F _ ~.@.i 9 T d.s i : ; = @ @ @ @ = = = = @ @ @ @ @ ; ; ; ; ; ; = @ @ @ @ = = : 9 ; @ @ = ; ; ; @ = ; ; ; ; = = @ @ ; ; ; ; : : p I I a : : : F U.[ F i : : 9 : i } s.1.a 9 9 : : ; ; ; ; ; : ; ; - ; ",
"-.Z.M.a 9 i : : : 5.V s i ; = = = @ @ @ @ @ @ @ ; ; ; ; ; ; ; ; ; ; ; @ = = ; ; ; : i i : ; = @ @ = ; ; M.9.: = ; ; ; ; : i t i i i t p *.P.b.A.*.i : : : = @ = = : : p I 8.U.I i 9 : i I I s 8 ; ; 5 F ",
"1.3 : 9 : @ @ @ @ = a p a i ; ; = = = = @ @ = ; ; : t % * : : ; ; ; a a a ; : - a a i i : ; = = = = x 4.Y.Y._ z = ; ; ; = @ ; a a a : : : *.+.+.9 : ; ; = ; @ @ @ = ; : 9 t t 9.! F &.F I F : ; : a p &.",
"9 ; ; = @ = = = = = = = = : ; ; ; ; ; ; ; ; : : a *.d.U.t.1.4.; ; = * p p N F N : i : ; = = ; : & } -.f i * d } T 6 9 ; ; ; ; ; = ; : : 9 t k z a : = = = : : : = : a s i : : : : : 4 : ; ; ; ; 9 9 i 9 ",
": ; = @ @ = = ; : = = = = = ; ; ; ; : ; ; : : i A 8.D.J 9.m.C.% % $ ; 9 a F a 9 ; ; ; : ; ; ; 3 y D.A : 9 : : F M...< = : : - ; ; ; 9 9 9 : 9 i i : = = = 9 t i * i s p : ; ; ; ; ; ; ; ; = = ; : : : : ",
"@ @ @ @ @ @ = ; : : ; = @ = ; i i N a : * * s N s a i 9 a 9 :.D.C./ = = ; : ; ; @ @ = : p s c.c.S.9 ; : @ = ; : : N.A.;.@.a 5 9 9 9 9 : = = = = = = = = = ; 9 p I A : = = = = = ; ; ; ; = @ ; ; ; ; ; ; ",
"= ; ; ; = @ @ @ @ = ; ; ; ; : ; : 9 i a I V s : = ; ; 9 9 9 i a &.Z.t 9 : ; = @ @ @ @ ; a s 5 : ; ; @ = = = = ; 5 i 9 9 : : : ; ; : = = @ @ @ @ = : : ; ; ; ; ; ; : ; ; ; = = = = = @ = : : ; ; ; ; ; ; ",
"9 ; ; ; ; ; = = ; ; : p t s.k : ; ; ; ; = = ; = : : i : ; = @ = = = 3 i p : ; ; = = = @ @ @ = @ = = ; : 9 F F i i ; = = = ; 9 : : : ; ; ; = @ @ @ @ = @ @ = = = ; ; ; : : i 9 ; @ @ @ @ = = ; ; 9 i a a ",
"z t t 3 : : : ; : = E  X[.i o.i.A ; ; = ; ; ; ; = = = @ @ @ @ = = ; = = ; : : : ; ; = = @ = = = @ = i i i 5 i ; ; = ; ; ; : | d : : : ; ; ; ; = = = = = = = = ; = & ; 8 : - i : = ; @ @ ; ; : : i j.L.s ",
"Y &.*.D.;.% & & ; O.d.t i ; : N Y C.I : ; ; ; ; = = @ @ @ @ ; ; ; ; ; = = : : 9 : : - ; = = = ; ; s F E 9 ; = = = ; = ; , @.Y.h.y t i ; ; = ; = = @ @ ; ; = ; + 9 ~.g * + ; 9 a : 9 = = : : ; d d.w.N &.",
"; ; : i N.5.E.J.k.d.a 9 9 : ; ; ; 9 9 9 ; ; ; ; ; = @ @ @ @ = ; = @ @ = = = : 9 a r.E.N : 9 9 p u s : ; = = = = - * ; g P.! i &.J.<.t : : = = ; ; ; ; ; ; ; a e Q.! d.u.d * ; ; : : : ; % t N ~.S a 9 9 ",
"= ; ; : : a 1.*.x i - ; ; @ = = = = = = ; ; ; ; 9 9 9 : ; = = @ @ @ @ = = ; a ' U.! a 8.!.>.a i 9 = ; = = = ; 9 8.4.! 9.9 9 9 i a c..X;.A 9 9 i i 9 i i 9 d.<.n.i i i s ;.>.9 ; ; ; 9 a i.H.c.s i 9 9 = ",
"@ @ = = = ; : : : a a : ; @ @ @ @ = ; ; : : : a * t Y 9 * 9 ; = = @ ; ; 9 p A.d.a 9 9 i i M.F * ; ; ; ; = = ; ; ; i a : : ; & i a a a a f.[.,.1.g N.z >.M.u 9 9 9 = ; : 9 i F : : * w.d.4.V i i ; = @ @ ",
"@ @ @ @ @ @ = = ; : 9 9 ; @ @ = = ; : : : : i a 0. .;.[ V 9 8 ; ; ; = N q i.A s 9 ; @ ; : 9 A %.[ V - = = = ; ; ; ; ; ; ; : ! a 9 9 ; ; ; i 9.0.3.p i @.F a 9 : = @ @ ; : : ; 9 : ; ; : 9 9 9 9 : = = @ ",
"= @ @ @ @ ; ; ; 8 ; = = @ ; = ; ; 9 s i 7 i u x.T.Y.9 s ;.q.x 7 7 7 ;.M.B.9 : : = = @ @ = ; ; ; ; : i 9 ; @ ; ; ; @ = ; p @.! 9 ; = @ @ ; ; ; = a p p i 9 : ; = @ @ @ = = ; : s 3 9 = = = = ; ; 9 i 9 ; ",
"; = = ; ; 9 ! ).E.i 8 = ; : : 9 9 9 9 [ U.l.c.I : 9 9 9 9 : F b.b.l.a ; = ; ; ; = ; ; = = = ; = ; = : : C p i ; = : ; a N i : ; = @ @ = = ; : : : y * ; ; ; = = = @ @ ; ; * s p *.[ F # ; = @ @ = ; : : ",
"; ; ; : a j.Y N p j.s 9 : 9 9 9 : ; ; : ; ; ; : ; ; ; 9 i 9 : @ = = ; @ = @ @ @ = ; ; @ @ @ @ = ; ; ; = = i p 9 9 p s a : ; = @ @ @ = = : : a a 9 ; ; ; ; = = = = = : i a p s ; = ; V F t : ; = = = @ ; ",
"a s d c.p.a : 9 9 a a.).^ x 9 : : ; ; = = ; = ; @ @ = ; : 9 V 8.;.! ; ; = = = = @ @ = ; ; : = @ @ @ = = = ; a b.b.a ; = = @ = = ; ; 9 i : : = = = @ @ = = ; ; : 5 N t a 9 ; = = = @ = ; i p t ; : : : : ",
"a D.D.F : : ; = @ : 9 E N.U.t : : 9 ; ; = = t = ; ; = ; : 9 : : t ;.p : ; = - : ; ; @ ; ; ; = @ @ @ = # $ a U.u.9 ; ; ; @ = = ; : a ! ! i ; ; = = @ @ = = : t : E P.g.u 7 & # @ @ = = ; ; : 9 N 9 : 9 9 ",
"t.. : : : ; = = @ = ; ; i F c.a p ; : a +.;.Y u : ; = ; = @ = ; ; ; a I I V s a ; = ; ; = = = = = = ; 8 H.8.s : : : = ; = ; 9 s u a : ; i a t i ; = = ; ; 9 %.>.H.a a ] C.H.9 ; ; ; ; ; ; ; ; s 3.' s p ",
"9 ; ; = = ; ; ; = = ; t a i a I @.3.J p ; ; ; ; ; ; : = @ @ @ @ @ = ; ; ; : : : * ; : : * * : : ; : 5.t.: ; ; = ; * i i : : p i = ; = @ ; : a p a : : : g g.h.w.9 9 : ; : 9 >.x 3 5 ; ; ; ; ; ; 9 M.H.%.",
"5 i i : ; ; ; : : i t a : ; ; : : i @.i 9 9 ; = = @ @ @ @ @ @ = = ; ; ; ; = = = k F p ' v.v.a A a b.c : 9 = = @ @ = = ; i i ; = @ @ @ @ = = ; ; 9 O.U.p.h.i 9 9 9 = = = ; = ; a I F t ; = ; ; ; ; ; ; t ",
"@ = = : ; ; : ; ; ; @ = = ; ; i * : = = : : t : ; ; = = = ; ; i Y c.! ; : = = = : : : t i i ;.] 4.N : : 9 a a : ; = = @ = @ @ @ @ @ @ @ = : p s N i 9 i 9 i 9 : ; = = @ @ @ @ = = = ; i 9 : ; = = = = @ ",
"@ = @ @ @ @ @ = = = = = = ; : ; ; ; = @ = = = ; 9 : : : i a V.I.c.p U.&.&.: ; ; = = = ; i i 9 : : : ; = = : a u ;.Y s * ; : : = = = ; : 9 ' 9 a = ; = = ; : p p a i = @ @ @ = @ = = : ; ; ; ; ; ; ; ; : ",
"; ; ; ; @ @ @ = ; ; = = = = @ = = ; ; = = = = : : 9 9 %.P._.u i i i i 0._.b.p i : ; = = = ; = = = = @ @ @ = ; : p :.q.).8.Y i ; : : i V 3.i ; ; ; @ @ @ @ ; ; : : i i : = = = = = = = = ; ; ; 9 s %.4.a ",
"N 9 9 ; ; ; ; : : : ; ; ; ; : ; ; ; ; : A A q. .3 t g.c.>.a ; : : ; : ; = k 5.w.Y - s i = ; = = = = @ @ @ = ; s p a - - = a p p N I A A ; ; @ @ @ @ @ @ @ @ ; = = ; : 9 9 9 ; = = = = ; ; t W Z.5.w t ; ",
"i p p F p a p * ; : ; 9 y ] s 9 9 ; = ; 9 9 3 F U.H.V 5 : i ; @ @ @ = ; : : = = a p i ; = @ = @ @ @ = ; : s s p i ; ; ; : : a ] ).b.4.a 9 ; @ @ @ @ = = = = @ = = ; ; 9 9 V V p 9 : : 9 A >.H.a ; : : ; ",
"@ ; ; : 1.i.Y p i Y s.e.N ; ; ; ; = = @ = = : a p a 5 ; = @ @ @ @ @ @ ; = ; = = : ; @ @ @ @ @ @ @ = 9 ; a a : = = @ = ; 9 E P.R 3 i Y 8.U.i ; ; = = * V i = @ @ @ = ; = = i p s 8.5.P.P.y s 9 : ; ; @ @ ",
"; ; ; 9 p s R.Y.P.3.: ; ; ; = = = = ; ; : 9 9 : : : p 9 : ; @ = = = = @ = @ = ; ; = @ @ @ @ = ; ; i i i : ; ; ; ; 9 i ! Q.d.t : : : : : a *.p s : ; ; = ; : = = @ = = = = = 9 9 N F w.a : ; ; = = @ @ ; ",
"i s V F s : 9 i a t : : = = = ; ; ; i F 9 9 ; = ; ; : i 5 9 ; = = = = = = ; = = @ @ @ ; ; ; 9 9 9 ; 9 : N ; : 9 F w.i.1.: ; : ; = = @ ; ; ; 9 5 s a i : : : 9 : - ; ; 9 9 : 9 p s s i ; = = @ @ @ ; ; : ",
"p p p t - = = : : i a 5 ; ; ; : 9 3 s s ; ; = = @ = = = : : 9 ; ; = = ; ; ; ; ; @ @ = ; : - i : : = t p F N & p V x z + = = @ = = = = = @ @ @ @ = i 9 9 : : 9 : 9 & & 9 9 : 9 a * 5 : ; = @ @ @ = ; ; : ",
"i 9 : ; ; = ; ; ; 9 a a 9 : 9 _ ` e.i ; = @ @ @ @ @ = = ; ; 9 : : ; = : : : = ; = = : t I @.p ; : i s p 9 N e.E s i i : : = @ @ = @ = = = = @ = = ; ; ; : 9 y _ _ D.N.` y 9 : : ; ; - ; ; = = = ; ; 9 i ",
"; = = ; = = ; ; = = : a a y _ {..XD.i = @ @ = @ @ @ @ = ; ; ; a u A I 7 p ; : : : 4 t i.T s :.b.d.F : = = ; : 9 9 : 9 i a $ @ @ @ @ ; : : = @ @ @ = : ; : s A.U.Y.s E Y.d.t * @ @ = = ; ; ; ; ; * p @.A ",
"= @ @ @ = ; ; ; = = ; %   i.&.i i F f.7 ; ; ; = @ @ : i i i 9 9 i 9 V U.R.d % % ' }.S.: : : a p a ; = = @ @ @ ; ; = ; ; i F : ; = = = ; ; ; ; ; ; ; : 3 1.C.[ N 9 : 9 a e.T.b.T = ; = = ; : = * d.@.A ; ",
"; ; ; ; = ; ; ; ; ; 9 ! O.p 9 9 9 9 9 >.p a : ; ; : i i 9 : ; 9 i : : t * t.F.U.%.s ; : : ; = ; = = @ @ @ @ = = ; = = ; = i Y I t i : ; ; ; ; ; : ; : : : ; : : ; @ = : : : i s s s ; = p z ;.8.5 : : ; ",
"= : : : : ; = : : H.} t 9 ; ; = = ; : : Y Y p.T p i ; ; = = = ; = : : : : i 9 : : : ; = = = = = @ @ @ = @ = = = @ = @ = = = : 9 I V p p a *.I.J.A ; ; = = = = = = @ @ ; ; : : : : : i a i p p ; ; ; = @ ",
"= = = = ; = i i a 9 ; ; ; = = = = = ; ; ; : a T p a i a : ; @ = = = @ ; ; : : : : : ; @ @ = = = = = : ; : ; = : 9 ; = = = = = @ = ; a a ^.>.i * F b.9 8 ; = = = @ @ ; 9 i i : ; : 9 9 : ; = = = @ = @ @ ",
"= 9 7 e.A.i 9 : = ; ; = = = = @ @ = = = ; ; ; ; : : a i a i 9 ; ; = = = = ; ; : : : 9 : = @ = = = = ; ; 9 9 E U.L.d 9 ; = @ = ; a 0.u.i.p 9 9 9 9 s k.c.] : ; ; ; 9 i : ; @ @ = ; ; ; = = = = = ; ; - : ",
"9 m.w.%.;.w.= ; ; ; = = = ; t : : @ = = = = ; ; = = : : : ; 9 i 9 : ; ; ; ; ; : ; = @ @ @ @ = = = : ; : a G.p.F V T.U.p @ = s V F s 9 ; = ; ; ; : ; ; : 9 a 9 9 : ; ; ; = @ @ = @ = @ = = : = i i 9 i 9 ",
"d.T I 9 i S g.%.: ; ; ; : : = = = ; = = = = ; 5 9 9 : : : : ; ; ; : : a a 9 : : ; @ @ @ @ @ = : 9 : i E 3.Y t 9 9 s A K.h.p.x : ; ; ; ; = @ = @ @ @ ; ; ; : N s t ; ; : 9 9 : = @ = = : : y ;.U.! y i 9 ",
"a : 9 9 9 9 a -.5.p 9 9 ; ; = = = = = @ @ = @ = : 9 ; ; = = = : : ; U.] } -.a 9 ; @ @ ; ; : : i t ] 3.8.p 3 9 : = : 9 i V j.Y i ; ; ; ; : = @ @ @ @ @ : : i : : ; @ @ ; : 9 k ; ; ; 8 v.A.A.4.s g.Y.w.i ",
"; ; = @ @ ; ; : ; 0.i 9 ; = = ; ; ; ; @ @ @ = @ = = @ = = @ ; 8 t W.0.8 9 p U.j.i ; ; ; ; ; = = = ; : : : ; ; = = ; = i a a A s u 9 ; ; ; ; ; ; @ @ = = = = @ @ @ = = = = ; 9 9 9 9 +.w.t 9 : 9 9 N ^ p.",
"= @ @ @ @ @ = = ; ; 9 a a a 9 : : ; : : 8 8 # ; = @ = $ ; ; p.U.Z.&.9 9 9 9 a d p.! 9 : ; ; = = = ; = = @ = = @ : i i i : = ; 9 a p a : ; ; ; : : = = = = = @ = ; ; : 9 ; ; : F I.Q.A : : : ; = ; : : a ",
"= @ @ @ @ @ = = = = = ; ; i s a a : 9 a Y.P.U.a : : ; a ;.4.I * : : : = = ; : : ;  .j.' p a I t i = @ @ @ = ; 9 i 9 ; ; @ @ = = : i a a i : : : : : ; = = ; : : a Q.x.9 : : u N 9 : ; ; @ @ = = = ; : ; ",
"; ; = ; ; ; = = = = = = = ; ; i a V a H.A s a d.d s t i 9 : ; : ; : @ = = = = = ; ; ; 9 i ; @ = @ @ @ @ = ; ; ; = = = ; = @ = = = = = ; : : 9 : 9 : : 9 9 : [ ..P.s &.c.' 9 : = = = = @ @ = ; ; : : : = ",
"; i 9 9 : : : : ; ; = = = ; ; ; ; s 8.9 i i 9 9 :.8.x.9 9 : ; = = = ; @ = @ @ @ @ @ = = = = = @ @ @ ; ; : ; : : * 9 : ; ; ; = = @ @ @ @ = ; ; ; : ! a t 5 s 4.[ 9 9 i i q.P.s : ; ; = ; a s a i ; = = = ",
"9 a z d.i : : * : & i : ; ; : ; ; ; ; ; ; = = ; ; = : F s a 9 ; ; = = @ = @ @ @ @ @ @ = = = = = = ; ; ; & a A f.@.9 : = ; ; ; = = @ @ @ = : 5 : A _.,.1.u i 9 9 9 ; = = = = ; s N s a a a a 9 : ; = = = ",
"9 9 9 9 4.t.} } z.3.t u * '.i : ; ; ; @ @ @ @ = = ; ; ; : : V N a : ; @ ; = = = @ @ = = @ = : ; 9 8 x e.Z.p.F t ; ; ; ; ; ; = ; ; ; ; ; ; 9 3.~ H.p a J d.A 9 ; ; = @ @ @ @ @ @ : : a : = = @ @ @ = = = ",
"= ; ; : 9 1.H.%.s 9 V f.g.8.I.y a ; = @ @ @ @ @ = ; : ; = @ ; p s V i : : = = = ; ; 9 : ; ; a e.i./.8.' p : : : ; : i i s %.x 9 ; ; ; ; a +.k s 8 : : : 8 1.Y A 9 ; ; @ @ @ @ @ = = = ; ; = @ @ @ @ = = ",
"; ; ; ; ; t a i 9 N S p 9 t p A.H.p : = @ @ @ @ ; ; @ @ @ @ @ = ; ; ; = = = = = ; 9 9 t C Y C a i s 9 9 9 : : ; = ; ; : : : p  .z s %.e.A.9 ; ; ; = = ; ; : p z } Y i ; = @ = = = ; ; : p a : : ; : ; # ",
"; ; ; ; ; : a N I a ; ; = : i i p 0.a : ; ; ; = @ = @ @ = ; 9 ; ; = @ @ @ = - : i : : ; ; = i i i 9 : : = = = = ; = = = = ; : a :.9.! p 9 = @ @ @ @ @ = = @ = = ; u s p * ; = : : : 9 s p d w.p ; : ; : ",
"; ; : : p a i : ; ; ; = = : : 9 9 : 9 ;.s a 9 ; = = ; : : : 9 = = = = = ; = : : : ; = ; @ = = = ; ; ; = = @ @ @ @ = = ; : i i a i : 9 9 9 9 : ; @ = = @ @ @ @ @ = ; ; : 9 a a i s s V s : : ; 9.j.,.` [ ",
": ; : N x i ; ; ; ; : : - ; ; ; = : 9 Y g x i ; ; ; ; 9 9 : = @ @ = = ; ; 9 F F - ; = ; = @ = ; ; : ; = = = @ @ = @ = ; 9 p u 9 ; ; = = : i : 9 = @ = @ @ @ @ @ O ; ; ; ; ; 9 i F C N : ; ; ; : F D.I.s.",
"c._ #.x i : = = = ; 9 9 : ; = = = = @ ; ; ; i i i i E U.4.c : ; ; ; ; x ` -.I Y @.s ; = = = ; ; ; = = = @ @ = ; 9 ; ; ; = ; ; @ @ @ @ @ = = ; ; : ; ; : : ; ; ; ; ; = = = = ; 9 a a ; = = = ; : t a p ! ",
"Y 5 : - ; ; @ @ = = @ @ @ ; ; = = @ = = ; ; ; i @.C 8.i -.p.d.9 9 9 @.N I ; ; ; 5 i i i i a : = = @ ; ; ; ; ; p N N k ; = @ @ @ @ @ = = = = = @ @ ; - * t i i a a ; ; = = = ; ; = ; ; = ; = i t i 9 ; ; ",
"; ; = = ; : : ; @ @ @ @ @ = ; ; : ; = ; ; ; i I V A 9 9 9 t d.d.-.I t : : ; = = ; : i i.I.} i ; = ; ; ; ; 9 s F p t a s : ; = = ; ; 5 i ; ; @ @ = = = ; ; i ! ,.U.N ; : = = @ @ @ = = - a a 9 ; = @ = = ",
"= @ @ = = = ; ; ; = @ @ @ = : a p : : : i 9 F i : ; ; = ; : i %.@.s ; = = @ = = ; % 4.a i O.C.y s : = ; ; ; ; = ; = = = : : : ; ; a 1.3.A 9 = @ @ = = : 9 e.P.M.! c.U.a i t ; = = = ; a s i = = : : = = ",
"= ; : = @ @ @ = = ; ; ; ; ; ; p s } ! N 1.1.: = ; ; @ @ = ; ; 9 t N N = ; = ; = s E - : : ; 9 :.} F 9 ; ; = = = = ; ; = = ; : i s N a : : i i 9 ; ; p d c.-.i i t 9 I x.T.] a 9 a a i : @ @ = = ; ; = @ ",
"; ; ; ; ; ; ; ; = ; ; ; ; ; ; ; : 9 4.4.: : ; = = = @ @ @ @ ; ; ; : i N s ; = = ; ; ; = = = ; = = 9 s u i : : ; ; a N A.|.9.p t * : : ; ; ; i i i a [ %.p : : = = = ; = p } %.s : : ; ; = = = @ @ @ = @ ",
"; : : 9 d : ; : : : ; ; ; ; : i i i : ; ; ; : : ; ; = = @ @ = @ @ @ @ = $ ; 9 9 ; = = = = @ @ = @ @ $ $ ; i 9 a w.A.A.y 3 g c.q.s s a 9 9 9 9 i i i ; ; = @ = @ @ @ @ ; = ; ; t s s 9 ; : ; ; ; ; i p @.",
"= ; & h !.f i 8 : : ; : : : *.T F 9 ; ; ; ; : : 9 9 = = @ @ @ @ = @ = = @ ; 9 9 = = = = @ @ = = = @ = = ; i 9 e D., > : : ; % Z.P.^.p.d.F 9 i a a 9 ; ; ; = = @ @ @ = = ; = ; i s s V : : : : : : 9 s ! ",
"9 D.U.A.p 0.P./ y p i N ' F F i i ; @ ; ; ; : a i i t ; ; ; ; ; ; @ = ; ; 9 ; ; 9 i i : ; : ; ; ; - * : i 3 Y P.a 9 : ; = ; ; : a t %.>.Y 9 : : ; = = ; ; ; = @ = : ; = = @ = = 9 5 V A 9 : 9 : : : ; ; ",
"b.) F 9 9 9 N z.A.O.%.} Y 9 ; ; ; = ; = @ @ = @ ; ; : p p i ; ; ; ; 9 9 : 9 ; ; a  .P.g.u p 9 : : : s p I X.*.: ; = = @ @ @ @ = ; ; ; ; : : = @ @ @ = = = : : ; @ @ @ = = = = = ; ; 9 O.!..X[ a t : 9 9 ",
"i i 9 ; @ @ ; : ; i -.I : = = = = = @ @ @ @ @ @ @ @ = : i a Y i.q.F a : : 9 i z A.M.l a 8.3.s * : = : : 9 ; ; = @ @ @ ; = @ @ @ ; : 9 : ; = = = = ; ; ; ; ; : : : = = = = @ = ; 9 i Y I 5 3 9.j.*.Y F s ",
"; = @ = @ = : 9 a 9 # i a i : ; = = @ = @ @ = ; @ @ @ = ; ; : : : * @.F ! 9 g.C.I * i : 9 : +.*.;.: ; = ; = = @ @ @ = @ : ; : p V p 9 ; @ = : - N ] - ; ; = @ = : i 9 ; = ; ; a @.*.i ; = : : 0 /.A.d.i ",
"@ @ @ @ ; : 9 : ; = @ ; ; : i 9 9 ; ; ; ; ; ; : ; ; = = = = = 9 9 9 9 X.( U.t t : : = @ @ ; & a y s ; ; : ; ; = = @ = = = = 9 - $ ; ; ; ; : 1.} I.R.X : : ; = = = ; 9 a p I I p : $ ; @ @ ; = : t p C A ",
"= = = ; : ; = = @ @ @ @ = ; : i i i t 1 9 9 ; ; ; : : : ; : 9 9 9 t &.: 9 : : ; = = = = = @ = = ; ; : : i i i : ; ; ; ; ; = = @ = = ; : : z g.Z.i a C.8.$ ; : ; ; ; ; ; ; : 9 ; = = @ @ @ @ = = ; : : s ",
"= ; ; ; ; = = = @ @ @ @ = ; : i a t j.{.y y & : : : : i t i 9 i t F p 9 : : : : ; = = = = @ = = = = = = 9 a p t * : ; ; ; = = = = = ; : * w.d k 9 i A ;.3.% * % : ; ; = = = = ; ; ; ; = @ @ @ = ; ; : i ",
": 9 9 ; @ @ @ @ = = = = = ; 9 g d q.i i e.n.n.] & ; : s F A i s a ; ; ; ; = 9 i - = = = = = = @ @ @ @ @ ; : 9 s ! 9 9 ; ; ; * = ; : p y Y.a : : : ; : 9 a m.C.M.9 : ; = @ @ = = 9 : 9 : = @ @ @ = = ; ; ",
"; ; ; @ = = = = ; ; = ; ; : N M.N.i : 9 9 : M.n.4.3.* 9 : 9 a = @ @ @ = = ; ; ; ; : = O ; ; = = = @ = ; = $ * i : ; ; ; ; 9 N s 5 k 4.N.p : ; ; = = ; : 9 A R.Y.j.h % = = = = = ; = 9 i ; = = = = = = @ ",
"N 3 * % ; ; ; ; ; : 9 9 i p i ; ; ; @ @ = = ; : N s Y : = = @ @ @ @ @ = = ; = = ; ; i t 3 : : ; ; : * y *.0.Y.*.. - ; ; ; ; ; 9 a a 9 ; ; = = = = = = ; : 9 9 i p F F : : ; ; ; ; = ; ; : : ; ; $ $ = = ",
"s 9.w.+.d t 9 : 9 a h Y s : = ; = = @ = = = = : 9 9 p i - ; @ @ @ @ @ @ @ @ = = ; - i Y ! F t p 3 x 9.q.] i 9 s 4.3 * 9 : ; ; : : ; = @ = @ @ = = ; 9 9 t : : : - ; : i i y 4 t : ; ; ; : 9 i g ..6 a : ",
": : : a e.&.p i 9 #.R.Y.' % ; = = = = = = = : 9 9 9 ; : : : = = = = @ @ @ @ = = = = = ; : a d.j.c.0.s 9 : = ; ; i :.e.d * : : : = = @ @ @ = = @ = : 9 9 9 9 ; ; = ; 9 y r 4.Y.F 2 s i 9 9 t x D.w.;.Y 9 ",
"= : : : i F N h V R.@.w.C.X.9 ; ; = = = : : i ; = = = @ = = i # = = = = = = @ @ = @ = ; : : 9.].D.A : : : @ = ; ; : : D.g y : # = @ = = = = ; ; 9 9 ; ; = ; ; ; ; ; t d.{.;.a d.Y.J i i a a a ; ; ; : i ",
"= ; ; = 9 p +.C.8.9 9 : : ;.*.i 9 ; ; ; : : = @ @ @ = ; : 9 ^.t.] 9 ; ; ; = = = = = = : : a i i i i : @ @ @ @ = = ; ; : @.w.F * = = ; ; ; 9 9 i 9 = @ @ @ = ; : 9 t w.' s 9 : : y A.8.a 9 ; ; ; ; = = = ",
"= ; ; i %.A.i.4 ; : = = ; : i ;.;.x : 9 = = @ ; ; ; : z C.U.Y i V s.i : ; ; : ; ; 9 i i i : ; ; ; 9 s * ; @ @ @ @ @ @ ; = = ; i t i i i i = ; = @ = = = = = = = i ] i ; ; ; = ; ; ; : j.} V : ; = = @ @ ",
"; a u *.F i = = = = = = = ; : ; ; : p ; ; ; ; ; i u w.T p 9 5 : : : p.;.F : : : I Y x : = ; = = = ; : s t ; ; = = @ @ @ @ = ; = : 9 a s 8.8.; : ; = = = = ; : i s 9 ; = = = @ @ = = ; - t i k 9 ; ; = = ",
"J Y Y : ; ; : ; = = = = = = = = = ; ; ; ; ; 9 V I F = ; ; ; = = = ; ; s ' @.1.z.g : ; ; = = @ @ @ @ = ; : p p : : ; ; = = ; : a ;...J.H.9 h k._.J 9 9 9 : t ; ; = @ = = = = @ @ @ @ @ = : : 9 s I p : 9 ",
"; ; ; = = = @ : 5 ; = = = = = = = = = ; a i F * $ ; ; = @ @ @ @ @ @ = ; = : t % ; ; @ @ @ @ @ @ @ @ @ @ = - 5 T @.i : ; ; : p 4.d i . ; ; : : 8 s 0.C s p ; = @ = = @ @ = @ @ @ = = : : : : : : p }  .I ",
"; ; ; ; = = = = = a ; ; = = = = = = = 9 i i = = ; ; : ; = = @ @ @ @ @ @ @ = = = ; ; = @ @ @ ; : : = = = = = = $ F p i : ; ; ; $ ; ; ; ; = = ; ; = = s p i i 9 : ; ; = = = @ @ @ = = ; : ; : : : = # $ = ",
"; ; ; ; ; @ = = @ ; : : = = = = = = ; ; ; = = = ; ; = ; ; = @ @ @ @ @ @ = = = = = = ; @ @ @ ; i i ; = = = = = = = $ ; : ; ; ; = = ; @ @ @ @ @ @ ; ; ; ; ; : 9 9 : ; ; @ @ @ = = = = = ; ; : : = = = = = "
};
