/* XPM */
static const char *normal_floor_34[] = {
/* columns rows colors chars-per-pixel */
"34 34 119 2 ",
"   c #19B4ED",
".  c #06B2FE",
"X  c #0DB3FD",
"o  c #13B6F5",
"O  c #12B5FD",
"+  c #15BAFD",
"@  c #1ABDFD",
"#  c #21BAF4",
"$  c #22BDFB",
"%  c #1DC0F7",
"&  c #16C0FD",
"*  c #1DC1FE",
"=  c #3FCBEF",
"-  c #24C4F7",
";  c #28C2F6",
":  c #23C3FD",
">  c #2AC5FC",
",  c #25C9FE",
"<  c #2DC9FE",
"1  c #35C3F3",
"2  c #3BC6F3",
"3  c #36C8F7",
"4  c #3DCAF5",
"5  c #33C6FD",
"6  c #33CDFF",
"7  c #30CDFF",
"8  c #36CDFC",
"9  c #34CCFE",
"0  c #35CCFF",
"q  c #36CCFE",
"w  c #37CDFF",
"e  c #33CAFE",
"r  c #39CAF9",
"t  c #3ACAFC",
"y  c #3BCDFE",
"u  c #3ACCFF",
"i  c #38CFFE",
"p  c #3FCDFD",
"a  c #3CCFFF",
"s  c #3BCDFE",
"d  c #32D5FF",
"f  c #3BD1FF",
"g  c #3ED1FC",
"h  c #3ED1FF",
"j  c #3DD2FE",
"k  c #42C7F2",
"l  c #42CCF6",
"z  c #48CBF7",
"x  c #43CBFD",
"c  c #42CEFF",
"v  c #41CDFB",
"b  c #4ACEFE",
"n  c #41D2FF",
"m  c #43D3FF",
"M  c #46D3FF",
"N  c #46D4FF",
"B  c #47D4FF",
"V  c #44D1FD",
"C  c #4BD3FB",
"Z  c #4ED4F9",
"A  c #49D0FD",
"S  c #48D1FD",
"D  c #4ED3FC",
"F  c #4FD4FF",
"G  c #4BD3FE",
"H  c #5ED3F4",
"J  c #5CD0F5",
"K  c #50D5FF",
"L  c #53D4FC",
"P  c #5AD5FE",
"I  c #5BD6FF",
"U  c #5ED5FD",
"Y  c #5AD5FF",
"T  c #50D9FF",
"R  c #51DBFF",
"E  c #55D8FF",
"W  c #55D9FF",
"Q  c #58D9FF",
"!  c #5DD9FD",
"~  c #5EDBFF",
"^  c #67D4F5",
"/  c #66D3FA",
"(  c #63D7FC",
")  c #69D7FC",
"_  c #62DFFF",
"`  c #66DEFF",
"'  c #64DAFE",
"]  c #6BDBFF",
"[  c #6EDBFC",
"{  c #6CD8FE",
"}  c #6ADFFF",
"|  c #71DAFA",
" . c #73D9FF",
".. c #73DCFB",
"X. c #7ADCF9",
"o. c #79DDFF",
"O. c #7CDFFC",
"+. c #65E0FF",
"@. c #66E4FF",
"#. c #6FE5FF",
"$. c #71E1FF",
"%. c #74E4FF",
"&. c #7AE2FF",
"*. c #7DE0FD",
"=. c #7DE0FF",
"-. c #7DE2FE",
";. c #7BE4FF",
":. c #7CE6FF",
">. c #7AE9FF",
",. c #80DEFF",
"<. c #86E5FB",
"1. c #82E1FF",
"2. c #8BE3FF",
"3. c #81E8FF",
"4. c #83EAFF",
"5. c #90EFFF",
"6. c #9FF3FF",
"7. c #A3ECFF",
"8. c #A8ECFF",
/* pixels */
"+ + X + + + O < u o ` O O X X + + + O O @ < K o U g + + + + @ ] + + ",
"e + : A 6 + a : + + : + @ + + + + 3 * + O O @ + O O + < a + O X + w ",
": w * X X O @ *.@ O X O + @ @ ,.: @ X + : + O O O O / : : @ @ X + J ",
"+ + O > 8.< * O @ I &.: O X + O : @ @ X O + e 3.@ * : * @ c ;., @ + ",
"O X X + O O + X X @ u : > + X X + O + @ C [ @ e & I O + + O + e & + ",
"@ O O + : [ + u + + X + * : ) > + + > + X X + X + O @ @ + X O @ @ @ ",
"@ ! D > O O + O O + + O O + + O O + O O + O : + @ n : B w + + O + O ",
"* O O O : + O + @ O.@ @ * > * O + <.o.+ O + + : : O O X * * F + + < ",
"O O X + + @ > < O @ * x + X X < + O O * @ + @ X O + + + + O O @ + + ",
"A w @  .+ w > + X X X O & + + O O w + X * X.: + O O O #.+ : + + - d ",
"X O @ : . . + + * : + O * < : ( + O + + + * < *.< < > @ * e r z : X ",
"O + t + + * < | * : g E + + O O + @ : + < + X O & @ + X + < n O X @ ",
"T Q @ T Z @ + + X + 6 M O O X @ X O 4 e X O : @ O X @ B : O O : : @ ",
"+ X @ @ : f 3 + + O X + & & @ +.* >.+ + @ : O + : # *.* + _ < O + $.",
"O . X O O + X O @ @ 2.a @ + O : @ O : ! + O O a + O @ : X X O + + + ",
"> : : + V * O @ 1.$ + O + * * X X + > + @ g ! + X O O + * t * w : + ",
"< < @ + O + 6 + + : + O + X X + * @ + 3 : + O O < : + + * @ > O X + ",
"O O + @ - 6.+ O X O + a & @ ; < } O @ @ : X X O X @ - A 3.  O + + n ",
"+ @ O ..+ O @ ' : O O @ @ * + O X O + O O @ > M g + O X O @ : : + O ",
"~ V @ O O @ O + O @ * + + @ X . O + ^ l O w : + + + : + + X X O : * ",
"+ X + : + + O O O O + ;.> - + + O @ + O : e + + X O X O O * : : & = ",
"+ + O O O : @.> < : @ O O O O + X X + O + O O @ * * & b ..@ O X + @ ",
"& L 8 : E + O X + O q + + O O + @ R u + + + O : :., 6 O O X * O X O ",
"+ + > + + * * + O X * X O @ * * : * + O O : F + X X + e > O @ > > + ",
"2 : O @ + O + : : 2.@ + J v + O + O O + O O X X + + O + O + * O @ - ",
"O X @ X X @ + : : & B : + O > V @ + : O @ O # @ X + - ' @ O O 5 + O ",
"+ + + + + @ I + X X O : @ + + O + < @ + 7.- @ + : A & O + c @ O X O ",
"5.@ k : M + O + * @ + + @ @ @ @ + > D + X O + : X O + O O O + % + @ ",
"O X @ + : + + X X + @ e ; g - & K + O X + < : O e @ O * + @ g + > } ",
": O X X + * : Z @ q @ + O @ O X X X @ 5 + O + L @ @ ..@ X O * X X + ",
"M : + < : + X O % : O X O O : < : E 1 n + + + O O + * @ : @ O @ : * ",
"+ * l ; L + O + O O E O O O O * l + X + c + O + @ O O @ P & E * + + ",
": w O O + + $ + : p @ b + @ e + O e + O . + @ %.+ + + : O X O : * O ",
"+ O X + O O @ + + + X X O + O . @ O O w + o + O + , : + O X O + @ o "
};
