/* XPM */
static const char *normal_floor_36[] = {
/* columns rows colors chars-per-pixel */
"36 36 124 2 ",
"   c #1DB9EC",
".  c #07B3FD",
"X  c #0DB3FD",
"o  c #0FB8FE",
"O  c #1CBDF6",
"+  c #12B5FD",
"@  c #18B6FD",
"#  c #15BAFD",
"$  c #1ABDFD",
"%  c #22B7EF",
"&  c #2EBCEE",
"*  c #25BFF3",
"=  c #22BFFC",
"-  c #1FC0F6",
";  c #1DC1FE",
":  c #1DC8FF",
">  c #21C0EA",
",  c #23C1F4",
"<  c #2BC3F4",
"1  c #23C3FD",
"2  c #2AC5FD",
"3  c #25CAFE",
"4  c #2ECBFF",
"5  c #2FCAFF",
"6  c #2DC9FD",
"7  c #2BC9FD",
"8  c #32C3F6",
"9  c #38C4F7",
"0  c #37C8F7",
"q  c #38C9F5",
"w  c #36C1FA",
"e  c #36C6FB",
"r  c #32C6FB",
"t  c #31C9FB",
"y  c #31C8FD",
"u  c #32C8FD",
"i  c #35CBFE",
"p  c #36CCFE",
"a  c #37CFFF",
"s  c #34CBFE",
"d  c #39CBFC",
"f  c #39CDFD",
"g  c #3BCDFC",
"h  c #3BCEFF",
"j  c #3CCCFF",
"k  c #3ECFFF",
"l  c #3BCDFE",
"z  c #3CD0FE",
"x  c #3AD2FF",
"c  c #46C6F3",
"v  c #4BCBF1",
"b  c #46CFF9",
"n  c #45CBFF",
"m  c #48CFFE",
"M  c #51CEFE",
"N  c #43D0FD",
"B  c #41D1FF",
"V  c #45D1FF",
"C  c #47D3FF",
"Z  c #44D4FF",
"A  c #45D1FF",
"S  c #4AD2FC",
"D  c #4AD3FD",
"F  c #4AD1FE",
"G  c #48D2FF",
"H  c #4AD3FF",
"J  c #4FD4FD",
"K  c #4CD7FF",
"L  c #4ED7FF",
"P  c #4CD3FE",
"I  c #59D4F7",
"U  c #51D0FD",
"Y  c #50D7FF",
"T  c #57D4FF",
"R  c #52D4FD",
"E  c #58D6FF",
"W  c #5AD5FE",
"Q  c #50D8FF",
"!  c #57D8FF",
"~  c #50D9FF",
"^  c #5CDCFF",
"/  c #64D6FA",
"(  c #6FD7FA",
")  c #60DBFD",
"_  c #63DBFF",
"`  c #64DCFE",
"'  c #6ADBFB",
"]  c #6EDDFB",
"[  c #69D9FE",
"{  c #6DDBFE",
"}  c #68DDFF",
"|  c #6ADCFF",
" . c #75DEFE",
".. c #74DDFA",
"X. c #7BDAFA",
"o. c #7CDFFC",
"O. c #5AE0FF",
"+. c #67E5FF",
"@. c #61E1FF",
"#. c #6CE2FF",
"$. c #74E1FF",
"%. c #77E4FF",
"&. c #7DE0FF",
"*. c #7DE5FF",
"=. c #75EEFF",
"-. c #7BE8FF",
";. c #7BE9FF",
":. c #80DEFA",
">. c #83E2FE",
",. c #82E6FF",
"<. c #82E3FC",
"1. c #8AE6FD",
"2. c #8CE6FF",
"3. c #8CE4FE",
"4. c #81EBFF",
"5. c #82EBFF",
"6. c #8EE8FF",
"7. c #95E3F7",
"8. c #93E5FD",
"9. c #99E7FB",
"0. c #98EBFF",
"q. c #88F0FF",
"w. c #8FF2FF",
"e. c #A0F4FF",
/* pixels */
"# # X # # # + ; 5 y 1 $ X + + # # $ # + + + 1 G # ; g # + + + # ; { @ # ",
"e # 1 [ h + + t $ X # 5 # ; # # $ $ , O 2 # + $ # # # # 1 6 # + $ X # d ",
"1 q $ X X + + q.2 ; X X + # $ = ,.< $ X # 1 1 + X X X 2   1 1 $ + X + +.",
"+ $ $ h G 5.a ; 1 V , , $.1 1 $ $ 1 + $ X X + g 2 # ; 1 $ + ; 5.$ ; Q $ ",
"# X X X $ ; + X X + # a >.# X X # # X + # 3 b $ # 2 G # + y $ + 1 5 # + ",
"# $ $ o ; * # # 1 1 # X # 1 ) $ + + $ # ] $ # # X ; ; # $ # X + X # # V ",
"+ J L 5 1 # w ; # + + # # + # # # + 1 + + + + X # # ; Y c T # # # + X + ",
" .$ $ ) 1 + X X X # # # # + # 1 # X # m # # 1 1 G &.1 $ X $ G U # N $ O ",
"X X + $ + # 1 # 5 < < -.# O X $ 1 =.$ + * Z $ ; # + + + ; 5 + + # + + # ",
"# # X + 2 $ # # # 1 # $ E # + + X + # 2 1 + # # + X X + + # $ + . + # $ ",
"# } 1.' = # $ # # X X + X # 5 w.$ 5 # + + i 1 X.$ # # # 7 z # # $ $ 3.1 ",
"X X # $ # X $ $ 1 L ; # $ / ; + 1 L + # # # h $ # ! 1 d ; X $ ; # 1 1 X ",
"# $ N 0 # ; $ & $ $ $ % $ + + # X # # 5 $ 1 # X + 1 1 # + + 2 ; N # + # ",
"#.$ + $ #.; # # + + $ ; 2 + # + # X o >.; # + ; 1 + X # $ ,.- X + $ 4 ; ",
"; # # 1 $ # g ; + X X # # + y 2 ..> ; + X $ # X + # G } ; + # 1 1 # + # ",
"+ . X + + $ + + # $ , 7.:.$ + + 1 $ + $ Y $ $ + 2 1 # # 2 ; X X $ # # # ",
"1 3 2 # < = + $ i i $ X + # 7 $ X X # 1 $ + 1 3.; X X + X # 1 7 ; a 1 $ ",
"7 5 ; 1 + # 1 ; + $ 1 + + # X + + ; ; # a Y $ + # $ 1 $ $ # ; 2 1 + X # ",
"# + + # 7 e.1 X X X # 2 a $ $ 8 y ` + # $ 1 X X $ X X # ( 6 3 o + # # h ",
"$ $ + <.$ + $ h y # + + $ $ $ + + X + + + X $ a 1 <.# + # X $ ; 1 1 $ + ",
"Y v # # + y + X # $ $ ; # # # X X + # *.y 1 5 8 # # # ; ; $ + + + + ; $ ",
"; # 1 8 # # + X # # + $ ,.V ; # $ 1 Q $ + : h ; $ + X $ # + ; $ = %.2 U ",
"X X + + # 7 $ <.1 # T $ $ + # *.1 $ X + ; + + ; 1 $ $ + $ 8.# y # X X $ ",
"2 1 $ $ # # # # # $ 2 # # X X X + + $ 7 h # # X X ; 6.3 ; + + 6 1 1 # + ",
"# $ 2 6 ; 9 $ X X X X + # X # 1 g 1 $ $ + $ 6 2 o.# + # 1 d X + # 1 # + ",
"$ i # # # # $ i # # $ X # ; $ + + # + X + # 6 # $ $ + X X # # ; i # $ 3.",
"2 # X + X + + # 1 W [ ; V $ ; 1 1 + # # i # X X X X # 1 1 # + # + # 1 # ",
"# X + # # 1 h U # X + ; 5 + 7 $ ; E # + + + $ y ; 1 # ..3 : v $ 1 + + + ",
"$ 3.; $ # a $ # $ + X X + # # X X X + ; #.3 o.i ; 1 ; # X X + 1 1 $ $ e ",
"G # $ V $ + + X X $ 2 # $ ; : 0.< $ 2 # # X X # $ + X + $ + + + ; 9.1 1 ",
"X # ; + $ 1 # # # + + ; ; 1.; + # 1 # # X + $ + # >.I # + # g 2 # + 1 y ",
"; X X + + 8 1 O.g ; a 5 # + $ + + X + # h # O # -.$ # 3 %.# X + ; X X # ",
"n 7 # 1 2 # X X # 2 + X X X # 1 y 1 R 1 M # + # + X + ; $ # 1 $ # ; < 1 ",
"+ $ L $ O , # # X + ; ^ # + + # 1 1 + X + # i + # ; + X # ; 1 ; W ; + # ",
", x # + + $ 1 # # ) : $ @.$ h 7 + # 5 # + X + $ I ; # + ; ; X X # $ 1 + ",
"# # + $ + + # ; # $ + X X + # # X $ + + 1 $ # # + # $ : ; # + X + # $ # "
};
