/* XPM */
static const char *normal_trail_93[] = {
/* columns rows colors chars-per-pixel */
"93 93 180 2 ",
"   c #008EEE",
".  c #0091EF",
"X  c #0D9DED",
"o  c #018FF3",
"O  c #0094F4",
"+  c #0199F6",
"@  c #0899F2",
"#  c #0097F8",
"$  c #019CFA",
"%  c #15A5EF",
"&  c #02A2F5",
"*  c #0AA5F5",
"=  c #04ABF6",
"-  c #0AABF5",
";  c #01A3FC",
":  c #0AA5FA",
">  c #04ABFD",
",  c #0AADFD",
"<  c #18A7F4",
"1  c #15ACF6",
"2  c #1EABF2",
"3  c #13AFFB",
"4  c #04B0F7",
"5  c #05B2FD",
"6  c #0CB3FD",
"7  c #06B8FD",
"8  c #0CB9FE",
"9  c #15B4F6",
"0  c #1DB4F7",
"q  c #13B4FD",
"w  c #1AB6FC",
"e  c #14BAFD",
"r  c #19B9FD",
"t  c #18BAFD",
"y  c #18B8FE",
"u  c #1AB8FE",
"i  c #1CB8FD",
"p  c #1EB8FD",
"a  c #1DBAFD",
"s  c #1BBBFD",
"d  c #21AEF9",
"f  c #23B5F7",
"g  c #26B9F6",
"h  c #29BCF6",
"j  c #22B5FB",
"k  c #2DB7F8",
"l  c #27BAFA",
"z  c #27BEFB",
"x  c #22BAFD",
"c  c #23BDFD",
"v  c #23BCFE",
"b  c #23BCFD",
"n  c #2BBFFD",
"m  c #2DBCFD",
"M  c #2BBEFC",
"N  c #32BBF5",
"B  c #3ABAF5",
"V  c #33BDFA",
"C  c #38BFF9",
"Z  c #44BEF2",
"A  c #0BC3FD",
"S  c #14C2FE",
"D  c #1DC0FE",
"F  c #1DC1FD",
"G  c #1ACAFD",
"H  c #24C0FE",
"J  c #24C2FD",
"K  c #2BC2FD",
"L  c #2BC3FE",
"P  c #2FC1FD",
"I  c #2CC2FC",
"U  c #2FC3FD",
"Y  c #2CC0FE",
"T  c #2EC7FE",
"R  c #2DC4FE",
"E  c #2CC3FD",
"W  c #2BC9FE",
"Q  c #34C2F6",
"!  c #3CC8F7",
"~  c #35C1FC",
"^  c #33C6FE",
"/  c #36C7FD",
"(  c #33C4FC",
")  c #3BC7FC",
"_  c #39C7FE",
"`  c #3BC5FC",
"'  c #34C9FE",
"]  c #3FCDFE",
"[  c #3CCAFD",
"{  c #42C6FC",
"}  c #4BC5FB",
"|  c #4AC7FC",
" . c #44CAFD",
".. c #46CAFD",
"X. c #46CCFD",
"o. c #43CBFD",
"O. c #48C8FD",
"+. c #48CBFE",
"@. c #4CCCFD",
"#. c #5EC5F3",
"$. c #57CCF5",
"%. c #5CCCF7",
"&. c #50C7FA",
"*. c #50CDFD",
"=. c #54CDFC",
"-. c #59CDFB",
";. c #47D1FE",
":. c #44D0FE",
">. c #49D2FE",
",. c #4FD5FC",
"<. c #4CD2FD",
"1. c #50D0FD",
"2. c #57D5FC",
"3. c #54D2FD",
"4. c #5CD3FD",
"5. c #54DBFD",
"6. c #5FD9FE",
"7. c #5FDAFC",
"8. c #5CD9FD",
"9. c #60CCF7",
"0. c #64CDFA",
"q. c #66D7FE",
"w. c #63D4FC",
"e. c #6CD5FB",
"r. c #63D9FD",
"t. c #64DAFD",
"y. c #6DDEFD",
"u. c #6BDBFD",
"i. c #77D8F7",
"p. c #7FDBF5",
"a. c #74D6FB",
"s. c #7CD7FC",
"d. c #71DAFD",
"f. c #75DAFE",
"g. c #74DBFD",
"h. c #7BDDFD",
"j. c #7DE0F7",
"k. c #77E0FE",
"l. c #7FE4FC",
"z. c #7CE1FD",
"x. c #82DDFC",
"c. c #8ADEFC",
"v. c #90DFFC",
"b. c #81E4FD",
"n. c #87E5FD",
"m. c #84E2FD",
"M. c #8BE4FD",
"N. c #8DEAFE",
"B. c #8CE9FE",
"V. c #93E5FD",
"C. c #9BE5FD",
"Z. c #93EAFF",
"A. c #95EEFE",
"S. c #95EAFE",
"D. c #99E8FD",
"F. c #9FEEFD",
"G. c #9CEBFD",
"H. c #A4E6FD",
"J. c #ACE7FC",
"K. c #A6EFFE",
"L. c #A3EBFD",
"P. c #ABECFD",
"I. c #B4EEFD",
"U. c #BAEEFD",
"Y. c #A4F2FE",
"T. c #AFF9FF",
"R. c #B4F6FE",
"E. c #B5F1FE",
"W. c #BAF3FE",
"Q. c #BDFAFF",
"!. c #C3EEFD",
"~. c #C4F3FE",
"^. c #CBF4FD",
"/. c #C3FAFE",
"(. c #C8F8FF",
"). c #D4F6FE",
"_. c #D4F9FE",
"`. c #DAFBFE",
"'. c #E3FBFF",
"]. c #F3FEFF",
/* pixels */
"$ $ $ + + # O O $ $ $ $ $ + # O O + $ ; q w e ; $ # $ ; $ l i $ # O # O $ $ + O ; 6 , > ; ; $ $ $ $ + # O O $ # + $ > q ; $ $ $ $ $ $ $ x ; $ # O O # # $ $ $ # # $ # ; > > > $ # # + $ $ ",
"$ > ; q q > $ $ $ $ $ $ $ $ , e y # $ + $ $ 6 , w b.g.A.O.$ $ ; ; $ # O O O   + $ ; $ # $ + ; ; $ ; ; $ O # # ; q R , $ ..O.;.G.G.2.7.} > > ] ; ; $ # # $ $ $ $ ; ; 6 a U r.N.,.6 ; ; + $ ",
"# $ $ ; > _ y ; $ $ $ $ ; R > 6 q , $ # $ $ ; > > @ O + + $ $ $ q , ; # # O O O + $ $ + + ; ; ; $ % 7.; $ $ ; q ~ , + # $ O : * 6 q U ; > ; > D z $ O # $ $ $ ; f.3 ; , $ ; ; + q , q $ $ ",
"$ $ $ $ $ > e U $ $ # $ n w > # $ , , w , , > > $ $ # $ $ ..U w q q U ; + ; # # + $ $ $ $ w > ; R.m.l > $ $ $ q # # O O # # $ $ ; ; 6 ; $ $ ; ; ; 5 ; > ; U , n $ # > ; $ $ $ $ $ > y , ; ",
"U 1.; # $ $ $ ; y.Z.*.>.6 ; # + $ > o.q $ > ; # O + + $ q a $ > $ + > b w.> $ + $ ; : 3 & K a G.^ y $ z b $ $ $ # O # # $ ; $ $ $ + $ $ $ # ; $ $ ( = K.l._ , $ $ O O $ $ O O + $ $ $ K b ",
"> ; E.P.D.; $ ; $ $ + $ # # $ ; ; > ; # $ + + O   # O ; # ; # # O   O + ; a b a $ ; ; M.s.; , : $ ; ; $ > n z ( x ; $ O O + # # O O O # $ $ # > $ o.j ; > ; + $ + O O o   O O O # $ $ $ ; ",
"; > ; ; i M.7 ; G $ $ # $ ; ; $ $ '.; o.J ' , ; > # O O O   O # # $ ; q 7 ` ..6 ; R E.-.; > > $ $ # O # ; $ ; , q w , + # ; # # n.# O O O O 6 u.=.; > > > , , , ; > > # $ O O # $ $ # 1.H ",
"# O ; ; ; 5 R o., d ; $ $ $ ; F 8 1.V.g.h.h./ 6 ; ; $ + # # # $ ; > q q > $ $ e P...6 6 $ $ # # # O O O O O # # $ $ , y > + > m.& ; 5 # ; , ; ; ; $ $ # # ; > , 6 ; $ ; > $ $ $ ; M 1.a > ",
"O # $ $ $ ; ; , i n * > ; 7 ~.~.].n ; ; > , q b 6 > ; > > > q.= y ( > $ $ > 6 ; ; x ; ; ; $ $ # # $ ; ; O O O . # + $ > a 8 C.~.I.> ; $ ; > , , , ; $ # # ; ; ; n a 5 5 > ; ; b ( K 6 ; $ ",
"$ $ $ $ # # $ $ , 5 %.L.t.b o.N x.> ; # # # 6 G.{ ! [ W a 6 J.> H.$ ; $ $ # # $ $ # # $ > , > ; q y x 6 ; + O # + + ; $ /.E.<.5 D /.!.> ; > ; > > > ; ; ; > ; q x q e.L.*.; e C.; ; ; $ # ",
"$ $ # O O O $ ; $ $ > q u.I.> > > $ # O O O # $ , 0.g.P.H.` f.b > ; I.  O O O # $ $ ; > ; o.o.q o.<.O O 5 -.$ ; = P.> ; ; ; ; > ~.V.^.y ; $ # $ $ ; ; ; q J a q > > g.q =.g.G.; ; ; O O # ",
"$ # # O . . O + ; { 4.q ; ; > $ $ # O O O     O O # $ ; J.).U._.L.^.$ $ # O O O # + ; 5 6 ; s $ $ # O O Q > y W.!.).U.6 ; $ $ $ ; 6 5 S._ > $ O O + ; w 6 n -.( s x.> > ; y 6 ; $ $ # + O ",
"O O # # O O # 6 x ; $ O # # # O # # $ # O . # $ ; > @.I.V.+., k x.J.e $ ; # # O O # O O . . O # + $ $ $ $ D ) P.q , C.*.; B ; q q ; ; ; 7 | $ O O O O O O $ $ + ; $ # + ; ; 6 y ; ; $ + $ ",
"O O O $ $ ; , ; ; ; ; ; $ $ + # + + # O O O $ ; ; 6 6 > ; ; ; > ^ > C.^.~.; $ + O O # # O O # $ ; $ $ > M.y.n.z ; = , 7 _.M.w.y 6 ; ; # ; ; q # + O O O # # $ # # $ O $ $ $ $ ; a q q $ $ ",
"; # $ $ $ ; ; ; # $ $ > 4.' > ; $ $ # $ ; i 5 q > $ ; + # ; m.Q.7 5 a _ 6 4.q ; $ = G.e $ $ $ $ $ ; > _ 4.j 7 ; P.h.; o.= > ; $ $ ; > > > > ; ; ; ; ; $ # O   . O # # O O + $ ; ; > q R > ",
"> ; ; $ + # + # ; $ ` $ > e g.= r O $ x j a ; $ ; # O O # $ O O $ e a > w.+.C.h.^ ; > 2.n ; ; ; q q z ; $ + ; b.O > O $ $ $ $ $ # # # ; > $ ; > > > x ~ $ $ + # O O O + + $ > > ; ; ; ; > ",
"O > > > $ ; ; ; > +.J 6 $ ; ; ) ` 4.q > ; ; $ $ O O O O # $ $ $ ; ; $ $ ; 5 > 7 q q $ ; [ e q q 6 q $ # $ $ $ O # #   O O O $ $ # O # # ; ; > [ 1.m.R = b , $ $ + $ # $ $ ; ; $ # O # $ # ",
"# $ D o.V.6 > ; y.a 6 $ # # $ $ # + ; ; ; ; + O O $ $ $ $ $ $ ; $ O + $ $ $ $ $ $ $ $ O $ ; ; ; $ $ $ + $ $ $ $ $ # O O # $ ; $ $ ; $ ; 6 e m.w.[ > 6 H s ; > + $ $ $ $ $ + + # O O O # O ",
"; 8 _.a.Q V.g.I.w.> ; $ # O O O O # # # O O O O # ; ; $ ; ; $ $ # O O O $ , , $ O # O $ ; O + $ ; $ $ $ + O $ $ $ $ ; $ , ~ K 6 ; > , H a o.> ; ; ; $ > ( 2.m.2.> ; ; $ $ $ ; ; ; ; ; $ ; ",
"b z.- 8 > 5 1.e G.C 6 > $ $ $ . O . O O # O # $ ; ; ; $ $ $ $ $ ; # O $ $ ; ; , , $ $ # O # $ ; M.g.M # O $ $ $ ; , > > , ; 5 R S.-.q..., ; ; $ # O # $ ; 6 6 ' z.U , $ $ 6 n 6 ; ; ; > y ",
"> > ; ; # O # 3 ; 0 @.& 6 6 $ $ $ # # O 6 ; E.^.m.[ :.2.q $ $ $ 6 z > > q a a , $ # O $ $ $ c.b , , ( G.# $ $ $ # # + $ $ ; $ > q y y S.a $ $ ; $ O O O $ ; ; > > K y u.h., ; $ ; ; > q > ",
"> $ . O O O O + # + $ # $ ; x $ ; ; ; $ $ B ^.c.).w.b h.o.; $ O $ > l x > $ $ ; ; $ ; $ > b./ > ; ; ; z ..q = $ ; ; $ # $ $ > > > M.m.f.E._.$ ; ; > ; > _.> > $ $ $ ; > ; $ + $ $ ; > ; ; ",
"O O O .   O + $ ; $ $ # + ; > b 6 @.; ; f.V.5 J M.!.).5 5 ' 5 /.$ $ ; $ $ # O # ; 6 q w.B.; ; $ O # $ M.x.C.D., a > ; ; $ $ ; 8 n ; ; ; 5 u.> $ $ r.).w.> * @.# O # + + $ + O + $ + $ $ $ ",
"O + # # O . O O # $ $ ; $ $ $ ; > 5 _ S.e.].$ ; = =.s.^.( > q r >.; $ O O O O O $ w y > $ $ # # O # @ -.> 4 F n.M.; @.$ ; ; O # O O # + > > m.; ; 4 [ > + > $ O # O # # O $ ; $ $ $ $ $ $ ",
"; $ ; ; $ # O # $ $ $ 7 | 6 $ $ $ $ 7 5 n ~.w.; $ 5 > C.~.s.* : y a $ + O O O . # O # # # O + + > & n.5 6 > + > o.x.7 > ; + + # O O O # $ ; 7 m.L.^ ; $ ; ; ; m + O O O O o # $ $ ; $ ; ; ",
"> ; = $ $ $ $ $ ; ; 9 4.$ _ j O $ $ $ $ # # > C.-.c.[ 4 5 ; ; $ $ > > @ $ # $ # # # O # O + # ; > > R > ; $ $ $ $ > P.; ; ; $ ; $ O O # O + # ' J ( b $ ; ; > > > + # O O O O $ > 5 > m.> ",
"' ' r.w...$ + > ( e.M.> # $ 6 K.A.I ; $ ; ; $ > w.5 + $ ; W $ $ $ # ; > > ; > $ $ # # # ; a e.{ <.a + # # $ ; ; > P.1.m.> ; $ $ $ $ $ $ O # ; $ ; ; S c.x > O $ > 6 ; $ + + $ ; 7 K M.6 J ",
"; ; > M y.r ).g.I q ; ; $ ; $ ; ; ; ; $ $ ; ; + # # 2.O # O O O O O + ; ; 5 { u.6 # $ ; y R 6 > $ $ + $ + > ; k.h.z > W.{ > ; ; $ $ ; ; $ $ ; ; O 6 h.6 ( 4.' $ $ $ ; $ ; ; $ 6 D.c.b ; ; ",
"O : 1 , 6 ^ j ^ q > ; O O O # O O # $ $ ; ; ; > q ; ; $ $ O O O # $ > <.w.w > ; w ~ ( q $ $ + # $ $ $ ; 3 1 w w > ; ; > m.M.b y y > q 5 K > 3.o.s q > + $ > b n > $ ; i , y G.w.> > $ # O ",
"O # O O O O $ ; s , , ; . $ , K N ; ; ; > > ; H ^ q w ; $ + # # $ > ( x.w ; $ O ; > ) s ^ q q $ + + + $ ; $ ; $ ; $ I q , o.w : h.2.( ( p 5 M = 6 > $ # # ; ; q q ; $ , k x.3 > ; ; $ O O ",
"O # # # # $ $ ; + # # O + ; $ > ; @.> > 6 6 f.t.; 6 e o.6 ; ; ; W @.> $ ; O O # O ; , P.I.H.H.p.e 6 + $ $ # # $ > z b ; # O # $ $ $ # 6 6 q > ; ; + # # O # + $ ..n ; ; $ $ # # $ ; > ; $ ",
"# # $ $ $ ; a S.> $ # $ $ ; > > > > l 4.o.5.q > ; > ; ; z L.e.E.y $ $ + $ $ # + + + + o.6 Y._ > 3.' w $ $ $ ; > s > $ $ o   # # $ $ $ > e > + $ + # O O # + $ ; q 4.v.W.( + # # O + + ; ; ",
"; $ $ ; 6 1.q ; g.t.5 ; ; ; > $ $ ; ; @ 5 n ; $ $ > > ; ; O $ $ $ # O O O $ $ ; + S O # ; + ; b.M.$ q > ; q q > ; O # O O O O ; ; q q > $ $ $ O # > O ; ; > 6 q 6 $ + ' [ K $ $ O O # # ; ",
"; e 3.u.^ > $ ; > ; e.j.8 ; ; $ $ $ # # O # + # . $ ; ; e <.b K $ $ O O O O O V.; ; ~.d.O ; L.< $ ; $ q.M., O + # O # # $ ; > ; $ + $ $ O # $ $ # ; > 7 6 5 6 ; + O O # ; V j 6 $ $ $ $ $ ",
"; w.j , ; ; # # ; ; ; 0 w.; ; ; ; - W $ ; ; + O # $ $ > ; ; n A.y $ + ; $ $ $   ; ; 6 5 O # # $ $ $ h.*.> + $ $ O O # $ , q a > $ # $ # # # $ > > ; G.~.g 5 > 6 $ O # O $ $ ; e H , ; ; ; ",
">.$ ; $ ; $ # O # # ; ; r.i.G.; #.s.6 G.z s > $ $ $ # O # + ; ; +.W a q 6 $ # O $ $ O # # # $ $ u.t.6 $ ; ; + $ + $ ; q q > $ > , 6 > $ 7 $ ; > ; /./.` W.-.b.( ; $ $ $ # $ $ $ y O.o.6 6 ",
"> $ $ + k ; ; j O $ $ V.h.h.g.V.z.6 $.$ l C ~ > ; # # O O O # # $ > n > > ; $ $ ; = ; ; $ $ $ C = > + # $ > > > $ ; 6 > # O # $ ; q ( 6 = : D.U.~.4.> a ; Q Z R.y , ; $ $ $ # $ $ 6 ( h.K ",
"> > ; ; : h.6 I., Q m.+., $ ; ` -.o.> > $ $ # O O O O O O # $ ; ; ; # # $ y a Q.V.n.h.> 5 b.Y.&.5 > # O O O # $ > > $ O   O O # + $ $ > f.V.V.~ ` ; ; + # $ $ 2.M.u.x , > $ $ $ $ ; $ ; > ",
"O $ > > ; ; ) ) M.: ; # + ; 5 ; ; # = t.J ^ 6 ; O O # $ ; 6 o.@.a ; O # O > M.; w 6 R .., s 3 ; > > q , $ # O # # # # O O O O $ > ^ o.x.O > > , V.P.> # D O # # $ $ $ $ $ > > $ $ # $ $ $ ",
"O # # # O ; $ $ # # $ # ; ;.; O + O # O # $ ; 6 ; ; ; 5 ^ [ +.1.a n ; ; 6 q # + = > > $ ; ; ; $ # # ; q { b > $ ; ; ; # $ + ; 6 a : > O $ # $ ; ; 6 C.q # O O # # O # $ ; $ $ $ $ $ $ $ ; ",
"$ $ $ + O O # ; $ $ # + # $ $ $ $ $ # $ $ ; ; ; > K z g.u.(.r.o.V.H s a 6 $ $ # $ $ , ; $ O $ # # $ # > 6 o.+.m.o.K 6 $ ; > y o.; $ $ $ O O # $ ; ; > > > $ $ # O # O O # $ $ $ > 6 q ^ > ",
"y 6 ; ; # + $ ; $ $ $ $ + ; + $ + $ ; q U w.( > o.4.t.o.$ $ O $ w W.V.O.) J $ > , # $ # # # # # # # $ a 6 q $ ; $ 6 , 6 /.y y ; $ O O O O O # # + ; $ $ > > > > $ O # # O $ ; H w.*.7.> $ ",
"> q U a 6 > 6 $ $ $ > 6 U , > $ $ # $ > ; ; q 4.e ; ; ; + O O O # ; $ $ ; 6 q ; $ O O O O O # # ; > q y 5 $ $ $ ; > 6 q 2.u.6 ; $ O O O . # + # # # $ $ $ > > b a 6 > > > > e g.> ; ; + $ ",
"O ; ; , [ O.q > z U u.6 $ $ + O # # # $ ; ; 5 > ; $ $ O O O O # # # # $ + ; ; + # O O O O # $ ; 6 6 $ # # # $ $ > , g.6 ; > O.I.N # $ $ $ ; , $ + # O # 6 U ) a , w o.h.m.M.6 ; $ $ $ $ O ",
"$ ; > > , 6 ~ g.6 q ; $ $ # # # # $ ; ; ; h., = ^.> ; $ # O ; # O O O # $ $ # # # O   O ; > > > ; ; $ $ ; > > a M.X.; $ ; ; ; b m., > ; ; s.$ ; ; $ $ w o., ; > z b q a q 5 $ $ # O # # ; ",
"6 a y w q ; ; 6 > ; $ + # O $ $ # 5 a ; ; ; `.s.5 U.; ; $ # $ $ O # $ O # . # O ; ; $ > > $ ; > w e ; > a <.u.o.; ; ; + # # ; ; > q a G.e.6 ; ; ; q ` 6 ; q q > , y w > 5 ; $ # O # $ ; > ",
"6 ; ; $ $ # + $ , 6 6 ; ; J , ' a q $ + O a.'.V.P.+ ; $ > $ $ + > ; $ + $ # O > M.4 / 6 $ $ ; y > q +.6 y , > $ + # O O # $ # # $ s a $ ; $ > ; > > q _ e > > ; ; > ; ; > $ # # O $ $ > > ",
"$ $ $ + # # $ $ $ ; > 6 > R G.m.t.; $ W.V.e.0.L.s.).G.; A > 6 > a H ; ; ; e o._ q 5 D.M.1.q 6 ; # $ ; , > ; > > , $ O # # # ; ; # # # $ # 5 > 6 6 L.u.w.+.N.N.5 ; # # # + $ $ $ $ ; ; a y ",
"O O O O # $ $ $ # $ $ ; 4.n > J q a q I., , # $ e e.C.w.~.> > > 6 V.z ; 3 N.n q 6 ; > ` G.5 3 + # # # ; $ $ ; ; 6 a ; $ + $ ; ; ; N.J ; ; q m.V.D.@.> > > q $ z.h.6 $ # $ $ $ $ > ( w.@.> ",
"$ $ $ # # # + $ $ ; > o.6 ; > ; b I d.6 h.5 ; $ L.= h V.7.`.K.; ; 6 e 7...[ q $ ; ; + ; > @.( l , $ # $ $ + $ $ $ > H a > 6 ; ; > g._.c.5 6 ; ; ; ; ; O $ ; ; ; 6 ( w ; ; $ q ( [ Q > $ $ ",
"$ $ $ ; ; $ $ ; b z.z ; $ $ # $ $ ; ; 6 x.M.h.{ ; # ; ; m.= > > ; ; > > > ; > $ # # # # # # $ ; r @., $ # $ # # $ $ ; > K q a 5 y.H.@.t.C.> ; $ ; $ O O # $ ; ; ; > > ^ q , , 6 ; $ $ + # ",
"O O + $ $ $ > > > ; ; ; $ O # # # $ ; $ J ; 6 > ; 6 6 ; $ # # $ O $ ; ; > ; ; ; # # # O # $ $ ; $ = { > ; $ $ # # # $ $ ; > { L.O.; 7 R t n./ $ $ $ # + ; > > > > $ ; > > > ; $ $ $ # O # ",
"# ; 2.V.@.> ; $ $ $ $ # # $ # # # # # ; ; ; ; P.[ 6 5 6 > $ $ # + $ ; ; ; ; ; > ; # O # # + $ ; , , > V.L.Z ; $ $ $ $ 5 w.2.u.8 > ; ; a V.) ^ ; ; $ ; > , > ; # # + $ ; $ $ $ $ $ $ $ $ ; ",
"; t.^ H o.H + $ $ + # # $ u.; O O O O + ; ; ; $ > > > ; > > ; ; $ ; $ ; ; $ $ $ O O O # # ; ; ; ; & f.5 [ U.G.6 + $ 6 q , > $ $ ; > 8.e ; ; = q , , $ ; ; $ $ # O # # + O $ $ ; 6 > > ; ; ",
"g.q ; > 6 s ..5 $ ; ; 5 ^ ; + ; ; O O # $ ; , > ; ; > > $ ; > ; > a ; ; ; $ . O . O O . ; ; ; > h.1.> > > t ) V.{ ) e ; $ $ $ # # , ; O # $ + > ; K 6 $ $ $ ; > $ # # O # > = ( I.2.H > > ",
"> $ $ ; ; 6 U [ H w n ; $ # $ $ $ + O O O # $ $ ; $ # + $ > 0 w...R _ U Q ; + O $ $ $ $ ; w , w > 3 ; $ + ; > 6 n n n , > $ $ ; $ # + O O # : ; > $ $ $ + $ $ ; q > @., , L.g.) q q f ^ w ",
"# # # # # + ; _ j , > ; ; ; $ ; ; ; ; $ # # # O O O $ $ b *.4.M > ; q g.w.l q ; $ $ $ O # $ $ $ + $ $ $ $ ; , , ; $ + > q , ; $ $ $ $ $ $ # $ # $ # + ; ; ; ; $ ; > 3.( g.w ; $ $ ; ; ; x ",
"O O O O O O $ # O # # ; ; a > $ $ ; q 2.w.B.> $ ; > , [ @.@ $ $ $ # + ; 6 4._ 2.l , 6 y ; # # O O O # , 6 > $ # O O + $ ; q , > ; ; ; ; > $ # $ $ ; 6 o.@.: ; $ q q ; > $ $ O # O $ $ ; ; ",
"$ + # $ $ + + # + # # O $ ; > q q 6 z.6 a 6 2.> ; ; ; > $ ; $ $ O # . O # ; 4.$ U U > + # O O O # + $ ; + $ # # + O O # O + $ > ; ; ; ; ; ; ; ; ; b 4.z.4.b / > ; + $ O # O O $ $ ; > ; + ",
"$ > ; ; ; ; ; ; $ $ # # + $ ; 6 6 ( > ; ; b <.s w.; ; $ $ O # # + # # O . O # $ $ + $ O O O # $ $ ; ; ; > > $ $ # + O # O O # # $ $ $ > H 6 ; q 6 U *., J h.h.u.o.; $ $ $ $ q q > > $ $ + ",
"; 6 O.q > ; ; > ; > > ; ; ; $ ; $ $ $ # + # ; w > @.x > ; $ # # $ # O O . O # # # $ # # # + $ ; $ > 8 s.~ , $ ; $ $ $ # O O O O $ > > b M.o.6 > > ; > + $ : j $ & q q 6 , 6 6 > : ; $ $ $ ",
"> > ; , ( H 5 =.z q > e.`.q ; $ $ $ O O O O + $ $ ; $ l x 3 $ ; $ # $ O # # O + $ ; > ; ; ; > 5 b.-.( ; ; ; $ ; ; ; + $ + # $ + > J e x.5 > 2.q z $ $ # O O # O # # ; , q ; $ # # # $ $ ; ",
"$ $ ; > > b ) > > J M V.H K.V $ # O O     O O $ ; $ # O + > y e > ; $ # O ; $ > 6 ; ; 5 K W.N.h.b 8 q q ; > q q a K q ; ; $ $ b 4.b.q.; ; ; ; b U b > $ $ # O O # # # # # $ $ # O O O # # ",
"$ $ ; ; ; > , > o.P.J > > t C.U ; $ # O O O # $ O O # # # + ; $ $ O O ; ; W., > o.w.U.5 a.H s ; 6 H ; $ # ; ; > , h.e L.* > D.m.> # ; + O # $ ; > q o.a ; ; $ O O # $ $ $ $ q ; ; $ $ $ + ",
"$ $ $ ; ; > G.P.-.< ; # $ > > g.l.5 $ $ $ + + O O O # $ ; $ $ $ O @.$ > ; ` L.2.; ; 7 M q ; ; > $ $ $ # + # # + + ; > g.G.M.z ; $ O O O O O O O # $ ; y U 3 , # # ; ; ; > q 6 m.> > $ $ ; ",
"$ $ ; , > 4.K ; ; $ # # $ ; O.$ $ U u.> ; ; $ + $ ; > > ; $ O + a.6 x.q J.L.) > ; # $ $ $ ; ; $ # $ O # . # # $ ; = m.y.6 ; 2.[ ; # + O O O O O O # + $ ; , q 6 , ; , q q , ; $ b 4.E.; ; ",
"; > W z b 5 + ; $ $ $ $ $ $ # ; $ > J q > > ; $ ; 5 5 > $ # # # ; & R E.m.( m.P.; $ $ + ; Y.6 # O # O # # O + > z h.a ; $ # $ 6 b ; ; $ O O O # O O # $ $ $ ; $ > > y q 6 $ $ $ ; 6 5 n.t.",
"@._ l 6 ; $ $ # $ ; > > $ O O # O $ $ $ > 6 > ; H V.4.e ; ; $ > 2.m.y.j s K = ` V.= G w.w.; ; O O # O ; Z.; $ $ $ $ $ O # O O # $ q ; ; + $ ; $ $ ; ; $ + u.= $ ; > > $ # # $ + ; ; > q z ",
"y ; $ $ $ ; # # O O O # $ + # O # $ $ ; $ $ , y ^ ; > @.1.> q = q > ; $ $ ( n 6 ,.L.( 5 ; # # $ $ ; > y ) x , $ $ $ O $ # # O # # $ ; + ; ; 6 > > , I.; ; ; , $ a.6 # $ + # $ , > > > $ $ ",
"$ $ O O O ; ; + O . O O # ; $ ; $ $ $ $ ; > a q ; ; ; > 1.M.n w > > $ O O $ # > U q y = + # $ $ $ ; > a , > 6 n > ; # # a ; > + + O O ; # $ X ; ^.h.M.^.& ~ I @ + O O $ $ 6 , ; ; ; + $ $ ",
"O # # O # # $ ; + O O : $ e.^.; ; ; ; 6 y y > $ $ $ # $ > ( w K ; # O # # $ 6 ) b 1.z ( 6 ; ; $ $ $ $ $ $ + # $ ; ; > ; ; ) U q ; O O O $ $ y /.f.s s h.^.F ^.C.; # # $ $ z q $ # $ ; # # ",
"+ ; $ # O # # # ; $ ; s > , +.Z W.4.M y ; ; $ $ O O O + $ > a i q $ # $ $ > q $ $ ; > > =.6 q ; ; ; $ # + ; ; $.; ; ; , y 6 > ; , ; ; $ ; W n.n s > 5 > w.-.<.y.9.; > , > ; $ # O # # # # ",
"; $ ; > : $ $ $ $ $ $ $ 6 ; > m.C.P.w.> $ $ + $ # O O # $ ; ; ; > y $ $ $ $ + $ O + + $ ; r.o.a 6 6 ; $ ; > q g.m.( 6 , > ; $ $ $ > > G.d...> $ ; $ # > 7 > + C.W.q > ; + $ $ # O # # O # ",
"$ ; :.G.J.b > $ ; ; ; ; ; , z.( o.e m.) > ; > J + # # O # # # O O # ; > > $ + O # # # # # # + $ ; > > 6 1.h.V.6 > = 2.[ K e 5 > > 6 U 6 & ; $ # # # $ ; T.M ; & 6 =.n.b > ; ; $ $ ; ; 6 n ",
"$ D M.M > 8 4.y ; > > U a @.t ; ; # > W 7.u.u.6 > $ $ ; $ $ O O # $ > $ ; > > > ; $ $ $ ; $ + $ $ > 5 =.w 3 ; $ $ $ $ a w.o.[ y > ; ; $ # # $ $ $ O $ -.> # # $ z $ ( z e 6 ; ; $ ; ; ; ; ",
"h.G.^ , $ $ 5 <.w.x q m.x + > # # $ # O 7 8 $ ; ; b q , $ $ $ $ > ; > $ $ e 2.e.n > q > ; ; , q y > z $ $ + # O O . . $ $ ; q > $ O # O O # $ ; ; ; # $ # # O # O # $ ; 6 w e.a > > > ; > ",
"> ; O O # O ; ; > q z.# + : # # O O O O O O O   # ; ; 6 z 1 , q q ; > > 5 G.w.> > I @.6 ; + $ > > > $ O O # + ; $ # O # ; = > $ # # + $ ; $ $ $ $ ; ; + O O # O + $ ; y o.C $ ~ [ R q q q ",
"$ # O O O $ ; > ; $ ; , > ; # O # $ + O O # O O O O $ $ > , > ; y e H.U O.a ; > ; j > @.5 $ $ $ ; ; #   O O O O ; z ( u.U > $ # $ > ; H.q ; $ # $ + ; > ; $ # $ $ ; a q > $ $ ; 6 4.e.n > ",
"O # O # ; ; > ; # O O ; = > ; $ $ ; $ $ $ $ ; $ # # # $ + ; ; > 5 x.z.| ,.; w + # O 6 > w 6 s $ ; > $ # # O # # + O ( $ , ; ; $ ; /.M.M z.> ; $ $ O + ; ; , q q b , > O $ O O $ > ) b x , ",
"O O ; ; ; $ # O O O O $ # > > > > ; + ; ; $ $ ; ; + $ $ ; > 6 , u.l ; $ $ O O # # # O $ $ ; ; ; q ^ , ; $ + $ $ + O O # O # ; ; y m.C.; ; N.t.; $ + $ $ ; $ $ > $ $ # O O O O O + $ ; q y ",
"; 5 ; $ + O O # O O # # $ ; > [ [ G.` ' b > ; ; 5 <.e 8 ; +., $ $ + $ ; > $ # O O # O . + + + O $ $ ; q ( > $ ; $ $ + O ; $ > c.+.$ $ $ ; ; z 8.>.6 ; $ $ O # O # + > > > # O O O O + ; ; ",
"; ; $ + O O O O # # # O $ 6 3.a W > s w.m.;.K $ ; > w 4.q > O # + $ $ ; ; $ $ # # $ > O D O # $ $ ; ; , n q $ $ $ ; > ; $ M.z.q > $ $ + + $ > &.x.G.> ; + # . . O O ; > > > # O . O + + $ ",
"$ $ $ $ $ $ ; $ $ ; > > e s > $ $ # # ; ) @.4.w y $ $ O o # O O O ; U $ $ $ $ > > ; ; ; $ ; 2 6 ] ( U.5 # $ ; ; > ( A.6 k.q O ; $ O O O O O + > ; 4.z.U q $ $ $ $ $ + + $ ; ; $ ; $ # # $ ",
"6 o.[ 6 > # $ $ > 6 a q > $ $ + # O O O $ $ ; > , > , $ O O O O . $ O # # $ ; r.t e 6 > > 5 , /.~.^..., e , ; ; ; $ $ ; ; O O O O O O O $ ; > ; ; ; $ > ; 6 > > > $ # $ $ $ ; > 5 e > , ; ",
"> ; b W o.6 3.; e s [ W ; $ O # O O + # + ; > > $ 6 ; ; # O O O O . O O # > $ $ b P.D ' b (.I.C.= ; o.G.J.^.x.5 ; ; ; > $ O O O O O O # ; 6 > , , ; $ $ $ > > z t 6 > > ; ; ; 6 ' u.M.b ; ",
"O $ ; 6 e V `.7 g.!.V.M.y ; $ # $ # $ ; , > $ # # O # $ > $ $ # $ O # # O # O # ; ; , s ^.S.a w > ; O @.z.h.a.Q b > ; $ O O + # $ ; $ > > $ $ $ $ $ $ $ 6 ) ` *.D.= = e.> q ( x @.w $ x q ",
"# + # ; , g.P.L.^ 3 ^ R V.M > $ $ ; $ ; $ + O O $ ; q C.4.z ; > $ $ # O O O + ; t %.K.K.5 ; > ; + O # # ; l o.C.g.[ y ; + + $ ; q , ; ; + # O O O $ > > { j z w.e u.m.~.4.q > $ + $ # + ; ",
"# ; 8 q L.u.7 > # # O $ > u.4.y b > > # # # $ ; > 2.n.[ x.x.I K.> $ $ ; ; ; 6 2.*.o.; 7 $ ; ; , $ C O O # # $ x U f.2.y , , 6 , $ $ + # O # O # O + U e l $ $ $ # ; O.J.c.g.a $ $ # O O # ",
"$ 7 A.d.x.; $ ; 0 + O O $ ; ; 5 5 6 $ ; $ $ ; b w.n 6 ; ; ; 6 e.w.z $ $ ; y i q ; O # # O $ $ ; > 6 ; $ $ O O O o $ $ $ ; > b ( ) , i ; $ $ # + # > q ; ; $ $ O $ + $ $ ; > =.a > ; $ O O ",
"t ( ; 7 # # ; # O # # O O O $ ; ; $ $ $ ; ; z V ; $ $ $ O O $ $ ; o.y ; _ q ; + + O O O O + O $ > > q ; ; # # # # $ ; > W w.+.j w.n b q ; ; ; > 6 $ # O # $ O O O O   O O $ > ; q z z $ ; ",
"6 > + O . + $ $ $ $ # # O O # # # $ $ > b ^ y $ $ # O O O O O O # $ ( w.2.$ $ O O O O O O O # # $ $ > z $ + $ + # ; 5 , { U $ $ $ g.L.g.> 6 6 ; ; O O O O O O O O O # $ + $ $ ; ; 6 a _ > ",
"$ $ + O . # # ; ; + # + O O # # O # ; > b J ; $ ; $ O . O O . O # # > 5 > ; ; O O # O O O O # # + + $ b n , + $ $ ; 6 o.> 6 $ + $ $ $ W <.l , $ $ #   O O O O O O O O $ ; ; $ ; ; ; > _ 6 ",
"$ $ $ $ $ O O # $ $ ; # # # $ # $ $ $ $ # $ $ ; # ; ; $ O O O O O # $ # # $ $ ; + # # $ > $ ; # # # # # O # $ ; $ $ # $ $ # O O # # # $ $ $ $ $ $ > ; $ $ O O O O O O # # $ # ; # # $ $ $ "
};
