/* XPM */
static const char *normal_trail_34[] = {
/* columns rows colors chars-per-pixel */
"34 34 122 2 ",
"   c #008FEE",
".  c #0092EE",
"X  c #0094F4",
"o  c #0199F6",
"O  c #0097F8",
"+  c #019CFA",
"@  c #07A6F4",
"#  c #02A3FC",
"$  c #08A7FC",
"%  c #03ABFD",
"&  c #0AADFD",
"*  c #12AFFC",
"=  c #0EB3F7",
"-  c #06B1FD",
";  c #0CB3FD",
":  c #06BBFC",
">  c #0BB8FE",
",  c #13B4FD",
"<  c #18B5FC",
"1  c #14BAFE",
"2  c #1CBAFD",
"3  c #20B3FB",
"4  c #2CB7F8",
"5  c #24BCFC",
"6  c #2BBEFB",
"7  c #30BFFE",
"8  c #1FC2FD",
"9  c #1BC0FD",
"0  c #1CC9FE",
"q  c #21C5FE",
"w  c #21C0FA",
"e  c #2FC5FB",
"r  c #2EC7FD",
"t  c #2EC3FD",
"y  c #32C0FA",
"u  c #31C3FD",
"i  c #31C5FE",
"p  c #34C4FD",
"a  c #3BC5FC",
"s  c #34CAFD",
"d  c #38C9FD",
"f  c #3ECAFC",
"g  c #3EC9FE",
"h  c #3ACAFD",
"j  c #40C6FC",
"k  c #40C7FC",
"l  c #42C7FB",
"z  c #4DC7FA",
"x  c #42CBFC",
"c  c #47CBFE",
"v  c #43CAFB",
"b  c #48C8FC",
"n  c #4CCFFD",
"m  c #4CCDFB",
"M  c #52CEFC",
"N  c #4ED1FD",
"B  c #4AD1FE",
"V  c #53D0FC",
"C  c #55D2FC",
"Z  c #5ED3FD",
"A  c #59D4FE",
"S  c #5DD6FD",
"D  c #5FD7FD",
"F  c #5CD3FD",
"G  c #5CDCFC",
"H  c #5ADEFE",
"J  c #65D3FC",
"K  c #60D4FD",
"L  c #65D4FC",
"P  c #69D3FC",
"I  c #60DAFD",
"U  c #68D8FD",
"Y  c #6BDBFD",
"T  c #6AD9FE",
"R  c #6CDAFD",
"E  c #74D1F8",
"W  c #73D8FC",
"Q  c #76D8FA",
"!  c #7BDAFB",
"~  c #7ADDFC",
"^  c #78E1FD",
"/  c #82DEFD",
"(  c #82DFFE",
")  c #90DFFB",
"_  c #80E1FD",
"`  c #82E0FD",
"'  c #81E5FD",
"]  c #86E4FE",
"[  c #8BE3FE",
"{  c #8DE6FD",
"}  c #8AE3FD",
"|  c #8BE9FD",
" . c #91E2F9",
".. c #92E7FB",
"X. c #90E2FD",
"o. c #92E7FD",
"O. c #93E5FD",
"+. c #9EE4FB",
"@. c #98E2FD",
"#. c #9BE4FC",
"$. c #98E7FD",
"%. c #9AE4FB",
"&. c #92EBFD",
"*. c #93E8FE",
"=. c #98EAFD",
"-. c #9AEAFE",
";. c #99ECFE",
":. c #9BE9FD",
">. c #A4E6FC",
",. c #A4E8FC",
"<. c #A4EBFD",
"1. c #A2EDFD",
"2. c #AEEEFE",
"3. c #AAEAFD",
"4. c #B5EFFE",
"5. c #B5EEFE",
"6. c #BCECFC",
"7. c #B4F1FD",
"8. c #BEF1FD",
"9. c #CAF2FD",
"0. c #DBFCFF",
"q. c #E1FCFF",
/* pixels */
"# + O + + & O < f O Z # X o + % # + + O + , c X ` 6 o O + + + ;.O + ",
", + + D , O # % + + # % % * + # % { # + X O # + + X + 6 5 + O X + 5 ",
"% ;  .+ + + E ..# O X O # K Y -.# +   + ; # + e X + M % & # # X + z ",
"+ O O % X.#.# O Y -.2 5 + O + O % % Y % + # <.> t % & # % 2 4.5 # # ",
"O X X # O O + . X % 2.[ - O . O O O + + W @.# , # b O + + <.+ , # + ",
"# O X + 7 f + 5 + O X # ^ d q M + # 2 O O X + O # + # $ o X X # # # ",
"# ` 8 # O O O O X + # + X + + O O # + X + + 5 # , u $ $ D # + + + + ",
"% + o 6 ; + O > #.5 # + # ; & X # x n + O + # - &.+ + X % % 6 # # , ",
"O O X + + # j J # / # N + O O < + O o ! # $ # X + j # 8.' X O # + + ",
"i 1 + o.O - 1 # , y + o % # + O + A # + % +.% + + o # G % % + # - 1 ",
"o # # & X X + # # # + X % + # p # O + o % $ o.2 - ; - + % ; & 9.# X ",
"O + % + + % , x # % p 7.# + + + - ; , o 2 +   + # # o X + , 0.O O # ",
"m , # , C # 6 + X + a ] O + X < O + l 0 X O % # O H % #.& O X & < # ",
"o *.# & 5.O.& - % O X O ; # # e $ V + + # & X + , + V < ; = # O o ) ",
"X X + O + # O + , # d ~ # t o % # O # K # + o , + O # 3 O O o # + + ",
"; ; ; # u # O # R # + X + # % X X + , # # ; Y + X O O + & 2 # 1 & + ",
"1 ; # + X + , + ] - + + + X O + % # + ; # + O % % d # c 2 - , + X # ",
"+ O + # % -.# >.v o.7.1 + # t Z , + # # $ O O + o % 2 v 1.o O + + 5 ",
"+ # O ~ + O # ~ t + c % & 1 + O O & ; O O # , I n % + X + # 5 ; + o ",
"C d + O + 5 X # + % % # + # o X o # Z ( + , 2 + 6 # - # + O O + ; # ",
"+ X # # + + + X X O + J a $ + + O # # + ; 5 # + X X + o + # # % # - ",
"o + O O O % 4 5 % # + # O O # # X X # O O X + # # # # P B # O X + # ",
"% p 9 # q.+ o X + # 2 # + O O - # # a # # o O % J % 5 + O + + + X + ",
"+ # : & + Y % # O O % + o & f #.% % O + + L R O X X + 2 & O # ; & + ",
"# # + # + O + % % Y # # [ 1 X.# 5 X X # % + X + # # + + # # % + # 6 ",
"o O # . X # # % & # , < + X * 1 o + # + # + + + X $ 6.>.h @ O < + + ",
"+ & + + % % 3.+ + X O # + + o o % < # + ] < # + - p # + % 4.# + O O ",
"3.% ; # C # + m % # + + # + - # # ; p + O o % # O O + + O + # # + # ",
"O X # + , O + X O o % + 3.1 % % i # O O # p & + %.% O % + + s + - C ",
"- O X X o % | 2 + N # + + # X O % O # , + + # = + % m # X O # X X # ",
"d % # 1 & O X + % & X X X X Y - % 9.m 1 # + X X X # # % % # o # % & ",
"o % >.$ [ + o # O + 6 % X O O Q / O O 1 y & O $ # X X # t 5 6.$ + + ",
"> % + X + # ; + 1 ; + $ + # ; o + , # O   + & &.+ + + & + o + 3 % X ",
"+ o X + O O # + + + X X o o o X # O o p + o + O . , # o X X O + + X "
};
