/* XPM */
static const char *normal_floor_30[] = {
/* columns rows colors chars-per-pixel */
"30 30 116 2 ",
"   c #1DB7ED",
".  c #0DB3FD",
"X  c #0FBBFA",
"o  c #15B3F2",
"O  c #19B7F6",
"+  c #16BBF4",
"@  c #1BBAF4",
"#  c #12B5FD",
"$  c #18B7FE",
"%  c #15BAFD",
"&  c #1ABDFD",
"*  c #24BCEE",
"=  c #28BFEE",
"-  c #24BDF4",
";  c #29BFF1",
":  c #21BFFB",
">  c #2BBDF8",
",  c #14C1FF",
"<  c #1DC1FE",
"1  c #30C3EF",
"2  c #2EC2F4",
"3  c #23C3FD",
"4  c #2BC6FC",
"5  c #25C9FD",
"6  c #2ECAFD",
"7  c #2CC9FE",
"8  c #2EC8FE",
"9  c #2EC9FF",
"0  c #2ECBFF",
"q  c #2FC9FD",
"w  c #2BCCFF",
"e  c #2CC9FE",
"r  c #30C4F2",
"t  c #33C4F3",
"y  c #30C7F2",
"u  c #33C3F5",
"i  c #3AC7F5",
"p  c #36C8F7",
"a  c #3AC8F6",
"s  c #34C7FA",
"d  c #30C8F9",
"f  c #32CAFB",
"g  c #35C9F9",
"h  c #36CAFA",
"j  c #32CAFC",
"k  c #37C9FC",
"l  c #34CAFC",
"z  c #35CBFE",
"x  c #31CCFC",
"c  c #32CDFF",
"v  c #31CFFE",
"b  c #33CEFE",
"n  c #34CCFE",
"m  c #34CDFF",
"M  c #32CBFE",
"N  c #3BCEFF",
"B  c #3CCCFE",
"V  c #3ECCFE",
"C  c #3ACCFD",
"Z  c #35D1FF",
"A  c #3BD4FF",
"S  c #3DD4FF",
"D  c #3FD0FE",
"F  c #4ECDF6",
"G  c #47CFF9",
"H  c #47CFFF",
"J  c #48CFFE",
"K  c #4ECDFA",
"L  c #43D0FB",
"P  c #46D0FE",
"I  c #42D0FE",
"U  c #49D2FE",
"Y  c #4ED2FF",
"T  c #4BD2FF",
"R  c #47D8FF",
"E  c #4FD8FF",
"W  c #58D3F5",
"Q  c #51D0F9",
"!  c #50D3FF",
"~  c #55D4FF",
"^  c #52D3FC",
"/  c #5DD3F8",
"(  c #53DAFF",
")  c #5CDAFF",
"_  c #5EDCFF",
"`  c #5BD9FD",
"'  c #6EDAF7",
"]  c #69D5FB",
"[  c #65DDFF",
"{  c #64DBFF",
"}  c #6BD9FA",
"|  c #6ADDFA",
" . c #69D9FE",
".. c #6EDCFD",
"X. c #7DDDF5",
"o. c #79DFF8",
"O. c #7CDDFD",
"+. c #78DBF8",
"@. c #57E0FF",
"#. c #65E1FF",
"$. c #68E1FF",
"%. c #6EE2FF",
"&. c #6DE1FF",
"*. c #73E4FF",
"=. c #7FE0FF",
"-. c #7BEBFF",
";. c #80E3FF",
":. c #85E3FF",
">. c #8CE1FE",
",. c #88E3F8",
"<. c #80E9FF",
"1. c #81E8FF",
"2. c #95E5FE",
"3. c #96E8FE",
"4. c #9CE8FF",
"5. c #8EF6FF",
/* pixels */
"% & # % % % % 4 #.% % . . & % % % # e L <.~ f % % # 3 } 5 % ",
"4.< % j % 4 & . # 4 # 3 & & ..Y O 4 % # # # # < o.% # . % @ ",
"# < 4 % O ! s 9 & % & 3 8 y % # # # & < % % 3 & # 5 & % & N ",
"% . & 3 9 % . % & [ < . % & % & . # , % % &.% < < l 3  .& # ",
"# & & & m % % 8 & . % 1 4 # . % 4 + % o . 3 & & % . # # < P ",
"% | : & # . & # % & % % % % . % % % # # % % 9 3 X.% % % . . ",
"< % # O & # . < ( % 4 5 3 % % 5.:.% . & < y # . # < i N % 3 ",
"# . . % & 3 l % & f < # . 9 % # # : & & . # % % & # # % % % ",
"L A < 5 & v % . . % % & X # % v # % l 3 % % # % >.$ 3 % 5 g ",
". # & O . & < C Z % & Q % a v % % & O 5 > ` v < # < & 2 3 . ",
"% 4 w < < % % % < . % . % . % # 5 4 % . % 5 # # # 4 % m . . ",
"< & . % ' & U % % # 4 8 % # # y 5 & & e 5 & # R 5 O.% % 9 5 ",
"# % % . & % & % # 3 S # & 3 J & 5 # . . # 9 < < # . # 3 # # ",
"5 & & & 3 # g G %.& % _ 5 % . # 8 3 5 W & . . # % 3 O & ;.3 ",
"v 8 4 # # < < % 3 # # # # # & < & ( * . # j < & % < e % . % ",
"# # # : ( E # . % 3 C < *.@ F # % & 3 . % . & / 3 { % % % N ",
"# % 5 & # % O 5 3 # . & % # # % % X # % 3.3 < # # 3 % < # . ",
"v 3 3 O # # # < & % < & . . & C 3 m ` % # . % j % < . & 2.3 ",
". . % 3 3 & * % % <.& < ` & % % # 3 . 4 & & # % = % -.% . & ",
"8 3 & % % % % # j $ # . . # # % l & % . . j ` , % . j 5 % # ",
"% % 3 3 9 & . % . # & # < D 3 < & % & 3 *.% # e N # % % & % ",
"3 j % & # % v # < . % K . # % # # # 9 # % % # # % % j % & *.",
"# . % . & % + 5 & %.< # 9 &.% % 9 < % % 3 . % / U % # 5 % # ",
"% X & % & z & # . % < & # # # 5 < ` ` 3 % & O % # @ 3 % # % ",
"I # ; H # % . % 4 & < % <.e & 9 O # . # & . . % . # # D 3 < ",
". % % % 3 % % % # < 3 4 % % 3 % % # % % & +.^ # % C & # < 9 ",
"% # % # 2 < - ! < # . % % % # % < % & % 2 # % ,.h . % : . . ",
"& u v %.& # % # . % . # # & =.& % - < # . & & % % ^ -.3   O ",
"& z # . % 4 % 3 U & ] & 9 % . 9 % . # < p % % < % . # % & . ",
"% . & # # # 3 % # . # < # . . # - 3 & < % 3 m % # # # & & Y "
};
