/* XPM */
static const char *normal_floor_17[] = {
/* columns rows colors chars-per-pixel */
"17 17 183 2 ",
"   c #0FB3FA",
".  c #0DB4FA",
"X  c #0BB1FD",
"o  c #0AB2FD",
"O  c #0AB1FF",
"+  c #09B3FE",
"@  c #0EB1FC",
"#  c #0FB2FD",
"$  c #0EB1FE",
"%  c #0DB3FF",
"&  c #0EB5FC",
"*  c #0FB6FD",
"=  c #0EB4FE",
"-  c #13B6F7",
";  c #10B4FB",
":  c #10B7FB",
">  c #14B5FB",
",  c #10B3FE",
"<  c #11B3FE",
"1  c #10B4FC",
"2  c #11B5FC",
"3  c #11B5FD",
"4  c #12B4FC",
"5  c #13B5FD",
"6  c #10B7FD",
"7  c #12B6FD",
"8  c #11B4FF",
"9  c #13B5FE",
"0  c #12B6FE",
"q  c #13B7FE",
"w  c #13B7FF",
"e  c #14B7FC",
"r  c #17B5FE",
"t  c #14B6FE",
"y  c #14B6FF",
"u  c #11B9FA",
"i  c #13B8FA",
"p  c #16B8F9",
"a  c #14B9FB",
"s  c #17B9FA",
"d  c #17BBFA",
"f  c #17BDFB",
"g  c #13B8FC",
"h  c #12B9FD",
"j  c #12B9FF",
"k  c #13BAFF",
"l  c #15B8FD",
"z  c #14B9FD",
"x  c #16B9FC",
"c  c #17BAFD",
"v  c #16BBFD",
"b  c #15B9FF",
"n  c #16B9FE",
"m  c #16B8FF",
"M  c #15BAFE",
"N  c #16BAFF",
"B  c #17BAFF",
"V  c #16BBFF",
"C  c #17BCFC",
"Z  c #15BDFE",
"A  c #15BCFF",
"S  c #17BCFE",
"D  c #17BCFF",
"F  c #18BAFB",
"G  c #19BBFB",
"H  c #18BCF9",
"J  c #1ABDF8",
"K  c #18BCFB",
"L  c #1BBDFB",
"P  c #18BEFA",
"I  c #1EBCF9",
"U  c #1CBFFA",
"Y  c #1FBFFB",
"T  c #18B9FD",
"R  c #18BBFE",
"E  c #19BDFC",
"W  c #19BCFD",
"Q  c #18BDFD",
"!  c #1ABCFD",
"~  c #19BFFD",
"^  c #1BBFFC",
"/  c #1ABEFD",
"(  c #1ABDFE",
")  c #1ABDFF",
"_  c #19BEFE",
"`  c #19BEFF",
"'  c #1BBFFE",
"]  c #1ABFFF",
"[  c #1CBEFC",
"{  c #1DBFFD",
"}  c #1CBFFF",
"|  c #1DBFFF",
" . c #1FBEFF",
".. c #23BCE8",
"X. c #2EBFEB",
"o. c #21BCF4",
"O. c #22BDFD",
"+. c #21BFFC",
"@. c #1DC0FB",
"#. c #1EC3FB",
"$. c #18C0FE",
"%. c #19C1FF",
"&. c #1BC0FF",
"*. c #1BC1FF",
"=. c #1AC3FE",
"-. c #1EC0FE",
";. c #1FC1FF",
":. c #1CC2FF",
">. c #1FC3FF",
",. c #20C0F4",
"<. c #29C0F5",
"1. c #2FC0F5",
"2. c #21C0F8",
"3. c #23C2FC",
"4. c #23C3FD",
"5. c #21C1FF",
"6. c #23C1FE",
"7. c #20C3FE",
"8. c #21C3FF",
"9. c #22C2FF",
"0. c #23C3FF",
"q. c #24C3FD",
"w. c #27C3FC",
"e. c #22C5FF",
"r. c #26C5FD",
"t. c #25C6FD",
"y. c #27C6FD",
"u. c #24C4FE",
"i. c #25C4FE",
"p. c #25C5FF",
"a. c #28C1FA",
"s. c #29C4FA",
"d. c #2BC7FA",
"f. c #29C4FD",
"g. c #2BC6FC",
"h. c #28C7FE",
"j. c #28C7FF",
"k. c #2BC7FF",
"l. c #27C8FF",
"z. c #29C9FB",
"x. c #2DCAFD",
"c. c #2DC9FF",
"v. c #37C5F7",
"b. c #35C8F3",
"n. c #35C9F7",
"m. c #38C9F5",
"M. c #34C5FA",
"N. c #31C7FC",
"B. c #32CDFB",
"V. c #31CBFF",
"C. c #31CCFC",
"Z. c #35CDFF",
"A. c #3DCEFB",
"S. c #38CEFF",
"D. c #39CFFF",
"F. c #3CCEFF",
"G. c #37D1FF",
"H. c #3ED2FF",
"J. c #4BCCF3",
"K. c #47C9FA",
"L. c #45D1FF",
"P. c #40D6FF",
"I. c #4FD2FF",
"U. c #4CD4FC",
"Y. c #4CD6FD",
"T. c #4FD7FF",
"R. c #4FD9FF",
"E. c #52D6FC",
"W. c #52D6FD",
"Q. c #5FD6FE",
"!. c #56D9FF",
"~. c #53DCFF",
"^. c #5FDCFF",
"/. c #5EDEFF",
"(. c #66D1FB",
"). c #62D9FF",
"_. c #62DDFF",
"`. c #70DBFB",
"'. c #7EDFFF",
"]. c #65E3FF",
"[. c #82EFFF",
"{. c #86EFFF",
"}. c #A3E7FC",
/* pixels */
"C j c.. :.e 2 T ' d { z :.d +.' c.",
"' V.<.y.f.P 2.^.; z z ' ' C e.C R.",
"; G z 2 P C }.< 2 { { B.@.2 % z f.",
"s.' 2 O z z 2 4.e ; w.1.y.% E.y.z ",
"C 2 s.z 4.z 2 % 2 y.z 2 = ; Y O { ",
"= C O ' U.z M.' Y z +.z y.*.' T j ",
":.= `.U.2 d N.z z ' ' P e J.'.z E.",
"z ' 2 2 o.4.X.e = Y D.A.% ' e z n.",
"C *.f 2 < C i *.f.Z.2 = z ,.*.d i ",
"U.- < z 4.z z z z {.< ].v.2   z e ",
"= 2 f._.z K.{ D.2 ' = 4.' z C z j ",
"' l.[.O z :.2 4.^.' P...' G.< z 2 ",
"C < z z Q.:.z 4.2 f.= % z y.2 2 @.",
"F.' L.z > < :.2 2 z.4.~.{ % z P P ",
"2 j w.C z :.y.= { 2 2 z !.2 H.= ' ",
"C.4.2 2 z % 2 z m.T ' % ' z I.' ).",
"2 2 = z z < (.2 % a.G z *.2 < e b."
};
