/* XPM */
static const char *normal_floor_22[] = {
/* columns rows colors chars-per-pixel */
"22 22 84 1 ",
"  c #19B3EB",
". c #0DB3FD",
"X c #11B7F3",
"o c #1BB7F2",
"O c #12BAF7",
"+ c #1CBBF4",
"@ c #12B5FD",
"# c #15BAFD",
"$ c #1ABDFD",
"% c #2FB8EC",
"& c #22BDF4",
"* c #2BBCF5",
"= c #22BDFF",
"- c #1DC1FE",
"; c #1FC8FF",
": c #23C3FD",
"> c #2AC5FD",
", c #25CBFF",
"< c #2DC9FD",
"1 c #31C3F4",
"2 c #36C7FC",
"3 c #31C4F8",
"4 c #30CAFC",
"5 c #33CBFC",
"6 c #31C8FF",
"7 c #31CBFF",
"8 c #34CAFD",
"9 c #34CCFD",
"0 c #35CDFE",
"q c #36CCFF",
"w c #39CBFC",
"e c #38CBFE",
"r c #3BCDFE",
"t c #3ACDFF",
"y c #3BCDFF",
"u c #39CFFF",
"i c #3ED0FF",
"p c #3FD1FF",
"a c #49C9EC",
"s c #40C5F2",
"d c #4DCCF5",
"f c #40CEFC",
"g c #46CEFF",
"h c #48CDFA",
"j c #43D0FB",
"k c #41D2FF",
"l c #47D0FC",
"z c #46D3FF",
"x c #43D4FF",
"c c #46D5FF",
"v c #49D0FD",
"b c #4FD6FF",
"n c #4ED7FF",
"m c #4ADBFF",
"M c #4FD9FF",
"N c #5BD1F7",
"B c #51D0FB",
"V c #50D4FF",
"C c #56D4FD",
"Z c #59D4FE",
"A c #5BDCFF",
"S c #64D6FA",
"D c #66D6FC",
"F c #63D8FB",
"G c #62DEFF",
"H c #67DCFD",
"J c #65DEFF",
"K c #6ADAFF",
"L c #6CDAFF",
"P c #72D9F8",
"I c #77DCFA",
"U c #7DDFFC",
"Y c #54E1FF",
"T c #75E3FE",
"R c #75E3FF",
"E c #7FE2FF",
"W c #7DE4FF",
"Q c #8CE0FA",
"! c #8BE5FF",
"~ c #83EBFF",
"^ c #84ECFF",
"/ c #89ECFF",
"( c #A8EDFD",
") c #A8F1FF",
/* pixels */
"###:@:w$.#@#@<:N>@@>#$",
":$.@o-.@$$p##:@@@0:-@+",
"#@--.#<-.$#$.##R#$p>F.",
"##$c#$@#:>##O.@@#$..#+",
"I$7@.####:.%@$:U$@>$3$",
"#.##u#:-@@$@-$$.###@$#",
"#):###@.$a:@X01##GJ$O:",
"@k#:R:#>@@#u#:.#-@#j#$",
"$@#<m#.:>#@/$#-<#^x##d",
"..@#@-Wu#@$@V7@;@>.@#o",
"#($@$$#@#.##$K$2#@@7#.",
".##:#.:0-s<.#8@@$>:@$7",
"n#@$.@$##@@:C@A# #@@@-",
".@-#$@#$>$@.$#>#@@#Q$#",
"-<:#.#-#@@#P$#@M,#@$##",
"$:#->@$@$##@@$$@@@-:$*",
"@$.$$:--@Y##:#&@#~$@>#",
"#&#u#:..:@@#E@!:#.#<$-",
"@-#@..$uL#l@.#:$$#$v#D",
"### #n#.#$#>$$l@@h#@$@",
"#B-:#.:@@#:@@S@-@$gJ-@",
"#.@@:#.@:..@f$=$w@@@$Z"
};
