/* XPM */
static const char *normal_floor_56[] = {
/* columns rows colors chars-per-pixel */
"56 56 153 2 ",
"   c #14B5E3",
".  c #1AB3EF",
"X  c #0DAFF0",
"o  c #08AFFE",
"O  c #0EB4F2",
"+  c #0DB3FD",
"@  c #0EB8FE",
"#  c #15B5F5",
"$  c #1AB7F3",
"%  c #14BAF5",
"&  c #1ABAF5",
"*  c #12B5FD",
"=  c #1AB5F8",
"-  c #15BAFD",
";  c #1ABDFD",
":  c #2EBDEE",
">  c #33BDEB",
",  c #39BDED",
"<  c #26BDF4",
"1  c #28BEF3",
"2  c #22BEFD",
"3  c #28BFF8",
"4  c #16C1FE",
"5  c #1DC1FE",
"6  c #37C0EC",
"7  c #25C2F6",
"8  c #2CC3F7",
"9  c #23C3FD",
"0  c #2AC7FE",
"q  c #2AC6FF",
"w  c #2AC5FD",
"e  c #2DC6FF",
"r  c #2AC5FD",
"t  c #24C8FD",
"y  c #25C9FF",
"u  c #2CC8FB",
"i  c #2DCBFB",
"p  c #2BC8FD",
"a  c #2ACAFF",
"s  c #2DC8FE",
"d  c #2CC9FF",
"f  c #2EC8FE",
"g  c #2EC9FF",
"h  c #2DC9FE",
"j  c #33C7F5",
"k  c #32C6F6",
"l  c #3FC7F1",
"z  c #3CC5F6",
"x  c #37C8F5",
"c  c #35C9F7",
"v  c #3FCAF5",
"b  c #39CCF6",
"n  c #31C7F9",
"m  c #37C7F9",
"M  c #34C7FD",
"N  c #32C6FC",
"B  c #39C7F9",
"V  c #32C9FF",
"C  c #31CBFF",
"Z  c #34CAFD",
"A  c #35CBFD",
"S  c #36C9FF",
"D  c #35CBFF",
"F  c #32CCFF",
"G  c #33CEFD",
"H  c #35CDFF",
"J  c #37CDFF",
"K  c #34CEFF",
"L  c #36CEFF",
"P  c #33CBFE",
"I  c #3ECBF9",
"U  c #38CCFC",
"Y  c #3ACDFF",
"T  c #39CFFF",
"R  c #3CCEFF",
"E  c #3ACCFD",
"W  c #35D1FF",
"Q  c #3BD1FE",
"!  c #45CAF5",
"~  c #4ECFF7",
"^  c #4CCBF3",
"/  c #42CFFD",
"(  c #44CEFC",
")  c #47CFFF",
"_  c #43CEFD",
"`  c #48CDF8",
"'  c #5FCDF0",
"]  c #4AD0F6",
"[  c #4CD0F6",
"{  c #46D6FB",
"}  c #42D0FE",
"|  c #42D2FD",
" . c #49D3FF",
".. c #4BD6FF",
"X. c #4CD3FD",
"o. c #4CD9FF",
"O. c #52D0F6",
"+. c #5AD1F3",
"@. c #56D7FF",
"#. c #53D4FD",
"$. c #58D6FF",
"%. c #5AD5FD",
"&. c #54DBFF",
"*. c #5BDFFF",
"=. c #5DDDFF",
"-. c #5CDAFE",
";. c #60D5F6",
":. c #6ED7F7",
">. c #67DBF4",
",. c #60D7F9",
"<. c #65D6FE",
"1. c #63D6FD",
"2. c #6DD5F8",
"3. c #6BD6FC",
"4. c #62D8FC",
"5. c #67DEFF",
"6. c #64DBFE",
"7. c #6ADBF9",
"8. c #6ADAFF",
"9. c #68DAFC",
"0. c #6ADCFE",
"q. c #7ED9F6",
"w. c #72DDFE",
"e. c #78DCFE",
"r. c #7ADEFC",
"t. c #5CE1FF",
"y. c #66E2FF",
"u. c #6FE1FF",
"i. c #6CE2FF",
"p. c #6CE8FF",
"a. c #74E5FF",
"s. c #73E3FE",
"d. c #7CE1FD",
"f. c #7DECFF",
"g. c #84DEF9",
"h. c #81E0F6",
"j. c #8AE3F5",
"k. c #85E0FB",
"l. c #81E3FF",
"z. c #83E3FC",
"x. c #8DE4FC",
"c. c #82EAFF",
"v. c #86E9FF",
"b. c #84E8FF",
"n. c #8AECFF",
"m. c #93E5FE",
"M. c #97E9FF",
"N. c #96EBFF",
"B. c #9CE8FF",
"V. c #96F0FF",
"C. c #9AF6FF",
"Z. c #A2EDFF",
"A. c #A2F0FF",
/* pixels */
"- - - + + - - - * * * 5 r d ; - ; < - + * * - + - ; ; ; - * * + * * - r 9 - - - < U - * * * * * * ; 5 8 - - - - ",
"- - ; 9 - - - - 5 9 ; + * ; 9 # * * * ; * + + * ; - * * ; ; ; # * D 5 * * < , l 9 5 8 L - * - # <.< ; - w r 9 - ",
"D t - 5 L 9.} F ; * 5 d t ; + * - e 9 - ; ; - - - ; ; 8 2 M.5 / & - * * - - - - - * - - 9 u %.- - + ; + - - 5 D ",
"r F 2.; - - @ * * - - - - ; * * + * * * * ; ; r ; 5 b.t ; ; * - 9 D ; + + * + * * * ; - *.9 9 ; ; * + + * * - 5 ",
"- ; 5 I d 5 - - ; d @.x 2.9.5 5 ; - - ; 9 9 - V 4.j ; - * * * + + * ; 9 5 - - ; * - & ; ; * * 9 r - ; - - 9 6.5 ",
"- ; - * & 7 ) c.~ 8 9 ; # ; n  ...=.F B & * # # * - ; 5 ; ; ; * + + * - 7 d R t ; 5 9 9 5 ; ; a ) a.L ; u.3 ; * ",
"- * + + ; ; 9 U u 5 - + + + - ; r u.V 5 + + + - ; ; - ; ; ; * + * - - - ; - - r.{ 5 + - 5 ; r m ; t k.7.5 ; * + ",
"* * * + * ; - + * * - + + + - ; 9 U 5 a ] 5 - * + + + + * - - - 7 z.9 ,.5 5 M ; ; v - * + * * - * - 5 ; L 5 - - ",
"; ; ; 5 ; @ 5 E n ; - - ; 9 9 ; - + + - 5 p 1.5 - * + * - - ; s.; ; * - + - * 5 5 ; - ; - - * + + * + - ; 5 U 9 ",
"- ; - - - 5 t 9 R b.: U d ; - * * * - - ; ; 5 x } 9  .t 9 9 < - - * + + + * * + * - ; D ^ ; - * * + - - - @ * - ",
"+ 9 s.Z.5 | ; * * - * ; - - + * - ; - - * - - - - - + ; ; - * * - - * * * - - - - & 9.a 7 d.U - - - - * * + + + ",
"X.r 5 9 ; 4.r - * + + + + + - - - - - - * - - ; 9 - + * - y.; * - - 9 9 9 r #.r.X.t ; * * ; 5 X.x.9 ; t r 4 - E ",
"5 5 - * * * - 9 - - * * - - W r.a - * e 9 n d 9 - * - @ >.w r.; - - * - - ; 5 #.9 - * - + * - 5 5 d 7.d - - 5 9 ",
"+ + + + - ; * * - V 9 - r V 5 9 9 l.b - ; - + * - 9 d.9 ; + - 5 n.{ 9 9 9 ; * + * * * - e D ; + * - - - * - - - ",
"* * - + + * ; < ; - - ; - - ; 9 - - & [ & + + + + * * * * - 9 9 5 * * - - * + + * - - - * * - - + * + * - * - - ",
"} l.F ; ; 9 V.9 n.9 ; - - - + + + * - - ; ; ; - - * * a L t - * - - F 1.t - - - * * * * ; ..U - 9 ; + * ; 9 ^  .",
"- 5 u.;.q.6.5 ; - 5 5 - - - + + + - + * * ; t m.D 4 9 d ; * * @ ; Z W W h.9 ; - - - - - 6 Q w.5 - ; 5 ; u m.F t ",
"+ * - - 5 9 ; + + * - - - 9 W 5 ; * + - ; r.r 9 5 <.d - - * - - r ; - 5 a d -.@.F :.3.d 5 * - 9 x ; %.3.9 9 - + ",
"+ + + - - - * * ; 5 8 5 a r.t V -.9 5 Q n & * + + - - ; 9 - - - + - Q 5 * + - # 7 9 5 ; * + * ; 5 d - - * - 9 - ",
"- - 9 #.%.=.; ; 5 - ; # $ ; - 5 ; X # # + + * - * + + - - $ 9 5 d 9 # * + * - 9 9 & - * * * - d e - / d * * * - ",
"9 3.1.d 5 t x.W ; ; - * * * * - 9 -.R # * * + + - ; + + * - 9 k.5 - + * ; 9 ; * * + * ; ; a 8 ; - * * - 9 ; ; ; ",
"0.; ; - + * - r d.; ; ..Q r * - + - ; 7 U e - * - + * * * d.d ; ; - - e 9 ; 9 9 - * ; - -.a 9 x.; * - - - e -.t ",
"9 ; - - ; 9 9 - - 9 U 5 - * + + + + - - - * d w ) s.d e.F ; * + + - 9 * + + * - 5 #.9.9 5 * * - % M 9 - - - ; 9 ",
"+ * - - - * * * 5 ; * ; 5 ; * * - t w.| - * - - 5 9 e 9 ; 2 r - * * + + + + * r d ; 9 9 ; * * + + * - 9 - * * * ",
"; - * * ; ; * * * * * * * ; 5 } N.7 9 5 z.r - + * - * * + + * 9 -.M.R ; ; L %.- - + + - ; 9 9 * * * * - - 9 U r ",
"9 E 9 9 - - 9 | 9 - * ; ; U m 2 9 * + * ; - e 5 - + + + * ; r 9 - * ; } x.d - + + + * * * - - 9 U 5 5 5 h.9 ; - ",
"- 5 w r z.%.- - * * * ; 5 ; 9 5 - * * * * * - + + + * 9 9 - ; - 5 V 7.5 ; ; 9 e ; - - ; * * * - 5 F 4.9 - * + * ",
"9 U d 5 9 9 * * - - r 5 - * ; t 5 * * + - + + * - - 5 - 5 E - V 9.%.5 - * * - ; d r ; ; ; - ; 5 5 d 5 - + + * ; ",
"* - * * - - r r Z.d.5 + + + * * * 9 r F 5 ; ; 9 R d Z U 5 * ; 9 9 9 - + + ; - + * * ; t z.V j 9 ; * * - - - ; E ",
"- + * * * * L I ; t r ; - * ; 9 9 9 5 5 -.a.} . ; ; # - * + + - * - V w - - - - ; ; M N ; ; ; :  .r * * 2  .U - ",
"- ; ; * ; x.9 - * - ; U 6.Z - * * * ; ; ; 5 5 - * * * + + + - * * * * 5 U r d m.W ; * * * + * ; ; ; 9 9 w - - + ",
"* &.d.t - - * + + * * - - - 9 9 t ; * * - - ; ; ; * * * - 5 a B.2 - + - V 6.r 5 5 U / - * 5 9 * * - - * * * - ; ",
"1.9 t / t - - ; # - * * * 5 ; - - - ; ; 9 - - + + + * ; 5 #.9 5 L z.0.9 - - * + + * * ; d - - t * + * ; o.x.W 9 ",
"- + + - & #.; - - - - + + + + * * ; n.+.r n.9 - - - + # % ; - * * r 7 d 5 - - * + + - + * * * - ; 5 o.! % ;   y.",
"* + + + - - 9 9 ; - ; % O - * * $ A.} 5 5 9 y.1 & - # - - + * # 9 t * 5 r ; - - ; - + * * % & - ; C.L ; - * - 9 ",
"- * - - * * * * 5 D t L r w.5 2 2 ; - + * * * - 5 - * + + * - # * * + * * * ; ; 5 ; 5 ; 4.a | 5 ; - * * * - ; * ",
"5 =.5 - ; 5 ; - - ; - - * - ; U 7 ; * - + + + + * * * - ; ; V  .5 - - * + + * 2 U j.u 5 5 - - * ; D t r 9 ; * * ",
"* ; 5 %.V 5 9.%.k.- * o o * ; - + t D 9 - * ; 5 9 - B m.1.e ; ; 5 9 ( - - - 9 j ; 5 ; #.L - - + + * * - + + + * ",
"- - - 5 9 F ; 9 9 %.- + + + + + + - * - * - - 5 ; d r t 5 ; - * - - ; E a.| U - * * * ; ; U p * * - - 5 9 ; ; - ",
"- & r 9 - - - - 5 - t d 5 - - ; ; - * * - ; - + - * - - * * + + + - 9 9 t 5 5 ; + * + + + - - 9 r r V a - &.0.) ",
"w.U t - * - 5 ; * * - - 9 9 W x.F ; - - y.U } - * * - * * + * ; * * * + + + * - ; - ; - - - * * - 9 * * - ; 5 R ",
"- * * ; # + + + - - * - 5 U ; 5 5 4.G 9 ; * - 9 0.| ; * - - 9 d 7 V - * & 9 ; + * * - 9 #.u ; - + + - w 5 - * * ",
"* * * * - * + * 9 ; - 5 F 5 - * - } d ; + * - @.t  .0.4 - - - - * * ; - % [ D * + * 5 6.0.0.g.t - * - d # * ; * ",
"- ; - - - - - - - 9 $.; - * + + + - ; 9 9 - - - + * - ; e 9 5 - L w.@.r ; - - 9 9 9 9 ; - - - a ) ; - - * + + + ",
"- x m.z ; ; ; ; ` ; - - ; ; * * + + * * * 5 * * * + * * * - 5 O.. ; - s.x.6.F 9 9 5 - * + + + - - d D & ; ; ; | ",
"d.r ; 5 r. .} V - * - + * + ; e 9 - - 5 ; - t z.9.9 ; ; r I X.- * + + * * - 5 * + + * ; - * * * + - 5 W [ 9 5 5 ",
"t - + + ; t V - + * + + + + - ; a 6.E d 5 t d.L 9 &.V - 5 5 - + + - + * - ; - * - - - - 5 * + @ - 5 / L W 9...V ",
"+ + - ; - * * ; 9 - ; - - - * + * 5 5 t N.e 5 * + * ; a & 9 - * + * * - * * - x.z.-.% - * - ; U U < ; * * 5 ; E ",
"; ; * + + + + * & *.8 y.| 5 ; E D d 9 # - 5 ; * * + + + * + 9 R 5 - - * - ; f.; - ; 8 p.L - - + + ; 5 * + + # - ",
"- + * + * - * - t.9 5 9 u.6.7 5 5 - + + - - ; - * # + + * + 4 5 - - 5 8 & <.r ; * * 5 W n.b - + + - 5 9 + + * + ",
"V %.t - - 5 u 5 - * + + * - e r * * + + * * - 9 / V 5 a -./ 5 =.- ; * ; - * * + * - 9 5 5 - - 9 t - - - 5 t ..; ",
"* ; 9 V L z.u.0.; * * ; 5 ; * + * - - * * + + * - ; 4.V ; - * - ; w.t * + * * - 9 5 * - - - 9 ' r m.9 r r - - r ",
"* ; U a.. ; - - } r ; - * * ; r f.> %.5 - - ; 5 t ; - ; 9 * + + + * = 9 5 5 5 - + + + * ; } 9 - + - 9 i.- - + * ",
"-  .L 5 * * * - ; - r - - - 1.R 9 ; - 4.& ; R d 5 - * - ; 9 - * + + * - 5 d %.- - - * - 9 5 - + + * - - d 5 - * ",
"; * * * 5 - * * * * * 9 R 9 - * + + + * ; #.- + + + + + * * 9 V - * ; o...& - & 1.} V ; + * + * + * ; - ; ; m U ",
"- - - * * * - * * * - - * - - - - + + + * + - - + + ; ; * * * ; 9 ; - * - + + * * - 5 9 9 - * + * * * ; ; * - - "
};
