/* XPM */
static const char *normal_duck_127[] = {
/* columns rows colors chars-per-pixel */
"127 127 253 2 ",
"   c #010101",
".  c #0A0201",
"X  c #0B0A02",
"o  c #02030B",
"O  c #060907",
"+  c #130100",
"@  c #1B0400",
"#  c #140B01",
"$  c #010916",
"%  c #1B1307",
"&  c #250700",
"*  c #370500",
"=  c #381900",
"-  c #2C1700",
";  c #00152C",
":  c #002639",
">  c #01272A",
",  c #313131",
"<  c #2D2600",
"1  c #421E00",
"2  c #472900",
"3  c #5A3201",
"4  c #643300",
"5  c #6A1A07",
"6  c #754907",
"7  c #003350",
"8  c #003365",
"9  c #055275",
"0  c #555351",
"q  c #7A7A7A",
"w  c #AB1502",
"e  c #B81701",
"r  c #922809",
"t  c #C51C00",
"y  c #C92601",
"u  c #D92B02",
"i  c #D73703",
"p  c #C83614",
"a  c #E63B02",
"s  c #E63100",
"d  c #946E12",
"f  c #B96A01",
"g  c #BB7912",
"h  c #A5570C",
"j  c #ED4502",
"k  c #F44B01",
"l  c #FB5601",
"z  c #FB5B03",
"x  c #EC5517",
"c  c #C47301",
"v  c #CC7602",
"b  c #CD7A01",
"n  c #C47905",
"m  c #D37B01",
"M  c #D97B00",
"N  c #C7730D",
"B  c #FD6401",
"V  c #FD6C02",
"C  c #FE6609",
"Z  c #FE7202",
"A  c #FB7A05",
"S  c #F26E17",
"D  c #ED6A1A",
"F  c #EB6621",
"G  c #DA4914",
"H  c #B78817",
"J  c #D58202",
"K  c #DB8302",
"L  c #DA8905",
"P  c #D18A07",
"I  c #E28401",
"U  c #E48C01",
"Y  c #E98D02",
"T  c #EC8807",
"R  c #E69202",
"E  c #EB9401",
"W  c #ED9901",
"Q  c #E89709",
"!  c #F39502",
"~  c #F29B02",
"^  c #F89C03",
"/  c #E69718",
"(  c #FC9116",
")  c #ECA704",
"_  c #F5A301",
"`  c #FAA403",
"'  c #F5AB01",
"]  c #FBAC02",
"[  c #F9A80A",
"{  c #F2B301",
"}  c #FDB502",
"|  c #FDBA01",
" . c #FBB707",
".. c #F0AE15",
"X. c #D29228",
"o. c #E89C24",
"O. c #F89B28",
"+. c #FCA42B",
"@. c #FDAA34",
"#. c #EDAD2A",
"$. c #DBA720",
"%. c #FDC302",
"&. c #F3CB00",
"*. c #FDCD02",
"=. c #FFCC0A",
"-. c #F9C507",
";. c #FDD303",
":. c #FDD30A",
">. c #F7D50A",
",. c #FDC715",
"<. c #FAD418",
"1. c #FED925",
"2. c #F7D231",
"3. c #FEE339",
"4. c #FFE12A",
"5. c #87855F",
"6. c #C39B43",
"7. c #C0A345",
"8. c #FEE648",
"9. c #FEEC5B",
"0. c #FFF05A",
"q. c #FEED62",
"w. c #FEED69",
"e. c #FFF060",
"r. c #0F688F",
"t. c #0F73AB",
"y. c #276D97",
"u. c #006BC8",
"i. c #0475D9",
"p. c #0372CC",
"a. c #027BE3",
"s. c #0079E8",
"d. c #177CE3",
"f. c #0E84B7",
"g. c #3980A0",
"h. c #46899C",
"j. c #4B8EA1",
"k. c #1090CE",
"l. c #0183EB",
"z. c #0289EC",
"x. c #0398EB",
"c. c #008DF3",
"v. c #0284F3",
"b. c #0193F3",
"n. c #019AF5",
"m. c #0298FA",
"M. c #0CADEC",
"N. c #07A7E9",
"B. c #16ABE8",
"V. c #0BB2EE",
"C. c #13B1EC",
"Z. c #1BB3ED",
"A. c #1BB6E9",
"S. c #01A5F4",
"D. c #03ACF5",
"F. c #0AADF3",
"G. c #01A7FC",
"H. c #02ABFC",
"J. c #0AACFC",
"K. c #08A4F9",
"L. c #14ACF4",
"P. c #04B2F6",
"I. c #0CB3F5",
"U. c #0DB9F6",
"Y. c #05B2FD",
"T. c #0AB5FD",
"R. c #05B9FE",
"E. c #0CB9FD",
"W. c #06BAF7",
"Q. c #12B4F4",
"!. c #1BB5F3",
"~. c #13BAF5",
"^. c #1CBBF4",
"/. c #12B5FB",
"(. c #13BBFD",
"). c #1ABDFD",
"_. c #1AB6FA",
"`. c #27B8EC",
"'. c #24BCF4",
"]. c #22BDFB",
"[. c #2ABCF5",
"{. c #31B8EE",
"}. c #1B9BCC",
"|. c #15C1FE",
" X c #1CC2FE",
".X c #1BC1F7",
"XX c #12C0F7",
"oX c #2CC3F6",
"OX c #24C3FD",
"+X c #2BC5FD",
"@X c #25C9FE",
"#X c #2CC9FE",
"$X c #23C1F5",
"%X c #34C3F4",
"&X c #3BCAF6",
"*X c #33C6FC",
"=X c #34CAFD",
"-X c #3BCCFD",
";X c #3AC5F9",
":X c #3DD2FF",
">X c #34D1FF",
",X c #3DC2ED",
"<X c #4CCDF6",
"1X c #43CDFC",
"2X c #4BCEFB",
"3X c #43C9F5",
"4X c #53CEFA",
"5X c #58CDF5",
"6X c #44D2FE",
"7X c #4CD3FE",
"8X c #4DD9FF",
"9X c #44D9FF",
"0X c #53D4FD",
"qX c #5BD5FC",
"wX c #53DAFF",
"eX c #5CDAFF",
"rX c #59D3F5",
"tX c #4DC5E9",
"yX c #64D3F5",
"uX c #6BD4F4",
"iX c #63D5FC",
"pX c #6BD6FC",
"aX c #64DBFE",
"sX c #6BDBFD",
"dX c #67D9F6",
"fX c #72DCFC",
"gX c #7BDCFC",
"hX c #75D8F6",
"jX c #6AD0ED",
"kX c #5CE1FF",
"lX c #55E2FF",
"zX c #65E1FF",
"xX c #6CE3FF",
"cX c #69E9FF",
"vX c #74E3FF",
"bX c #7DE3FE",
"nX c #77EBFF",
"mX c #8B8989",
"MX c #AEADAC",
"NX c #83DEFC",
"BX c #86DDF9",
"VX c #91DFF6",
"CX c #83E3FE",
"ZX c #8BE4FD",
"AX c #84ECFF",
"SX c #8BEAFF",
"DX c #8AE3F5",
"FX c #94EAFD",
"GX c #89F4FF",
"HX c #95F4FF",
"JX c #A3EFFF",
"KX c #F4F3F1",
"LX c #D7D7D7",
/* pixels */
"H.Y.Y.Y.Y.Y.H.H.H.H.H.H.H.H.H.H.H.H.H.H.H.H.H.H.Y.Y.T.T.Y.Y.H.H.H.H.T.E.T.Y.H.H.H.H.H.H.Y.Y.T.R.T.Y.Y.H.H.H.H.H.H.H.H.H.H.Y.Y.H.H.Y.H.H.Y.Y.Y.Y.Y.Y.Y.H.H.H.H.H.H.H.H.Y.T.T.(.E.E.T.Y.H.H.H.H.H.H.Y.Y.H.H.H.Y.Y.Y.Y.H.H.H.H.H.H.H.H.H.H.H.H.H.Y.Y.Y.Y.Y.P.Y.Y.",
"Y.Y.Y.Y.Y.Y.Y.Y.H.H.H.H.H.H.H.H.Y.Y.H.H.H.H.H.Y.T.E.^.).Y.Y.H.H.H.H.T.E.E.Y.H.H.H.H.H.H.Y.T.`.`.E.Y.Y.H.H.G.H.H.H.H.H.H.Y.Y.T.T.Y.Y.H.H.Y.Y.(.E.R.Y.H.H.H.H.H.H.H.H.H.Y.Y.Y.`.`.$XE.Y.Y.H.H.H.H.H.Y.Y.H.H.Y.Y.Y.Y.Y.H.H.H.H.H.H.H.H.H.H.H.H.H.Y.Y.Y.(.(.T.Y.Y.",
"H.H.Y.T.(.#X6X-XR.T.T.Y.H.H.H.H.H.T.(.T.Y.Y.Y.(.#X+X6X7X6X^.E.Y.T.Y.H.H.H.H.H.H.H.Y.Y.E.wX2XbXiX6XI.(.Y.H.H.H.H.H.H.H.H.T.|.). XT.T.Y.Y. X$X-X6X-X|.(.Y.H.H.H.H.H.Y.Y.E.7X8XCXZXCX4X XT.E.Y.H.H.H.H.H.Y.Y.R. X XvXZXsXY.Y.Y.H.H.H.H.H.H.H.H.H.Y.@X*X1X1X=XR.R.",
"H.Y.E.@X@X+XwX0X2X6X(.E./.T.T.H.H.H.H.Y.(. XOX@X~.~.Y.Y.:XsXqXE.T.E.T.T.Y.H.T.T.(.#XOX*X8X6XY.Y.`.-X=XOX).R.Y.H.Y.Y.T.).).(./.|.#XOX7XeX#X=XQ.I.~.6X1X(.T.T.Y.T.R.(.E.6XyXqXR.R.Z.wXaXI.T.(.E.R.Y.Y.T.(.E.wXgX0X`.`.vXiX`.Y.Y.T.H.Y.H.H.Y.R.U.+X=X#XF.M.#X*X=X",
"H.H.).@X@XY.Y.(.wXaXsXeX(.T.T.Y.H.H.H.Y.(.@XOXY.Y.Y.Y.Y.R.wXqXiXqXZ.T.T.Y.Y.T.(.(.;XoX=X(.T.Y.Y.T.|. X+X:XOXT.Y.T.(.(.).(.T.Y.Y.+X.X1X2X/./.Y.T.T.OX@X-XV.U.Y.T.E.1X2X1XI.E.R.T.R. X~.iXeX`.E.R.Y.T.T.-X#X0XA.T.Y.Y.T.xXvX6XT.T.Y.Y.Y.H.T.=X=X#X(.T.Y.Y.T. XOX",
"@XOXOXP.T.Y.Y.Y.R.E.I.sXaX7XwXT.T.T.(.OX XT.Y.H.H.H.H.H.Y.Y.Y.R.Q.xXyXqX8X8X#X@XOXT.Y.Y.Y.H.H.H.H.H.P.R. X@X=X=X#X X XH.T.H.H.Y.T.Y.T.T.Y.Y.H.H.H.Y.Y.(.6X7X6X7X1X-X:XT.Y.Y.H.H.Y.R.R.R.I.aXsXaXeXeX6X1XwXE.R.T.H.H.Y.Y.U.(.<X1X+X+XOX=X#XE.(.Y.H.H.H.H.H.Y.Y.",
"@X@XY.Y.H.H.H.H.Y.Y.T.Y.Y.'.[.-X+XOX).Y.Y.H.H.H.H.H.H.H.H.H.H.Y.Y.Y.^.].1X-X^.(.T.E.Y.Y.T.H.H.H.H.H.H.Y.Y.Y.Y.T.Y.Y.Y.Y.Y.Y.H.H.H.H.H.H.H.H.H.H.H.H.Y.Y.E.Y.1X1X*XT.T.Y.H.H.H.H.H.H.H.Y.Y.Y.3X2XrXqX%XU.R.T.H.H.H.H.H.T.T.T.Y.Y.-X1X-XI.H.Y.H.H.H.H.H.H.H.H.H.",
"Y.Y.Y.Y.H.H.H.H.H.Y.Y.Y.Y.T.T.Y.T.Y.Y.Y.Y.H.H.H.H.H.H.H.H.H.H.H.Y.Y.Y.Y.T.Y.Y.Y.T.Y.Y.T.Y.T.H.H.H.H.H.Y.Y.Y.H.Y.Y.H.Y.Y.Y.H.H.H.H.H.H.H.H.H.H.H.H.H.H.Y.T.T.T.R.R.T.T.H.H.H.H.G.H.H.H.Y.Y.T.T.R.R.R.T.R.T.H.H.H.H.H.H.H.H.Y.Y.Y.T.T.T.Y.Y.H.H.H.H.H.H.H.H.H.H.",
"H.H.H.H.H.H.H.H.H.H.H.H.H.H.H.H.H.H.H.H.H.H.H.Y.Y.T.E.E.Y.H.H.H.H.H.H.H.H.H.H.H.Y.(.E.6XbX0X^.E.Y.Y.Y.H.Y.T.(.E.Y.Y.H.H.H.Y.Y.T.(.(.R.T.Y.Y.H.H.H.H.H.H.H.H.H.H.H.H.H.T.T.T.Y.H.H.H.H.H.H.H.T.R. X(.T.H.H.H.H.Y.E.T.Y.H.H.H.Y.Y.T.H.H.T.T.H.H.H.H.H.Y.Y.Y.Y.H.",
"H.H.H.H.H.H.H.H.H.H.H.H.H.T.T.H.H.H.H.H.H.H.H.Y.T.E.I.U.T.H.H.H.H.H.H.H.H.H.H.Y.Y.eX7XeXnXaXeX7XY.Y.Y.H.Y.T.(.(.T.Y.Y.H.Y.Y.T.Y.Q.Q.U.U.T.Y.H.H.H.H.H.H.H.H.H.H.H.H.H.T.T.T.Y.H.H.H.H.H.H.H.R.T.).).(.T.T.H.Y.Y.E.T.T.H.H.H.Y.Y.H.H.H.T.T.T.Y.H.Y.H.Y.Y.Y.Y.H.",
"H.H.H.Y.Y.Y.Y.Y.H.H.H.Y.T.(.(.(.T.Y.H.H.H.E.E.).aXaXZXSX).T.Y.H.H.H.H.H.Y.Y.(.-X6X:X6XY.Y.T.-X-X1X(.E.Y.H.H.H.H.H.T.T.T.T.E.C.aXgXCXsX`.E.(.T.H.H.H.H.G.H.H.H.H.H.T.T.#XbXgX~.E.T.Y.H.H.H.Y.H.H.H.H.Y.T.E.E. X XsXCX7XE.T.Y.H.H.H.H.H.H.H.H.H.T.T.~.qXpXeX(.T.",
"H.H.T.T.(.8X].T.T.T.Y.H.H.H.H.H.T.T.T.T.T.OXOXiXtX(.+X&XfXV.(.Y.Y.H.Y.Y.)..X+X+XT.Y.T.H.H.Y.Y.Y.#X-X-XE.Y.T.H.H.H.T.Y.(.(.sXCXpX(.T.(.aXiXaX(.Y.Y.H.H.G.H.H.Y.T.T. XOX0XCXCXrX7X XR.Y.Y.Y.H.H.H.H.H.Y.T.R.#XeX0XHXAXxX0X^.E.Y.Y.H.H.H.H.H.Y.Y.(.aX6X^. X(.1X1X",
"H.H.Y.-X-XaXCXgX(.T.T.Y.H.H.H.H.H.H.T.~.(.AXAXQ.I.T.(.T.xXCXeXT.T.Y.E.E.+X#XI.T.T.Y.Y.H.H.H.H.Y.Y.Q.M.-X8X:XU.E.Y.E.(.%XaXHXnXE.T.T.E.Q.GXnXfX^.T.T.Y.Y.T.T.E.~.Q.sXbXC.Y.R.9XlX0X[.T.Y.T.H.H.H.H.Y.Y.U.^.eXB.U.R.T.(.nXGXeXT.T.Y.T.Y.T.T.P.V.wX8XI.(.E.E.V.D.",
"Y.Y.+X*X#XR.OXOXfXaXY.T.Y.H.H.Y.(.W.(.eXiXaXeXE.E.T.T.T.T.vXzXiXeXT.(.E.R.T.Y.H.H.H.H.H.H.H.H.H.H.Y.Y.T.@X*XOX XT.8X8XaXpX(.E.T.Y.H.T.T.E.(.aXvXqXR.Y.Y.R.T.-XwX7XR.R.E.Y.Y.T.Y.E.:X7XT.P.T.Y.Y.Y.Y.T.*X&X(.Y.T.Y.Y.Y.E.@X2X0X4XT.T.Y.E.R.^.6X-X).T.Y.Y.Y.T.Y.",
" X).(.Y.Y.T.Y.Y.).%XrX(.(.T.T.|.6X<XqX(.R.Y.T.Y.H.H.H.H.Y.W.T.eXaX8X$X+XE.E.Y.H.H.H.H.H.H.H.H.H.H.H.H.Y.T.R.(.%XaXgXqX/.T.Y.H.H.H.H.H.H.Y.Y.T.(.U.6XrX0XqX6X0X_.Y.T.Y.H.H.H.H.H.T.T.Y.7X0X6XI.T. X].=X/.E.Y.H.H.H.H.H.H.Y.T.oX+X8XzX7X0X:X6X8XP.H.H.H.H.H.H.H.",
").).Y.Y.Y.H.Y.Y.E.).1XpXiX`.{.iXyXsXT.E.T.Y.T.H.H.H.H.H.H.Y.T.(.R.T.2X2X#X#XOX(.T.H.H.H.H.H.H.H.H.H.H.E.).%XqXpXeX).R.T.T.H.H.H.H.H.H.H.H.H.Y.E.E.R.U.eXeXqX).E.Y.Y.T.H.H.H.H.H.H.T.T.R.U.<X2X6X6X6XT.Y.T.H.H.H.H.H.H.H.H.T.E.E.+XwX8X*X+X(.E.Y.H.H.H.H.H.H.H.",
"H.H.H.H.H.H.H.H.Y.Y.T.(.-XsXsX3X).(.T.T.Y.H.H.H.H.H.H.H.G.H.H.Y.Y.Y.T.T.U.(.OX X).T.T.H.H.H.H.T.Y.E.(. XOX+X(.(.T.Y.T.H.H.H.H.H.H.H.H.H.H.H.H.H.Y.T.T.T.T.R. X X(.H.Y.H.H.H.H.H.H.H.H.Y.T.R..X$X).).Y.H.H.H.H.G.H.H.H.T.Y.Y.Y.H.Y.Y.Y.Y.Y.Y.H.T.T.T.T.T.H.H.H.",
"H.H.H.H.H.H.H.H.H.H.H.Y.Y.T.T. XOXOX XY.H.H.H.H.H.H.H.H.G.G.G.G.H.H.H.H.H.Y.H.Y.Y.T.T.T.T.H.H.H.H.T.Y.Y.Y.Y.H.H.T.E.E.T.Y.H.H.H.H.H.H.H.H.H.T.T.Y.Y.H.H.H.H.H.T./.).).(.Y.H.H.H.H.H.H.H.H.Y.Y.Y.T.T.(. X(.H.E.(.(.(.T.H.H.H.H.H.H.H.Y.Y.Y.Y.Y.Y.Y.Y.Y.Y.Y.Y.Y.",
"H.H.H.H.H.H.H.H.H.H.H.Y.Y.Y.T.E. X X X(.Y.H.H.H.H.H.H.H.H.H.G.G.H.H.H.H.H.H.H.Y.Y.U.R.Y.T.H.H.H.H.H.H.Y.Y.H.H.H.T.E.E.U.T.H.H.Y.Y.H.H.Y.Y.H.T.T.T.H.H.H.H.H.H.H.Y.(.(.(.T.T.H.H.H.H.H.H.H.H.H.H.Y.Y.(.(.(.(.E.(.E.E.T.H.H.H.H.H.H.H.Y.T.Y.Y.Y.Y.H.H.H.H.H.Y.Y.",
"H.H.H.H.H.Y.T.T.Y.H.H.H.H.Y.Y.Y.T.Y.Y.(.OXOX+X X(.Y.Y.Y.H.H.H.G.H.H.H.H.Y.Y.(.OX@XsXfX:X(.I.Y.T.H.H.H.H.G.H.H.H.H.Y.Y.(.(.E.^.o o O Y.Y.Y.Y.H.H.H.H.H.H.H.H.H.H.H.Y.Y.Y.(.(.E.E.T.Y.H.H.H.G.H.H.H.Y.H.H.H.H.H.H.H.H.H.T.T.Y.Y.Y.T.Y.|.yXsX7X8XE.Y.Y.H.Y.Y.T.R.",
"H.H.H.H.H.H.Y.Y.Y.Y.Y.E. XwXeXwX XE.T.Y.H.@X@X@X X(.E.T.Y.Y.Y.H.H.H.Y.Y.E.~.aXgXuXT.D.sXrXwXoXE.T.Y.H.H.H.H.Y.T.T.Y.Y.Y.Y.r.r.% # % r.T.(.(.T.Y.Y.H.H.H.H.H.H.Y.Y.(.(.OXiX7XqXaXkX=X(.E.T.Y.H.H.H.H.H.H.H.Y.T.T.Y.H.H.H.H.H.R.E.=XeX0XC.D.Y.B.=X:X=XE.U.@X=X=X",
"H.H.H.H.H.H.H.H.Y.Y.Y.U.9XrXaX7X6X:XR.Y.Y.H.H.H.H.H.Y.Y.H.Y.Y.H.H.H.T.Y.=X1XrX`.E.T.T.E.^.0XxXeXY.Y.Y.H.Y.H.T.E.T.Y.H.H.7 o   *.*.=.  Y.(.|. XT.Y.Y.Y.H.H.H.Y.Y.R.R.6XwX`.OX[.[.6XaXaXT.R.Y.H.H.H.H.H.H.H.T.R.E.Y.Y.Y.H.H.Y.+X@X-X7XT.T.T.Y.Y.Y.@X=X=X=X*XOX@X",
"Y.Y.Y.H.H.H.H.H.Y.Y.+X7X*XY.Y.T.OX-X7X XE.T.T.Y.H.H.H.H.H.H.H.H.Y.T.(.).qXiXE.Y.Y.H.H.Y.Y.Y.6X1X1X-X6X X).OX).|.Y.!.B.Z.  &.=.8.-. .  }.}.f.R. X^. X).Y.T.T.E. X X0X6X(.R.Y.Y.Y.T.6XeXqXsX(.T.T.T.Y.Y.E.E. XGXfXxXaX(.T.E. X+X+XT.R.Y.H.H.H.H.H.Y.Y.Q.U.(.P.Y.",
"=X-X(.P.T.Y.T.Y.-X6X*XZ.T.T.Y.T.Y.I.A.0XqX_.OX(.E.T.H.H.H.H.Y.T.T.|.uXiX`.Z.=X#X#XH.D.H.H.Y.Y.Y.C.=X-X-X:X XT.Y.8         >.1.3.) } .       : k.T. XOX@X@XOX+XeXwXM.Q.T.H.H.H.H.Y.E.E.'.3XsXxXxX|.(.E.wXaXeX{..X'.,XqX(.Q.E.Y.Y.Y.H.H.H.H.H.H.H.H.H.H.H.T.Y.Y.",
"R.E.+XU.R.Y.(.(.:X9XT.T.Y.G.H.H.Y.Y.T.(.1XiXaX!.Q.R.T.Y.Y.Y.Y.XXM.4X].(.T.E.E.OXOX).).T.H.H.Y.Y.Y.R.R.(.E.Y.Y.H.  { | | L <.1.;.U T h *.&.*.  t.Y.Y.T.|.#X#X XE.T.T.T.H.H.H.H.H.H.Y.Y.E.R.R.eX0X-X*X`.iXpX(.T.T.R.U.(.1X*XY.H.H.H.H.H.H.H.G.H.G.G.G.H.H.H.Y.Y.",
"Y.Y.+X8X3X1X6X1XY.T.H.H.H.H.H.H.H.H.H.Y.Y.(.E.gXFXsXE.(.E.OX@XwX0XU.R.T.H.H.H.H.H.(.T.U.E.T.H.H.Y.Y.H.D.o o o $ o >.1.*.:.>.:.*.b J &.1.} _     o o o $ H.Y.Y.Y.Y.H.H.H.H.H.H.H.H.H.H.Y.Y.E.(.XXsXgXhX(.Y.U.H.H.H.Y.Y.+X-X*X(.R.Y.Y.H.H.H.G.G.H.G.G.G.H.H.H.H.",
"Y.Y.R.:X=X7XOX).T.Y.H.H.H.H.H.H.H.H.H.H.T.E.T. XvXfXfXsX0XsX2X>X>X(.Y.Y.H.H.H.H.H.H.H.Y.E.T.Y.H.H.H.H.N.o   X X X >.>.;.;.:.:.*.f c ;.<.) `   X X     $ Y.D.T.Y.Y.H.H.H.H.H.H.H.H.H.H.Y.Y.(.6X2XeXwX(.E.(.T.H.H.H.H.Y.T. X7X-X=XP.T.H.H.H.H.G.G.H.H.H.H.H.H.H.",
"H.H.H.Y.H.Y.T.T.Y.Y.T.Y.H.H.H.H.H.H.H.H.H.H.H.R.E.E.`.A.$X_.R.Y.Y.H.H.H.H.H.H.H.Y.H.H.Y.Y.Y.H.H.H.$     c } *.*.*.;.;.;.;.;.:.' *.*.*.~ b c | | | _ [       Y.H.Y.H.H.H.H.H.H.H.H.T.T.~.Z.6XM.Q.R.T.Y.H.H.H.G.G.G.G.G.H.Y.T.R.T.#X=XOXP.Y.H.H.H.H.H.H.H.H.H.H.",
"H.H.H.H.H.H.H.H.H.H.H.H.H.H.Y.T.).#X=X@XR.Y.Y.Y.T.E.E.E.T.T.T.H.H.H.H.H.T.T. X=X+X).(.T.T.Y.H.H.  $.{ *.;.=.;.;.;.;.;.;.;.;.;.;.;.*.} K ,.=.;.;.;.;.;.{ E L   8 Y.Y.Y.T.T.T.H.H.U.=X-X1X6XY.T.T.T.T.T.H.H.H.H.H.H.H.H.H.H.H.H.H.H.D.(.@XOX). XE.T.Y.H.H.H.H.H.",
"Y.Y.H.H.H.H.H.H.H.H.H.H.H.Y.D.@XOX%XoX$X@X=X+XE.E.T.Y.Y.H.Y.Y.H.H.H.H.H.(.(. XU.Y.(.(.(.E.Y.D.S.$ X.' ;.;.;.;.;.;.;.;.;.;.;.;.;.;.;.R L ,.*.;.;.;.;.;.} U E # $ T.H.Y.T.T.T.).).@X-X+XT.R.Y.Y.Y.H.Y.T.T.Y.H.H.H.Y.Y.H.H.H.H.H.H.H.H.Y.H.H.(.(.E.T.T.Y.Y.Y.H.H.",
"H.Y.T.Y.H.H.Y.Y.Y.Y.H.Y.Y.E.(.(.Y.H.H.H.(.OX XE.E.Y.H.H.H.H.H.H.H.T.E.E.T.Y.H.H.H.H.H.Y.Y.Y.7   ' ;.;.;.;.;.;.;.;.;.;.;.;.;.;.;.;.;.=.*.;.;.;.;.;.;.;.;.| | ~ @   Y.Y.Y.T.T.(. X(.Y.Y.H.H.H.H.H.H.H.H.Y.Y.Y.OXOX&X-X@XY.Y.H.H.H.H.H.H.H.H.Y.H.E.=XgXbX+XT.Y.Y.",
"H.H.H.Y.Y.R.>X6XaXwXR.Y.Y.H.H.H.H.H.H.H.H.Y.Y.Y.T.T.T.Y.H.H.Y.T.E.~.uXuX[.E.T.H.H.H.H.H.H.  6 ` &.*.;.;.;.:.;.;.;.;.;.;.;.;.;.;.;.;.;.;.;.;.;.;.;.;.;.;.*.*.| ] ^   n.H.H.H.H.H.H.H.H.H.H.Y.Y.T.H.H.H.Y.T.).(.).D.F.).^._.T.H.H.H.H.H.Y.T.|.^.yXgXbXFXgXwXQ.E.",
"H.H.H.T.Y.|.8X8XsXeX~.Y.T.H.H.H.H.H.H.Y.H.T.Y.Y.Y.Y.Y.Y.Y.Y.Y.T.C.eXuXhX6X2XY.H.H.H.H.H.o # 6 ' *.8.9.q.8.:.;.;.;.;.;.;.;.;.;.;.;.;.;.;.;.;.;.;.;.;.;.;.;.;.| ] ` = o J.H.H.H.H.H.H.H.Y.H.Y.T.Y.T.Y.H.T.T.T.H.H.H.H.H.Y.T.(.Y.Y.H.H.H.T.T.wXiXiX3XR.(.fXsXC.E.",
"Y.Y.Y. XOX8X~.T.R.Z.eX2XR.Y.Y.H.H.Y.T.E.-XaXiX6X*XR.Y.Y.R.:X6XeX0XR.Y.Y.T.oX1X^._.Y.T.: & ) =.*.<.9.q.q.8.;.;.;.;.;.;.;.;.;.;.;.;.;.;.;.;.;.;.;.;.;.;.;.;.;.;.-.| ! 3 $ 8 Y.Y.Y.H.Y.Y.R.T.-XsXiX|. XT.Y.H.H.H.H.H.H.H.H.H.Y.E.E.E.E.E.7X6XwX9XY.T.H.T.Y.T.wX7X",
"H.Y.).wX6XE.R.R.R.T.Y.zXwXD.D.Y.Y.Y.Q.zX0X7X6XCXbXaXY.Y. XwXeX(.T.T.Y.Y.Y.Y._.:X1X6X@Xo ' %.*.*.w.q.q.0.3.;.;.;.;.;.;.;.;.;.;.;.;.;.;.;.;.;.;.;.;.;.;.;.;.;.;.%.%.' W   ; Y.Y.Y.Y.T.Y.8X1XvXxXxXxXnXI.Y.T.H.H.H.H.H.H.H.H.Y.Y.Y.Q.A.7XeXlXE.E.T.Y.H.Y.Y.Y.R.E.",
"=X=X-X^.U.T.H.H.H.Y.Y.T.U.6X1X).I.+X1X-XE.Y.T.(.#X0XOX].E.T.Y.P.Y.H.H.H.Y.Y.Y.R.R.`.O N *.*.;.*.w.q.q.*.;.;.;.;.;.;.;.;.;.;.;.;.;.;.;.;.;.;.;.;.;.;.;.;.;.;.;.;.;.} ] J + $ Y.Y.T.#X-X2X7XE.T.T.7X<XqX~.(.T.Y.Y.H.H.H.Y.E.(.+X@XeXsX-XT.T.T.T.H.H.H.H.H.H.Y.Y.",
" X XY.Y.Y.H.H.H.H.H.H.Y.Y.R.U.-X-X1X XY.Y.H.H.Y.Y.T.4X0X6X^.W.Y.H.H.H.H.H.H.H.H.H.!.  | ;.=.w.w.q.<.;.;.;.;.;.;.;.;.;.;.;.;.;.;.;.;.;.;.;.;.;.;.;.;.;.;.;.;.;.;.;.=.| ] . o R.E.@X6X&XT.T.Y.H.H.Y.Y.R.0XeXiXM.|.H.Y.E.(.#X-X-X6XE./.Y.H.H.H.H.H.H.H.G.H.H.H.H.",
"T.T.Y.Y.H.H.H.H.H.G.H.Y.Y.T.T.Y.R.E.T.Y.H.H.H.H.Y.T.E.(.wX-X+X X).H.H.H.H.H.H.H.F.B.  | ;.;.e.q.q.<.;.;.;.;.;.;.;.;.;.;.;.;.;.;.;.;.;.;.;.;.;.;.;.;.;.;.;.;.;.;.;.*.| _   $ T./.OX(.T.Y.T.H.H.H.Y.T.R.T.P.sXBXpXF.B.!.iXbXyX0X0XQ.(.Y.H.H.H.H.G.G.G.G.G.H.H.H.",
"R.T.(.H.H.H.H.H.G.G.G.H.H.H.H.Y.Y.Y.H.G.G.G.G.G.H.H.Y.Y.Y.Y.Y.).).(.(.E.Y.H.H.H.O o R ;.;.4.9.9.*.;.;.;.;.;.;.;.;.;.;.;.;.;.;.;.;.;.;.;.;.;.;.;.;.;.;.;.;.;.;.;.;.;.;.} b -   T.Y.Y.Y.H.H.H.G.H.H.H.H.T.Y.T.].^.sXCX0X].^.T.T.T. XOXOXT.Y.H.H.G.G.G.G.H.H.H.G.",
"H.H.H.T.T.Y.H.H.H.H.H.H.H.H.H.H.H.H.H.Y.Y.H.H.H.H.H.H.H.H.H.H.Y.H.T.Y.Y.T.Y.Y.Y.o X | ;.;.;.:.>.;.;.;.;.;.;.;.;.;.;.;.;.;.;.;.;.;.;.;.;.;.;.;.;.;.;.;.;.;.;.;.;.;.;.;.| ! 2   H.H.H.H.H.H.H.H.G.G.H.H.H.H.H.Y.Y.E.T.T.H.Y.H.H.H.Y.D.+X1X;XY.T.Y.H.H.H.H.H.H.Y.",
"H.H.H.T.E.T.Y.H.H.H.H.H.H.H.H.H.H.H.H.Y.Y.H.H.H.H.H.H.H.H.H.H.Y./.OXU.T.Y.Y.Y.9 X . | ;.;.:.;.;.;.;.;.;.;.;.;.;.;.;.;.;.;.;.;.;.;.;.;.;.;.;.;.;.;.;.;.;.;.;.;.;.;.;.;.| ~ 2 O $ H.H.H.H.H.H.H.G.G.H.H.H.H.H.Y.Y./.T.T.Y.Y.H.H.H.H.H.T.-X*X*X>XY.H.H.H.H.H.H.H.",
"H.H.H.H.H.H.T.T.(.(.(.Y.(.T.T.Y.Y.T.).6X#XOX@XT.Y.H.H.H.H. X).=X-X+X]. XE.R.H.7   U %.;.;.;.;.;.;.;.;.;.;.;.;.;.;.;.;.;.;.;.;.;.;.;.;.;.;.;.;.;.;.;.;.;.;.;.;.;.;.*.%.| ' U X $ Y.T.T.Y.T.H.H.H.H.H.H.Y.Y.Y.H.H.H.H.H.H.H.H.H.H.H.H.H.H.Y.T.I. X X(.Y.Y.H.H.Y.",
"H.H.H.H.H.H.H.H.H.H.T.(.(.'.'.(.(.@XOXH.H.Y.D.(.(.T.Y.Y.(.OXOXD.S.H.Y.Y. X XY.7   ] %.;.&.&.&.&.&.&.&.&.&.&.&.&.&.;.;.;.;.;.;.;.;.;.;.;.:.;.&.&.&.&.&.&.&.&.&.&.&.&.&.{ _ ~ O o Y.H.Y.T.(.(.T.T.).(.T.E.E.H.H.Y.Y.Y.Y.H.H.H.Y.Y. X XE.T.H.H.H.H.Y.T.E.R.T.Y.Y.",
"Y.Y.H.H.H.H.H.H.Y.Y.Y.^.vXgXvX*XOX(.T.H.H.H.H.Y.T.T.T.Y.Y.Y.H.H.H.H.H.H.Y.Y.o = 3 } d                                 ;.;.;.;.;.;.;.;.;..   o                           @ _ 1 & $ L.D.Y.Y.(.).OX).).T.H.H.H.H.Y.Y.Y.T.Y.H.Y.(.(.).OX(.T.H.H.H.H.Y.T.T.T.(.H.H.",
"(.(. X(.(.Y.Y.Y.R.(.sXqX6XR.Y.=X0X-X(.T.H.H.H.H.H.H.Y.H.H.H.H.H.H.Y.T.T.(.).  6 L ..d   O O O                         >.>.>.>.>.>.>.>.>.o   O O                         + / N *   ~.R.E.Y.Y.H.H.H.H.H.H.H.R.(.(.fXSXsX(.E.T.H.H.H.H.H.H.Y.Y.Y.R.).6XqXqX(.Y.Y.",
"Y.H.Y. X XOXF.D.#X7X[./.R.R.R.Y.7XqX=XP.Y.Y.H.H.H.H.H.H.H.H.H.H.H.Y.iXqX*X-X          LXKXMXmXq , ,                                         KXKXMX0 0                             6X=XP.P.T.H.H.H.H.H.T.Y.).xXsXB.!.!.aX0XF.T.Y.H.H.H.H.Y.Y.F.-XaX0X!.Z.6X_.(.",
"H.H.H.Y.Y.(.eXeXyX1XR.T.H.H.H.Y.T.D.-X=X-XY.T.Y.H.H.H.H.H.Y.H.T.I.wX4X0XU.F.          LXKXq O                                             O KXKX0                                 !.Y.-X6XE.T.Y.H.H.Y.(.(.zXCXsXU.W.T.U.1X7XE.Y.Y.T.H.H.Y.#X=X-X^.T.Y.Y.Y.:X-X",
"H.H.Y.Y.T.+X%XoXT.R.T.T.H.H.H.H.T.T.Y.9XwX<X7X^.).R.Y.Y.T.(.(.2X5XeX_.E.T.T.  @ @ .   mX5.q ,                             L / / / /       O mXLX0                         O @ @   (.R.^.oX6X$X@XE.E.|.iXyXSXZ.(.T.T.Y.R. X=X7X8X_.(.T. X-X-X:XY.Y.T.H.H.T.Y.Y.",
"H.H.Y.>X-X#XT.T.Y.Y.H.H.H.H.H.H.H.H.Y.E.T.-X1X1XkX:XT.T.R.kXeX6X7XE.Y.Y.H.H.  o.I 3   mXmX%                             . Y U R E K         mXMX                            v v   Q.H.Y.Y. XqX7XxXnXxXrXqX~.T.Y.H.H.H.Y.Y.Y.^..X-X=X(.=X=XY.Y.T.H.H.H.H.H.Y.Y.",
"Y.Y.+X@X@XH.H.H.H.H.H.G.G.G.G.H.H.H.H.H.H.Y.Y.R.#X6X0X0X7XsX0XY.T.Y.H.H.H.G.  2.| ) K                                   ^ -.*.;.;.;.` o                                 g M E L   /.H.H.H.Y.U.R.iXgXqXE.R.Y.H.H.H.H.H.H.G.H.Y.Y.Y.Q.OXT.Y.Y.H.H.H.H.H.H.H.H.H.",
" X X).T.T.H.H.H.G.G.H.G.G.H.H.H.H.H.D.H.H.Y.Y.T.T.E.).^.).Q.E.Y.T.H.H.H.H.H.  2.} { ^                                 M ] ;.;.;.;.;.] M o                               o.Y E R   /.H.H.H.H.T.T.E.E.E.T.Y.Y.H.H.H.H.G.G.G.H.H.H.T.T.(. X).H.H.H.H.H.H.H.H.H.H.",
"T.R.H.Y.Y.Y.H.G.G.G.G.G.G.H.H.T.).).).(.E.Y.H.H.H.H.Y.Y.T.Y.Y.H.H.H.H.H.H.H.  2.} *.&.                                ! 2 X X X # X 3 `                                 ..' E R   /.H.H.H.H.H.H.Y.Y.Y.H.H.Y.T.T.T.Y.H.H.G.H.H.H.H.H.Y.E.E.E.E.Y.H.H.H.H.H.H.H.",
"H.H.H.H.H.H.T.T.H.H.H.H.H.H.H.H.H.H.H.Y.(.(.(.E.T.Y.H.H.H.H.Y.T.R.T.T.Y.H.H.  #.' ;.;..                           + + ..= . + . + + 3 ..+ .                           .  .] U R   T.H.H.H.H.H.H.H.H.T.R.E.Y.Y.H.H.H.H.H.H.H.H.H.H.H.H.H.Y.Y.T.T.E.T.H.H.H.H.H.",
"H.H.H.H.H.H.H.Y.Y.D.D.D.H.H.H.H.H.H.H.Y.Q.nXnXzX'.T.Y.H.H.H.H.H.H.H.Y.T.T.Y.D.O   *.*.` o                         T M   h V Z V z l 5   U !                           W } ]   O D.H.H.H.H.H.H.H.Y.H.T.vXvXE.T.T.H.H.H.T.T.T.H.H.H.S.H.T.Y.Y.D.T.T.T.H.H.H.H.H.",
"H.Y.H.H.H.H.H.H.E.(.(.T.Y.H.H.H.H.Y.T.-X0XpXqXfXsXwXT.T.H.H.H.H.H.H.H.H.T.Y.Y.    ;.;.;.Y -                   @ m O   k B @.+.A Z V a u O   M &                   X m | } ]     Y.T.Y.H.H.H.H.H.E.N.7XNXfXiX^.E.Y.H.H.H.Y.T.Y.T.H.H.T.9X0XsXfX0XOXT.H.H.H.H.H.",
"Y.T.T.H.H.Y.Y.Y.H.H.H.H.H.Y.Y.Y.(.~.1XqX-XY.T.Y.6XiX7X).T.Y.H.H.H.Y.T.T.+XOX).O   ' -.;.;.' M o             X.m o.* * l A @.@.A Z Z k a * * ..T h               I ~ } } _ E o   Y.(.(.).).Y.T.E.0X5X0XE.W.E.wXwX(.P.Y.Y.H.H.Y.Y.E.E.OXhXsXE.R.^.iX0XW.T.T.H.H.",
"H.Y.E.wX0X).T.T.H.H.H.H.H.T.Y.U.wXwXeXE.Y.T.Y.Y.T.U.0X0X).P.T.H.Y.T.OX+X(.).H.O   R { ;.;.;.,.2.#.o.o.X.    & @   k k @.+.@.@.A Z Z B j s a . & &     N o.o.#.#.} =.=.} R Y   o Y.Y.Y.(.(.(.8X9XnXnXT.R.T.T.-X-XrX7XP.R.Y.H.H.Y.(.`.bX{.;XW.R.).7XnX9X6XT.H.H.",
"Y.Y.-XeX0X1X!.^.T.T.Y.R.Y.OX'.6X3X9XT.Y.H.H.H.H.Y.Y.Y.T.1X1X-X)._. XI.Y.Y.H.H.D.D.  _ *.;.;.*.| ` K o.. a j k k l +.@.@.( V Z Z Z Z Z V V V a a a i i   X.U ` } | *.*.} E   F.H.Y.Y.Y.(.Q.=X2X1XR.E.T.H.H.Y.T.Y.P.C.eX8X:XT. X(.aXhX-XT.T.Y.Y.T.T.Y.-X1X7X XE.",
"(.|.-XY.Y.#XwX6XqX:XY. XeX3X0X*XT.T.T.Y.H.G.G.H.H.H.T.T.Y.-X3X;X+X XT.T.H.H.H.H.Y.  2 } ;.;.;.;.;.X o D A V ( O.+.O.+.B B l l l l l l z Z Z V B B B C G + X ;.;.;.*. .~ X.O L.H.H.Y.T.].OXOXD.T.T.T.H.H.H.H.H.H.T.T.T.rXbXZXsXfXaXiXT.T.T.H.H.H.Y.Y.E.U.-X&X-X",
").).T.Y.Y.Y.E.R.2XaXsXfXrXE.E.T.Y.Y.H.G.G.G.G.G.H.H.H.H.Y.Y.Y.(.(.T.Y.H.Y.H.H.H.H.  2 } =.=.;.;.;.    B Z Z O.+.+.V V D F F F F F F F F V Z Z Z Z V B k + . ;.;.;.*.| E H   D.Y.Y.H.Y.Y.Y.Y.Y.Y.H.H.H.G.G.H.H.H.T.Y.T.E.{.hX&X+X/.E.Y.H.H.H.H.H.H.H.H.Y.Y.R.R.",
"H.H.H.H.H.H.Y.Y.Y.P.T. X X@X XY.Y.H.H.H.H.H.H.H.G.G.H.H.H.Y.T.Y.Y.Y.H.f.f.f.f.T.P.r.  g ] | *.;.;.    C Z A ( O.V l x o                 x j V V V C C a + o ;.*.%.] _ H . 9 Y.H.}.t.t.t.f.Y.Y.H.H.H.H.G.H.H.H.H.H.H.H.(.E.T.(.(.E.E.T.H.H.H.G.H.G.G.H.H.H.Y.Y.",
"H.H.H.H.H.H.H.H.H.H.Y.Y.T.+XOX#XE.H.H.H.H.H.H.H.G.G.H.H.H.T.T.Y.H.H.D.        }.H.H.$   E ] %.%.*.  . a B B B C k     e e e e e e w w w     a l l j k y + O *.| } ` `     J.Y.N.        ; H.Y.H.H.H.H.G.H.H.H.H.Y.Y.T.T.Y.T.Y.Y.H.H.T.Y.Y.H.G.G.G.G.H.H.H.H.H.",
"E.E.Y.H.H.H.H.H.H.H.H.H.H.Y.Y.#X=X*X+X(.Y.H.H.H.H.H.H.H.Y.H.H.H.H.7 o ,.*.=.. o G.        I ] ] *._  .. a i y &   e e y y t y t t t t e w w   + y y y   X.Q | ] ] M     .   K.$ O =.:.| < o Y.H.H.Y.T.Y.Y.Y.T.T.T.Y.Y.H.H.H.H.H.H.H.H.H.Y.E./.Y.Y.H.H.H.H.H.H.",
"H.Y.(.).).T.H.H.H.H.H.H.H.H.H.H.H.L.+X#XOX).).Y.H.H.Y.Y.H.H.H.H.$ X H :.1.*..       $.{ [ 6 n L | | ,.X.      * r l x s s s s u u u u u k z r 5       X.,.} _ m c 6 g ^ J       X <.3.=.H d ; D.H.H.H.T.T.+X-X=X=X XT.H.H.H.H.H.H.H.Y.H.Y.H.H.Y.Y.Y.H.H.H.H.H.",
"H.H.H.T.U.).E.T.H.H.H.H.H.H.H.H.H.H.H.Y.T.OX].(.(.(.Y.Y.H.H.H.P.o + [ :.8.*.6 +   o.{ | _ L f c M | { E # .   i u B z j k k k j j j j a l z y p   X . R ] } ~ m f m M ` E o.    1 1.8.;.' #.  Y.Y.H.R. X).(.H.H.).OXOX).E.T.Y.Y.H.H.Y.H.H.H.H.H.H.H.H.Y.Y.E.E.",
"G.G.H.H.H.G.H.H.H.H.H.Y.Y.E.R.Y.H.H.H.H.H.H.H.H.Y.T.T.Y.Y.Y.Y.J.  + =.8.<.;.R & o ] %.;.*.%.} _ c m J ] ~ ! @     i i B B B B B B B z B i y o . 3 ^ R ` b K f K ~ } } %.| } X . E 3.3.;.*.1.o (.T.Y.Y.H.H.H.H.H.H.Y.Y. X-X%XQ.~.T.T.H.H.H.H.H.H.H.Y.Y.Y. XOX+X",
"G.G.H.H.H.H.H.H.H.H.T.T.C.B.A.Y.Y.H.H.H.H.H.H.H.H.H.H.H.Y.Y.D.  / W ,.8.<.*.*.c c *.;.;.;.*.{ ' c m v _ ] ] M 4   G i S S S S S S S S S i p   & J ^ ` [ m K f L W | | ;.%.| b h ;.3.1.;.;.=.U   M.T.Y.H.H.H.H.H.Y.H.T.I.iXfXdXiXY.(.H.H.H.H.H.H.Y.Y.=X+X&X X X",
"G.G.H.H.H.H.H.H.Y.Y.@X:XqXvXfXqX^.(.T.H.H.H.H.H.H.Y.T.(.OX(.~.  ..| 3.8.;.;.;.P b ;.;.;.;.=.;.;.} R Q b W E Y E K X   .             .     X K R Y R R v Q R  .| %.;.;.;.;.;.v n &.3.:.;.;.:.]   &X=XY.H.H.H.H.Y.U.E.+XyX`.(.].'.pX0XT.Y.Y.H.H.Y.OX+X+X#XY.Y.Y.",
"Y.Y.H.H.H.Y.T.R. X#XwX1XR.R.I.xXsXaX(.T.T.H.H.T.E.E.0X0X-XQ.U.  <.*.3.2.;.;.;.*.%.;.;.;.;.;.;.;.;.*.*.| } ] E ~ ~ K K K K K K K K K K K K R ~ E E ` ] } =.=.;.;.;.;.;.;.;.;.%.=.;.;.:.;.;.;.*.  B.U.OXU.T.Y.R.(.6XxXpXY.Y.Y.T.T.kXxX4XI.T./.(. XOX XY.Y.H.H.H.",
"(.(.T.Y.Y.E.eXwX7XwX=XE.T.Y.T.E.zXvXfXeX(.T.T.-XzXfXcXkXR.7   K :.;.<.1.;.;.;.;.*.;.;.;.;.;.;.;.;.;.*.;.=.=.=. .] ~ ~ R U U R R R R R R ~ E ] | %.=.=.;.;.;.;.;.;.;.;.;.;.;.;.;.;.;.:.;.;.;.>.^ O o OX#X-X XwX8XiXnXY.T.J.H.Y.Y.R.Y.nXfXeXE.E.T.H.Y.H.H.H.H.H.",
"OXOX-XM.N.-X2X1XU.T.R.Y.H.H.H.Y.Y.E.=XiXBXB.B.3XxX XE.T.Y.:   R =.;.<.1.;.;.;.;.;.;.;.;.;.;.;.;.;.;.;.;.;.;.*.=.} ] _ E E E E W ~ ! ! ~ ~ W } %.%.;.;.;.;.;.;.;.;.;.;.;.;.;.;.;.;.;.;.;.;.;.*.K O o T.E.(.-X0X7X|.U.T.H.H.H.H.H.Y.T.E.7X8X3X6XY.H.H.H.H.H.H.H.",
"Y.Y. X8X1X+XU.T.Y.Y.Y.H.H.H.H.H.H.H.U.E.vXsXsX_.(.T.Y.Y.H.:   | ;.;.;.;.;.;.;.| } ;.;.;.:.;.w.q.q.3.4.;.;.;.;.;.;.=.=.} } } } } } } } } -.%.;.;.;.;.;.;.;.;.;.;.;.;.;.;.;.;.,.;.;.;.;.;.;.;.;.] .   H.T.T.(.T.R.T.Y.H.H.H.H.H.G.H.H.Y.T.T. XOX XT.T.Y.Y.Y.H.H.",
"H.H.Y.Y.Y.Y.T.T.H.H.H.H.H.H.H.H.Y.Y.Y.Y.Y.Y.T.]. X(.Y.Y.H.:   %.;.;.;.;.;.;.;.P J ;.;.;.1.1.9.q.q.8.3.;.;.;.;.;.;.*.=.%.%.%.%.%.%.| | | =.*.;.;.;.;.;.;.;.;.;.;.;.;.;.;.;.;.) { ;.;.;.;.;.;.*.} X   H.H.H.T.T.E.H.H.H.H.H.H.G.G.G.G.H.H.Y.T.Y. XnXyXrX4X(.T.Y.",
"H.H.H.Y.Y.Y.E.T.Y.Y.H.H.Y.).).T.Y.Y.Y.Y.Y.T.Y. X(. XY.T.Y.:    .*.;.;.;.;.;.;.L K ;.;.;.3.q.q.q.9.q.8.;.;.;.;.;.;.;.;.;.;.;.;.;.;.;.;.;.;.;.;.;.;.;.;.;.;.;.;.;.;.;.;.;.;.;.[ ..;.;.;.;.;.;.} ] . o P.H.H.Y.T.(.(.T.Y.H.H.H.H.H.G.H.H.Y.Y.U.Z.zXGXAXvXbXvXM.Y.",
"Y.Y.H.H.H.H.H.H.Y.Y.T.R.).OX@X(.Y.H.H.H.H.H.H.H.Y.T.R.R.E.:   _ *.;.;.;.;.;.*.J v ;.;.;.0.q.q.q.9.q.:.;.;.;.;.;.;.;.;.;.;.;.;.;.;.;.;.;.;.;.;.;.;.;.;.;.;.;.;.;.;.;.;.;.;.;.m J ;.;.;.;.;.;.} ^ .   >XD.Y.H.H.H.T.T.(.(. X XY.T.H.H.Y.U.P.eX0X6X].U.R.E.wX0X6X",
"(.(. XH.H.H.H.H.H.Y.T.T.Y.H.H.H.T.T.T.H.H.H.H.H.H.Y.E.T.7X> o R | ;.;.;.;.;.~ m c ;.;.;.0.q.q.w.1.<.;.;.;.;.;.;.;.;.;.;.;.;.;.;.;.;.;.;.;.;.;.;.;.;.;.;.;.;.;.;.;.;.;.;.;.;.b b ] ;.;.;.;.%.] R   o -X3X3XE.H.Y.H.H.H.Y.E.).(.(.T.Y.(.0X2X+X-XT.Y.Y.Y.Y.T.9X6X",
"Y.Y. X X X(.T.Y.T.T.T.Y.H.H.H.Y.H.H.Y.Y.T.H.H.H.H.Y.iXuXiX>   U %.-.;.;.;.=.Q J b ;.;.;.q.q.q.q.*.;.;.;.;.;.;.;.;.;.;.;.;.;.;.;.;.;.;.;.;.;.;.;.;.;.;.;.;.;.;.;.;.;.;.;.;.;.J b [ ;.;.;.=.} ] R . o T.wX7XqXN.Y.H.H.H.H.H.H.Y.Y.(.`.6X`._.Y.Y.Y.H.H.H.H.T.Y.Y.",
"G.H.H.T.T. XT.T.M.Q.F.T.H.H.H.E.T.T.H.Y.Y.H.H.T.).7XqX2XP.:   b  .} ;.*.;.} b R } ;.;.;.q.q.9.9.;.;.;.;.;.;.;.;.;.;.;.;.;.;.;.;.;.;.;.;.;.;.;.;.;.;.;.;.;.;.;.;.;.;.;.;.;.;.} f K | ;.%.%.] ] v . o H.Y.H.oXfX0XR.Y.H.H.H.H.E.E.-X1XI.R.Y.Y.H.G.G.H.H.H.H.H.Y.",
"H.H.H.Y.Y.E.wXsXNXgXSXfXE.T.T.H.H.H.H.H.H.H.H.0XAXqXR.Y.H.D.Y.  / E } } } ~ v ) ;.;.;.;.;.;.;.;.;.;.;.;.;.;.;.;.;.;.;.;.;.;.;.;.;.;.;.;.;.;.;.;.;.;.;.;.;.;.;.;.;.;.;.;.;.;.*.f v ~ }  .} _ K   F.H.H.H.H.Y.cXsXsX2X(.Y.T.).OXOXT.T.H.H.H.Y.Y.H.H.H.H.H.H.H.H.",
"H.H.H.Y.R.zXvXqXR.Y.eXaXbXY.E.H.H.H.H.H.H.Y.T.rXSX XY.T.H.Y.H.  ..W } | } ~ c R ;.;.;.;.;.;.;.;.;.;.;.;.;.;.;.;.;.;.;.;.;.;.;.;.;.;.;.;.;.;.;.;.;.;.;.;.;.;.;.;.;.;.;.;.;.;.;.f J ~ } } ] ~ I   C.D.H.H.H.Y.E.(.sXSXR.Y.T.~.E.E.Y.Y.H.H.H.T.Y.Y.H.H.H.H.G.G.G.",
"Y.Y.Y.:X-XqXQ.Y.Y.Y.Y.T.xXeXeXE.T.T.Y.Y.H.J. XaXnXT.H.H.H.9X;X  P I ` ` E c ) %.;.;.;.;.;.;.;.;.;.;.;.;.;.;.;.;.;.;.;.;.;.;.;.;.;.;.;.;.;.;.;.;.;.;.;.;.;.;.;.;.;.;.;.;.;.;.;.' _ c ~ ~ ~ M h   ,X6X(.H.H.H.H.Y.(.xXaXE.Y.Y.H.H.H.H.H.Y.Y.(.'.:X*XE.Y.Y.H.G.G.",
"OXOX2X0X2XY.Y.Y.H.D.H.Y.P.8XeXrX-X+X(.H.E.*XiX0X0XH.H.H.=XeX5XH.  2 ] ` m U ] | %.;.;.;.;.;.;.;.;.;.;.;.;.;.;.;.;.;.;.;.;.;.;.;.;.;.;.;.;.;.;.;.;.;.;.;.;.;.;.;.;.;.;.;.;.;.%.} } K c Q R X.  H.S.x.qX].Y.H.G.H.T.B.qXeXL.H.Y.Y.H.H.Y.). X].OXD.+X=X].OXH.H.H.",
"-X=X7XQ.R.T.Y.Y.H.G.H.Y.Y.E.T.(.-X#X(.Y.(.oXeX1X[.H.H.G.*XfXqXH.B.  Q m c ! } | | ;.;.;.;.;.;.;.;.;.;.;.;.;.;.;.;.;.;.;.;.;.;.;.;.;.;.;.;.;.;.;.;.;.;.;.;.;.;.;.;.;.;.;.;.;.| } | E f K L   }.K.Y.S.0X*XT.H.H.H.Y.T.7X0XL.H.Y.Y.H.D.(.). XY.Y.Y.Y.T.*X+XY.H.Y.",
"T.R.Y.T.Y.Y.H.H.H.H.H.H.H.H.Y.Y.Y.T.H.H.zXaX-XT.T.H.H.F.eX{.T.G./.z.    J ] } | | ;.;.;.;.;.;.;.;.;.;.;.;.;.;.;.;.;.;.;.;.;.;.;.;.;.;.;.;.;.;.;.;.;.;.;.;.;.;.;.;.;.;.;.| | | } } ` K     c.sX-XH.H.T.<X0XH.H.H.H.D.|.iXN.H.H.Y.(.(.).H.H.H.H.H.H.H.T.T.+XU.Y.",
"Y.Y.H.H.H.H.H.H.H.H.H.Y.Y.Y.Y.H.H.H.H.G.7XdXfXY.H.G.T.0XhXx.H./.J.c.o   ! _ ' | | | %.;.;.;.;.;.;.;.;.;.;.;.;.;.;.;.;.;.;.;.;.;.;.;.;.;.;.;.;.;.;.;.;.;.;.;.;.;.;.;.;.%.| | } ] ] ~ Y O o c.L.4X6X:XH.3X{.).H.H.H._.eX[.N.H.H.Y.Y.Y.H.H.H.H.H.H.H.H.H.H.P.@X@X",
"H.H.H.H.H.H.H.H.H.H.H.Y.Y.Y.T.H.H.H.H.H.+X4XsX=X).H.(.{.eXN.D./.J.c.O   I W ] | | | | ;.;.;.;.;.;.;.;.;.;.;.;.;.;.;.;.;.;.;.;.;.;.;.;.;.;.;.;.;.;.;.;.;.;.;.;.;.;.;.;.| | | } _ _ U I O o z.x.0X1X2XH.oX*X_.H.H.D.[.NXOXD.H.H.H.Y.H.H.H.H.H.H.H.H.H.H.H.T.).|.",
"G.G.G.H.H.H.H.H.T.T.T.E.6XiXeXT.T.Y.H.H.T.%XfX=XZ.G.H.J.qXyX2XG.b.c.$ O I _ ~ _ } | | } =.;.;.;.;.;.;.;.;.;.;.;.;.;.;.;.;.;.;.;.;.;.;.;.;.;.;.;.;.;.;.;.;.;.;.;.;.%.| } | | } _ [ U Y O $ c.m.G.gXbXY.@XOXY.H.H.1XbXqXT.H.H.H.H.H.H.T.Y.H.E.Y.E.T.T.Y.Y.Y.H.H.",
"Y.Y.H.H.H.H.T.Y.(.#XeX1XxXeXxXwX=XE.Y.H.H.(.+XeX0XH.H.G.+XCXsX+XJ.b.s.a.  v U _ [ | | | | | =.;.;.;.;.;.;.;.;.;.;.;.;.;.;.;.;.;.;.;.;.;.;.;.;.;.;.;.;.;.;.;.;.%.%. . .} } } ~ R U U . s.a.b.z.+XaXNX+XH.H.H.Y.T.iXqX=XH.G.H.H.H.H.H.Y.Y.Y.E.I.xXGXeXQ.R.Y.H.H.",
" X).T.Y.Y.Y.Y.Y.-X-XOXU.Y.Y.Y.U.1X:X).H.H.Y.P.qXvX XG.H.H.1X4XCXfXJ.c.b.d.+ 4 R W W ) | | | | | | =.;.;.;.;.;.;.;.;.;.;.;.;.;.;.;.;.;.;.;.;.;.;.;.;.;.;.=.| | | | } } } E W ! K o.. d.m.v.m.eXbX<X7XH.H.H.H.#X#XhXeXY.H.H.H.H.H.H.H.H.R.T.7X1XeXnX0X6X1XT.Y.Y.",
"+XOXV.Y.Y.Y.#X#X-X#XT.T.Y.Y.Y.T.'.=XOXH.H.H.Y.wXsX[.H.H.H.:X-XvXCXQ.m.b.a.  3 I ~ W W } } } | | | =.*.;.;.;.;.;.;.;.;.;.;.;.;.;.;.;.;.;.;.;.;.;.;.;.;.;.=.} } } } } } ] E ! ^ M o.  a.c.m.K.CXfX;X-XH.H.H.Y.-X6XpXeXY.Y.H.Y.H.H.H.H.T.(.(.0X5X(.T.R.0X8XC.Y.Y.",
"|.|.eXvXaX7X$X XH.Y.Y.H.H.H.H.Y.Y.Y.T.).T.H.H.=XxXqX(.).H.H.H.*XsXgX].].m.s.i.u.J E W W  .} } | | | | | | } =.;.;.;.;.;.;.;.;.;.;.;.;.;.;.;.;.=.=.| |  .}  .} } } ] ` R E R n u.u.a.b.T.B.fXyX2XH.H.G.H.H.|.nXfX;X=XY.oX8X6XT.T.T.P.~.eXqX/.(.T.Y.Y.R.W.0X1X-X",
"Y.Y.R.sXrX0XF.Y.H.H.H.H.H.H.H.H.H.H.H.D.T.T.Y.J._.<XpXvXH.H.G.H.N.,XpXfX).n.b.v.s.i.y.E R E ~ W } | | | | | | | | | | | | | | | } | | | } } } | | | | | } } ] W ~ U R Y r.i.s.l.b.n./.jXpXyXN.K.H.H.H.T.R.hXBXrXH.H.H.Y.C.4XrXiXY.I.1X%XI.Y.Y.H.G.H.Y.Y.Y.-X-X",
"H.H.Y.T.T.(.OXOXH.H.H.H.H.H.H.H.H.H.H.H.T.Y.Y.Y.].-XfXyXI.H.H.H.S.@XuXhXuXk.x.c.l.p.t.7.6.Q _ ^ } | | | } } } } } } } } } } } } } } | } } | } } | } | | |  .] ~ ~ Y X.6.t.u.a.v.b.n.{.hXjX6XF.H.H.H.Y.Q.~.hXsX6XH.H.H.Y.Y.E.qXqXeXsX(.Y.Y.H.H.H.G.H.Y.Y.Y.R.R.",
"H.H.H.Y.Y.Y.H.Y.(.(.T.H.H.H.H.H.H.H.H.H.H.H.H.H.Y.Y.E.3XiXfX0XY.H.H.(.E.pXfXfXB.m.b.z.i.p./ Y ! ^ ~ ~ W W ~  .} } } } } } } } } } } | | | | } } ] W W W E W ! ! E T i.i.l.l.b.n.D.NXgXqX2XY.H.H.T.C.7XgXgX*XD.Y.H.H.H.H.H.Y.E.R.C.^.+XU.Y.H.H.H.H.G.G.G.H.H.Y.",
"G.G.G.H.H.Y.Y.Y.Y.Y.E.E.T.H.H.T.T.T.T.Y.H.H.H.H.H.H.Y.Y.rXCXNXT.J.H.G.H.D.N.gXSXgXH.+Xc.b.a.i.p.5.~ ~ ~ ~ ~ W W W W W W W E E W W W E E E W W E E W W ~ ~ ! t.i.i.a.c.b.J.T.pXyXNXNXiXT.T.H.H.H.@X,XfX{.`.Y.H.H.H.H.G.H.Y.T.T.T.T.E. X X XY.H.H.H.H.G.G.H.H.H.",
"G.G.G.G.H.H.T.Y.(.(.(.E.Y.E.T.(.fXbX7X(.T.Y.Y.H.H.H.H.H.T.FXgXsXbX+XH.G.D.H._.GXSXgXgX2Xb.n.c.c.l.a.a.i.g.U ~ W W W ~ E E E W W W W W E E E E W W X.i.i.i.i.c.c.m.m.m.2XgXhXNXZXHX;X(.T.T.H.T.(.iXqXbXR.Y.H.H.H.H.H.Y.T.Y.H.H.H.H.H.Y.(.).).(.H.H.H.G.G.G.G.G.",
"G.G.H.G.G.H.H.H.H.T.T.R.T./.A.eXfXfXyX0X!.E.T.Y.H.H.H.H.H./.).vXhXGX;X1X/./.H.T.).sXuXAXHXFX{.Z.n.m.b.l.k.j.h.h.j.j.h.h.h.h.h.h.h.h.h.h.h.h.h.j.j.y.l.l.b.b.m.L.[.vXZXHXBXiX;X1XT.J.H.H.H.D.4XvXqXeXT.T.T.H.H.H.H.H.Y.Y.Y.H.H.H.H.H.H.H.H.T.T.E.T.T.H.H.H.H.H.",
"H.H.H.H.H.H.H.H.H.H.H.T.T.8XzXOXT.T.T.=X8XoX[.T.T.E.H.H.H.H.Y.E.Q.sXjXpX*XOXD.H.H.T.Y.pXJXgXtX<XF.n.x.b.z.z.l.l.v.l.v.z.z.z.z.z.l.l.l.l.l.l.l.z.l.z.c.b.x.m.N.3X3XgXCXsXM.E.H.H.H.H.H.H.H.#XfXiXR.E.H.E.E.T.Y.Y.Y.H.H.H.H.H.H.H.H.H.H.H.H.H.H.H.Y.T.H.H.H.Y.Y.",
"Y.Y.H.H.H.H.H.H.Y.Y.T.-X7X7X6XY.Y.Y.Y.Y.Y.3X6X0X6XR.Y.Y.H.H.H.H.H.H.-X1X0X8X).T.H.G.G.S._.+XHXSXgXqXpXT.D.G.H.H.S.G.G.m.n.b.b.b.b.b.m.m.n.G.m.n.n.G.S.@XfXiXsXFXvX+X+XH.H.G.H.H.H.E.E.sXqXpX4X(.H.H.H.Y.H. X6X-XY.T.Y.H.H.H.H.H.G.G.G.G.G.H.H.H.H.Y.Y.Y.T.T.R.",
"Y.H.H.H.H.H.H.H.Y.T.U.2X2XE.E.Y.Y.H.H.Y.Y.Y.Y.aXeX-XT.Y.H.H.H.H.H.H.Y.T.Y.Y.Y.H.G.H.H.G.H.T.8X0XZXZXgXgXbXZXCXCXiX=X+XH.n.b.b.b.b.n.n.G.+X@X0XCXgXbXgXZXBXNXZX0X=XH.H.H.H.H.H.H.H.[.sXCXDXeXF.Y.H.H.H.H.H. X0X7XeX8XY.H.H.H.H.H.H.G.G.H.G.H.H.H.H.Y.Z.C.T.Y.Y.",
"=X=XQ.I.Y.Y.T.T.*X-X2XE.E.Y.Y.H.H.G.H.H.H.Y.Y.Y.).@X@XOX(.T.Y.H.H.G.Y.Y.(.(.%X'.B.Y.H.G.G.H.H.H.Y.#XoXfXCXCXDXZXsX-X*X(.Y.Y.Y.H.H.H.Y.Y.+X).eXCXbXgXhX7X'.).H.H.H.H.D.H.T.J.*X&XsXHXzX_./.Y.H.H.H.H.Y.E.E.Y.T.T.6XwXwX~.Q.Y.H.H.H.H.H.H.H.Y.Y.U.7XqXpXsX^.T.T.",
"Y.Y.1X0X7XR.9XwX7X:XT.H.H.H.H.H.G.H.H.Y.Y.H.H.H.Y.H.H.H.E.E.E.Y.Y.H.H.H.H.V.7XbXpXvXeX XT.Y.H.H.H.H.H.H.H.H.Y.Y.T.T.Y.Y.Y.H.H.H.H.H.H.H.Y.Y.T.H.H.Y.Y.H.H.H.H.T.Y.+X+XqXiXqXpXaXC.M.D.D.H.H.H.H.E.(.T.H.H.H.H.Y.Y.Y.U.6XwX1XT.T.T.Y.Y.T.R.8XwXqX{.R.T.R.7X-X>X",
"Y.Y.R.8X2X0X0X0X).(.Y.Y.H.H.H.G.H.H.H.Y.Y.H.H.H.H.H.H.H.H.Y.Y.T.Y.H.H.H.H.H.T.E.(.sXhXgXA.N.S.D.D.H.H.H.H.H.H.H.T.T.T.P.Y.Y.H.Y.H.P.H.H.H.H.H.H.H.Y.Y.H.D.D.D.T.T.oX%X2XoXOXT.Y.H.Y.Y.H.H.H.T.T.(.E.H.H.H.G.H.H.Y.Y.T.Y.(.1X1X-XR.Y.T.oXoX6XaX(.T.T.T.T.R.-X*X",
"H.H.Y.Y.Y.Y.T.Y.). X XT.Y.H.H.H.H.H.H.H.H.H.H.H.H.H.H.H.T.Y.Y.T.T.Y.H.H.H.H.H.H.Y.Y.T.sXSXvXDXNXgXrXqX-X+XOXT.Y.H.(.(.0X0XiXdXCXFXBXbXgX-X3X).T.Y.T.T.OX1X:X-X X(.Y.Y.R.Y.T.Y.Y.H.H.H.H.H.T.Y.H.H.H.H.H.G.G.G.G.H.G.H.Y.Y.E.-X-X1X0X1XyX0XY.T.Y.H.H.H.H.Y.Y.Y.",
"G.G.H.Y.Y.T.T.T.H.Y.|.(.(. X X=X#XT.H.H.H.H.H.H.H.H.H.H.R.8XwXHXHX).T.Y.H.H.H.H.H.Y.H.T.kX7XZXDXgXrXqX-X%X@XT.T.H.T.T.OX.XhXhXDXDXVXBXhX;X&XOX(.(.). X#X).(.Y.R.Y.Y.Y.R.nXxX7X9XT.H.H.Y.Y.T.H.H.H.H.H.H.H.H.G.G.H.H.H.H.Y.E.R.T.6X0X2XC.Y.T.T.Y.H.H.H.H.H.Y.Y.",
"G.G.H.H.H.H.H.H.H.H.H.Y.Y.).^.OX X).T.H.H.H.H.H.H.Y.W.Y.OXSXsXZXgXaXY.R.H.Y.H.H.H.H.H.H.Y.Y.Y.Y.T.Y.Y.Y.Y.Y.E.E.T.H.H.H.Y.Y.Y.T.E.E.E.E.E.T.R.(.(.E.E.H.H.H.H.H.Y.T.Y.1XqX6X2X1X+XY.Y.H.H.H.H.H.H.H.G.H.H.H.H.H.H.H.T.T.Y.Y.Y.Y.Y.Y.T.T.R.H.H.H.H.H.G.G.H.H.H.",
"G.G.H.H.H.Y.H.H.H.H.H.H.H.H.H.H.H.H.H.Y.H.H.H.T.E.(.iXuX0XZ.T.T.Y.oXiXqXE.E.Y.H.H.H.H.H.H.H.H.H.H.H.H.H.Y.Y.Y.Y.Y.H.H.T.T.T.Y.H.H.H.H.H.Y.Y.H.H.H.H.H.H.H.H.T. X X=X=X(.Y.T.Y.Y.-XwX-XP.T.H.H.H.H.Y.E. X X X(.(.Y.Y.H.H.H.H.H.H.H.H.H.H.H.Y.Y.H.H.H.G.G.H.H.H.",
"G.G.H.H.H.H.H.H.H.H.H.H.H.H.H.H.H.H.H.H.H.H.H.T.#X8XyXuXR.R.T.T.R.R.aXsXsXkXY.H.H.H.G.H.H.H.H.H.H.H.H.H.Y.Y.Y.Y.Y.H.H.T.Y.T.H.H.H.H.H.H.H.H.H.H.H.D.H.H.H.H.(.@X+XT.T.Y.Y.Y.Y.Y.Y.:X&XOXOXY.H.D.Y.Y.E.CXZXCXZ.E.T.Y.H.H.G.H.G.G.G.G.H.H.H.H.Y.H.H.H.H.H.H.H.G.",
"G.G.G.G.H.H.T.T.T.R.T.Y.H.H.H.H.H.H.H.H.H.T.T.8XxXiXR.T.Y.H.H.H.H.H.R.R.wXuX0XQ.T.H.H.H.H.G.G.G.H.T.T.(.6X0XyXzXE.T.T.H.H.H.H.H.H.H.H.H.H.H.Y.T.T.E.E.T.T.T.E.Y.Y.H.H.H.H.G.H.H.Y.Y.(.-X1X#XU.R.(.I.dXuXfXiXsXeXY.Y.H.G.G.G.G.G.G.H.H.H.H.H.H.H.Y.T.Y.H.H.H.H.",
"G.G.G.H.H.Y.T.T.+X<XqX0X(.T.T.Y.H.H.T.R.(.1X*X-X@XY.Y.Y.H.H.H.G.H.H.Y.Y.Y.Y.oX0X2XR.Y.Y.Y.H.T.Y./.@XOXeX6XL.F.`.wXOX(.T.Y.H.H.H.H.H.H.Y.T.T.(.eXaXfXsX6XE.T.Y.H.H.H.H.H.G.G.H.H.H.H.H.Y.Y.OX=XoX=X%X2XY.T.T.1X;X8X-XT.Y.H.H.H.H.T.(.E.T.Y.H.H.H.Y.T.T.T.T.T.T.",
"G.G.H.H.Y.T.-X=XeXiXcXbXaXW.Y.Y.Y.T.(.@X:X1X1XT.T.Y.Y.Y.H.H.H.G.G.G.Y.Y.Y.Y.T.8X7X&X=X(.(.T.Y.T.(.vXaX1X#XT.T._.6X3X6XI.Y.H.H.H.H.H.H.Y.T.T.=XCXfXeXeXpX`.^.Y.H.H.H.H.G.G.G.G.G.H.H.H.Y.T.E.@X+XvXnX).Y.T.T.T.U.sXAX=XT.Y.H.T.T.(.(.(.T.Y.H.H.Y.U.Q.1X6X-XI.T.",
"H.H.H.Y.H.(.6X-XU.Y.Y.~.$X0X0XU.T.E.(.E.U.H.Y.Y.H.H.H.H.H.H.H.H.G.G.H.H.H.H.H.H.J.T./.OX@X).(.U.sX%X[.T.T.T.Y.Y.T.Q.).6XoXT.E.T.H.Y.T.E.:X;XqX!.P.T.R.T.iXiX#X(.E.Y.Y.H.G.G.G.G.H.H.H.T.T.R.sXsXI.^.Y.H.H.H.Y.Y.P.[.iX9X+XT.Y.Y.H.H.H.H.H.T.Y.Y.-X1XwX8X6X3X-X",
"H.H.Y.OX@X+XP.T.Y.Y.Y.Y.Y.eXeX7XE.T.Y.H.H.H.H.H.H.H.H.H.T.T.Y.H.G.G.G.G.G.H.H.H.H.H.Y.T.E.E.5XrX2XT.Y.Y.H.H.H.H.Y.Y.T._.-X2X8XY.Y.Y.Y.eXrXqXR.P.T.T.T.T.T.T.7XbXeXY.Y.H.H.H.H.H.H.H.Y.R.E.wXpXeXT.T.H.G.H.H.H.H.Y.R.E.2XwX=XY.Y.H.H.H.H.H.Y.Q.-X].F.Y.Y.T.U.W.",
"Y.Y.@X=XoXH.H.H.H.H.H.H.H.Y.T.eX7X8XT.Y.Y.H.H.Y.T.T.T.T.H.Y.Y.H.H.H.G.G.G.G.H.H.H.T.R.U.^.rXyXeXW.Y.Y.H.H.H.H.H.H.H.H.T.T.wX7X6X<X7X1X2XM.Y.T.H.H.H.H.H.Y.Y.U.aXiX6XwXT.Y.Y.Y.Y.T.E.(.0XqX0XN.T.H.H.H.G.G.G.G.G.H.H.Y.Y.).1X+X+XE.Y.Y.T.R.3X6X(.(.Y.H.H.H.Y.Y.",
"#X@X+X).T.Y.H.H.H.H.H.H.H.Y.Y.Y.-X-X1X=X].T.Y.Y.T.T.Y.Y.H.H.H.H.H.H.H.H.H.H.H.T.T.6X8X7XsXeXE.(.(.T.Y.H.H.H.H.H.H.H.H.Y.Y.T.(.*XeXeX=X).U.T.Y.H.H.H.H.H.H.Y.T.Y.P.xXaX4X'. XT.Y.(.6X7XxXkX(.Y.Y.H.H.H.G.G.G.G.G.H.H.Y.Y.Y.Y.#X#X-X-X=X-X-X:X:XT.Y.H.H.H.H.H.Y.",
"+X@XY.Y.Y.H.H.H.H.H.G.G.H.H.H.Y.T.T.Q.1X-X).).Y.Y.H.H.H.H.G.H.H.H.H.H.H.H.H.T.=X=X3X1X[.OXT.Y.Y.Y.T.T.Y.H.H.H.G.G.H.G.H.H.T.T.Y.(.(.T.T.Y.H.H.G.G.G.G.H.H.H.H.Y.Y.E.T.eXqX1X<XqXqXaXwXY.T.Y.H.H.Y.Y.Y.H.H.H.H.H.H.H.H.Y.Y.Y.(.E.#X%X%X^.).Y.Y.H.H.H.H.H.H.G.H.",
"H.H.Y.H.H.H.H.H.H.H.H.H.G.G.H.H.H.Y.H.H.T.@X+X).E.Y.Y.H.H.H.Y.H.H.H.H.H.Y.Y.=X8X=XY.Y.Y.Y.H.H.H.H.H.H.Y.Y.H.H.H.G.H.H.H.H.OX=XOXOX XT.Y.H.H.H.G.G.G.G.H.H.H.H.H.H.H.H.T. X XqX0X#X(.Y.H.H.H.H.H.H.H.Y.T.T.Y.H.H.H.H.H.Y.T.+X+X+XT.T.H.H.Y.H.H.H.H.H.H.G.G.G.H.",
"H.H.H.H.H.H.H.H.H.H.H.H.H.H.H.H.H.H.H.Y.H.Y.H.(. X(.(.(.H.H.Y.Y.T.H.T.Y.OX$X@XP.T.Y.T.H.H.H.H.H.H.Y.Y.T.Y.Y.H.H.H.H.H.T.(.OXOXT.H.D.(.).D.D.H.H.G.G.H.H.H.H.H.H.H.H.H.T.E.(.(.(. X(.(.H.H.H.H.H.G.H.H.T.T.T.Y.Y.H.H.T.).#X#XY.Y.Y.Y.Y.H.H.H.H.H.H.H.H.H.H.G.G.",
"G.G.G.H.H.H.H.H.Y./.:X XY.H.D.H.H.H.G.H.H.H.H.H.Y.T.E.E.:XsX0XqXiXY.).(.P.T.H.H.Y.H.G.G.H.H.H.H.Y.OXOX#X6X#XT.Y.H.H.H.T.T.H.H.H.H.H.H.T.(.(.T.Y.H.H.H.H.H.H.H.H.Y.(. X X/.T.Y.Y.Y.(. X XOXH.H.G.H.G.G.H.H.H.T.T.(. X(.T.H.H.H.H.H.H.H.G.G.H.H.H.H.H.H.H.H.H.H.",
"H.H.H.H.H.H./.U.=X-X=X&X#XT.T.H.H.H.H.G.G.H.H.H.Y.Y.+X+X6XM.M.,X3X1XT.Y.H.H.H.G.G.G.G.G.H.H.T.T. X~.(.F.I.P.OX#X(.Y.Y.H.H.H.H.G.G.G.H.H.H.H.Y.R.T.OX].).D.Y.Y.Y.E.(.).D.D.H.H.H.H.H.H.U.U.).(.(.H.H.H.H.H.Y.Y.Y.H.H.H.Y.Y.Y.Y.Y.H.H.H.H.G.H.H.H.T.T.).).(.H.H.",
"H.H.H.H.H.Y.OXOX=X#XY.+X#X+X+XY.H.H.H.H.H.H.H.D.~. X=X#XY.Y.Y.T.'.8XC.Q.Y.H.H.G.G.G.G.G.H.Y.T.T.T.Y.H.H.Y.Y.(.).OXP.P.H.H.H.H.G.G.G.H.H.H.H.Y.^.].1X1X-XQ.T.Y.T.T.H.H.H.H.H.H.G.G.H.H.Y.Y.Y.(.).).).(.T.T.T.Y.Y.H.H.H.Y.Y.D.M.I.D.Y.H.H.H.H.H.(. X(.D.D.(.(.T.",
"T.R.Y.T.P.@XQ.E.H.Y.H.Y.Y.(.(.OXU.Y.H.H.Y.T.T.@X=X).Y.Y.H.H.H.Y.Y.T.3X1X).(.H.H.H.H.H.H.H.Y.H.H.H.H.H.H.H.H.Y.H.T.oXOXY.Y.Y.H.H.H.H.H.H.T.T.~.qX6XY.T.T.@X#X(.T.Y.H.H.H.H.G.G.G.G.G.H.H.H.H.H.H.H.D.T.T.Y.H.H.H.H.H.Y./.'.0X4X7X).I.Y.H.H.T.Y.Y.H.H.H.H.H.H.H.",
"Y.Y.OX+X#XH.H.H.H.H.H.H.H.Y.Y./.+X+X).(.OXOX@X(.T.Y.H.H.H.H.H.H.H.Y.Y.Y.-X%X*XQ.T.Y.Y.Y.Y.H.H.H.H.H.H.G.G.G.H.H.Y.Y.Y.OX@X(.|.Y.Y.Y.T.Y.6X0X0XP.Y.T.T.Y.Y.T.+X=X#XY.Y.H.H.H.G.G.G.G.G.G.H.H.H.H.Y.Y.H.H.H.H.H.H.T.E.#X1X9XT.Y.Y.+X&X+XP.Y.H.H.H.H.H.H.H.H.G.H.",
"Y.Y.T.Y.Y.Y.H.H.H.H.G.G.H.H.H.T.Y.(.@X+XOXP.Y.Y.Y.H.H.H.H.G.G.H.H.H.T.Y.E.~.=X-X+XD.D.+X-XOXD.D.H.H.H.H.G.G.H.H.H.Y.Y.E. X).OXOX).).-X7X1X0X(.Y.Y.H.H.H.Y.T.T.OX+X+X@XD.D.H.H.H.H.G.G.G.G.H.H.H.#X=X#XD.H.H.H.H.@X=X-XT.T.T.Y.Y.T.).oX+X+XH.H.H.H.H.H.H.H.G.H.",
"H.H.H.H.H.H.H.H.H.H.G.G.G.G.G.H.H.H.H.Y.Y.T.T.H.H.H.H.H.G.G.G.G.H.G.H.H.H.H.Y.(.U.OXOX(.P.T.).(.H.H.H.H.G.G.G.G.G.H.H.H.H.Y.Y.(.@XOX-X^.T.T.Y.H.H.H.H.G.H.H.H.Y.Y. XOX X(.(.H.H.H.H.G.H.H.Y.@XOX*X=XOX).(.Y.(.).OX@XY.Y.Y.H.H.H.H.H.Y.|.(.). XH.H.H.H.H.H.G.H.",
"H.H.H.H.H.H.H.H.H.H.G.H.H.H.H.H.H.H.H.H.H.H.H.Y.Y.Y.H.H.H.G.G.G.H.H.H.H.G.H.H.H.Y.D.S.H.D.H.H.H.E.T.T.Y.H.H.H.H.H.H.G.G.H.H.H.H.H.Y.H.H.H.H.H.H.H.H.H.H.G.H.H.H.H.H.H.D.E.(.T.E.Y.H.H.Y.Y.(././.Y.H.H.Y.P.(.(.E.H.Y.H.H.H.H.H.H.H.H.H.H.H.H.F.(.E.E.H.H.H.H.H.",
"G.G.G.H.H.H.G.G.H.G.H.H.G.G.G.G.G.G.G.G.G.H.H.H.Y.Y.H.H.G.G.G.G.G.G.G.G.G.G.G.H.H.H.H.H.H.G.H.H.Y.T.T.H.H.H.H.H.G.G.G.G.G.G.H.H.H.H.H.H.H.H.G.G.G.G.G.H.G.G.G.G.G.H.H.H.Y.Y.E.T.Y.H.H.Y.Y.(.H.H.H.H.H.H.Y.(.T.T.H.H.H.H.G.G.G.G.G.G.H.H.H.H.H.T.E.E.Y.H.H.H.H."
};
