/* XPM */
static const char *normal_duck_34[] = {
/* columns rows colors chars-per-pixel */
"34 34 155 2 ",
"   c #020101",
".  c #0B0602",
"X  c #070801",
"o  c #0C0807",
"O  c gray5",
"+  c #1C0400",
"@  c #0F100B",
"#  c #1F1200",
"$  c #0D0A13",
"%  c #2D1200",
"&  c #001623",
"*  c #492100",
"=  c #633A00",
"-  c #7D4B00",
";  c #545351",
":  c #AC1301",
">  c #B81703",
",  c #CE2800",
"<  c #D93000",
"1  c #E73E03",
"2  c #835311",
"3  c #915B15",
"4  c #8D6317",
"5  c #EC4204",
"6  c #F95404",
"7  c #CF7B03",
"8  c #D07C00",
"9  c #F66000",
"0  c #FB6300",
"q  c #FA6D04",
"w  c #FD7101",
"e  c #F67E0E",
"r  c #D08603",
"t  c #DE8401",
"y  c #DE8C05",
"u  c #DB971C",
"i  c #E18506",
"p  c #E38A02",
"a  c #E79302",
"s  c #EA9301",
"d  c #ED9901",
"f  c #ED9C0F",
"g  c #F39D03",
"h  c #F4A201",
"j  c #FBAC03",
"k  c #F4A009",
"l  c #F9A504",
"z  c #FDB502",
"x  c #FDBA01",
"c  c #EEA61E",
"v  c #F4B213",
"b  c #FFA22E",
"n  c #FFC303",
"m  c #F6CC00",
"M  c #FDCC03",
"N  c #F9C609",
"B  c #FFCF0A",
"V  c #FDD303",
"C  c #FED30A",
"Z  c #FFD914",
"A  c #FAD821",
"S  c #FDD92B",
"D  c #FFE645",
"F  c #FDE44A",
"G  c #FDEA5F",
"H  c #FCED63",
"J  c #005785",
"K  c #0A638F",
"L  c #2172AA",
"P  c #2871A8",
"I  c #007FE6",
"U  c #0077E8",
"Y  c #1D9AD2",
"T  c #14A0D1",
"R  c #1AA7DC",
"E  c #0586EE",
"W  c #008AED",
"Q  c #018CF1",
"!  c #0294F6",
"~  c #0BA4E7",
"^  c #05AAEC",
"/  c #14B1ED",
"(  c #00A6F7",
")  c #03ADF5",
"_  c #01A7FC",
"`  c #02ACFC",
"'  c #08AFFD",
"]  c #04B1F6",
"[  c #0CB2F4",
"{  c #0EB8F6",
"}  c #05B2FD",
"|  c #0AB5FD",
" . c #05B9FF",
".. c #0DB9FD",
"X. c #18B6F5",
"o. c #12B9F4",
"O. c #1BBDF6",
"+. c #14B5FB",
"@. c #13BBFD",
"#. c #1BBEFC",
"$. c #20BCF9",
"%. c #0DC2FF",
"&. c #14C0FD",
"*. c #1BC2FE",
"=. c #27C3F6",
"-. c #2AC0F5",
";. c #24C4FD",
":. c #2AC4FC",
">. c #24C9FF",
",. c #2DCAFF",
"<. c #3DC7F5",
"1. c #32C6FE",
"2. c #39C4FC",
"3. c #30CBFF",
"4. c #37CBFF",
"5. c #33CBFE",
"6. c #3DCBFE",
"7. c #3DD1FF",
"8. c #42CBF6",
"9. c #41CFFF",
"0. c #42CEFC",
"q. c #4CCEFA",
"w. c #51CDF3",
"e. c #5CCEF0",
"r. c #52CFFE",
"t. c #5FCDFF",
"y. c #44D2FF",
"u. c #4ED5FE",
"i. c #4CD2FD",
"p. c #56D1F7",
"a. c #5AD2F5",
"s. c #55D6FE",
"d. c #54D4FE",
"f. c #5BD5FD",
"g. c #54DBFF",
"h. c #5DDBFF",
"j. c #5ADAFF",
"k. c #62CDEF",
"l. c #66D5F3",
"z. c #69D5F1",
"x. c #64DAF6",
"c. c #64D5FC",
"v. c #6BD7FB",
"b. c #69D7FA",
"n. c #61DBFF",
"m. c #66DDFF",
"M. c #6CDBFD",
"N. c #75D7F2",
"B. c #71DAFC",
"V. c #79DFF8",
"C. c #78E3FF",
"Z. c #7CE8FF",
"A. c #82DFFE",
"S. c #91DEF8",
"D. c #88E0F8",
/* pixels */
"} | } ` | ` ] [ ` ` ` } c.] _ ` | ] } o.` ` | D.] ` ` | ^ ` ` ` | | ",
";.} | p.| *.` }  .h.;.} _ ] ;.*.` ] ` ` 0.0.| }  .x.s.| } j.4. .` ` ",
"` ` ` ` ` ` ` | ` ` ` p.6.} ..] ] @.} ` ` ` | ` ` | @.} | } ` } ` } ",
";.| f.` ..n.@.| O.@.} ` ` ) ,.@...` @.g.| u...;...` | | | -.} *.| ` ",
"` ` } B.@.} ` _ } | ;.` } @.>.| ` ` ` } | *.` ` } %.| ` ` } | } | ` ",
"` ` } h.*.` >.` ` | M.R +.` ` } K # @.} ` | g.M...` _ | ` | a.] ,.;.",
"1.| y.` | g...` ..$.+.| | | ..M Z s N | ,.o.} ` ..s.&.| y.} _ ` ` ` ",
"` | } _ _ ` ..:.} ` | } ` @ x V V V 7 x $ } ` ` 6...} _ _ | ;.` _ ` ",
"_ ..M.` ` ` } ` ..v.| ` v A C V V V V V V k } ` ` } ` | @.` ` %.8.b.",
"u.| ` u.{ ....{ ] ` | 2 V H V V V V V V V V r | q.| d.` ` ;.4.| ` } ",
"| } ` ` ` ` ` } ] ..} B D V V V V V V V V V x } ` _ _ ..X.} ,.} ` _ ",
"` ` } C.*.` ] } ` } ) + X X X V V V C X X X X Y } #...} | ..@.` | | ",
"` @.g._ ..s.| ` | 0.    O             ;         0.| } 6.| :.` 4...| ",
",.` _ ` ` ` ..<.| `             V V           % ` ..@.` _ } *.` ` ` ",
"` ` ..` ` s.M._ ` ` T n       3 e 9 4       j J ` ` O...` } } M.| ` ",
",.6.| 0.| ` ` 0.4.] ` M V t 5 b q w w 1 c M j ` ;.:.| } l.=.] ` } i.",
"_ ` ` :...` ` ` } X X   n o 0   > :   6 . x   & X ` ` _ ..} | _ _ ` ",
"` ( ` ..` _ ` } ] F a V j 8 = < 0 0 , + 7 g M u V [ | _ ] / ` ` ` [ ",
"` } y.| f...{ ;.* S V V V M j p t p t g M V V V V - :...7.] q...} ` ",
"} | ` ` ] } #.` x V m V H D V V V V V V V V V C V j ` | ` _ ` | c.@.",
"@.@.| ` } | ` m.i V y V G V V V V V V V V V V f M p | | ` } 0.} _ } ",
"| f.| V.} ` c._ X l z V V V V V V V V V V V V j g   ..` a.` ` @..._ ",
"| } ` ` | m.| z.`   x V V V V V V V V V V V V z . 2.' `  .` | ` ` ;.",
"} ` O. .O.` f.@.:.I g x V V V V V V V V V n x a U 5.:.| | ` ` ..r.} ",
"| d.` ` _ | ` | ` B.Q s h x z x z x z x x d p W k.` ` k.` c.i.} ` [ ",
"_ _ @.| Z.| ` [ v._ ~ u.E L s d d d d d P ! 2.S.} @.A.` ` _ ` O.` _ ",
"` ` } @.} } r.` ` | } ` d.M.c.;.! ! +.t.B.1._ ` B.| _ q.} _ _ ` ] | ",
"| f.#.` _ } ` ` | ` } N.| ` ` | ) ` ` ` 1...u.` ` | ` ` } i.| w.| | ",
"_ } ` ` ` ` | e.| f.} ` _ _ | ` | _ ] ` ` *.@.4.] ` @.@.` ` ` } ` _ ",
"` } 8.@.` 0.3.` ` } :.#.| s.| y.` ` | M...` _ ` | :.6.3. .} @.` | y.",
"*.} ` | i.} } _ ` ` _ / <.` ` ` | q.| ` | O.| | s.| _ _ } ,.} 6.} _ ",
"` ` ` ` ` ` &.| } ..;.` _ ` ` ` ;.` } _ ` ` | #.` _ _ } @.| } ` ` _ ",
"] ;.` ..} } ;.` } 0.` ` ` ` ` :.} ` | 6.:.} ` _ ` ` | ` } M.] | ` ` ",
"` ` ` ` ` ` | ` _ ` } { *.` _ ` } ] | ` ` ` ;.` ` :.) *.| ` } *._ _ "
};
