/* XPM */
static const char *normal_floor_71[] = {
/* columns rows colors chars-per-pixel */
"71 71 159 2 ",
"   c #1BAFEB",
".  c #1DBBEE",
"X  c #07AFF8",
"o  c #0EB4F6",
"O  c #07B3FD",
"+  c #0EB3FD",
"@  c #0EBAFD",
"#  c #13B5F5",
"$  c #1AB4F0",
"%  c #14BAF5",
"&  c #1CBBF5",
"*  c #12B5FD",
"=  c #19B7FE",
"-  c #15BAFD",
";  c #1ABDFD",
":  c #28B5ED",
">  c #25BBED",
",  c #2CBEEF",
"<  c #32BCEB",
"1  c #24BDF4",
"2  c #2BBFF4",
"3  c #21BEFB",
"4  c #2BBDF8",
"5  c #33BFF0",
"6  c #1CC1F7",
"7  c #14C1FD",
"8  c #1DC1FE",
"9  c #2EC0EF",
"0  c #35C2ED",
"q  c #39C5EF",
"w  c #25C2F4",
"e  c #2BC2F5",
"r  c #28C9F7",
"t  c #23C3FD",
"y  c #2AC5FD",
"u  c #26C9FD",
"i  c #2CC9FE",
"p  c #33C4F4",
"a  c #3AC3F1",
"s  c #37CAF6",
"d  c #3BCAF4",
"f  c #32C6FB",
"g  c #38C6F8",
"h  c #33CBFE",
"j  c #3FCEFB",
"k  c #3BC8FD",
"l  c #3ACAFE",
"z  c #39CCFF",
"x  c #39CFFF",
"c  c #3BCEFF",
"v  c #3FCDFD",
"b  c #3ECFFC",
"n  c #3CCCFF",
"m  c #3ECEFF",
"M  c #3BCCFD",
"N  c #32D0FD",
"B  c #34D1FF",
"V  c #38D0FF",
"C  c #3FD2FD",
"Z  c #3CD2FE",
"A  c #49C7F0",
"S  c #42C9F4",
"D  c #4CCEF6",
"F  c #40CEFC",
"G  c #46CDFC",
"H  c #45CDFF",
"J  c #42CDFD",
"K  c #4ACEFE",
"L  c #4BCEFB",
"P  c #53CFF1",
"I  c #5ACCF1",
"U  c #54CFF9",
"Y  c #46D0F5",
"T  c #42D1FB",
"R  c #40D1FD",
"E  c #40D2FF",
"W  c #47D0FE",
"Q  c #43D1FE",
"!  c #4DD2FB",
"~  c #4DD2FD",
"^  c #4CD1FE",
"/  c #4FD2FE",
"(  c #4BD6FF",
")  c #4ED7FF",
"_  c #4BD3FD",
"`  c #47D8FF",
"'  c #4AD9FF",
"]  c #50D0F5",
"[  c #5CD3F6",
"{  c #55D0FC",
"}  c #55D5FC",
"|  c #52D4FD",
" . c #59D3F8",
".. c #5DD2FD",
"X. c #5BD5FC",
"o. c #51D9FF",
"O. c #53DAFF",
"+. c #58D9FF",
"@. c #59DBFF",
"#. c #5CD8FE",
"$. c #5FD9FF",
"%. c #5CDDFF",
"&. c #5BDBFE",
"*. c #6AD5F7",
"=. c #69D8F6",
"-. c #65D2F9",
";. c #62D4F8",
":. c #63D6FC",
">. c #6FD7FA",
",. c #65DBFF",
"<. c #67DEFF",
"1. c #63DBFE",
"2. c #6CDCFD",
"3. c #70D7F6",
"4. c #77DAF9",
"5. c #74DDFC",
"6. c #7BDAFA",
"7. c #7CDEFC",
"8. c #64E3FF",
"9. c #6BE1FF",
"0. c #74E4FF",
"q. c #74E3FF",
"w. c #7FE1FA",
"e. c #7CE7FF",
"r. c #7DE3FF",
"t. c #77E9FF",
"y. c #7AECFF",
"u. c #80DEF7",
"i. c #8ADEF7",
"p. c #84DEFD",
"a. c #8CE3F7",
"s. c #8AE5F7",
"d. c #80E2FB",
"f. c #80E2FD",
"g. c #83E3FD",
"h. c #88E2FA",
"j. c #8AE5FF",
"k. c #8CE3FD",
"l. c #82EBFF",
"z. c #8DEDFF",
"x. c #8BEAFF",
"c. c #93E4FD",
"v. c #9CE2FB",
"b. c #98E5F9",
"n. c #99E6F8",
"m. c #92EAFE",
"M. c #9FEBFB",
"N. c #9AEEFF",
"B. c #82F0FF",
"V. c #8FF6FF",
"C. c #8BF4FF",
"Z. c #94F3FF",
"A. c #9AF5FF",
"S. c #99F2FF",
"D. c #91F9FF",
"F. c #A1E3F9",
"G. c #A5E8F9",
"H. c #A3E9FD",
"J. c #A0F1FF",
/* pixels */
"- - - * + + - - - - * * * - ; t i ; - - ; ; ; - + * * - - + - ; ; ; ; - - - * * * * * - ; t ; - - - ; ; v - - * * * * * * * - ; 8 ; - - - - - ",
"- - ; t - - - - - - ; t y * * - ; t h 4.f - - - ; * * + + + * ; * * * * - - - - * * ; f t * t -.n.v.$.h t +.z ; * * * * * & y i y - $.t ; ; - ",
"; ; ; - y v ; ; ; z i t - t i i t t - * * * - 8 t t - * - - - ; - - - ; 8 N ;.8 - - t + + + * ; 7 i i 8 - * t x t ; ; t h * + ; - - - i i t 8 ",
"~ M.w ; ; & %.T x y ; * - e i ; - * + * - t i ; * * ; t & ; - - ; ; < y k ,.; x t ; ; * * + - * - - - - * * - ; Z A.H f - * + * * + * - ; y i ",
"i ; C 0.; - * + + + * * - - - - - 8 * * + + * * * * - - ; t t ; ; j.o.t - ; + - - i z ; * + + * + * + * + - ; +.M t t t ; ; ; + + + * * * ; t ",
"; ; 8 w ~ ; - - * * * - ; & V.z.0 t 8 ; - * * * - - ; t ; ; 3 z e.z 8 - - * + * * * ; t t 6 - * * - - * * & ; 6 8 ; 8 t t t 8 ; - * * ; 1 ,.) ",
"* + 8 8 ; i v ~ K t } h.~ h t 8 u 3.H y t t t z >...t - & y 8 - ; t 8 - * - - ; + + + + - t M h t - - - ; ; t ; * * - 8 ; W 6.i ; ; R { t - ; ",
"- ; ; = * - 8 t R G.! i 8 8 - * ; ; t  .$.d.w.z 8 - - * + * - * * - t 8 ; 8 ; + + + + * - - t i J F.y - 8 8 8 8 8 8 8 8 z v i a._ ; f.; ; ; * ",
"- * + + + + + * ; ; & 8 ; * + + + + * - ; 6 s h l.t - * + + + * ; - - - * + * + - - t Z.E 8 ; - - ; t  .W ; * * - h e & - * * 8 . | - - - - + ",
"* * + + + * 3 - - + - - * - + + + - - - y v h 8 h 2.h 8 - * + * + + + * * - - - 8 y f.t z ..8 ; e i 8 8 E  .- * + - * * - * * - - t z ; - - - ",
"- * - ; ; ; - 8 ; t ; ; - - * - - t 8 t t - - - 8 ; +.S.M 3 ; * + + + * - - - t O.+.i ; ; 8 V.C i ; 8 ; ; ; t - * * * + + + * * * - ; h h h t ",
"8 ; ; * * * ; - ; t i 5.z - t x 3 - ; - * * + * - 8 8 8 y :.9.; y i - - - ; y ; - - * + + * * * * + + - ; * ; ; ; - * * * + + + - - ; ; ; ; y ",
"+ ; ; ; ; ; 8 R h 8 ; t | h.i 8 - - * + * * - - - - - - 8 8 t z ; - h i i t - * - - * * + + + * * + + * - ; p J.S.- ; - - * - * - - - + * * * ",
"+ - p ,.D.4 J i - * + * * - ; - * * + * ; - ; - * + * * - - - * * * * - - * * * * - - * * * - ; - - - ; 1 Z O.t y 9.x % ; - - - - * * * * * * ",
"~ 5.y 8 8 ; <.h t - * * + + + + + - - - ; - - - - + * - - ; t ; - + + * - 2   * * - - ; t t t y ~ p.7.~ t 8 - + * ; ; i | k.w 6 - 3 y ; - 8 z ",
"8 8 8 - * * * * ; t ; - * * * - - - i r.i 8 * - t z 8 i e t ; * * - - & h.y O.t - = - + * - - - 8 h } 8 ; * * * + + - 8 t 8 8 h <.y - - 8 i 8 ",
"8 - + + * ; + + * - - - - - - ; 8 h g.j <.5.; + - t z & - - ; - - - 1 y.& 8 ; G :.u - - ; * * 8 8 ; t t ; * - t ; ; h y ; - - - - - * - ; ; ; ",
"* * + + + * - - * * - t i t h i y % 8 8 t w s r.; - * * * + * t z j > - - * + - ; & e ; 8 8 8 - + + + * * - - - & ; ; * * * * - * - * * - - - ",
"- - * - + + * - t 9.t - - - ; - - - 8 t * - - - | k * + + + * + + * - + * - t t t 8 - * * - - * + + + * * - * * * * - - ; + + + + + - - - - - ",
"e 1 . ; ; ; - h H.t +.e - - - - - * * + + + * - - - ; ; - - * * * * + # t t t - - - - ; I e ; - - - - * * * * * - * - ; ; t ; * + * ; ; t c.f ",
"- - t 5.=.i.,.t t ; - ; 8 8 - - - * + + + * * + + * - ; i 7.c.t ; ; i i - * * * * ; h x t W  .8 ; - - - - - - 8 $.q ,.4.8 - - ; ; - h k.F t t ",
"* - ; ; e Z y - - + * * * * - - - t t ; * * + + + * - i h.z 8 r.} t 8 - - * - t #.Z | 8 6 8 1.) h 8 8 t 8 t p S.j ; t i ^ 8 - * 8 e m.i 8 8 + ",
"+ + * * * ; 8 t - + + + - - 8 t t z | z 8 - - - - 8 | | t - * 8 s z x t - * - - - ; - ; i t t ; 4 A #._ d ^ v t ; + * ; 8 t ; ; e p 8 t - * + ",
"+ + + + - - - + * * - - 8 y t i q.j.t h #.i 8 8 R 2.6 ; * + + * - - ; ; ; - - - * * - F v 8 * * - - - t y y ; - * + + * - 8 h 8 * - * - 8 t - ",
"- * - ; ; n.e - - - ; 8 8 t r.h.q ; 8 8 ; z 7.6.t - - * * * - * * - - - ; z i - ; ; i t - - + + * - - ; y ; ; * * * + ; ; i y S h ; * * * ; ; ",
"8 t ,.2.f 8 w q.t.u 8 ; - - * * * + * ; 8 f W t - * + + * * - + * + - * - - - :.| t * + * * * ; ; ; - + + * * + - 8 t t ; o + + * t t * * + * ",
"t 5.J ; 8 + ; ; z k.8 - ; - - ; + * * - 8 ; 8 ! y - - ; - * + - ; * + + - @ p.>.8 * * + * - y s t - * * + + - - 8 g.>.8 - - + * - - t h 7 8 ; ",
"~ ; ; ; - * * - ; y W z t t C h ; ; - * + + * - ; y h t ; - - - - * * - h 9.t - ; - - - i i 8 - ; t i ; - - 8 8.5.2 t h :.f ; ; - - - t R 0.h ",
"t 8 - - - ; t t t - - 8 t h 8 - * + + + + + * - - - * * i z y q.5.u > 2.8 8 * + + + - t - * + + * * - 8 _  .+.; 8 * * * - % t z t - - - - - t ",
"+ * - - - - - + * * - t ; - ; t ; - * * - - t 5.C ; * * ; ; 8 t t W ^ i ; t t ; - * + + + + + + * - y h 8 t t 8 - * * + + + * * * 8 - - * * * ",
"* + + O + + * * * * ; - * * * * - 8 ; ; u c.b.h i.^ ; - * * * ; t ; ; - * * ; y ! e - ; - * * - t _ t - * + - t y 1 * + + * + * - * - - - - - ",
"i 8 - - - ; ; - * - - * * * 8 i o.8 1.2.r % ; * - - f $.C 8 t - - * * + + + * i y & - w t i Z z % * + + + + * * * * ; 8 ; * * * * - Z 0.:.1 * ",
"t y z t t - ; - t T i 8 - * ; - z i.s 8 8 = + + * - - - i t 8 * + + + + - 8 t i ; * * 8 u B p.i 8 - + + + * * * * - - 8 h M y 8 ; t g.t ; ; - ",
"+ - 8 ; a l.,.$ - - + * * * - ; 8 t t ; * + + + + * + * ; * + + + + - ; 8 ; - * * - % o.] % ; . d v - * * 3 ; * + + * * * ; t h 0.h * * * + + ",
"t h z i 8 t t ; * * * - # i t - * - ; t t - + * * * - * + + * * * 8 8 ; 8 h - ; z ,.} - ; * * - - - 8 i t t ; - ; - - 8 ; 8 y i t - + + + * ; ",
"y 8 - * * - t y t ; - t ) h * + + + * * - 3 - - * - - * + * - 6 W t - & z t ,.z h t - * + + * + + * + * - ; ; ; y x.f.w ; ; ; - ; * + + - - ; ",
"- - * * * * - 8 t i ~ H.5.8 + * + + + * - - y i x 8 ; ; ; y e H h S ,.h * * - 8 ; 8 t * + + + ; ; * + + + @ 8 d A.p B f.t 8 + * * - - - 8 k h ",
"- * * * * * * ; M y ; 8 8 - i ; - - 3 t ; ; 3 8 ; 8 { u.T y ; ; - * + + + + + * * * - e x x ; - - - - ; - - - ; - + - ; 8 t e i * ; v #.2 * - ",
"- ; ; ; * ; i _ 8 ; - * - ; h ,.f t - * * * - ; ; ; ; 8 ; ; - * * * + + * + * * * * + - ; 8 z y y ~ d.z ; - * * * * + * ; ; 8 8 t t e - - - + ",
"* * * @ ; i ; - - * * * * * - ; ; t t t ; + * * + * ; ; ; ; ; + * * * - - ; - & # - * * * + ; i Z.o.8 h 0.& - * * - ; 8 8 ; * ; ; ; * * + + * ",
"8 ;.W D i - - * * * t ; * * + - - * ; ; ; 8 ; - - - - - ; * + + + * * - - i r.h B s.t * i z i @ - - - ; - O t 8 ; - ; * * + * * * * - 8 t 8 8 ",
":.x 8 t %.t - - 8 ; * * - * * * ; 8 ; ; - - - ; ; t 8 ; - + + + + * 8 8 N O.z 8 8 h p.$.h 8 - - * * + + + - - i i - - ; 8 * * * + ; ` b.J t t ",
"- - + + - & #.t ; - * - - - + + + + + * * - ; Z.[ 6 h x.t - - - - * X o & ; ; * * * y w i i 8 - - - * + + + * + * * + * * ; 8 t | F % ; & J 8.",
"* + + + + - - 6 y y - - - ; - - * + * * - } j.W 8 8 8 y :.z ; - - * - - - + * + ; t t - - t y 8 - - - ; - * * + * 8 - ; - - x k.h ; - * - - y ",
"+ + + + + * * * - 8 h t ; & C.J., ; - t } v ; ; - + * - ; %.9.z t B ; + + + * 8 8 - * + * * t y t ; 8 ; ; - * - e C.5.& - t i 8 - * + * + ; ; ",
"- 8 - - ; ; - * * * - - f 1.8 8 8 L 7.8 ; - + + * * * + + * * * * + O * - - - - 8 ; - * * * + + + - * 8 h y 3 8.f t t t q.h ; - * - i t ; * * ",
"8 i ,.t - 6 ; t ; - ; - - - - * - - ; z y 8 - - - * + + + + + * * * * - - - i 1.h ; - - - * + + + ; 8 h m.:.u 8 8 - - - * - i i t t ; ; * * * ",
"- - ; 8 >.f 6 z 9.*.m.i - + + + + - ; - + o y z t ; - * ; ; 8 ; - i ;.m.o.i 8 8 - 8 t ' h ; - - t _ f - ; 8 t 8.y ; - * + + + + + - + + + + * ",
"- - - - t t i z t y u 4.y - + + + - + + + + * - ; * * * - 8 8 i v h t y 8 ; ; * * ; ; ; i | u 1.q.t ; ; * * ; t R d t ; * * * * - ; t ; - ; * ",
"* - - - 8 h & - * ; t 8 t t - ; * + + * * 8 - * + + * ; t ; - - - t t ; - - * + * + * - ; t t 8 8 - + + + * + * - - t t t t ; ; t y +.L W - ; ",
"; ; h h t - - - - - - - - t z t - - - 8 ; * + + - - t z ; - * + * * - ; * * + + * + - y i 8 * * ; t ; - * + + + + - - - - t 8 h h - - ; J k.2.",
"5.R h 8 - * - 8 8 ; * * * - - t t 8 C k.h ; - - - M | x R t - * * - * * * + + * ; * * * * + + + * * - ; - ; - - - - * * * - 8 t * * - ; t t C ",
"y ; ; * - * * * * * - * * * - ; t C g t G <.4 y z y ; - 8 t 8 p y - * * - - ; i h z ; * + + * - * * + + - - t t e & - * * - * * * - 8 t ; - - ",
"* + * * * - * + + * ; y - ; 8 h t - ; * ; t W i - * + * - x [ t R 2.i - - - - - * * * ; ; - e | h 8 + + * ; e Z.P 9.h.t t - * * * i # * ; ; * ",
"- ; * + + * - - - - ; y W h | 8 - - + + * - 8 h i - * - t t ; ; ; 8 %.h ; - * * * - @ ; ; t h 8 ; t t - - u B.f t t z q.J y 8 t t - * * * * + ",
"- - - - - - ; - - - - ; t } 3 - * + + + + * - ; t h - - - * * * * - - t i t 8 - 7 h 2.X.h t ; - - - 8 t t C 8 ; * * - - ` H i ; - * * + + * + ",
"- % D S.#.% ; - - & ) h ; * - ; ; t - * + * * * * + - t * * * * + * * * * ; 8 | r.- ; - - [ N.=.s t t t 8 - * * + + * - * - t i h ; ; ; ; t i ",
"> e.v 8 3 p.^ e W h - - - * * * + - ; ; - - - - - 8 8 - ; e 5 & ; - - t y k ^ 3 - - + + + - - ; 3 ; + + + - - - * * * * * * * - 8 h 2 ; ; ; ; ",
"t t - + + ; t ~ y - * * * + + + + + * - y j #.v i ; 8 t w.#.h _ } i - ; ; 8 - * + + - + + + ; 8 - * * * - - - - 8 * * * * - - 8 J x W 5.W z i ",
"- + * + - t 8 * t t - * * - + + - + + * - 8 8 8 R M 8 >.s t t 8 ; H ) ; - - * + + * * - ; f f - + - ; i G ; - * - t ; - - - t Y t - ; i b.:.8 ",
"+ + + - 8 - * + - ; t t - - - - - - - + * - 8 8 t _ ,.h ; ; * + - ; t i ; t - * * * * * ; - - - ; 8 k.<.&.:.- - * - 8 i C v y ; - * * 8 8 i z ",
"; t - * + + + + + * ; t ) 9 8.O.8 ; ; h x t h t * - - 8 ; * * * + + + * + + 3 h z ; - - * + - ; l.x ; - ; % | %.i ; - + + + - 8 8 * + + * ; - ",
"- - + + + * * * * - i :.y t t +.>.W t 8 ; y * + + * - - ; - * * - * + + - - - t ; - - 8 f u ; :.y - ; + + ; 1 e.z.S - * + * + - 3 ; + + + + + ",
"h - - - - - - 8 ; y t - - + * * 8 z J ; * * + + + * - - - ; ; ; - ; - * t z e.R - ; - - ; t Z - - * + * * + ; 8 y z x - * * - * - ; ; - # * - ",
"8 ; h 2.R 8 z m.C t - * * * * - 8 8 - 8 8 * + + + + + * * * * ; z ,.:.| 8 - - ; y :.y ; ; ; * + + + + * ; t t ; * * - t | g.h t 8 8 i k.[ R 8 ",
"* ; ; t z h k.F 4.2.8 - * * - 8 - * * + - t * - * * * + + * * - ; } x.h ; - + - - 8 4.t ; * + * * - - t 8 - - - - - t 5.! t :.x t t t - - - t ",
"- - ; e U p ; - ; t C h ; ; - * * * - t a l.%.g - - - - - - ; t t ; 8 t - * + * + * * $ i t ; ; 8 ; - - * + * * ; z J % - - - : J S * - * * * ",
"- t K x 8 * * * * - - - ; y - - - t $.d t ; ; ; [ R ; ; z z h - * * * ; i 8 - * * + + * * - ; i o._ ; - - - * ; i 8 - - * + + * - - h 8 - * + ",
"x J t * - * * * * * * * - - - ; z x * * - * * - - h W ;.v - * * * + + * * 8 y - - * * - ; y [ r.3 v 2.j 8 8 ; ; - + * * * + + + + - ; i x 8 8 ",
"- - * * + 3 - * * * * * * * t x 3 - - * + + + + * - ; t - * + + + * + + * * - M J ; - ; t X.t = ; ; ; h :.x t * * * + * * + + * ; ; ; ; y } v ",
"- - - - * * * ; * * * * * - - - * - - - - + + + + + * * - - - + + - 8 - * * * - - 8 - - - * * + + + + * - - ; 8 ; - * + + * * * * ; ; * * * - "
};
