/* XPM */
static const char *normal_floor_93[] = {
/* columns rows colors chars-per-pixel */
"93 93 181 2 ",
"   c #1DB6ED",
".  c #17B8EF",
"X  c #0BAFFB",
"o  c #13AEF0",
"O  c #0DB3F5",
"+  c #0EBBF7",
"@  c #07B1FC",
"#  c #0DB3FD",
"$  c #0FBAFD",
"%  c #13B6F6",
"&  c #1AB7F2",
"*  c #15BAF6",
"=  c #1CBBF5",
"-  c #12B5FD",
";  c #18B6FB",
":  c #15BAFD",
">  c #1ABDFD",
",  c #22B9E6",
"<  c #22B4EF",
"1  c #27BFEE",
"2  c #2CBEEF",
"3  c #35BBEB",
"4  c #24B4F0",
"5  c #23BDF5",
"6  c #2BBEF5",
"7  c #22BFFC",
"8  c #2ABEF8",
"9  c #14C2F7",
"0  c #1CC1F5",
"q  c #16C1FD",
"w  c #1DC1FE",
"e  c #1FC8FF",
"r  c #26C3EE",
"t  c #2CC5EE",
"y  c #32C1ED",
"u  c #3DC3EB",
"i  c #24C2F6",
"p  c #2CC3F6",
"a  c #2DCAF7",
"s  c #23C3FD",
"d  c #2AC5FD",
"f  c #25C9FE",
"g  c #2EC8FA",
"h  c #29C8FF",
"j  c #28C9FF",
"k  c #2DC8FE",
"l  c #2CC9FE",
"z  c #2FC9FF",
"x  c #2ECBFF",
"c  c #2CC9FE",
"v  c #33C3F4",
"b  c #3EC5F4",
"n  c #3BC4F4",
"m  c #33C9F5",
"M  c #3ACAF6",
"N  c #34C7FB",
"B  c #32C7FC",
"V  c #3AC7FC",
"C  c #30C8FA",
"Z  c #31C8FD",
"A  c #32C8FD",
"S  c #33CBFD",
"D  c #32CAFC",
"F  c #30CBFF",
"G  c #31CBFF",
"H  c #36C9FD",
"J  c #37CAFD",
"K  c #36CBFF",
"L  c #34CCFE",
"P  c #33CBFD",
"I  c #38CCFC",
"U  c #3ACCFD",
"Y  c #39CEFF",
"T  c #3CCCFF",
"R  c #3CCFFF",
"E  c #3BCCFD",
"W  c #37D1FF",
"Q  c #34D1FF",
"!  c #38D0FF",
"~  c #39D3FF",
"^  c #3ED2FF",
"/  c #3DD1FE",
"(  c #44C4EE",
")  c #49C5EB",
"_  c #4AC9EC",
"`  c #52CDEF",
"'  c #56CBEE",
"]  c #44C6F1",
"[  c #4AC4F3",
"{  c #41C9F1",
"}  c #44CAF5",
"|  c #4CCDF6",
" . c #41CEFC",
".. c #43CDFB",
"X. c #4ACEFC",
"o. c #55CCF2",
"O. c #51CEFC",
"+. c #4BD1F4",
"@. c #43D0FB",
"#. c #40D2FB",
"$. c #44D3FD",
"%. c #45D1FF",
"&. c #46D7FF",
"*. c #43D2FE",
"=. c #4BD0FD",
"-. c #49D2FF",
";. c #4AD3FF",
":. c #4CD3FF",
">. c #4BD5FF",
",. c #4ED5FF",
"<. c #4ED7FF",
"1. c #4CD3FD",
"2. c #41D8FF",
"3. c #4ED9FF",
"4. c #55D1F5",
"5. c #53D2F4",
"6. c #5ED4F7",
"7. c #53D4FD",
"8. c #5ED7FF",
"9. c #5DD4FE",
"0. c #5CD5FD",
"q. c #51D8FF",
"w. c #53D8FF",
"e. c #53D9FF",
"r. c #58DBFF",
"t. c #5DD9FF",
"y. c #5DDCFF",
"u. c #5CDAFE",
"i. c #6DD7F6",
"p. c #60D9F6",
"a. c #66D6FB",
"s. c #63D5FC",
"d. c #6AD3FC",
"f. c #63D8FF",
"g. c #65D9FF",
"h. c #64DBFE",
"j. c #6DDAFB",
"k. c #6CDCFD",
"l. c #76D8F3",
"z. c #79DDF5",
"x. c #75DEFF",
"c. c #74DDFC",
"v. c #7BDEFD",
"b. c #5CE2FF",
"n. c #65E3FF",
"m. c #6BE1FF",
"M. c #6DE1FF",
"N. c #6DE3FF",
"B. c #63E8FF",
"V. c #68EAFF",
"C. c #74E2FF",
"Z. c #7BE3FE",
"A. c #75E9FF",
"S. c #7BE9FF",
"D. c #85DFF7",
"F. c #8BDFF7",
"G. c #83DEFC",
"H. c #8EDFFC",
"J. c #83E4FD",
"K. c #8BE3FC",
"L. c #81E9FF",
"P. c #83EBFF",
"I. c #8EEBFF",
"U. c #8EECFF",
"Y. c #8BEAFF",
"T. c #93E1F5",
"R. c #9BE4F7",
"E. c #9AE8F5",
"W. c #92E4FD",
"Q. c #9BE6FB",
"!. c #94E9FF",
"~. c #93EBFE",
"^. c #9DEFFF",
"/. c #9BEAFE",
"(. c #86F1FF",
"). c #8CF0FF",
"_. c #94F3FF",
"`. c #9FF0FF",
"'. c #9AF4FF",
"]. c #A4EAFD",
"[. c #A5F1FF",
/* pixels */
": : : : - # # # : : : : : - - - - : > > h z z > : - - : > > : - # - - - : : - @ : : > > > > : : - : - - - - - - : : = h > > : : : : q > ~ > : - - - - - - - - - ; : : > w s s : : : : : : ",
": : : > > : - - : : : : : : > s w - : : > > > h Z f.t.m.-.: : : : - - - # @ @ # > > : - - - : : : : : - - - - : h h s > #.-.q.L.L.>.<.8.d D $.> : : ; - ; - - - > : h h h j.a.<.s > > : : ",
": > : w > s - : : : : : : > s h h > # - - : > w s % % - ; ; ; > > > - # # # - - > > ; - - - : > : > > - - - > k N w : - - - 5 3 ` { ~ w w > p V U : ; ; ; : ; - f.d w w > : : p k h s > : ",
"> > > > : s T  .7 > > 0 J z s ; ; s d Z h h s s ; : - : : ; w w s s : : - - : : > > : : : > > w $.!.4.s > : s h # - - - - - - > s s h w - : : d d h w > = s d Z : - > > : : : : = s z s s ",
":.`.i : : > w F M.y.>.^ W > ; ; : = -.Z w w > ; # : : > h g w > : : w s h : : : : : > : * f w * ^.#.= $.Z : : ; - - - # : > : : : : : : - - : : - e w I.g.<.J : : - - ; ; # # : : > s ~ K ",
"U = x.[ i > : : > w s w : - ; > s s w : : ; : # # # - ; > w : - - # - > w T U h : > > b U.z q.u.> > > : h J g Z h w - # # # - - - - # - : : - > : t.8.> w > : : ; # # # # # - - : : > : w ",
"= s w g E <.> : # # # # # # - - - - w ).N.<.h w w ; - # # # - - - : : : > > > = > ^ S.4.= s > > : - # : : : = s h h s - - - # # ; - # # # - h f.k.5 w s s s h h > > > ; - # # - : - % y.>.",
": - > w w z 5.z s : : : : : > h F 7...x k.j.a.D s w > > - - - > > w h h s > = C g.a.S h : : - - - - - - # - - - : > h h w : : : : > : - : s > > > > : - - > w h s w > > > : - : w ..k.K s ",
"- # > w w > > z T 7.-...h 9.D.:.e.F w s w h s k...z s s s s I h.l.6.s : : s z w : : > s s : - - - : > > - @ # @ - - - s U  .D s : : : - > w s s w > - - - > w > X.c.h s > w w *.7.<.h : > ",
": : > > ; - - - w h d ^ ].-.z w w w w : - > > > h 6.S.s.J.Z.F h w : ; - - # - : - - - : w s > > > w > # # # # @ - # ; : w Z z ..E.7 h : > w > s s w w w w w > U E F W.6.>.> s J.> > > > - ",
": : - # # # ; > > > w h M z s w > : # # # # # : : > w z *.t.F h w : # # # # # : > : : : : : > > > - # # # - : : : : > > > : > : = C.j.^ w - - : : > w w f *.>.J w s h M.J.j.8.> > : # - - ",
": - ; @ # @ @ @ # - - > > > w : : ; - # @ # @ # - ; > : s K F t.J.z : - - # # @ - - : : : : - - - - - # : > > h W.P.$.> > : : : > d 7 t.1.> : - - - > J Z > > > - - > w s 1.k > : : : ; # ",
"- - - # - # # : s w : - # - - - - - - - - # - - : : w h T J w h h k.a = > - : - # @ @ @ @ @ - - : : > : : h s Z.#.i s.f.0 w w z z > w > U 0.: - - # # # - - - - - - - - = > x F = > : : : ",
"- - - : > > > > > > w > > - - - - - ; - - # - : : h h s : : : : w > 7.].Q.w : : # X @ @ @ # - ; : : : > f t.0.z > w > w T.9.I g > > > - w w k ; - - # # # - - - - - - - : - - > J D h : : ",
"> # > > : w > > - : > w ^ ..q w > : : - > > h z s > > - # # - - : > s s x f.g w > - : # # - : > : > > z c.V s > : - - ; ; ; : - : w > w w w > : > > > : # @ X @ # - # # # - - > > s J -.d ",
"w > > : - $ - - > : > > s K j.| *.$ : J U F s : > : - - # - - : : w w w w h 9.g.d w h ..J q : : s h k > : : : : # # @ ; ; : - - # # - : w : : > : : 0 > : - - - # # # - : : > w : > > > h ",
"# > > w > w > > w N E z > w w <.7.G.U z w > : : - # - - - - : : : : : : : > > s Z Z > > F k z Z s s : - : : - - - - @ # # @ - - # # - - : : s f.s.].F : > : : : ; : - - : : : : # - - ; ; ",
"# : s v j./.k.w X.T D > : - : : : ; > > : : : - # - : : > > : : : # - : ; : : : : - : # - > > > - - - ; - : : : ; - # - - ; > : : : : : w F k.M D w $.Z.} = > > - : : : : - - - # # # # # ",
"w I W.c.*.s s s.a s > > - # # # # - - - # @ @ @ - : : : : : - # # # @ # - > > : # # - : : # - : : - - - - @ - : : : : > w J V p s s . F K.X.s > > > > s *.M.k.f w w > : : : : : > > : - : ",
"-.Z.z s w w > > y.$.Z s : : - # @ @ @ @ # # # : : : : - : : : : - - - - : : : s s > : # # - - - K.v.& # - : : : > s s h s s h >.H.v.J.-.s w > : - # - > > h g q.P.7.z > : h *.k > : : s U ",
"w w w : - - - - - - - : h > : : - - - - : : : d F v.| k 7 - : > k U s s k Z z w : - - - : - } g.h s k.C.; : : : - - - : : : : w Z 7.q.s > - - : - # # - : > s s w w Z n.k.z > : : > w k w ",
"> : # # # - - ; # # # - - : - ; ; : : : > > w u.J.^ u.C.Z.: - : : s U J > : : : : : : - w z.7.Z > > >  .k.' s > : > : - ; : w w w w h h > - - > w s : s z z h : : : : : : : - : : : > > > ",
"# # # @ # # ; : > : : - - : s Z Z s : : h D Z M w s s w 7.G.Q h : : > - : # # - : s h h.v.s > > # - - w w J.T.>. .h s s s > > - - # - - # - - : : w E J = : # - - - : : : : - - : - : : : ",
"- ; ; - - # # # - : : : : : : s s h h J k w > : : : w s s Z v...w > : - - # # # : z z s : > - - # - - ; w w w w = > > : : > - @ @ @ # - > > : : : : : > : : : - - - - - # ; > : ; ; : : : ",
": : : : : - # # - : : f d.k > : : : w > - : : : s h w : : > > T t.U : - - - - # # # # - - - - - > s z s h w : - : ; : > > : - - # # # - # - - - - - : : : : : = - - # # @ @ - : : : > * > ",
"7 * * : > > : ; : h ] !.s 9...: : - - - : : - > s : - # # # : - - > > : : - - - # # - - # - * * s h K s w - : - - = 3 & > > : : : # # # @ - # - - - > : > : w w w ; @ # # # - : > w 0 K.s ",
"T ^ S.h.1.* * 7 ..N.V.s : > F Z.A.U > : : ; ; - # # # # : : : : - - > w w : : ; : # - - : h ^ W w > - - - : : - i | L.h.d s : : : : : - # # ; - - : h I.| 5 * - w h > : - ; > > m 1.S.D #.",
": : > K y.h.[.J.h.p h w > : : w > > > : : : : : - # # - - - # # # - - > w s Z.^.U 4 : = h z w > - - - - =   > E Z.F s q.J.t 0 > - : : : : : : * O k ~.T 3.P.r.= : : > > w > & m ~.C.Z s w ",
"@ - - : : w s s h s s : @ # @ - - : : : : = w s Z s > : : - # - ; > w m.s.q.h s U ..k.Z > - : - - - : > J E ^ z w : : w h q.3.7.M.M $.z 8.z 9.E ^ U w : w s k K z > > $...t.U.*.s w : - # ",
"@ # - - - - : > w s s : @ @ # - : : > w s s s T -.K h w : - - : : w $.8.} s : - > w M J K z > ; - - - : : : : : : = z s h > > 8 ( b.f.:.M s +.h h w : - - : > w s w > d p v d s s > - # # ",
"# # # # # : : : : O - # - - : w w h s s h -.Z.Z.s K q.q.h w w F I k.: - > % # # # : : ; : : s 7 : : - : : - - : s *.U > ; - - : : - o d h h w * : : - # # - - ; w h w : : - - - : w s > - ",
"- - : : : > *._.i : : : : > w w w * *.v.c.8.x w 7 w w 9 I v.c.e.Z $ : - - ; - - - - - : : : > > F Z h : : : > h z s : : - # # # : : - > z = : : : - # # # - : > f z $.T F : - # # - % > > ",
"> : : > h x.^ h Z.B.h w : > > - - > w : : > : : - w w > + # # - : - @ @ @ - : : # X @ X : - : : : * h w w g k h > ; - # # # - : > h h w : - : - # - # - : w s k k : : Z J I w : - - - # : ",
"s z V._.a.d = w s u i.N.z w > : : : - - - - - # - : > s C y.U > : - # # # # # - - # : # # : - - - : - C.Y.s : - # # # - : > 7 > : - - - # # - - # # > f h s w > # # # # - * s w : : # - - ",
"h x.| > > > ; - > > w +.J.w > > : - : - 7 : # - - : w w > w 1.<.h - - > > : : # : : > - # @ # - - w Z.k.s : - - # # - - w D E s : - - - # @ - > > > J J.x.p s : - # # - - : > s Z s > w w ",
"g.> > : > : ; # - : : w T k.h > > > f >. .Z h : - : - # : : > w s K I J k > ; - : - - - - - : : Z.C.Z w > > ; : : : > k h w - s h h s : ; - : > w *.J.z s ^ o.J.w : : - : : : : Z q.q.h h ",
"s : - - - : : : - : : h h s T q.q.J h > - - : : > - # # # # - : : : s > > > : : > > > > : : z f.= > : - > > s s > > h s : - - : > h h h > > z M.d.k.i s > > * e 7.z s > > : ; : > > 5 Z.X.",
"s w w > : : : > s s s > : : > h h J s w : - - # # # # # # - : : : : - - - Z T h ^ J.c.g h c.7.J w : - # # - - > s s : - # # # - - : : w -.J.h.6 d w = ; - - - : : h J h s : : : : : : > s ",
"# : > : : : : : : - # - : : > > > - - w s w > : - # - : : s x.n.~ : : - # > > = p s s | ..K w > s s h > : - - - - # - # # # # - : h h z = w h s s > - - - # # # - - ; : - > w : - - - - # ",
"# - # @ @ @ # # - - - - : > : - - - # - - - : > > > s f Z.K.D J J.$.> > : - - - : s s w > > : : - : w d q.E g > : > > - - - > s ..e f - : - : > > h h w : - # # - # - - : : : : : : : : > ",
": > : - # # - > > - - - - # - ; ; ; - - - > > w w $.J./.g s w s s C.c.p h > > - - - : - - - # # # - - w h 3.u.Q.t.U h - > > Z 7.s : : : # # # : : : w s s > ; - - - - - - - : : w h M <.h ",
"Z > > : : ; > > > : : ; : > ; ; ; ; > g 0.C.-.w h.c.7.s : > - > : > z k.0.^ > g s ; : - - - # # # - - z h h > : > h h g J U F : - # # # # # # - - : ; ; > > w w ; - - - - : : ^ v.C.b.s : ",
"s h K z h h d : > : > d *.k w : - - : w : Z I Z.Z w w > ; # # - # > : : > h h w : ; # # # # - - > s h g s - ; ; > w f U W.8.k w - - # # # - - - - # - : : > w J U h w > w w K J.s s = > : ",
"# : w h :.g.F s *.M.c.U : : : - - - - : > w s s w > - - - # # # - - - - - > > # # # # # # - > > s s > - - # ; : s _ W.U w s 0.K.q : : - - w d - - @ # # : : - > w Z t.J.J.K.a q : : : - @ ",
": - w s h z '.K.q.5 > : > - - - - ; > w w > > > h > > : - - - - - - # - : : - # # # @ # > s s s : : > : : w s *.T.n.w : > > > h :.N z > : : ; > w - - - # - # - w > z e.y.f : : - - # # : ",
"h F K D z > w h s > > - - - : : > h F w : - - : > s w w : # - - # - : # # # # # : : : 7 w : > w Z h : w K f.k.q.> w > - - - : : : > s D h s > > : w > > > w w > w h z s s : - # # # - : > ",
"h > : : - # ; : s h h : > : s q...Z > - # # # # - - ; : s : - - - : : : : # - ; > w *.w : : h K w K k.U J s s - ; - # # - - # # - # - - : : > > > s U !.K.s s w > > : > > ; # # # - - > > ",
"; ; ; - - - ; ; : > w h z X./.Z.V.w : # # # # # # ; - : - h h ~ U w > : : w * h ^ *.z K f.K 5 > # - ; s w w s s h : # # # # > : - # # # # > w f f k.Z.z I K._.h w - - - - : : : : w * F J ",
"@ # # # - ; : ; - - - : f. .s Z ..t.s - ; # # # : > w s w s w z g J.l s w T C.K.I w > Z Z > : - # # # : : : > w h x > - - - : - - - - : : > X.Z.j...s s s h r K.c.Z - - - - : : w X.8.Z > ",
": : : - - - ; ; : > = ..h w w w w : q.h > : : > s s > > : s > w w s 7.J.J. .x > > > : ; ; - # # # # - - ; - - : - h T U s w : : : : ; > : > > - : : : # - > : : s h z = : - h -.f.$.w : : ",
": > > > > ; - > z Y.O.> > : - ; > > : T g.| Z h : - : - # ; > w w > > s > > > : - - - - - - # # - - ; # - - - - - ; > w T h h p 7.W.Y.U : : - - - - - # # - : > > > > s s h s h : : : - # ",
"- - - > - : s h w : : : - - - - - ; : : z <.>.h s s w : - - - - # : > > > > > : # # - - # - : : : : - > > - ; - - - - # : > h /.5.i w K c.w : - - - - # : > s s > ; > w w w : - - - - # # ",
"; w 3.S.C.s w : : : : - - # # - - - - : : : : > h s h s w : - - - - : : > > > w > - - - - - : : w s s G.K.n > - - - - : Z g.f.g s w w w g C.*.> > - : > s > : - - - : : - - - - - - : : > ",
"w a.<.$.7./ ; : : - - - : s = - # - - - : : : - > : > > > s > : : : : : > : - - # # # - - : > > > ,.v.M K I.K.p # : g U D h : - : : : > : : w h h w : : : : - - # - # - @ - - - f s s s w ",
"f.K s w s l h.s : : : > > - - : - - - - ; ; 7 w > > > > : : > w w h w > > : @ @ @ # # - > > w w f.e.d w s x h J.g.e.Z > : : : - - - # # # : ; > : Z s : : > > w - - # - # : > 1.W.S.2.s w ",
"h w : : w w h q.V 5 s : ; - - : - - # # # # - : : : - - - > i C.Z.^ *.| b w : - : : > : w U q.q.s d w > - > w w Z e.U s > : : > - - - # # # > w w : - - # - - > d > > = & J.Z.>.f M h.e.p ",
"- - - - # - : : 8 s s > > : : : : : - - - - - - - # - - 7 ..$.| D w h 7.t.*.s > : : : - - ; : : : : : - ; > w h s > w h d > : : : : : - # - - - # # - - - - - : w s E u t.I w > > > > z :.",
"- # # # # # - - - # # : s z h : : > f P.U.q.w > > f 3.u. .= : w > # : > : = 7.x.$.d h K w ; - # # # - w s > % - # # - - > h h w > > > > w : - - - : h (.P.s > : f K = & * : # - - - : : > ",
": - - : : - - - - - - - - : h F Z e Z.v 2 f.N.z s s = w > : : - - - - - # ; - - = s : - # # # # - - : > ; - - ; - # - - # # ; > > w > > w > > > w  .I.y { C.r.w > - ; : : - # - : : > : - ",
": w q q : > > > : - - - : : : z } 8.w w w w f ,.v.w w w > # # - - - - # @ # # ; - - - # # # - : : : > : > w : : - - - - @ # # # - ; ; w K h s h F o.w w s w n c.Z > - - ; : h h s w : - - ",
"w k t.} s > > > > w w : : : : : > : : - : - - - : C z h w ; - - - - # @ @ # @ @ - - # - - : > : : w k 8...w : : ; : - - # # # # : w 7 K W.g.a s w w s : : : - # > k Z h h h s s > > - - - ",
"w w s h t.$.x k.:.g h w u.h : : : : # # # - - : - : > w J g : : : - - # - - - - - - : > > > h h c.k.U h : : - : : : : : : - - : s e...J.k d g.M F : - - # # - # # - > h h > : # # # - - : ",
"- : > w w :.c.g w h M k.9.W.a : - - # @ @ # - : > : - - : h J h s > - - - : : w s : : h 9.R.i.0.h s > w : > h h N $.Z > : : : h 1.m z > q w q $.+.^ w : : - # - # # - - - : : # # # # - - ",
": : : : : s g s z K K s s h C.f.d : : # @ # # ; # # # # - - > : > - - - - : > w s U T J s g s w w > > : - : > > > > z 7.s h t.C.f : > > - - ; > w h -.~ s > - - - - - - : * h > > : > : # ",
"; : : : : > h J K > > - > s s u.q.s > : > - - - # # - : w : - # @ # - - > s s w : : : s s > w w : - - # - - - - - : > s t.q.z w : - - # # # - # - - : ^ ~ z h : - : > w = k h f.h s : : > ",
": : > > = h s > : : : - > w w > > s K h > : : - - > > > w : - - # # # - > > > - : # - : : > : ; - - - # # - - : : > h s s > w w > - : # - - # # # # - : : > s s h > s z D h > : :.a.:.& 5 ",
"> : F F D s : : : : > > : : - : > w ^ M s w : : - w w > - # # : : > w  .J > : - : # - - : : : - - # - # - # - : w h z w : ; - > s > w - # - # # # # - : : : : : w s K D F : : : > h } K.a.",
"c...U k s : - - : w w w : - - - - : : : s s s s U K.7.F w : : : - E q.N T *.h : - - - : : - - - # # # ; s ; ; ; - ; - # # # # - - : : > : : > : : : : : - - - - : w s : - - - : > = s h / ",
"U w : : : : # - - # # # : : - - - - - : : > h  .8.w >.6.k.w h Z | M > : : w w s w w s > : # - : : : : h J Z Z : - - # # # # - # - - # # : > s s s s h : : - - - : : - ; - - : s s s w : : ",
": : - - - : > - # @ @ @ - > : : : - : : w g J Z w w w > g.k.U h w w : - - : - s h.F.$.f - - - : : > > J s s h k w : - - : : s : : - # - # - : w w U K.Q > > - - # - # - - h h > > : # - - ",
"- - - - - - : : - # # # - > k : : : : w F x w : : - : : s @.z s : - - - - : > 7.f s 1.c.S q : : : : : - : - - - : > : : : >.1.J > - - # - ; w e.p.J./ j.K.r s w : # - : : z h ; - : > - - ",
"- > : - # # - - : : : : : : h -.@.~ M 7.> : : : # # - ; : w Z Z h : - ; : h z : > > > w ..M d w : : - - - - - - > > > s Z z w > h s w > : z c.) 1.s w s F C.D. .h w s h s : - - # - - - # ",
": : : : : : : : > : : : : > > h d 7.7.w : : - # # # # # - : > s s C : - : : : - # # - : : w h z s s > : > f F Z./.q.f h w > - : : w s s h -.h w w : # - : : : -...z w : : - - - # # # - - ",
": > K S.W.k > > > : : : : > J s s : - - > > > > - - # @ # # # # - # > w s : - - - - # # - # - - : > w h c.K.K.s >  .v.7.K g w w w s h s w - : - - - # # # - - - > p Z h = > > : > : > h $.",
": K.J.} h 7.C.z s s s J U U s > ; # : : > > s s s : : : : : # # # : w : : > > s : : : ; : : : : : w h G.i = > > : : - k T T u.E s > > - - - : : : - # > - # - - - ; 7 h D Z w w > > > > > ",
"Z.*.h > > w K Z.-.$...E i : : - : : - # - # # : > h h h : : : > w w w : : s ,.J.k.z h w > > h h } :.:.w : : - # @ # # - - ; : w > - # @ @ - - > > > - - - - - - # - - : w T W.-.s s w > w ",
"h > : % # # > : s $.-.: - - - - - # # @ # # # # - * s h T 6 h s s w w > w A.M.D i s.0.h w - > = > > - - # - - : - # # - : : > : - - # # - - : : : > > - - - - - ; - > Z ~ m 0 o.y.<.K h h ",
"> - - # # - w s w % % s s : - - - - - # # - - # - - : : s n s K U K s b.k.V 5 s > * w 7.U > ; ; > : - # # # - - : > s k Z s : # - : > h K > : - - : > s > : - : : h ^ J h : : : p k.W.7.s ",
"- # # # - > w > : # # > w s > - - : : - - : : - - - - ; : w w w i n.K.( m s w : - - : = D k > : > : - - - # - - ; ; s = 7 > : ; > 1 < !.Z.= : - - - - : > h h F K h 7 = > - - : > =   ..z ",
"# # - > > > # # - # # - - w h > > : = : : : : > : - - : > w w W ~ i 9 > : - - - # # # - : % > > s = > - - - - - ; - - # - - : > s )._.e 7 7.w : - - - : : : % 7 s > ; - - - # - : : : > Z ",
": w > : - # - # # # # - ; > s *.M e.S.$.M > w > > k K z w Z z = = : : > > > - - - - # - - - - # ; > s h Z > : : : : - # : : > q.$.  & > w s $.X.} h > : : - # # # ; > w > - # - - - - > > ",
"> w - - # # # - - - - - : h e.$.$.s w m Z.C.q.: w h h h s 7 # - - - : > w > : - - - - - # # # # - : - h Z w > : : > h ; : w e.7.q > > : - > s q..._.5 : % ; # # - # : w w > - # # # - ; - ",
"q w : : : : : : : > w > h h - : : - # : : > 5 } T : : - - # # # # - > : : : : w s > > : : : > w F #.L.1.* : : : : : = p M V - - - - - - - - : w w w b J U > : - - : - : : : > : : : - - - ",
"Z e.u.N h : : : s z Z h > - : - - # # # - : : w k f > - - # # # @ - - - # : : s *. .z s w z *.q.| J & D t.7 > : : - - w : - - - - - - - - : 7 s w w > : : h h s w > - - : : w w h T -.s > ",
"w > z q.k.1.s w K C.K.*.> : - - - - - - > > w w : w w w - # # # @ @ @ # - ; - - - w K h.g.f.M h : : : : h 8.g.h > > > w : - # # # # - - > s s s w : - - : s s 7.J.I s s w w w z K.J.k. .w ",
"- > > h h Z J K K.7.*.x.7.w : - - - - > w > > - - # - ; s : : - - - - - # # - - : > > <.v.K s > : - - : : > w c.$.w w - # - - - - : : s w > - - : : : : s 3.G.:.h 8.V s h h h h : : : : h ",
"- ; : w : s <.v.= > > w q.,.s : : : : : ; # # # - : > w /.t.> : : : - - - - - - > > s h s s > > - - # - ; : : : ..t.F : - - : : w w s > - # # - # : w s e.f.*.7 > > S.P.7.h w - - ; - - - ",
"- : w i q.x.7.> : # # : : h :.U D w w - # - : : > K C.K.U s 5.u.s : : : : > > s s h > - : > h h - - # # # # # ; - - : s s s s s : - - # - - - - - - s  .s : - - # : ; : : c.X.: : - - # # ",
": s -.-.J s - - - - - - : > : : w h : : : : : h u.I a = > > > $.a.-.> > > K U Z > ; ; - - : > = s > : - - # # # # - - : > > z 9.9.> : : - : - - - > d w : - : - # # - ; > - s Z w > : - # ",
"U T s > - ; > - - - - - - - : : : : : : > h U U $ : - : - - : : ; k X.w f.U > - - - - # # # - ; w s h > > - - - - : > s <.S.v.> U Z.).U w w > > s : ; # - - # - - # @ @ @ ; > > k K J > > ",
"> > - # # - - w : - - - - # - - - - : s T K s : : - # # # # # - - : w q.q.: : # # @ # # # # # - - : >  .8 > : ; : > f -.+.<.: : > > , f.$.K z > w # - - # # - - # # - ; : : > > > h N u.K ",
": : - - # - - > = - - - - - - - - - > s k s > : > - - # # # # - - - > w > : > # @ @ @ - # # - - - - - k *.h = : : > s $.w > : : : > > h <.K s > > ; # - - # - - # # - : > > : > > > 5 <.Z ",
": : : : : # - # ; > > - - - - - : : ; - - - - > - : : - # # # # # # - - - - - : # @ @ : s : - - - - - - - % : : : ; ; ; - - # # # # # ; : : : > > w > : : - # # - - - - - ; : > - - - ; - "
};
