/* XPM */
static const char *normal_floor_13[] = {
/* columns rows colors chars-per-pixel */
"13 13 116 2 ",
"   c #0AB0FA",
".  c #0BB1FB",
"X  c #0FB3FB",
"o  c #0BB3FC",
"O  c #0AB2FD",
"+  c #0BB3FE",
"@  c #0DB3FD",
"#  c #0EB1FE",
"$  c #0CB4FD",
"%  c #0EB5FC",
"&  c #0EB4FE",
"*  c #11B4F9",
"=  c #12B5FA",
"-  c #11B6FA",
";  c #14B7FA",
":  c #10B3FE",
">  c #10B4FC",
",  c #11B5FC",
"<  c #11B5FD",
"1  c #12B4FD",
"2  c #12B6FD",
"3  c #11B4FF",
"4  c #10B7FE",
"5  c #12B6FE",
"6  c #13B7FE",
"7  c #14B7FC",
"8  c #14B6FF",
"9  c #15B8FB",
"0  c #14B9FB",
"q  c #17B9FA",
"w  c #15BAFA",
"e  c #16BBFB",
"r  c #11B8FC",
"t  c #13B8FC",
"y  c #12B9FF",
"u  c #13BAFE",
"i  c #15B8FD",
"p  c #14B9FD",
"a  c #15BAFC",
"s  c #17BAFD",
"d  c #16BBFD",
"f  c #16B9FE",
"g  c #15BAFE",
"h  c #17BAFF",
"j  c #16BBFF",
"k  c #15BDFC",
"l  c #17BCFC",
"z  c #17BCFE",
"x  c #17BFFE",
"c  c #18BAFB",
"v  c #19BDFA",
"b  c #18BEFA",
"n  c #1ABEFB",
"m  c #1EBEFA",
"M  c #1FBFFB",
"N  c #18BBFC",
"B  c #18BBFE",
"V  c #19BDFC",
"C  c #1BBDFD",
"Z  c #18BDFF",
"A  c #1ABDFE",
"S  c #19BEFE",
"D  c #1DBFFF",
"F  c #24BFF7",
"G  c #27BEF7",
"H  c #20BEFD",
"J  c #28BEFD",
"K  c #13C0FF",
"L  c #1CC1FB",
"P  c #1BC1FF",
"I  c #1DC2FC",
"U  c #1FC2FD",
"Y  c #1DC0FF",
"T  c #1CC1FF",
"R  c #1EC1FF",
"E  c #1FC1FF",
"W  c #1DC3FF",
"Q  c #1EC2FF",
"!  c #1EC4FE",
"~  c #1FC4FF",
"^  c #24C0F1",
"/  c #23C2F9",
"(  c #21C4FB",
")  c #24C5FB",
"_  c #21C1FD",
"`  c #20C3FC",
"'  c #20C3FE",
"]  c #22C2FE",
"[  c #23C3FF",
"{  c #25C1FC",
"}  c #22C5FF",
"|  c #25C5FF",
" . c #26C6FF",
".. c #2BC2F9",
"X. c #2FC5F8",
"o. c #2BC7FF",
"O. c #28C8FF",
"+. c #2FCBFE",
"@. c #32C2F4",
"#. c #33CBFD",
"$. c #34CAFF",
"%. c #37CAFE",
"&. c #31CCFF",
"*. c #37CDFF",
"=. c #3BD3FF",
"-. c #4CCDF5",
";. c #43D1FF",
":. c #40D3FF",
">. c #48D6FF",
",. c #4ADBFF",
"<. c #63D7FF",
"1. c #7DE2FE",
"2. c #8BE8FF",
"3. c #8BEBFF",
"4. c #94E8FF",
"5. c #9DEEFF",
/* pixels */
"l F .., E p H c p p E 7 b ",
"$ ' , p P t b , Z M D } l ",
"-.b , p o p , # ' 4.l Z N ",
"l 5.p ( t , p t N o 9 o Z ",
"l p *.E ' p p b # O.X =.: ",
"$ : $ p 1.p p J , 9 ' , , ",
"p ) Z , , t o.M : p @.9 , ",
">., : l N $ N 3.&.p p $ ^ ",
"X.Z p { t . p E # 3.P #.p ",
"l 9 , %.,.| , +.# , E - ' ",
"L ;.p ! , ! | Z t $ , E b ",
", 7 E / # 9 - p F : <.p , ",
"p , p t K ; , , ;.E - . %."
};
