/* XPM */
static const char *normal_floor_16[] = {
/* columns rows colors chars-per-pixel */
"16 16 172 2 ",
"   c #09AFFB",
".  c #0BB1FB",
"X  c #0EB2FA",
"o  c #0DB4FB",
"O  c #0AB2FD",
"+  c #0CB2FC",
"@  c #0DB3FD",
"#  c #0FB2FD",
"$  c #0EB1FE",
"%  c #0DB3FF",
"&  c #0FB6FC",
"*  c #0FB6FD",
"=  c #0CB4FF",
"-  c #0EB4FE",
";  c #0FB5FF",
":  c #1ABEF3",
">  c #19B9F5",
",  c #13B4F8",
"<  c #10B4FB",
"1  c #12B7FB",
"2  c #10B3FE",
"3  c #10B4FC",
"4  c #11B5FC",
"5  c #11B5FD",
"6  c #12B6FD",
"7  c #11B4FF",
"8  c #12B6FE",
"9  c #13B7FE",
"0  c #13B7FF",
"q  c #14B5FD",
"w  c #14B7FC",
"e  c #14B6FE",
"r  c #15B6FE",
"t  c #14B6FF",
"y  c #19B7FE",
"u  c #16B8F9",
"i  c #14B9FB",
"p  c #15BAFA",
"a  c #17BAFB",
"s  c #13B8FC",
"d  c #12B9FD",
"f  c #15B8FD",
"g  c #14B9FD",
"h  c #17BAFD",
"j  c #16BBFD",
"k  c #14B8FF",
"l  c #17B9FF",
"z  c #15BAFE",
"x  c #16BBFF",
"c  c #11BDFD",
"v  c #12BEFC",
"b  c #17BCFC",
"n  c #15BCFF",
"m  c #17BCFE",
"M  c #1BBBF9",
"N  c #19BFF9",
"B  c #1ABFF9",
"V  c #1DBDF9",
"C  c #18BBFC",
"Z  c #19BBFC",
"A  c #1BBAFC",
"S  c #19BAFE",
"D  c #18BBFF",
"F  c #19BDFC",
"G  c #19BCFD",
"H  c #19BFFD",
"J  c #1ABEFD",
"K  c #19BCFF",
"L  c #18BDFF",
"P  c #1BBDFE",
"I  c #19BEFE",
"U  c #19BEFF",
"Y  c #1BBFFE",
"T  c #1BBEFF",
"R  c #1ABFFF",
"E  c #1DBFFD",
"W  c #1CBEFE",
"Q  c #22B9EE",
"!  c #26BDF6",
"~  c #1EC1FA",
"^  c #19C4FA",
"/  c #1AC0FC",
"(  c #18C0FE",
")  c #1AC0FE",
"_  c #1BC1FF",
"`  c #1DC2FC",
"'  c #1FC2FD",
"]  c #1DC1FE",
"[  c #1CC0FF",
"{  c #1EC0FE",
"}  c #1FC1FF",
"|  c #1CC2FE",
" . c #1CC2FF",
".. c #1EC2FF",
"X. c #1FC3FF",
"o. c #21C2F9",
"O. c #21C1FB",
"+. c #23C2FA",
"@. c #25C4FB",
"#. c #21C1FD",
"$. c #20C3FC",
"%. c #22C2FC",
"&. c #23C3FD",
"*. c #20C0FE",
"=. c #21C0FF",
"-. c #22C0FF",
";. c #20C3FE",
":. c #21C3FF",
">. c #22C2FE",
",. c #23C3FF",
"<. c #24C2FF",
"1. c #21C4FD",
"2. c #21C4FF",
"3. c #20C5FF",
"4. c #20C6FF",
"5. c #22C6FF",
"6. c #25C4FC",
"7. c #24C5FC",
"8. c #26C5FD",
"9. c #24C4FE",
"0. c #25C5FF",
"q. c #26C7FE",
"w. c #28C5FC",
"e. c #29C5FE",
"r. c #28C4FF",
"t. c #2AC5FE",
"y. c #2AC6FF",
"u. c #2CC5FE",
"i. c #24CBF8",
"p. c #25C8FF",
"a. c #28C9FF",
"s. c #2CC9FE",
"d. c #2EC8FE",
"f. c #30C7FC",
"g. c #32C8FA",
"h. c #31C8FF",
"j. c #31CBFF",
"k. c #34CBFF",
"l. c #30CCFD",
"z. c #35CCFF",
"x. c #35CDFF",
"c. c #34CEFF",
"v. c #39C9FB",
"b. c #3BCCFB",
"n. c #3FCDFB",
"m. c #3CD2FF",
"M. c #41CEFB",
"N. c #42CFFA",
"B. c #47CFFF",
"V. c #42D0FF",
"C. c #42D6FE",
"Z. c #4FD1FF",
"A. c #49D4FF",
"S. c #5CDAFF",
"D. c #5CDCFF",
"F. c #5FDDFF",
"G. c #62D8FC",
"H. c #67DCFF",
"J. c #68DEFA",
"K. c #6BDBFF",
"L. c #6DDBFC",
"P. c #6CDAFD",
"I. c #79DBF6",
"U. c #7BDFF7",
"Y. c #77E3FF",
"T. c #7FE1FE",
"R. c #76EDFF",
"E. c #87E2FD",
"W. c #85E3FF",
"Q. c #85E4FF",
"!. c #92EAFF",
"~. c #A6F1FF",
/* pixels */
"b P &.1.g &.q g R.@.5  .m.6.g j.",
"_ b.W.1.p.K.d.O.g O N.g W P P t.",
"C & ^ P _ d G.% C P q &.P   % l.",
" .5 g d U.6.u.g t.g b &.5 &.P. .",
"Y.A.k.g % g P 5  .p &.5 d C & J.",
"g 1.&.I. .6.q g c.a.% B 5 b v.5 ",
"P &.P g % g f.n.P g %  .<.5  .p ",
" .V.g P g % C % 6.g &.g 5 d W.g ",
"g d  .P  ._ C.q % g &.&.v P g O.",
" .t.5 & g Q.g P d.1.b % 6.g W H.",
"S.: b 5 j.d % 5 ! d o N.~ 5 6.5 ",
"B.g 5 &.F.g c.5 % q X P 5 < < O.",
"v C b g % &.g g 6.T. .&.P p p % ",
"& p P 5 5 B O.> P 5 V !.5 t.P Q ",
"g.c.< C _ . q F.C i.5 5  .1.&.~.",
"p 2 d  .g y t.& M 5 P.Z.&.2 O b."
};
