/* XPM */
static const char *normal_duck_73[] = {
/* columns rows colors chars-per-pixel */
"73 73 229 2 ",
"   c #010101",
".  c #0B0200",
"X  c #03040A",
"o  c #0A0A06",
"O  c #120100",
"+  c #1D0200",
"@  c #140A03",
"#  c #010718",
"$  c #181818",
"%  c #260400",
"&  c #371400",
"*  c #00122B",
"=  c #4C3D00",
"-  c #413200",
";  c #4F2D05",
":  c #643607",
">  c #79703A",
",  c #7B540F",
"<  c #003359",
"1  c #084A6D",
"2  c #565553",
"3  c #AD1401",
"4  c #B71802",
"5  c #822005",
"6  c #A4300B",
"7  c #DA2901",
"8  c #DA3702",
"9  c #C52C0A",
"0  c #E22D00",
"q  c #E83900",
"w  c #976619",
"e  c #926D0E",
"r  c #B66700",
"t  c #BC7400",
"y  c #B57B18",
"u  c #A67614",
"i  c #EC4804",
"p  c #F14201",
"a  c #F84B01",
"s  c #FD5204",
"d  c #F95D00",
"f  c #F55300",
"g  c #EE5408",
"h  c #C47400",
"j  c #C97403",
"k  c #CC7B02",
"l  c #C47603",
"z  c #D47C02",
"x  c #D57805",
"c  c #FC6400",
"v  c #FD6B03",
"b  c #E67B04",
"n  c #FD7302",
"m  c #FC7A01",
"M  c #B38E1C",
"N  c #CF8500",
"B  c #D68302",
"V  c #DC8301",
"C  c #DA8604",
"Z  c #C9851A",
"A  c #DA960C",
"S  c #E28503",
"D  c #E58C02",
"F  c #E88F04",
"G  c #E49101",
"H  c #EC9402",
"J  c #ED9A01",
"K  c #E89708",
"L  c #F19502",
"P  c #F39C01",
"I  c #F19808",
"U  c #E99C18",
"Y  c #ECA605",
"T  c #F5A501",
"R  c #F9A302",
"E  c #F6AA01",
"W  c #FCAC03",
"Q  c #F9A50D",
"!  c #F6B501",
"~  c #FDB502",
"^  c #FCBB02",
"/  c #FDBA09",
"(  c #FFB50A",
")  c #F8AE13",
"_  c #F3B419",
"`  c #CB912B",
"'  c #FF8B23",
"]  c #C3A82B",
"[  c #DFA827",
"{  c #FCA328",
"}  c #FEAA35",
"|  c #FDC302",
" . c #FDCD02",
".. c #FECC09",
"X. c #F8C706",
"o. c #FED303",
"O. c #FCD30A",
"+. c #FFDC0A",
"@. c #FEDE07",
"#. c #FED815",
"$. c #FFE20A",
"%. c #FFE90C",
"&. c #FDD92A",
"*. c #FCDF3B",
"=. c #FEE43A",
"-. c #FDDF43",
";. c #FFE54A",
":. c #FFE848",
">. c #FFEB59",
",. c #FFF45D",
"<. c #FDED62",
"1. c #FDF168",
"2. c #04548F",
"3. c #2C7195",
"4. c #0472A3",
"5. c #146F9B",
"6. c #0279D5",
"7. c #0E73CB",
"8. c #0379E1",
"9. c #0987B5",
"0. c #158AD9",
"q. c #1489D6",
"w. c #0C91D1",
"e. c #219DC1",
"r. c #1FA0D9",
"t. c #028AEE",
"y. c #0284E7",
"u. c #0597E8",
"i. c #0189F3",
"p. c #0193F4",
"a. c #029BFA",
"s. c #0297F6",
"d. c #0CACEF",
"f. c #17A9E7",
"g. c #0BB3EE",
"h. c #1BB4EC",
"j. c #15B4EF",
"k. c #01A4F6",
"l. c #03ACF5",
"z. c #01A7FC",
"x. c #02ABFD",
"c. c #08AEFE",
"v. c #0AABF2",
"b. c #04B2F5",
"n. c #0CB4F5",
"m. c #0EB9F6",
"M. c #05B2FD",
"N. c #0AB5FD",
"B. c #05B9FD",
"V. c #0CB9FE",
"C. c #07B9F7",
"Z. c #12B4F4",
"A. c #15BBF4",
"S. c #1DBBF4",
"D. c #12B5FB",
"F. c #13BCFD",
"G. c #1ABEFD",
"H. c #1AB6F4",
"J. c #25B7EC",
"K. c #35BAEB",
"L. c #23BEFB",
"P. c #22BCF6",
"I. c #26AFE3",
"U. c #44BDE8",
"Y. c #15C1FE",
"T. c #1CC2FE",
"R. c #0EC0FF",
"E. c #26C2F7",
"W. c #23C4FD",
"Q. c #2BC6FC",
"!. c #25CAFF",
"~. c #2CCAFE",
"^. c #29C2F5",
"/. c #34C3F5",
"(. c #3CC5F4",
"). c #33C6FC",
"_. c #33CBFD",
"`. c #3BCCFD",
"'. c #3CC7FA",
"]. c #35D1FF",
"[. c #3CD1FF",
"{. c #2AD0FF",
"}. c #43C5F3",
"|. c #4ACBF4",
" X c #44CDFC",
".X c #4BCDFC",
"XX c #44CBF4",
"oX c #54CDF2",
"OX c #56CCFA",
"+X c #44D3FE",
"@X c #4CD3FD",
"#X c #4DD9FF",
"$X c #4FD4F7",
"%X c #53D4F6",
"&X c #5DD2F4",
"*X c #53D4FD",
"=X c #5BD4FD",
"-X c #54DAFF",
";X c #5CDBFE",
":X c #67CEF1",
">X c #64D3F4",
",X c #6BD4F3",
"<X c #63D6FB",
"1X c #64DCFE",
"2X c #6BDBFD",
"3X c #6BD7FC",
"4X c #73DCFD",
"5X c #7BDCFC",
"6X c #75D8F6",
"7X c #6FD2EF",
"8X c #58E0FF",
"9X c #63E2FF",
"0X c #6BE4FF",
"qX c #74E4FF",
"wX c #7BE2FE",
"eX c #7BEBFF",
"rX c #75ECFF",
"tX c #908E8D",
"yX c gray75",
"uX c #A9A8A6",
"iX c #82DCF7",
"pX c #83E3FE",
"aX c #8AE3FF",
"sX c #8BEEFF",
"dX c #86E9FC",
"fX c #97E7FE",
"gX c #9AF4FF",
"hX c #A5F7FF",
"jX c #F7F6F4",
/* pixels */
"M.M.M.M.x.x.z.x.x.M.z.z.z.x.M.N.N.M.x.M.V.M.x.z.x.M.M.N.M.x.z.x.x.x.x.M.M.M.x.M.V.M.x.x.x.x.x.x.N.V.D.N.M.x.z.x.M.x.M.M.M.x.z.x.z.z.x.x.M.M.M.N.M.",
"x.M.N.).`.N.M.z.x.M.F.N.M.Y.~.+X+XV.N.M.z.x.x.x.M.+X*X2Xm.M.x.z.z.z.N.T.T.M.M.T._.`.F.N.x.z.x.M.#XaXiXK.V.M.x.z.x.M.V.G.iXH.M.z.z.z.z.x.N.).`._.V.",
"x.V.W.B.m.1X2XN.M.x.x.N.W.V.M.M.V.=X=XV.N.M.N.F./.G.N.N.G.~.F.M.M.D.G.M.M.W.`.N.M.N.T. XV.M.V.*XA.V.m.-X>XY.V.M.V.m.*X).N.|..XB.N.M.N._.Q.M.M.N.W.",
"W.Y.M.x.M.V._.1X|.Q.T.T.M.x.x.z.x.M.V._.3X*X~.T.M.x.x.z.x.N.V.~.W.V.M.x.M.M.N.x.x.x.M.V.+X|.#XG.N.x.M.V.V.#X<X=X*XT.V.V.x.N.F.;X X[.!.V.M.x.z.x.M.",
"x.N.x.z.z.x.M.M.M.N.M.M.z.z.z.x.z.x.x.M.N.M.N.N.M.l.M.x.x.M.x.x.M.x.M.x.x.x.z.z.x.z.z.M.V.N.N.V.x.z.z.x.M.N.N.V.N.N.x.x.z.x.M.N.N.V.M.x.z.z.z.z.z.",
"z.x.x.z.z.x.x.G.M.z.z.z.x.M.F.Z.N.x.z.z.z.x.M.n.=X;XeX@XM.x.M.V.N.M.x.M.V.h.Z.N.z.M.z.z.z.x.x.M.N.M.x.z.z.x.V.G.G.m.M.N.F.N.x.M.x.z.M.N.x.N.M.N.M.",
"z.M.V.n.N.N.x.z.N.V.N.N.F.>X0X4X9Xm.N.x.M.M./.K.M.N.M.b.`.V.M.x.x.N.F.0X,Xx.|.1XF.N.z.z.z.N.F.~.pX:Xh.N.M.x.z.z.x.B.G.oX4XeXV.M.x.z.x.N.F.oX0X2X X",
"M.Q.).h.5XG.N.x.M.V.G.1X=XV.N.N.N.2XV.N.G.N.M.x.z.z.x.x.M._.).T.M.Y.1XV.N.x.N.V.1XQ.N.M.N.n.1X#XB.V.#X=XM.M.M.M.V.`.-XV.M.N. Xn.N.M.V.W.`.N.M.M.M.",
"T.M.N.M.N.=X'.M.F.+X*XV.V.M.z.x.M.N.F.@X XN.M.x.z.z.z.z.z.M.V.Z.2X@XV.M.z.z.z.M.N.V.*X=X.XE.M.N.z.x.M.N.*X+XM.T.`.V.M.x.x.x.N.F. X+X@XG.M.x.z.x.z.",
"x.x.x.z.x.M.G.wX}.G.V.N.z.z.z.x.z.x.M.M.N.D.T.G.N.x.z.N.V.T.~.F.V.M.x.x.z.x.z.z.x.M.N.N.N.T.G.M.x.z.z.x.M.V.A.G.M.x.x.z.z.M.M.M.M.M.M.x.N.N.N.x.z.",
"z.z.z.x.z.x.M.M.V.W.G.M.x.z.z.z.z.x.z.z.x.x.x.N.N.N.x.x.M.M.M.x.N.D.V.x.x.x.x.M.N.N.x.z.x.x.N.T.N.x.z.z.z.x.x.M.D.F.V.D.V.M.z.z.z.M.N.M.M.x.x.x.M.",
"z.z.x.M.N.x.x.M.M.N.M.m.W.T.F.M.z.x.z.z.z.x.A.qX,X4XM.M.x.z.z.x.x.M.V.V.    M.M.x.x.z.z.z.x.x.x.`.+XZ.M.z.x.x.x.x.x.x.z.x.x.N.M.M.1X2X@X[.M.M.M.~.",
"x.x.z.z.x.M.P.1X3X=Xn.M.x.x.z.M.M.M.x.x.B.2X3XV.N.V.>X*XB.x.x.N.D.M.1 .  . .X V.W.F.M.x.x.M.Z.qXA.V.W.4Xj.M.M.x.x.x.N.N.N.M.M. XXXB.N.M.M._.~.`.b.",
"`.M.M.x.M.@X+XN.N.N.#X<XN.V.x.z.z.z.M.J.4X;XF.n.x.M.V.n.-X X_.V.r.    X.:.^   X e.Y.G.W.n. X1X+XV.M.N.F.0X5X#XN.N.S.3XeXrX).Y.l.N.M.z.z.x.M.M.F.M.",
"M.+X*X@X+XM.M.z.z.x.M.M.S.4X;XD.N.W.*X1XV.N.x.z.G.V.M.x.M.x.9.4.  ../ #.O.N Y |   9.9.f.b.N.M.x.z.z.z.x.N.V.F.1X2XZ.N.N.N.E.+XN.M.x.z.z.z.x.z.z.x.",
"x.x.x.M.M.M.M.z.z.z.x.x.x.V.V.4X5X+XM.M.z.x.x.x.x.M.M.x.# X ! X.X.o.o.o.W  . .j ^ ! J   # x.M.z.z.z.x.N.V.$X.XV.N.l.z.z.x.x.M./.'.T.N.x.x.z.z.z.z.",
"M.x.z.x.z.z.z.M.N.G.Q.T.M.M.N.M.x.x.x.z.x.M.E.Q.G.D.x.5.(  .o.o.o.o.o.o.o.o.~ X.o.o.o./ S . x.M.V.V.T._. XM.V.x.N.N.z.z.x.z.x.x.x.M.T.T.V.N.M.M.z.",
"M.N.x.x.M.M.M.D.W.M.z.b.Q.G.M.x.z.z.x.N.V.M.x.x.M.M.x.O o.o.o.o.o.o.o.o.o.o. .o.o.o.o.o.^ J 4.M.N.T.T.x.M.z.z.z.z.M.N.W.`.D.x.z.z.z.z.M.V.%X(.D.M.",
"z.x.M.V.&X`.V.x.x.z.z.x.M.M.x.M.x.M.V.*X<X+XN.x.x.2.  ~ >.<.O.o.o.o.o.o.o.o.o.o.o.o.o.o.o.^ O < x.z.x.z.x.M.N.M.x.N.D.x.x.F.A.M.x.x.V.`.1XV.h.1XF.",
"M.N.!.%XV.`.OXN.M.M.N.m.;X;Xm.M.V.+X1XM.M.G. X~.b._ | =.1.<.o.o.o.o.o.o.o.o.o.o.o.o.o.o.o.o.W I # M.x.M.V.*X1XT.V.M.z.x.z.x.x.V.D.D.+XT.N.M.M.B.#X",
"~.[.V.N.x.M.V.#X*X#X X_.N.V.=X1XV.M.M.z.z.M.M.F.  .. .>.<.o.o.o.o.o.o.o.o.o.o.o.o.o.o.o.o.o. .W + M.V.+X&XB.N.n.=X9XV.x.z.M.F.~.<XN.N.M.x.z.z.x.M.",
"N.M.M.x.z.z.z.N.M.V.N.M.z.M.N.V.+XQ.D.x.x.x.c.k.X  .O.1.O.o.o.o.o.o.o.o.o.o.o.o.o.o.o.o.o.o.o.! % b.!.Z.N.x.x.M.V.V.;X4Xn.;X=X}.Z.M.x.x.z.z.z.z.z.",
"M.F.V.x.z.z.z.z.x.x.x.x.z.x.z.x.M.N.N.F.V.M.M.  J o.;.=.o.o.o.o.o.o.o.o.o.o.o.o.o.o.o.o.o.o.o. .G   M.x.z.z.x.z.z.x.V.V.9XT.N.N.T.~.L.M.x.x.z.z.x.",
"z.z.x.V.V.V.M.M.x.M.N.#XT.M.x.z.x.M.+X_.F.M.M., | o.o.o.o.o.o.o.o.o.o.o.o.o.o.o.o.o.o.o.o.o.o. .W Z B.M.x.z.z.z.z.M.M.x.N.x.z.z.z.M.l.W.W.N.x.x.M.",
"x.z.z.z.x.x.F.9XH.G.W.x.x.G.N.M.G.W.x.x.b.T.M.e | +.$.+.$.@.$.$.$.o.o.o.o.o.o.o.%.$.$.$.$.$.@.+._ ) N.x.M.G.D.T.N.V.x.M.M.M.x.M.G.D.M.x.M.N.V.D.M.",
"F.T.V.M.M.Y.*XZ.[.*XD.M.z.z.z.M.z.z.z.M.N.F.  J @                   O.O.O.O.o..                   Q   b.V.M.x.x.M.x.N.G.5X`.V.x.x.z.M.M.V.S.=XG.M.",
"x.x.M.G.<X-XN.M.V.].`._.N.M.x.z.z.x.V.F.$XW.      jXyXtX$                       jXuX2                 ^.`.Y.M.x.M.D.W.3XN.'.<XF.M.x.M.V.`.[.N.+X`.",
"x.M.W.Q.N.M.x.z.z.z.M.n. X@XV.M.V.G.+Xm.M.x.  F   tX$                 V C V     tX.               x   x.N.+X=XV.Y.;Xm.M.x.M.B.*X.XN.~.~.M.M.x.x.M.",
"M.~.T.x.x.z.x.z.z.z.x.x.M.V.+X*X+X#XN.x.x.z.  | A                   . | o. .e                   : R   z.x.M.B.qX1XV.M.z.x.z.z.M.M.W.M.M.x.x.x.z.x.",
"D.M.M.M.x.x.z.x.N.G.T.G.M.x.x.M.M.M.x.z.z.k.  | #.                  G = = = T .                 ` P   k.z.x.x.M.M.x.M.N.N.z.x.z.x.M.F.m.M.z.z.x.z.",
"z.z.z.x.M.x.z.z.z.z.z.M.F.V.N.x.x.M.N.V.M.x.X _ o.@               S   c c s   b               X ( Q   v.z.z.z.x.N.V.N.x.z.M.x.z.z.x.x.M.N.V.z.x.z.",
"N.z.z.z.N.G.D.x.z.x.N.@X0XpX3XN.x.z.x.z.l.l.Y.- o.D O           V   f } m n p   z           . z / [ f.V.x.x.x.N.<XdX<Xh.N.x.N.M.x.N.2X2X*Xj.M.z.z.",
"x.F.eXL.N.x.x.N.G.*X1Xm.N.N.N.@XA.N.x.F.W.Z.C.. ! o.o.Y D z   @ + s } } m n v q % .   x F Q ^ ..J : f.M.N.Y.+X8XV.M.N.Z.*XY.z.x.D.2Xb.V.V.~.#XV.x.",
"F._.N./.+Xm.V.`.$XV.N.M.z.x.M.M.b.`.).W.M.x.x.* A | o.o.+ + i g ' { b d d d c n v i q O - o.o.^ V # x.N.T._.B.N.x.z.z.M.B.1X*X1X6XM.N.x.x.M.D.[._.",
"M.M.x.N.N.1X,XD.M.x.x.x.x.z.z.z.M.N.M.M.M.x.M.Z.o / | o.. v n { n p           a n v v s   o. .T + e.b.x.x.M.x.x.z.z.z.z.x.M.Z.A.V.x.z.x.z.z.z.M.M.",
"x.z.z.z.z.x.N.~.~.n.x.x.x.z.z.z.x.N.x.z.. o   x.  U E  .o 8 c c a   4 4 4 3 3   p s p 9 @  .~ K   x.  o . d.x.x.M.x.z.x.M.V.N.M.z.N.N.x.z.z.z.z.x.",
"x.F.G.N.x.z.z.z.x.x.^.W.G.M.x.M.x.x.9.y O.o.    ..) : / ~ Z     6 g 0 0 7 7 7 g 5     ` ~ E w y G     #...u * x.x.V.W._.W.N.x.x.z.x.M.x.M.M.x.z.x.",
"z.z.x.k.N.x.M.N.M.x.x.x.x.M.N.N.M.M.w.X.;.o.I M .. .| k B W F . + 8 c c c c d 8 %   H W B r Q ~ | ) C =.o.^ X M.N.M.x.z.M.G.m.V.N.x.z.z.x.x.M.B.~.",
"z.z.z.z.x.N.V.pXJ.m.N.x.z.x.M.V.V.F..  .>.o.o.t o.o.o.o.H j H F S             X z F H h D W | o.o.h  .=.o.o.] g.N.x.z.M.N.%X2XqXU.N.M.z.M.A.~.Q.M.",
"M.x.x.M.N.+X XN.P.1XY.N.M.N.R.*X`.B.. o.&.o.o.r o.o.o.o.o.| W J J S V V V V V V L J W ^  .o.o.o.o.h  .O.o.o.] b.W.V.N.V.*X#XN.N.G..XV.m.T.V.x.x.x.",
"W.W.M.E.[.F.M.z.M.M.+X:Xn. X[.V.M.  C o.&.o.o.o.o.o.o.o.o.o.o.| ~ R H H H I L P ~ | o.o.o.o.o.o.o.o.o.o.o.o./ X M.T._.@XA.M.z.z.M.V.+X XN.x.z.z.z.",
"M.F._.F.N.M.x.x.x.M.N.N.+X[.D.x.x.  | o.o.o.o.N o.o.O.<.=.o.o.o.o. .~ ~ ~ ~ ~  .o.o.o.o.o.o.o.o.o.k  .o.o.o.| . x.M.V.V.M.x.z.z.z.x.M.V.].-X+XD.M.",
"x.x.x.x.x.x.N.W.F.M.z.z.z.x.N.N.V.  R o.o.o.X.l o.&.<.>.;.o.o.o.o.o.o.o.o.o.o.o.o.o.o.o.o.o.o.o.o.k  .o.o.o.J   G.M.x.x.N.M.x.z.z.M.N.).*XV.V.*X+X",
"F.T.x.z.z.N.M.x.x.M.N.M.x.z.x.V.+X  V o.o.o.H t o.=.<.,. .o.o.o.o.o.o.o.o.o.o.o.o.o.o.o.o.o.o.o.o.l E o.o.^ D   _. XV.M.z.x.V.G.V.F.$XV.M.x.x.B.F.",
"z.x.m.G.M.N.N.x.V.V.x.M.z.M.+XOXM.  j ~  .~ h X.o.-.<.;.o.o.o.o.o.o.o.o.o.o.o.o.o.o.o.o.o.o.o.o.o./ k ^ | W z   x.N.XX*XB.z.x.M.`.P.N.x.z.z.z.x.M.",
"z.x.M.g.<XXX<XV.x.z.z.z.M.*X).M.x.N.. ~ ^ P k o.o.o.o.o.o.o.o.o.o.o.o.o.o.o.o.o.o.o.o.o.o.o.o.o.o.o.h P ~ R w n.x.x.M.G.2XM.Y.W.x.x.x.M.M.x.z.z.z.",
"M.M._.=XB.M.B.qXZ.N.M.N.T.=XN.x.x. X  C E j ~ o.o.o.o.o.o.o.o.o.o.o.o.o.o.o.o.o.o.o.o.o.o.o.o.o.o...W l P V   /.G.z.z.x.Z.1XM.M.z.z.N.T. X).M.z.z.",
"_.@XV.M.M.x.M.N.G.`.G.x.;X Xx.x.(.=Xx.o B P ^ ^ o.o.o.o.o.o.o.o.o.o.o.o.o.o.o.o.o.o.o.o.o.o.o.o.o.^ ~ H B . l.M.*XZ.z.z.M.pXx.M.M.G.T.M.M.M.).N.x.",
"M.M.M.x.x.z.x.M.M.M.x.z.wXM.k.V.pXx.D.y.. R ^ | | o.o.o.o.o.o.o.o.o.o.o.o.o.o.o.o.o.o.o.o.o.o.o.^ ~ W R & t.wXW.c.*Xx.z.x.pXz.x.M.x.z.z.z.z.M.G.W.",
"z.z.x.z.x.M.F.wXH.N.x.x.qX`.z.x.=XOXk.p.  P T ^ ^  .o.o.o.o.o.o.o.o.o.o.o.o.o.o.o.o.o.o.o.o.o.| ^ ~ P D & i.k.5XN.W.M.x. X#Xz.x.M.x.x.x.V.B.M.N.x.",
"M.x.x.x.N._.+XB.+XQ.M.x.~.-Xx.x.F.2XE.p.7.V P T ^ ^ ^ o.o.o.o.o.o.o.o.o.o.o.o.o.o.o.o.o.o.o.^ ~ ~ P H D 2.t.Q.2XW.x.x.N.2XM.z.z.z.x.M.V.=X$XN.N.x.",
"E.h.M.N.Q.S.N.M.M.H.W.N.x.oXK.z.x.`.6XI.t.X V J E ^ ^ ~  .o.o.o.o.o.o.o.o.o.o.o.o.o.o.o.^ ~ ~ ~ P L z # t.u.6X`.z.x.M.XX>XM.M.x.x.N.H.*XV.V.@X/.M.",
"M.b.;X.XM.x.x.z.x.x.M.D.x.n.eXqXz.z.Z.fXgXs.t.3.> P J W ^ ^ ^ ^ | | | | | | | | | ^ ^ ^ ~ ~ T J > 3.y.p.=XgXv.z.z.M.0XsXD.N.=X-XV.|..XD.M.x.M.b.`.",
"z.x.N.N.!.D.x.z.z.z.z.z.x.x.M..X1XH.l.z.(.5XwXa.y.6.J L P T E ~ ~ ~ ~ ~ ~ ~ ~ ~ ~ ~ E E J H L 6.y.p.x.wX,XM.x.z.M.4X=XM.x.x.x.Y.7X_.M.z.z.z.x.M.M.",
"z.z.z.x.M.N.F.x.M.M.N.M.z.x.x.N.=X5X0Xz.x.N.1X6XOXp.8.6.J P J P J J H H H H H H J H J P L 6.8.p.u.pXwXdXd.x.x.(.4XW.M.z.z.x.V.V.M.M.T.x.z.z.z.z.z.",
"z.z.z.z.x.x.N.W.eX6X,X9XN.M.M.x.x.N.|.4X1XG.x.v.5XfXfX`.a.t.t.q.q.0.q.q.q.q.q.0.q.0.i.t.a.k.*XhXfXu.l.x.x.D.sX.XN.N.x.x.x.x.x.z.z.z.x.x.V.N.x.z.z.",
"x.x.z.z.z.N.Y.=Xl.M.M.M. X$XN.x.z.x.x.v.}..XT.z.k.f.}.aX=XM.z.x.z.z.s.p.p.p.s.s.a.s.k.Q.<XiXpXK.k.z.M.V.0X&XS.x.z.M.W.`.M.x.z.z.z.z.z.x.x.x.M.N.V.",
"Q.V.N.M.V.+XQ.x.x.x.z.x.M.B._.E.N.z.z.z.N.F.F.M.x.z.z.z.).4XaXpX3X).V.M.x.x.c.Q.=XwX5X*XG.l.z.z.x.D.4XiX6XM.z.z.z.V.M.G.=X[.M.x.z.z.x.N.V.<X2XG.N.",
"M. X+Xn.@XL.x.z.z.x.x.M.x.z.x.M.V.V.M.x.z.M.n.5X0XD.M.z.z.x.x.M.V.N.M.x.x.x.x.x.N.x.M.M.z.x.M.`.2X5Xg.x.z.z.z.V.V.x.z.x.M./..XV.N.M.N.*X=XM.M..X).",
"z.M.M.B.N.T.D.x.x.x.z.z.z.z.z.x.M.N.N.M.x.z.z.x.f.aXaXaX=X`.W.N.x.G.@X3XaXaX6X/.T.M.V.W.`.`.F.x.N.M.M.x.x.N.x.z.z.z.z.z.z.x.N.`. X X*XB.M.x.x.M.N.",
"z.z.z.z.z.x.x.G.Q.E.V.x.z.z.M.B.A.2XpX).V.x.z.z.x.M.c.M.M.M.M.D.N.x.M.x.M.F.V.m.N.D.V.x.x.x.M.n.*X*XT.M.x.x.z.x.z.x.x.z.x.N.x.M.M.V.V.z.z.z.z.z.z.",
"z.z.z.x.z.z.z.z.z.x.x.x.x.M.V.<X8XN.N._.&Xm.x.z.z.z.z.z.z.x.N.M.M.x.N.N.x.z.x.M.x.z.z.z.z.N.Q.].N.N.].*Xv.x.x.x.D.G.T.V.N.z.z.z.z.z.x.M.x.x.z.z.z.",
"z.z.z.x.N.V.V.x.z.z.z.x.V.@X<XN.M.x.z.M.b.1X*XN.x.z.z.z.N.Y.*X=XV.M.z.z.z.x.x.z.M.N.D.N.N.V.x.x.z.z.M.N.`.Q.V.F.<XdX0X-XN.z.z.z.z.x.z.z.z.N.M.z.z.",
"x.x.x.N.h.2X4XS.M.x.V.). XF.M.M.z.x.z.z.x.M.n.|._.F.M.M.3X9XV.N.;X+XN.x.x.z.x.N.A.>XeX3Xg.M.x.z.z.z.z.x.M.Y.W.1X~.B.N.n.&XG.x.N.V.D.x.x.M.b.[. XV.",
"z.M.Y.Q.~.M.M. X&XV.M.x.x.x.x.M.V.M.z.z.z.x.x.M.x.F.S.sXN.M.z.z.M.N.*X+XN.M.N.OX#XN.N.V.9X;Xm.M.z.z.z.x.V.=X<XB.N.x.z.M.N.9XZ.M.z.x.x.M.`.#XM.N.[.",
"x.!.n.M.z.z.z.M.V.$X+XN.x.M.N.N.x.x.x.x.z.z.x.x.n.'.*XD.M.z.z.z.z.z.N.B.@X.X$XM.N.z.z.z.M.N.).-Xn.M.N.F.*Xn.M.z.z.z.z.z.z.M.G.Q.V.M.W. XM.M.z.z.M.",
"!.M.x.z.z.z.z.x.M.V.B.@XQ.M.x.z.z.z.z.z.x.x.V.XX+Xn.N.x.N.M.z.x.z.z.x.N.n.G.N.M.z.z.z.z.z.x.N.A.1X=X*X(.N.M.x.M.M.z.x.z.z.x.M.W./._.M.N.x.z.z.z.z.",
"x.x.z.z.z.z.z.x.z.z.x.M.x.G.G.N.x.M.M.x.N.E.E.M.M.x.x.x.x.N.M.x.z.z.b.W.N.l.G.x.z.x.x.z.z.z.x.x.V.m.T.m.x.z.z.z.x.N.N.x.z.F.~.M.M.M.x.x.z.z.x.z.z.",
"z.z.x.x.M. X`.N.x.z.z.z.z.x.M.~.`.5X;X+XN.M.x.x.z.z.z.V.W._._.Q.M.x.x.z.x.x.x.F.V.M.x.x.x.x.V.G.D.x.M.M.W.F.x.z.z.z.x.N.G.M.x.x.z.x.z.z.z.M.L.G.z.",
"N.x.M.W.~.M.M.].T.N.x.x.M.!.~.N.M.M.M.N..XN.x.z.z.x.x.M.x.x.x.M.W.Q.M.x.x.z.z.N.Y.|.-X+X~.M.M.x.z.z.z.z.x.x.N.G.F.N.x.x.x.N.1X&XH.M.x.N.m.V.z.x.M.",
"M.W.Q.M.x.z.x.x.M.~.E.W.W.M.M.x.x.x.x.x.N._.).N.x.M.M.x.z.z.z.x.x.M.W.T.M.M.N.+X1XN.N.M.M.~._.M.x.z.z.z.z.z.x.M.M.x.x.x.N.#XN.b.{.~.N.x.x.z.z.z.z.",
"z.x.x.z.z.z.x.z.z.x.x.M.N.x.x.z.x.x.z.z.z.x.M.G.W.F.F.G.z.z.z.z.z.x.x.M.G.W.`.N.M.x.x.z.z.x.N.W.Y.x.z.z.z.M.W.~.W.G.M.G.W.N.z.z.x.M.T.G.x.z.z.z.z.",
"z.z.x.z.z.z.x.z.z.z.z.x.x.M.M.x.z.z.z.z.z.x.z.M.x.z.z.x.N.M.x.x.z.z.z.z.x.x.x.x.x.z.z.z.x.z.x.x.M.V.M.x.M.V.M.x.x.M.F.M.M.z.z.z.z.z.x.x.V.V.M.x.x."
};
