/* XPM */
static const char *normal_floor_9[] = {
/* columns rows colors chars-per-pixel */
"9 9 69 1 ",
"  c #0DB3FD",
". c #0FB2FD",
"X c #0CB4FD",
"o c #0DB5FE",
"O c #0CB4FF",
"+ c #0FB5FF",
"@ c #0FB8FD",
"# c #13B4FA",
"$ c #14B7FA",
"% c #10B3FE",
"& c #10B3FF",
"* c #11B5FC",
"= c #11B5FD",
"- c #12B6FD",
"; c #11B4FF",
": c #13B7FE",
"> c #13B7FF",
", c #14B7FC",
"< c #14B4FE",
"1 c #14B6FF",
"2 c #13B8FA",
"3 c #16BBFB",
"4 c #11B8FE",
"5 c #15B8FD",
"6 c #14B9FD",
"7 c #17BAFD",
"8 c #16B9FE",
"9 c #16B8FF",
"0 c #15BAFE",
"q c #16BBFF",
"w c #17BCFE",
"e c #17BEFF",
"r c #1AB9FA",
"t c #19BBFB",
"y c #1ABDF8",
"u c #1DBDF9",
"i c #18BBFC",
"p c #18BBFE",
"a c #1CBBFC",
"s c #19BCFD",
"d c #18BDFD",
"f c #1BBDFD",
"g c #1ABEFD",
"h c #1ABDFE",
"j c #19BEFE",
"k c #19BEFF",
"l c #1CBEFC",
"z c #1DBFFD",
"x c #1FC3FF",
"c c #22C1FB",
"v c #22C3FA",
"b c #27C5FF",
"n c #29C4FC",
"m c #28C7FF",
"M c #2BC7FF",
"N c #2ECAFB",
"B c #34C4F6",
"V c #34C9FF",
"C c #34CBFF",
"Z c #37CEFD",
"A c #3ACDFF",
"S c #3AD0FF",
"D c #49CFF5",
"F c #50D5FF",
"G c #56D6FF",
"H c #66DDFF",
"J c #68DCFF",
"K c #7ADEFF",
"L c #8BE3F7",
/* pixels */
"gr.cHg%r%",
"@D7x3O72g",
"gBOzCS*yg",
"7G*uCwmzg",
"*F<<mO*c.",
"Ow*m77ig*",
"w%LA*<i*7",
"4%#J$7b7w",
"KZNim<.ga"
};
