/* XPM */
static const char *normal_floor_127[] = {
/* columns rows colors chars-per-pixel */
"127 127 195 2 ",
"   c #0FB5EF",
".  c #1FB2E5",
"X  c #1EB9E7",
"o  c #14B3ED",
"O  c #1BB5ED",
"+  c #14BAEC",
"@  c #1BBDEE",
"#  c #0CAFFB",
"$  c #0DB4F5",
"%  c #0BBBF7",
"&  c #07B2FD",
"*  c #0EB3FD",
"=  c #0EBAFD",
"-  c #14B5F6",
";  c #1BB6F5",
":  c #15BAF6",
">  c #1BBBF5",
",  c #12B5FD",
"<  c #19B7FB",
"1  c #15BAFD",
"2  c #1ABDFD",
"3  c #25B6EB",
"4  c #23BCEE",
"5  c #2CBCED",
"6  c #22B7F1",
"7  c #23BEF5",
"8  c #2BBEF3",
"9  c #22BEFB",
"0  c #29BFFA",
"q  c #1EC0F6",
"w  c #16C1FE",
"e  c #1DC1FE",
"r  c #1BCAFE",
"t  c #25C2EF",
"y  c #2BC3EB",
"u  c #33C2ED",
"i  c #3CC3EC",
"p  c #39C9EE",
"a  c #24C2F6",
"s  c #2BC3F5",
"d  c #2DC8F6",
"f  c #23C3FD",
"g  c #2BC6FE",
"h  c #29C5FD",
"j  c #2DC7FD",
"k  c #2CC5FE",
"l  c #2CC7FF",
"z  c #2EC7FF",
"x  c #2FC4FC",
"c  c #2AC5FD",
"v  c #25C9FE",
"b  c #29C9FD",
"n  c #28C9FF",
"m  c #2BC9FF",
"M  c #2DC8FE",
"N  c #2FC9FF",
"B  c #2ECBFF",
"V  c #2CC9FE",
"C  c #33C4F4",
"Z  c #3BC6F5",
"A  c #34C9F6",
"S  c #3BCAF5",
"D  c #30C3F9",
"F  c #34C7FA",
"G  c #32C4FF",
"H  c #30C7FE",
"J  c #34C7FD",
"K  c #32C6FB",
"L  c #39C6FA",
"P  c #30C8FA",
"I  c #33C9FE",
"U  c #30CAFD",
"Y  c #36C9FD",
"T  c #35CBFD",
"R  c #31CCFF",
"E  c #37CDFF",
"W  c #33CBFE",
"Q  c #38CAFB",
"!  c #38CBFF",
"~  c #3BC8FE",
"^  c #3FCBFC",
"/  c #38CEFF",
"(  c #39CFFF",
")  c #3ACEFC",
"_  c #3FCDFD",
"`  c #3ECFFE",
"'  c #3BCCFD",
"]  c #3ED0F7",
"[  c #34D1FF",
"{  c #3DD0FB",
"}  c #3DD1FE",
"|  c #33D9FF",
" . c #47C3E7",
".. c #4CC6EE",
"X. c #44C9EC",
"o. c #4CCCEE",
"O. c #52CEEF",
"+. c #5CCFEE",
"@. c #46D0EC",
"#. c #44C4F3",
"$. c #43CBF5",
"%. c #4ACCF4",
"&. c #40CAF9",
"*. c #40CEFE",
"=. c #45CEFC",
"-. c #43CDFC",
";. c #4CCEFC",
":. c #55CEF3",
">. c #50CFF8",
",. c #54CFFA",
"<. c #44D3F5",
"1. c #4AD1F6",
"2. c #40D2FF",
"3. c #43D0FD",
"4. c #46D0FF",
"5. c #44D2FE",
"6. c #4CD1FE",
"7. c #4BD3FE",
"8. c #44D9FE",
"9. c #4DDAFF",
"0. c #53D1F7",
"q. c #5AD0F6",
"w. c #5ED3F5",
"e. c #50D0FF",
"r. c #57D6FF",
"t. c #54D4FD",
"y. c #5BD5FC",
"u. c #54DAFF",
"i. c #5AD8FF",
"p. c #5ADAFF",
"a. c #5DDCFF",
"s. c #5CDAFF",
"d. c #65D1ED",
"f. c #71D0EE",
"g. c #63D3F6",
"h. c #69D6F6",
"j. c #65DCF7",
"k. c #6BDAF6",
"l. c #60D4FB",
"z. c #65D7FB",
"x. c #63D6FB",
"c. c #69D6FC",
"v. c #64D8FF",
"b. c #63DBFE",
"n. c #6BD9FC",
"m. c #69DEFF",
"M. c #6BDCFE",
"N. c #72D7F5",
"B. c #73DBF7",
"V. c #78DCF6",
"C. c #74D6F9",
"Z. c #74DCFF",
"A. c #73DDFD",
"S. c #7BDDFC",
"D. c #5CE0FF",
"F. c #64E2FF",
"G. c #6CE1FF",
"H. c #6CE3FF",
"J. c #6CE3FF",
"K. c #62EAFF",
"L. c #69E8FF",
"P. c #7FE2F7",
"I. c #73E2FE",
"U. c #7BE4FF",
"Y. c #7BE3FE",
"T. c #72E9FF",
"R. c #7BEAFF",
"E. c #7CF1FF",
"W. c #84DDF5",
"Q. c #82DEFC",
"!. c #8ADFFC",
"~. c #85E0F5",
"^. c #8BE3F6",
"/. c #84E3FD",
"(. c #8BE3FD",
"). c #83ECFF",
"_. c #8BEBFF",
"`. c #92E3F5",
"'. c #9AE1F5",
"]. c #90E3FF",
"[. c #95E5FC",
"{. c #94E6FC",
"}. c #92E4FC",
"|. c #9BE6FC",
" X c #94E9FE",
".X c #94EBFE",
"XX c #9BEAFE",
"oX c #84F1FF",
"OX c #8CF1FF",
"+X c #88F8FF",
"@X c #95F2FF",
"#X c #9AF2FF",
"$X c #A3E7FA",
"%X c #A3EBFD",
"&X c #AAF1FF",
/* pixels */
"1 1 1 1 1 1 * * * * * 1 1 1 1 1 1 1 , , , , , 1 1 2 2 2 g N N 2 2 1 1 1 1 1 2 2 2 1 1 * * , , , , 1 1 1 , * 1 1 1 2 2 2 2 2 2 1 1 1 , 1 , , , , , , , , 1 1 1 2 f g 2 2 1 1 1 1 1 1 1 2 2 ' f 2 1 1 , , , , , , , , , , , , 1 2 2 2 2 e 9 e f 1 1 1 1 1 1 1 1 ",
"1 1 1 1 1 1 * * * * * 1 1 1 1 1 1 1 1 , , , , , 1 1 w 2 g N N ' ' I 2 1 f c c.t.2 1 1 * * , , , , , 1 , , & 1 1 2 2 2 2 2 2 2 1 1 1 1 1 , , , , , , , , 1 1 1 e g c 5.7.; 1 1 1 1 1 2 z.M.^ { K 2 1 , , , , , , , , , , , , 2 2 2 2 2 4 Z.M.H.1 1 1 1 1 1 1 1 ",
"1 1 1 1 2 f 2 1 , 1 1 1 1 1 1 1 1 1 1 f f g f 1 , , , , 1 2 2 f a I H.Z.6.p.9 2 1 1 1 2 2 , , , , & & & * , , 2 2 2 , , , , , 1 1 1 1 1 1 1 1 , , , 1 1 j K N f 1 1 > P a.v. X[.[.q.p.F Q f f 5.>.' 2 1 1 , , , , , , , , w e h g j j N s x 8 x.&.f 2 2 2 1 1 ",
"1 1 2 1 2 2 f f 1 1 1 1 1 1 1 1 1 1 f f f f f f , , * * 1 1 2 e f f - - 1 , 1 , , 1 1 2 2 2 1 , , $ , , , , 1 2 2 1 1 , , , , 1 2 1 1 1 1 1 1 1 , , f f J 1 2 , , , , * : > o > y C s e e e 1 1 > j ' - 1 1 , , , 1 1 1 1 y.-.j f 2 1 1 1 1 , O 7 m g m 1 1 1 ",
"2 2 2 2 2 2 f f ` *.` 2 2 2 2 2 E E N f f , 1 f f f I R f f f f f 1 1 , , 1 , 1 1 2 e f f f 2 1 1 , 1 , 1 2 1 2 2 1 1 1 1 1 2 2 2 f 5.U.].r.e 2 1 1 f f , & , * * * , , 2 1 1 1 m g j e w 1 1 1 2 f ' D j w 2 2 2 2 f T T 1 * * 2 2 2 1 1 1 1 2 f m N I f 2 w ",
"E I B f f 1 1 w f h ' M.M.7.5.` E R e , , , , f 6.7.N N f 2 2 , 1 * , , 1 1 f j N f f 1 2 2 2 2 1 1 1 1 2 1 1 1 1 2 1 1 1 1 b f f t.[.t.f s 7.*.f 1 1 1 * , , , , , 1 2 1 1 1 1 1 1 1 1 1 1 * , 1 1 1 f f f f N p.t.*.1 1 1 , * , , 2 1 * * * 1 1 1 e w ' ' E ",
"t.6.XX/.Z.f 2 2 1 1 1 e e j N f 2 1 , , , 2 f j f 2 1 1 , * * * * * * * 1 , 2 9 2 , , , , , , 1 2 f ^ ' ' 2 2 1 1 2 1 n  X].' m.A.' 2 2 2 2 2 9 I I g f g 2 2 , * * * * , * , , , , * , * 1 1 1 1 1 2 1 w  X.Xz.8 f 1 1 1 , , * * * , * * * , , , , 1 1 2 f h ",
"' ' > I.I.s 2 2 1 1 1 2 2 e f 2 1 1 , , , 2 f f 2 2 1 1 1 , 1 , , * * , , , 2 2 e 1 1 , , * , , 2 e E ` ' g e 1 2 2 $ Z .X).I u.p.j 2 2 2 2 1 2 N T x I N e e , * * * * , , , , , , * * , 1 1 1 , 1 1 p.a.s.s.2 e f 1 1 1 1 , $ * * * * * , , , , 1 1 2 2 e e ",
"N N f ' &.M.8 1 2 2 1 * * * * * * * * , , 1 1 , 1 1 1 1 1 w 2 2 2 1 , * * * * * & , , , , 1 1 1 1 2 2 2 2 g f 1 1 e : (.7.p.f 2 2 2 1 1 * * , 1 1 e N N c w 2 1 * , , , , * * * , , * * , * , , f I 5.z.v.f f f f f f 1 2 2 2 2 1 , * * * * , , , , , , 1 f f ",
"e e f e e ' K.t.e 2 1 * * * * * * * * , , 1 1 1 f 2 (._.Y.x j 2 2 f 2 , * * * * & * , , , 1 1 1 1 2 2 2 2 2 2 e } Q.).5.f f e 2 1 2 < , * * , 1 1 1 e 2 f g g f 1 1 , , , * * * , , , , * * , , g &.v.9 f 9 f f f f f f f 2 2 2 e f , , * * , , , 1 1 1 s.O.6.",
"1 , , 2 2 2 m x t.9.j f f 1 1 1 2 2 1 1 1 N E t.1.7.m x b.v.M.b I f e f 2 2 1 1 1 1 1 2 2 w f f g g e 2 2 P %.c.c.| B h 1 1 , , , , , , * , * , , , , , 1 2 1 f f g w 1 1 1 1 1 1 1 1 , , 2 f f 2 w 2 2 1 1 1 , , 1 w f f g f e 2 2 2 2 1 1 1 1 2 e c.z.` f f ",
", , * 2 w e 2 2 2 2 N *.` ;.;.-.g j y.(.(.6.u.E e e f f e f f M.Z.;.P g f f f f f ' R A.S.y.=.f 1 1 2 j N e w 1 1 2 2 f f f 1 , , , , 1 1 2 2 1 * & * & , , , 1 e f ' *.&.I e e 1 1 1 1 1 2 2 w f f f 2 1 , , , , 1 w w 2 ;.I.S.N g e 2 2 2 2 5.s.t.g f 1 1 2 ",
"1 1 1 2 2 2 1 , , 1 1 c h F 5.*._.R.6.$.;.s x g f f 2 2 1 2 2 D C I u.7.u.7.a.s.b.Q E C L s ; 1 , , , 1 1 2 1 , 1 1 1 1 f f e 2 2 2 2 2 2 1 , , * * * & , , , , 1 2 f T T P *.' F.q e 2 2 e w w f f f f e 2 2 2 2 2 w g n -.6.1.M.I.E E 2 f ` I.^ 0 2 e 2 1 1 ",
"1 1 2 2 2 < , , , , 1 e e f } *.$X$Xt.N m e e e e e 1 1 1 2 2 2 2 n p.y.z.m./././.Y E e w 1 1 1 , , * * , 1 1 1 , , 1 1 e e f 2 2 2 2 w 2 2 * * * * * * , , , 1 1 1 e N m N ` &.|.8 f 1 2 2 e e 2 e e e e e e e e w 2 E ' *.T I .X(.6.7.: e s./.c 2 2 2 2 , , ",
"1 1 1 , , * & * , , 2 2 2 f f e E T x m e e 2 1 * * * * * * * 1 1 1 2 2 f m 5.H.b.T E e e 1 , * * & * * * 1 1 1 1 1 1 1 1 1 1 2 2 2 2 1 , * * * * , 1 2 1 1 1 e 2 2 2 1 2 2 2 1 2 I.B.2.2.e 1 1 , , 1 2 2 e e w n m 5.Q T e e f f f /./.M.v.s.2 2 2 , * * , * ",
"1 1 , , * * & & & & & * * 1 1 2 2 2 2 e e 1 1 , , , * * & & & * * , , , 2 1 w I ' R B ~.U.m e 1 , , * * * & * , , 2 2 1 1 1 1 , , , , , , , * 1 1 2 2 m XX%X_.5.f e 2 2 1 1 1 1 2 d h t.g.6.2 2 1 , , , , 2 1 T I j 2 2 2 , , , 2 2 f s 6.N n 2 1 1 1 1 1 * * ",
", 1 , , * * * * & & & 1 1 1 1 1 1 1 1 2 2 1 , 1 1 1 * * * & & * * , 1 2 2 e E ' E f f =.p.b.S f 1 1 , , , # * , , , 1 2 2 2 1 , * , , , 1 , 1 1 2 e 2 I.M.y.b.M.t.5.2 1 2 1 f g g f f 7 . p.r.7.1 , , , , 2 2 9 > 1 2 2 2 1 , , 1 1 e 2 8 N T T f 1 1 1 1 , * ",
", , , , , , , * * , 2 e e 2 2 , , , , , , , , , , , , , , , , 1 1 1 2 1 g f } ' E w 9 b A j.%.I > w , 1 , , , , * & & & & & & , , 1 1 1 1 2 1 2 2 a s B.;.a g 5.s.v.e e 2 2 N N j e 2 2 1 } v.v.2 1 , , * * * * * , 1 , , , , , , * e e e R E E m 7 1 1 1 1 1 ",
", , , , , 2 2 2 2 1 2 2 2 f e 2 2 2 , 1 1 1 1 1 , 1 , , , * , 1 1 1 e f f f 1 1 1 1 1 e w 2 5.y.%X$Xf w 1 1 1 * # * & & & & & , , , 1 1 1 2 1 f n y.y.N 2 2 e 2 e e `.g.$.Q N m 2 2 2 , 1 e e e N f 1 $ * * * * * * , , , , , , , , 1 1 1 1 1 2 n ' x g 1 1 1 ",
"2 1 * 2 2 2 e e e e e 1 1 1 2 e N =.*.f e w 1 1 1 , , 1 2 f f h g f e 2 1 , * * * * , 1 1 2 w e f j b.b.[ f e 2 1 , , * * , , 1 1 1 1 1 1 g N U.n.1 9 w 2 1 , 1 , , , , 1 1 , , 1 2 2 e e e 2 w 2 1 2 2 2 2 1 1 * * & & & * , , * * & * 1 1 1 2 2 2 R Y 7.P f ",
"w w 2 2 2 , , , , , , 2 2 1 1 1 f f N M.M.E E 1 1 1 f f ' 9 f 1 2 2 2 1 , , , * * , , 1 1 e e e f f f f y.c.H.f 1 g j N 2 1 2 1 1 1 w f g g 2 2 , 1 1 , * * & & , , , , , , , , * * * 1 1 2 1 1 1 2 2 2 2 2 2 2 , , , , , & * * * * 1 1 1 2 2 2 2 2 2 2 2 g f ",
"1 1 2 2 2 1 1 1 1 1 1 w w f h f f e f ^ &.).Y.8 f e ' } N 1 2 1 1 1 , , , , , , , 1 1 1 1 e 2 2 2 2 2 e c C &.5.j 2 f 5.y.t.f f f f f f f 9 1 1 1 1 1 , * * * & * * * * , , , , * * * , 1 1 1 1 2 2 Y %.%.f f 2 2 1 1 , , * 1 1 * , 1 1 1 2 1 1 1 = , , 1 1 1 ",
"* * 2 2 e 2 w w 2 2 2 e e *.` N e w w e e 6.0.Q.^ ' N N e , 1 1 1 , * * , , , , 1 1 1 1 1 1 1 1 1 1 2 2 2 f f I K 2 2 2 T I j N N N f f 1 , , 1 1 1 , , , , , & * * * & , , , , * * * , , 1 2 1 f s p.$XXXT R 1 2 2 1 1 1 , 1 1 , , 1 1 1 1 1 1 , * , , , , , ",
"* * , g N A..X|.v.7.f 7.&.I R 2 1 , , 1 1 , , 1 2 2 2 2 1 1 1 , * * , , 2 1 1 2 2 2 1 1 , & , , , 1 1 1 1 1 1 1 1 1 1 , , , 2 1 1 1 , , , , , , 1 1 1 1 1 , , , * $ 1 , 1 1 1 1 1 1 1 1 1 e R R v.b.x f f 7.%.Y.D ' 1 - 1 1 1 1 1 1 1 1 1 , , , * * * * * * * ",
"2 2 ` .X].5.9 2 f s M.N N e e 1 , , * * * * * , , , , * * * * * * * 1 1 1 1 1 2 1 1 1 * & * * & * , 1 2 e 1 1 , , * , 1 1 1 * , , , 1 , , , , , , * 1 1 1 1 1 1 2 1 e I ' Q h h 2 2 2 T u `...;.2 2 2 2 e 2 1 f 7.{ M.s f 2 e f 2 2 1 1 1 1 1 1 2 2 1 1 1 1 1 ",
"2 2 y.A.M.N f e e e ;.7.-.f f 2 , , * * * * * , * , * * * & * * , , 1 1 2 1 1 1 1 1 1 * * * * & * , 2 2 2 1 1 , , , , 1 1 , * , 1 1 1 1 1 , , , , & , 1 1 1 1 1 2 1 f I 5.` ' ' 5.&.&.*.Z M.C T 9 2 2 2 1 1 1 e I T p.S ` r.P f 2 2 1 1 1 1 1 2 2 e 1 1 2 2 , ",
"7.7.Y.c g 2 e e 2 2 2 b.s.T I f 1 1 1 , , * * & & & & & & & & , 1 1 1 1 1 1 1 1 1 1 1 1 1 , , , , 1 1 1 2 9 f f 2 1 1 * * * , , 1 1 /._.M.2 , , 1 1 1 1 2 2 h f f f f f f f 7.t./.S.S.1.5.h e 2 2 1 , $ * , , 2 2 2 j 7.r./.n.t.j g 1 1 f -.=.j f w 1 1 f ' ' ",
"*.5.2 e 2 1 , , , , * * * $ - 1 f f 2 1 1 1 , , , , * * 1 1 1 2 m B a.a.j f 2 1 1 1 1 f g T h w e g I j N e 2 2 , , , 1 1 1 , ` b..Xs a 8 /.u 2 1 1 1 1 , , , 1 2 f 2 e 1 1 f 2 } t.t.7 f 2 1 , , 1 1 * * * & , 1 1 e f f f ' ' ' T Z.m.^ ; > 1 1 1 e e N ' d ",
"w w 2 2 1 1 , , , , , , , , , 1 e e 2 1 1 1 1 , , 1 , , 1 1 2 1 C 1.Q.S.Z Y 4 ; 1 1 , 2 g R g f f T R f f e 2 1 , , , 1 2 1 - ^ v.T.g f e A.C 9 o 1 1 1 , , , 1 1 , 1 2 2 2 e e m 5.*.h f 2 , 1 , 1 2 , , * $ 1 e 2 f 2 e 2 e w f m D.D.g 2 1 1 1 1 e e f f e ",
"w w 1 * * * , , , 1 2 * , * * , 1 1 1 1 1 1 1 1 1 1 1 2 1 w e I k./.[ Q M.H.A.7.2 1 , 1 1 f E ' T w 1 1 1 1 2 2 1 1 1 1 f e /.0.I 2 e 2 2 2 =.M.v.n f % 1 2 2 2 , , , 1 e e e w 2 f f f f 2 1 , , 1 w f e 1 2 2 N I x 2 1 1 1 1 1 1 1 1 1 1 , 1 1 1 2 2 2 2 2 ",
"* * * * * * , * , 1 1 2 2 1 1 , , , 1 e f J K f 2 2 2 2 g T I I g f f e f e 0.A.Q.Q E 1 1 1 2 2 1 1 1 * * , 1 1 f f d M.I.Y.2 2 2 2 * * , 2 e e f {..X7.=.a f 2 f f f 2 2 2 1 , , * * , * * , , , , 1 e e ^ ` I > 2 , * , , , , 1 1 1 1 1 , * 1 1 1 1 1 1 1 1 ",
", , , , * * * * * * * , , 1 1 1 1 1 1 1 2 9 9 f g g Y T j > 2 1 1 1 1 2 f e f f R A.A.e e 1 1 1 , , * * & * * 1 f x m f 1 = 2 , , , , * * , 1 2 2 f w f e 2 2 e 1 2 2 2 , , * & & * * , , 1 1 1 1 1 1 2 , 1 1 2 2 1 , , , , , , , * * , 1 2 1 1 , , 1 1 1 1 1 ",
", , 1 , , 1 * * * * * , , 1 1 1 1 2 1 1 1 e 2 e g m E R f w 2 1 1 1 w e e e e e f 8.9.-.7.g 1 1 , * * * & * , 1 2 f f 2 1 1 1 , , , 1 , 2 2 f f f e 1 2 2 w e 2 1 1 2 1 , , & & & & & , , 1 2 2 , 1 1 1 1 1 1 2 1 1 1 , , , , , , * * * 1 2 2 1 , , 1 1 1 1 1 ",
"1 1 1 1 1 1 , , * * * , , 1 f B c.c.j 2 2 1 1 1 e e 1 1 1 1 1 1 > f f f 1 1 1 1 2 2 2 t.T.' > 1 , , , , , * , * * * , , , , , , , 1 1 > j N f f f w 1 , , 1 , 1 2 2 2 1 , , , , * * & , * * 1 , , , , , , 1 1 1 1 1 1 2 2 , , , * * * & & , , 1 1 1 2 2 1 2 2 ",
"e e 1 2 1 1 2 2 1 1 1 1 1 E @X(.f w y.S.P 1 1 1 1 1 1 1 1 1 , 2 2 f 2 1 * * * * * 1 1 1 1 2 2 2 1 1 , , , , , * * , , , * * , 1 1 1 f f ' j f e 2 1 1 1 1 1 2 e w 1 2 2 2 1 1 1 1 * * * * & , , * , , , * 2 1 1 2 1 2 e f f 2 1 & * & & & , , 1 2 2 f e (.#.f ",
"7.5.7./.n.E 2 2 2 2 2 7.1.v.i e 2 2 1 5 E U.I.T 2 2 1 1 1 1 1 * * & * * * * * , , 1 1 1 1 , 2 2 2 e 1 1 2 1 1 1 , , , , , , N } ' E f e 2 1 , * $ 1 1 1 e T #.XXx.r.f f 2 1 1 1 1 1 1 , , , , , , , , 1 1 f s /.o.` 1 1 1 f g g f 2 * , , 2 2 2 f n s.A.Y 5.7.",
"1 1 1 9 s M.R.u.OXOXR.b.v.a e f 2 2 1 2 2 7 9 2 2 2 1 1 1 1 1 1 , * * * * * , 1 1 * * * * , , 1 1 2 f m H.oX_.N 2 2 2 2 g N N f e 1 , , , , , , , 2 2 N H.t.} e <...R.I 2 2 2 2 1 1 1 1 1 1 1 1 1 1 1 f f ).).%.F.J.I.e 2 1 1 1 2 2 2 2 1 2 1 N H._.$.S f f f ",
"1 1 1 2 e p.E.m.&XXX/.F.F.f f e 2 2 1 1 1 2 2 2 2 2 1 1 1 1 1 1 , , * * , , , , , $ * * * , , , 2 1 a f Y.#X@X^ 3 2 > 2 g g N e 2 1 , , 1 1 , % $ f 2 -.R.u.R e [ y./.C @ > 2 2 1 1 1 1 1 1 1 1 1 : + 7 s .XoX` 9.I.M.> > 1 1 1 2 2 e e 2 O   A I. XL I e e e ",
", , 1 2 2 1 f c 0.t.' g f 1 1 1 * * , , , , , , 1 1 1 1 1 1 1 e e e 2 w , , , * * & & * * , , 1 f B (./.{ m f y._.7.u.n f e 1 , , 1 , , 1 1 f 7.y.} ) t.7 f e e e f j /.A.6.N B e e e f e e f e f s b.d.M.f f e e f N t.1.w 1 1 1 , e e g t.,.H.1.I f e e , * ",
"& & * , , 1 1 2 1 2 2 f f f f 1 & & & & & , , , 1 1 1 1 1 f f e f Q I f 2 2 1 , , * * 1 1 1 2 f J.S.m m 2 f f f e b.b.I 2 2 1 1 1 , , , 1 1 2 , 1 f 2 e 2 1 1 1 e f m h 2 g b.y. X0.0.N d M.Z N A.b.g 2 f e e , 1 1 2 f f ' s 1 e e s.y.v.1.Q 0 f f 1 1 * , * ",
"& & * , , $ * * 1 , 1 2 2 f 2 1 & & & , , 1 2 2 2 2 w e f f f 7.T.r.r.` f e 2 1 1 1 1 1 2 f p.v. .R 2 e 1 * , 1 1 e s T 5.5.I 2 2 1 , , , 1 , 1 1 1 1 1 1 2 > ' c n 2 2 1 1 1 1 n u.p.y.u.f v 5.T x g e 2 1 1 * * * 1 2 2 2 2 f 2 2 1 1 w f f f f f 1 1 , * * ",
"* * * * * * , , 1 1 1 2 2 2 2 1 * * * , , 2 2 f e e e e f 7.t.M.M.' ' ` ' E e e w 1 1 f x 7.5.*.x f 2 2 1 * * 1 1 2 e f I I g 9 2 1 1 1 1 1 1 1 1 1 1 1 w m N ' f v 2 1 1 1 1 1 e I P &.5.f h P N f f 2 2 1 * * * , , 1 1 2 f f 2 2 1 1 1 2 2 2 2 2 2 2 1 , = ",
"* * * * * * 1 1 1 1 = 1 2 , , * * 1 , 1 1 e e c e f v n n I.k./.E.e h I r.y.I b r r r 1.X.M.L w 2 2 1 , , * * * , 1 1 1 1 1 2 2 f w 1 1 1 1 1 1 , * 1 1 f } } ` 2 w 1 , , , 1 1 1 1 1 n m g g g w w 2 1 1 , * * * , * , 1 w f N 2 f 1 1 , , 1 , 1 1 e f f 1 1 ",
", , , 1 1 1 2 2 *.0. X%.f 1 1 1 , 2 2 f f e e 2 *.5.S.S.M.A E e e f e e 2 2 E v.Y.A.Z.g N 1 1 1 , , 1 , , , , , , , , 1 1 1 1 1 2 2 ` E N 2 1 1 1 1 2 m I f f 1 1 2 , * * * * , 1 1 1 e e N 2 2 1 1 1 , , * * * * , 1 1 1 j x N 5.5.' I 1 1 1 * * * , , 2 2 2 ",
"2 1 1 1 1 n H.A.} E v S.M.n m 2 w w 2 2 2 1 1 1 2 , 1 2 2 1 1 , 1 1 2 2 e 2 1 , * 1 = 1 , , * & & & , , 1 1 1 * # & * # 1 1 1 1 1 * = $ g g e e f I N f 2 1 , , , * * * , , 1 1 w g f f w 1 1 1 1 , , , , * * , 1 1 e j I j e 1 1 = ^ } ' 2 2 1 , , , , * 1 1 ",
"2 2 2 7 s s.y.y.g g f S ;.b.p.^ f f e 2 2 1 1 1 1 1 1 , , 1 , , , , 2 w f f J I 0 ; 1 , 1 , , & & * * , , 1 1 * $ * * * , 1 , , , , , 1 1 f t C A g f 2 , , * , , , - , , , 1 2 2 e 2 1 1 , , , , , * * * 1 * 1 1 1 f f f 1 , , , , , 1 g s g 2 1 1 , * * , 1 ",
"f g R A.C.v.C N f f e f f M..X].} I e 2 2 2 1 1 , , , 1 , , , & * , 1 1 e f ' t.y.&.5., , , , , , , * $ * * , 1 1 2 1 , * * & * , , , 1 1 n S./.b.2 1 1 * * * , , , 2 1 f f 2 2 1 , , , , * * * , 1 2 2 2 2 e B m x f 1 2 , , , , * , , 1 f g f 2 2 2 2 2 2 w ",
"f f S.S *.2 2 2 , , * 2 2 2 f } (./.w 1 2 2 1 1 1 1 1 1 f , * , , , 1 1 e 2 2 2 e 7.t.f f $ $ , 2 1 1 1 1 * * 1 1 2 1 , * * * , , = = * I.`.h.Y e 1 , 1 $ * * , , 1 e I } ' f f 1 , , * * $ * * , 1 2 2 2 B $.P.Z.z.f e 1 , , * * , , 1 1 2 1 f N N w 2 2 w w ",
"v.v.2 w 2 2 1 1 , , * , , 1 1 2 q E M.D f 2 2 2 h h 7.7.` s g 1 1 , 1 1 * * 1 1 1 w 1 f g E E E T N 1 1 1 1 1 1 , , , , , , , 1 1 > S.U.s.m 2 2 2 2 1 1 1 1 2 2 g N g e 2 1 f f f g f 1 , , , , 1 2 w 2.2./.@Xj h f `  X/.9 2 1 1 1 1 1 1 1 1 1 f N y.t.N m n ",
"e e 1 , , , 1 1 1 1 1 , , 1 1 f f f f ` ) 0.7.R g f 1 1 1 1 1 2 2 2 1 , * * * * * , * 1 1 w e f 2 2 2 2 1 1 1 2 2 2 2 2 1 1 1 F y.F.w e 1 1 1 1 1 e 2 e 1 2 2 j f f 1 , , * 1 1 w g m g f 2 1 1 g S j.B.M.e e f 2 1 2 e e ,.-.P e e 1 2 1 1 1 1 1 1 f r P.O.5.",
"f f 1 1 , * 1 1 1 1 1 w 2 f f f f f 2 g g 7.7.p.f f 1 1 1 , 1 1 2 2 , , * * * * $ * , 1 1 1 1 1 2 2 e 2 2 2 1 ` ).R.T.K m f H.b.m.p.e w 1 1 , 1 1 e e f f f f f 1 1 1 , , , 1 1 2 f v n f I q.$.J._.).Z S e e e 2 1 1 2 1 ' -.} *.} 9 e 1 1 1 1 1 1 e 2 L C E ",
"f f f 2 2 1 1 1 1 2 2 f f f f e 1 1 1 2 2 f f ` f f f e 1 , , * * * * * * * * , 1 1 1 1 1 1 , , , , 2 K ` P d -./.Y.U.c A A S.r.' 2 e 2 , , * * * , , 2 f f e 2 , , * * & & , , , 1 1 w > 5. XW.S.p.h 9 2 w w , , , , 1 1 < 9 f T I f f 1 1 1 1 1 1 1 1 2 f e ",
"* * , 1 2 1 2 2 1 2 2 1 2 , 1 , , 1 1 2 2 2 2 1 1 1 e e f 1 2 1 , , * * 1 , 1 2 f H.J.E [ 1 1 , , , $ 2 2 f j j f f a y.r.s.I e 2 2 f f f f 2 1 , , , , , , , , , * * * * * , , 1 f f g N 9 2 f f f f 2 w 1 1 , , * * $ * , , , , , 1 1 2 e e 1 , , , , , , * ",
"* * * * , 1 1 1 , 1 1 , , , , , , 1 2 e e 2 2 , * * 2 1 e 2 2 1 , , , , 1 1 1 f r I.k.%.2.1 1 1 , , * , , 1 , e f f e e e w 2 2 1 2 e f f c 2 w 1 * , , , * * $ * * * * * * , $ 1 f j B m 1 1 2 e f f 2 f 1 2 , , , * * * * * , , , 1 1 e e 2 1 1 , , , , , * ",
", , * * * & & & & * * , , , , , * 1 2 1 1 , , , * * , , , 1 1 e 2 2 2 2 s v (.XX[.Y T w.Y.7.x 2 2 2 , , , , , 2 f f f 1 w 2 2 1 , , , 1 2 h g ) 7.d N 1 1 2 2 1 , , , , 1 1 f f 7.a f 1 1 , , , 1 1 2 g h j g f 1 1 * * * , * * , , 2 1 1 1 1 1 2 1 1 1 1 1 2 ",
"1 2 2 1 1 , , , * 2 2 2 2 , , , , , , , , , , , 1 , , , , e 2 e e e } 5.XXXXj m e f e e 9 0./.A.f j 2 2 1 , , , , 1 1 , , , , * * * * , , 1 w f m p.x. Xz.^ ' f 2 1 2 2 N T y.y.f 1 1 1 , * * * * , 1 1 2 e 2 f f f 1 , , , , , , , , , , 1 1 1 2 f R T 7.s h ",
"I I w 2 1 1 , , 1 2 2 2 2 1 1 , , 1 2 , , , , , 1 1 N j 7.s.7.e 4 v.I.A.R B 1 2 2 , 1 1 1 w e T b.b.} } 2 j N f 1 1 1 , , , , * * * * * , 1 N g g j 2 1 2 m c f m m E } P R 1 2 1 , * * * * * * * , * 1 , , , 1 1 2 e e e , , , , , , , 1 1 1 } J.I.z.y.f , 1 ",
"f g h T F g f f f f 1 2 1 1 1 f ) *.g e e 1 1 , 1 1 m P b.S Q (./.A C : e f 1 1 * * * , , 1 1 1 > - f j m f e 2 , , , * * * * , , 1 2 2 f I N f 2 : 1 , 1 2 2 m ` 5.`.x.S g w 2 1 * , * * * , , , , , , , , , 1 1 1 e f Y I N f e 2 e 2 2 R C S.$.9 2 9 1 1 1 ",
"1 1 f j j 7.b.5.I g 2 f f 5.7.Y P g f 2 2 , , , , , 1 1 2 N g t.s.h 2 2 2 1 , , * * * , , 1 1 1 , 1 2 e e 2 1 , * * * * * * , 1 2 1 f g N f 2 1 1 , 1 1 2 f c ' } 5.o.=.*.7.` L 2 , , , , , 2 h 9 1 , * * * , , 1 1 1 2 g Q ' K 7.9.F.a.p.R Y $.8 9 1 2 1 , , ",
"* * 1 e 2 P H.z.Y R f 5.` c.A.' 2 1 1 1 1 , , , * , 1 1 2 f f h h w 2 1 * , * * * * * * , , , , , , , 2 2 , * * * * * * * * , 2 e 2 f f 1 2 , , , * 1 1 e T o.(.} E e f u.y. X(.w 1 1 1 , , 2 N s 2 , * * * * , , 1 1 1 1 2 g j x.r./.Q.!.T F w 2 1 1 1 1 * & ",
"1 1 1 e e g N g %X X/.t.r.2 2 1 1 1 , , , , , 1 1 1 e e e 1 2 2 2 g f e 2 1 * , , , , , , , , * , 1 1 1 , * * * * * * * 1 1 f f f f 1 1 1 1 1 1 1 e f } .XZ.H.e 2 2 2 2 2 2 g f 7.F m 2 2 1 1 1 , 2 2 , , , , , , , , 1 , w e e j R v.p.f 1 1 1 , , , * * 1 1 ",
"f f N ' E g 2 2 e f f f 2 2 1 , , , , 1 1 1 1 f R R e e 1 , , 1 , 2 2 f f e 1 , , , , , , , , 1 , * * * * * , , , 1 1 e e 2 1 1 2 2 m f 1 2 2 N E s.s.r.6 = f 2 1 , , , , 1 1 1 1 e 2 N B f f f 2 2 2 w w 1 2 1 1 1 e e w w f m I N e f 1 , , * * * * , , 2 2 ",
"f f I E E g 2 2 2 f f f f 1 2 , , , , 1 2 1 2 f ) P 2 2 1 , , , 1 2 e f 2 e 1 1 * , , , * , 1 1 * , * * & * , 1 1 2 1 e e e 1 w f 2 ' N 2 1 f K ' b.F.9.2 2 2 2 1 , , , , , 1 1 1 2 e N N c f f 2 2 2 e e 1 1 w 2 % e e 2 e f f N N e e 1 , , * * * * , , 2 2 ",
"g g 2 1 1 1 , , , 2 1 f f g f 2 2 2 1 f f t.-.E 2 2 , , * * * * , , , , 1 1 f 2 1 1 , , 1 1 1 1 1 , * * , 1 1 2 e 5.5.e , 1 1 g E E e j 1.M.E T I f e 1 , * , * * * , , $ * * * , * * , 1 1 1 1 2 2 2 2 9 ' D _.(.H.s 9 e 2 e 2 1 1 2 2 , * * * * * 1 1 1 2 2 ",
", , 1 1 , , , , , , 1 1 1 2 e f g f 1. X`./.m.e 1 1 * * * * * * , , , , , , 1 f c g f m n e w 2 1 2 2 2 2 n c ` 1.j P E f f ` a 2 * $ , 2 1 f 9 2 f f f f , 1 * * * * * 1 1 1 1 , * * * , * 2 1 2 2 f H.j.V.).R } A Y.D n 2 1 , , , , , 1 , 1 1 1 1 2 2 f I I ",
", , , , , , , , , , , , 1 2 e f A S r.H.I.b.F.s 1 2 * * , * * * , , , , 2 1 2 e g N B ' E 5 s 2 2 2 w e a u #.J.C g f K.R.J.N f 2 , , , , 2 2 2 2 2 2 f f 1 2 , * * * * 1 1 2 1 , * * * , , 2 1 > > C R.oXs.a.g N R H.$.y 5 - 1 , , , , , 1 1 1 1 2 7 a -.x m ",
"* * * & & , , , , , , , , , 1 w v.+.*.f f R ` y.r e 1 1 1 , , * $ 1 2 f f e e 2 f e e j p /.0.B e 1 w } :.~._.f f 2 7 N N N 2 , , , * * * * 1 1 , , 2 1 g T R 2 , * , , 1 1 1 1 1 1 1 1 1 1 2 1 0.y.A.X.&.e e e e 2 f Y.^.Z.0.I , 1 , , , 2 1 2 1 e c.y.T 1 1 ",
"1 1 1 1 2 , , , , , , 1 1 e E 5.b v e e e 9 e w 6.r.m f 2 1 1 1 1 f f f 2 2 , 2 f e 2 w w f 2.y././.U.2.B 1 1 2 2 1 , , , 1 1 * * * * * * , , , , , 1 1 1 2 g ` ' Q f f 1 1 1 1 1 1 1 f 2 1 2 2 2 1 1 1 1 1 1 * , , 2 1 1 f s j N N 1 1 , g f 7.b.s.2 f 1 1 1 ",
"1 1 2 2 2 2 , , , , 2 j W.5.5.2 1 1 1 , , 1 2 2 w 2 ' L b.F E f f 1 1 1 , , , , 1 2 2 2 2 2 e f 2 2 2 2 w 1 , , , * , , , , * * * , * , , * , , , , , , * , 1 2 2 e ' x f h h j 7.Y.S.T ' 2 1 1 , , , , , , * * * * , 2 2 2 w w e 2 f f f f 5.y.C 1 1 1 , * * ",
"* * , , , 2 2 1 1 1 f f t.f j w 1 , , , , , 1 1 1 1 f s b.Y.Z.f n 2 2 1 1 , , , , , , , 1 1 2 2 2 w 2 2 2 1 1 , , , , , , , , , 1 , , , , , , , 1 , , , , , , , 1 1 2 f g N :.w.z.Z.a.} A s > 2 1 , , , , , * , , , 1 f f 2 1 1 1 e f f f 1 2 2 , 1 , , , * * ",
"* * * * 1 1 1 2 f f n e 2 1 1 2 , , , , , , , , 1 1 1 2 f 7 7 f m f f f 1 1 , , * , , * , , 2 2 2 w 2 2 2 1 1 $ * , , , , , , 1 1 1 1 1 1 , 2 e 1 1 1 , , , , , * * 1 1 n B XX^.t.f f E S C.f w 1 1 , , 1 * * $ 1 : f e e 2 2 1 2 w w w 2 1 1 , , , * * * , & ",
", 1 2 D.b.Y.4 f e e 1 1 1 1 1 , $ , * , * , , , , , 1 2 1 1 1 2 2 f f f f f e 2 1 , , , , , 1 1 1 2 2 2 2 e e 2 1 , , , , , , 1 1 1 2 f e E ^.XX/.2 2 , , , * , 1 1 P m.M.v.m g f e e e f R Y.I.*.K 2 1 , 1 2 e f f 2 $ , * , , 1 1 1 1 , , , , , , 1 1 1 2 1 ",
"e 2 x.1.5.1._.} 1 1 1 1 1 , , , , 1 f j 2 , , , , , * * 1 1 1 , 1 2 2 2 2 2 e e e 1 1 1 1 1 1 1 1 2 2 1 1 * * * * & * , , , 1 1 1 1 m y S.v.E R [ |./.f , , - j T Q Q c , = 1 1 1 1 1 2 1 1 1 , e f f e e 1 1 1 2 1 , , , * , , , , , * , , 1 1 2 f f e e 2 w ",
"7.5.r.x N I H.u.T K e 1 1 1 1 1 1 1 f 2 1 , , , , , , , , 1 2 1 2 2 1 1 2 1 2 2 2 2 2 2 2 f 2 2 1 2 2 2 , * * & * * * , 1 1 2 2 2 f 5.7.M.S h f f 0.0.a.^ D ' j I N > 1 1 1 , , , , , , , 1 1 1 1 2 f g g e 2 1 1 1 1 1 2 1 , , * , , , 2 2 2 K F.M.I N f f e ",
"b.s.' e e f R B b.b.f 2 1 1 2 2 2 2 , , , 1 1 , , , , , , 2 9 e e 2 2 2 1 2 , 1 1 2 1 9 7 c a 2 2 2 2 1 & & & * * * * , 2 2 2 f a S r.p.T f e e e R C /.M.0.u.T f e 1 1 1 1 , , , , * * * * 1 1 1 1 2 R N f f 1 1 1 2 f e 2 , , * , , $ 2 2 4 6.U./.-.5.f f e ",
"m g 2 w w w e e g A y.E f e e 2 2 , , , , , 1 , * * * , * 1 1 2 2 1 1 1 , , , 1 1 w w (./.1.t.7.g m 1 1 , * , 1 1 2 1 2 f f *.p.y.y.g m e e 1 1 1 2 e f ' F.b.' e w 1 1 1 1 2 2 , * * * * * * , 2 f f 2 2 1 , * * * 1 w e T 2 1 1 2 w 7 S.Y.(.0.T b M.h.y.f e ",
"1 1 , , * * 1 1 1 1 w r.r.f f 1 1 , , 2 1 1 1 1 * * * * , * * , * * , , , , 1 1 2 5. Xu.9.w f m U.(.h f 2 1 1 1 1 1 1 * , , 1 2 2 2 2 e 2 , , , , , f f f f f I N N f 1 1 1 1 1 2 1 1 * , * , , , , , * * * , , , , , 1 1 e e e w f 7.h.t.f f w w w w 2 } n.b.",
"* * * , , * * * , 1 1 1 1 2 f g f f 1 2 1 1 1 2 2 1 1 1 , , , * , , , , 2 2 7./.`.-.8.2 e e e w f f g.x.` e e 2 1 1 1 , , 1 1 , 1 1 * * * * * , 2 f f f 1 1 1 * e f g h f 2 1 1 1 1 1 2 2 , , , * , , * * , 1 1 2 1 1 1 1 1 m E (.`.N R 2 w 2 1 , , 1 1 1 N v ",
", , * * * * * * , , , , , $ $ 1 2 f N f f 1 1 2 n n ).U.OXf f 2 1 2 e f p.p.%.C ; 1 > w 2 $ $ 1 2 2 > > r.I.U.5.x m j E e e , , * * * * , 1 e f e 2 , , * * $ , , , 1 g g f e e 2 2 2 2 e w 1 1 , , 1 1 1 g s oX).9.w 1 1 m E I 8 4 1 1 1 * , , * , , 1 1 w 2 ",
"* * , , * * * * , , , , , , , 1 w f I c f 2 2 2 m n /.^.`.x f 2 1 1 f g r.0.` j 2 2 2 2 2 , , 1 1 1 2 2 t.H.).5.d f C E f e , * * * * * , 1 e e e 2 1 , * * * , , , 2 f N g f f 2 e e 2 w 2 1 1 , , , 2 1 n s [.(.r.e 1 2 f E R 2 e 1 1 1 * * * * * * , 2 2 w ",
"1 1 1 , 1 1 1 1 , , , , , , , , * , 1 f f T T f (.Q.T N c S.M.N N e f 9 9 9 2 2 2 1 1 , * , , , , , , , , 1 * e f 2 1 * , , * * * $ , 1 1 1 1 1 , , , , , * * , , , , , , , 2 2 2 2 w e e 2 2 e e e 2 ' Y (.(.I } 3.M.e w e 1 1 1 , , , , , * 1 1 1 2 2 2 , 1 ",
"1 1 e 1 1 1 2 2 2 2 2 1 1 * * , , 1 1 1 1 N ^ s.e e f f f e e 6.w.S.a e 2 w 1 1 * , , , , , , , * & & * * , , , , , , * * * & 1 1 1 1 1 1 1 1 2 e e 1 1 , , , , , , & * * * * , 1 , , w 2 ' c g e 9 I 0.t.e e e f f f Q.Y.T f 2 1 1 1 1 1 f g j g f 2 1 , , * ",
"w w j y.y.f 2 2 2 2 2 2 w f e 1 1 1 1 1 1 2 < 1 1 1 , 1 , 1 1 1 1 e E ' c f e 2 , , , , , , * & & & & * & * * , , , , , , , 2 1 2 1 2 e g ' y.7.j e 1 1 1 1 1 1 , , & * * * * , 1 e e R u (.f.y.m f f 1 w f 2 1 1 1 1 1 = 1 f g I N f f f f f f 2 1 , , 1 , 1 ",
"w w f 8 s 7.K.5.m c H.5.5.f f f 5.5.f 1 1 1 1 1 $ $ * $ $ , , 1 , 1 > 1 f f N N m 2 2 1 1 , , , * , * * , , , , , 1 1 2 1 1 2 f f K.F.T.L.I s 6 > 1 1 1 1 1 1 1 1 1 1 , , , , 2 e 8.5.R.E.i s F a.u.m 2 2 1 1 , * * , , * $ , , 9 > g f 2 , - $ $ $ $ * 1 , 1 ",
"w w w w e y.U.Y.I.h.M.r.r.f N a XX%Xn > 1 1 1 1 * * & & * * , , 1 1 1 1 w e R R T > > 1 1 , , 1 , , , , , , , , * 1 1 1 : w % c j T.Z.I.D.R f 2 2 2 2 1 2 : < 1 1 1 1 1 1 1 1 2 2 u.t.).E.b f f b.a.Y > 2 1 1 , * * , * * * * * 1 2 n f 2 1 1 * * * * , , , , ",
", , 1 2 2 e } 7.Z.v.N w e E u.M.v.y.(.p.b 1 1 , * * & & & * , 1 1 2 1 1 * , , 2 f I Y f f 2 1 1 * , , 1 1 e e f 1 1 1 g w.y.|.h.s.d h m 2 2 e 2 1 e f f I 7.5.I w w 1 1 1 1 f g 6.L N 2 2 w 2 e w f 6.Z *.w e 1 1 1 , * , * * * * , , , 1 1 1 * * * * * * , , ",
"1 1 1 2 2 2 f f j g e j N R E f f f m y.I.s.f 2 1 , * * * * * , 1 * $ * * * * , , 2 2 1 2 , , * , , 1 1 2 e e f E ' ' T 9 f N f 2 e e e 2 2 1 , , 1 2 2 2 2 2 j 0.0.j m a.y.S.Y.f 1 1 2 1 , , , 1 2 2 m f 6.7.` f f 1 * , , , , 1 , 1 1 1 g f 2 2 2 1 2 1 , = ",
"1 1 1 2 1 1 2 2 c m I j R - - , 2 2 f 7 s y.&.1 1 1 , 1 , * * , , * * * , , , 1 1 1 1 1 , * , , , 1 1 2 e e 2 1 ; f g f f f f e w 2 1 1 1 1 , , , , 1 1 1 2 1 2 s s U.s.d C > > 1 1 1 , , , * , , 2 2 2 , - o ) C R f 1 , , , , 1 1 2 2 e g f F s 2 1 2 1 1 1 ",
"1 1 1 1 1 1 1 2 f g ' f 1 1 2 , 2 1 f f f g g f 2 2 1 1 2 , , , * * $ , , 1 e 2 1 1 , * * & , , , 2 2 f f 1 1 1 1 1 1 f f f e 2 1 1 1 1 , , * , , , , , , 1 1 2 f f s f f 9 2 e 1 * * * * * * , * * * , , 1 1 : f f g f f 2 2 2 e 2 e f N f e x.M.T x g 1 2 2 ",
"1 1 2 2 2 2 f f f e 2 1 1 1 1 , 1 1 w e e 2 2 f 5.E f f 2 1 1 , 1 1 1 1 2 2 2 2 1 , , , * $ , , , 2 2 2 2 1 1 1 * , , 1 1 1 1 1 1 , , , , , * * , , , 1 1 2 2 9 f f f 2 e e 2 e 2 , , , , , , , * * * , * , , 1 1 2 e n h c f 2 f 9 I P j 1 2 1 a 0.z.r.7 ; ; ",
"2 2 2 E T I f f 1 1 1 1 1 1 1 1 1 1 1 , , 1 2 e 6.7.T I f 1 1 1 1 1 e e 2 2 , , * * , 1 1 1 2 e 5.E e 2 1 * , 1 $ * * , 1 1 2 1 1 * , , * * * * , , , , 2 f j j f e 1 , , , 2 2 f e 2 , , , , , * * * * * , , 1 1 1 1 1 2 f f e E T I I 2 1 1 1 1 2 ` T /.S.m.",
"A.A.&.T T f 2 1 1 , , 1 1 e 2 2 2 1 , * , , * 1 1 1 1 2 f f f f g E (.(.I R 2 1 1 1 1 1 1 ;.J.1.Q ` -.5.g 1 1 , , , 1 1 1 1 , , , , * , * , , 1 1 , 1 , , , , , * * * * * * , , * 1 1 1 1 , 1 2 2 1 1 1 1 1 1 1 1 , , , , 1 2 e f f 1 , $ , , 1 1 2 e f v ' ` ",
"I.I.7.g g e 1 1 , , , 1 1 e e 2 2 1 , , , , , , 1 1 1 1 w f f c s &._..XC R 2 w 2 1 = - O 5.t.' c N 5.2.N 1 1 , , 1 1 1 1 , , , , , * * * , - f f 1 - 1 , * , * * * * * * , , , , , , 2 , 1 1 e 2 2 2 1 1 1 1 2 , , , , , 1 w w 2 2 , , , , 1 1 2 e f f m e w ",
"' ' 2 1 1 1 1 1 * * , , , * * * 2 1 1 , , , , , , * 1 1 1 f f *.0.y.e f c.w.M.7.e f e 5.u.P 9 2 1 1 1 f e f f e e f f 2 , 1 * , , 1 1 1 1 2 g T T I j 1 , * , * * * * * , , * * , , * * , 1 1 2 f f f f f f n 1 1 1 , , , 1 1 , , , , , , 1 1 f f f f e 1 1 1 ",
"1 1 1 , , 1 2 2 2 2 , & * & * & * , 1 1 1 1 1 , 1 1 1 1 f E E I B e e e e 2 v.b.v.' ' f f w 2 1 , , , 1 1 f 1 M.(.7.5.h 1 , , 1 1 1 1 2 w T E j e g N K 9 1 1 , , , 1 , f f 1 2 1 * * * , , , 1 1 2 f } ] !.(.I 2 2 1 1 1 * * * * , 1 , f f f f 2 1 , * * , 1 ",
", , * , * * , , 1 1 2 * * * * * * , 2 f f 2 1 1 2 2 e 2 E c h 1 1 1 1 $ 1 1 q Y ;.P b 1 1 1 , * , , , 1 2 7.p.s 4 5.%.I.T j 2 1 1 1 1 1 1 - 1 ; , , , , 1 1 1 1 1 1 2 5.u.t.T R 2 * * * , , , 1 w s [ .X).7.@.I.s.y.f f e 2 , , , , 1 1 m T N , 1 , 2 2 2 , * ",
"* , * , * * , * 1 1 1 , , , , , , 1 2 x x 2 1 1 1 1 e e R f e 1 1 1 1 , 1 1 f I 7.I N 1 1 , * , , , , 1 1 u.p.n f 8.u.H.C Y 1 1 1 1 1 1 1 1 , 1 , , , , 2 1 1 1 1 1 2 5.u.7.I T 2 , , , , , , 1 e X z._.).} ' J.@X/.f f e 1 1 $ * $ 1 2 n m m , , , 2 2 2 , * ",
"1 1 2 1 , * * * , , , 1 1 1 1 1 1 1 1 f g 5.3.' m R t.9.2 1 1 1 1 * * * , 1 1 w e R I j m 1 1 , , 1 f m N 1 2 2 2 2 w e 6.7.E c e 1 1 1 , , , , , 1 1 1 1 2 2 1 f f P I e w 2 2 f f f 1 1 1 m R I.oX6.g f f f f R [ I.:.*.f f e f f f f 2 , , , , * , 1 , , * ",
"1 1 1 1 1 1 1 1 1 1 1 1 1 1 1 1 1 1 1 1 1 f x r.t.u.e 2 1 , , , * * * * * * , 1 1 2 e f h j f 1 , 1 1 1 , 1 , , , , , 1 1 1 e g j g f f 2 2 1 1 1 N A I.XXV.9.g f f 2 w 1 1 1 1 1 f f f g f 5.7.f h 2 1 1 * , 1 1 1 1 h -.7.Q N 2 2 1 1 1 , , , , & * * * , * ",
"1 1 1 2 1 1 1 1 1 1 1 2 2 1 1 1 1 1 2 1 2 f h T > > 2 2 1 1 1 , * * * , * * , , 1 1 1 2 9 N e 1 1 1 1 1 1 , , , , , , , , , 1 e f f f f e 2 2 2 > 0.0.R.).H.p.%.F c f f 2 1 1 1 2 e 2 f f f > > 1 1 1 1 , * , , , 1 1 1 9 R I N e 2 1 1 1 1 1 , , , , , 1 9 9 ",
"1 1 2 ` R (.T.j 2 2 2 2 2 1 1 1 2 2 2 Y T f f 1 1 1 1 1 2 2 2 1 2 , , , * & * * * * * * , * , 1 e e 1 1 , , * , , * * * * * * , , , 1 2 e e m 6.H.Q./.h e n $.S.g.t.' P 7 f 2 2 f f f f f e 1 1 1 , * , * * * * * * 1 1 1 1 2 c I j f f 1 1 2 2 2 2 2 1 c 7.=.",
"w 1 Q./.(.m 6.6.S.v.N f f f f I ' ' Q x f 1 , * 1 1 1 1 2 2 f f f f 2 1 1 1 1 1 1 * * * , 1 2 e 1 1 2 2 2 f e 1 1 1 1 , 1 1 1 1 1 1 2 e f E /.0.j 1 1 2 1 1 1 1 7 c *.Q r.y.' E f 2 2 , , * , 1 1 1 1 , * * , 2 , , , , , , , , f e I I I e w w 2 2 2 2 1 w w ",
"w w `.S ' 2 2 e =.x.Z.7.7.f f 6.b.f , 1 1 1 1 , 1 1 1 1 2 w f f f f 1 1 1 1 1 1 1 , , , , 2 2 e 1 1 2 e w e e w 1 1 1 , 1 1 e f g g -.Z 6.,.2 ; 1 2 2 * & * 1 1 1 1 1 1 } 2.7.5.e 1 1 , * * , , 1 1 1 , * , , 2 , , , , , , , , e f B B E w w w 2 1 2 2 1 2 w ",
"Y.Y.' f f 2 2 2 ' ;.Q.1.1.5.-.7.-.e 1 , 1 , 1 2 , , * * , * * 1 1 2 f j g f 1 1 1 1 1 2 w e 2 e 1 1 2 f 7./. Xv.d g f w 2 2 2 g j g *.=.7.6.> 2 1 1 , $ * * * * , , , 1 2 1 2 2 2 , * & & & * , , 2 2 2 2 , * * * , , , , , , , 1 1 w a -.].`.1.P f f e w e e ",
"f f e 1 1 $ * * 2 2 2 f 2 7.7.9 1 , , , , , , * * & & & * * * $ * , 1 1 g f ` F 8 g g f f e 2 e 2 e R.T.I.x Q f p.y.u.h 2 2 1 2 2 9 e 2 1 1 , * * * , 1 , * * * * , , 1 2 2 , 1 * , * * 1 1 1 1 1 1 1 2 2 2 1 1 , , , , , , , , 2 1 ` ' &.8 9 :.v.b.Q ' N N m ",
"f f e 1 , * * * 1 1 2 f f 7.7.f 1 , , * * , , & & & & & * * * * * , 1 2 m m T t.v.S ' B N w w 9 f f /.B.s.R R f u.u.u.T 2 2 1 2 e f e 2 , 1 , * * * , 1 , , * * , * 1 e w e 1 1 * , , 1 = 1 1 1 1 1 1 2 2 2 e , , * , * $ * 1 1 e w &.` ' 2 2 ` F.v.;.7.Q N N ",
"1 1 * , , * , 1 2 e f e f , 2 f f f 2 , , , , 1 1 1 * * * 1 2 * * * , , 1 1 w w e e e *.*.' 8 7 H.n.} ' 9 f f w e w 9 *.5.7.2 1 1 1 , , , , * * * * , , 1 1 1 2 j K ' f 1 1 , * 1 2 2 P A -.2 2 1 1 , , * 2 2 f f 2 1 , 2 2 e g -.1.f f 1 1 1 2 f g [.(.c.f e ",
"* * * * , 1 2 2 e 2 1 , , * * 1 2 2 f f f 1 1 1 2 1 1 1 1 2 2 1 1 , , , , , 1 2 w w e e h 5.#X(.a N 2 e 2 1 1 * * 1 1 1 f f j 2 1 1 9 e 1 1 , , * * , , , , , 2 1 1 , 1 1 1 1 1 e ).Q.(._.g.7.} 1 1 1 , * , , 1 e 2 g ` Q ' I g 2 2 1 1 , , 1 1 2 2 w 1 I I R ",
"* * * 1 1 2 2 2 $ $ * , , * * , , , e f f 2 2 : > > 2 1 1 1 1 1 2 1 , , 1 1 2 e e e e 8.[ f + e 2 1 , , , , , * * * * , 1 1 1 2 2 1 f e 1 1 , , , , , , , , , , , , , , 1 1 1 1 2 OX Xf f 0 w.v.1 1 1 , , , , 1 1 1 1 f 9 f 2 1 , , , , , * , , , , 2 w 2 j N ",
"* * 1 2 1 2 1 1 , , * * * * * , , , 2 f f f 0 M.XXXXh f 1 1 1 2 2 2 2 2 2 2 e e e T ' ` } e e e 2 2 , , , , , , , , , , 1 1 1 1 2 2 f f N f w 1 1 1 1 1 1 , * * , , , , 1 2 2 e r.y.6.f f m } ` 7.^ 1 1 1 1 2 1 1 1 1 2 2 e 2 1 , , , * * * * , , , 2 2 2 m j ",
"2 2 f 1 2 , * * * * * * * * * * , 1 2 f f s.p.f e f m.I.5.f f 2 1 2 N T ' ' f g I 2 2 1 1 1 1 , w f 2 2 , , , , , * , , * * * , * * 1 1 2 f I ` ' f 1 1 1 1 1 1 , , 1 1 2 2 (.^.g 2 2 2 2 2 2 2 f r.I.8.2.f f 1 1 1 * * * , , , e 2 f e , * * * * * , , 2 2 1 ",
"2 2 2 * * * * * * * , , , , , , 1 1 E b.b.f f f e e f 8 k.C.v.N E e e f 2 2 g 2 1 & $ * * , 1 1 1 1 2 1 1 1 , , 1 , , , * * * * , 1 1 1 1 2 f f 2 1 1 1 1 e f N f e 2 f a.x.h D 1 1 2 * $ $ 1 2 e f R (.'.u.9.m 1 2 1 * * , * * 1 1 f f f , , * * * , * * , = ",
"1 1 1 1 1 , , , , , 1 1 1 1 1 1 f f N *.*.e 2 2 2 2 2 ; 5.7.7.p.u.c e 2 1 w 2 2 * * * * * , 1 1 1 1 1 1 1 2 2 1 1 2 1 1 , , 1 1 1 2 2 > > 5 a 2 2 1 1 1 1 2 2 j j g N 5.7.-.2 e 1 1 1 , , , , 1 2 e m r.s.I.M.-.s f 1 , , , , , 1 1 2 2 2 1 2 , , , , , , * * ",
"I I w 1 1 1 1 1 1 1 1 1 1 w e 2 g f f 1 , 1 1 $ * * 1 1 1 e e ` ' &.f 2 , , * , * * * * & , , 2 1 1 , 1 1 2 2 f 2 1 : 1 1 1 1 w w m Q S w.Z.=.> 1 1 1 1 1 1 1 2 e f R ' 2 1 1 1 , , * , , , , , , 2 e f 9 N P Y ' T 1 1 1 , , 1 , , 1 1 2 2 e 1 1 1 1 1 , 1 = ",
"I I 0.r.7.n 1 1 1 1 1 e e [ R m f 1 1 1 1 , , * * * * * , 1 1 e e m g g , , * , * * * * & , , * , , , 1 1 f f *.*.I N e w e m 5.y.0.-.5.f f Y a.6.1 w 2 1 , , , 2 w 1 1 1 1 , , * * * , , , 1 1 e e e e e 2 2 1 1 1 f f f n 1 1 , 1 1 1 1 e e e e n t.u.f 2 2 ",
"w w 2 R I b.y.7.f f e R R .X_.} f 1 1 , , , , , , , , , 1 e e w e 1 2 e e e , , * * * * & & & & * , , , , , , 1 2 ` Y m.m.s.b.S b 2 1 1 1 1 2 f g s.M.b 2 2 2 2 w 2 1 , * * * * * * * * , 2 f f f f f 1 1 , , , 1 2 f f t.(.y.E f f e e w e e N M./.v.z.5.2 e ",
", , 2 1 2 f T F T I I (./.$.;.I.I.5.w 1 1 1 , , , , 1 1 e 1 1 , , * * * , 1 e 2 1 1 , , * * * * , , * , , , , 1 2 1 $ r.A.S.K q 1 1 2 1 * , 1 , 1 1 > A.S h e 2 , , * , , , , , , 1 1 2 9 f 1 2 , 1 1 1 1 1 1 1 f f H.#X;.j 5.s.H.' f f f f f h 0 1 1 1 1 f f ",
", , 1 1 2 e N I A S $.M.H.I ' t.H.5.7 1 1 1 1 , , 1 1 2 e 1 1 , , , , $ 1 = 4 @ : 1 1 , , , , , , , , , , , , 1 2 w e 5.p.a.N 2 2 1 1 , * * , 1 1 1 2 a.) L I 2 1 1 , , , , , , 1 1 1 e e 2 1 , , , , 1 1 2 1 1 R s M.T.} f ' 7.m.Z f c f f f f 2 1 1 1 1 1 e ",
", , 1 1 1 1 f f 7.z.Y.2 e 2 2 2 ' >.7.f f 1 1 1 1 1 1 1 , , * * * , 1 2 1 1 %XU.s.> w 1 1 1 , , , , , , , , 1 1 2 f h f f f f 2 2 * * , * * , , , 1 1 2 5.b.a.T 2 2 1 , 1 1 1 1 e e e 2 2 , , , * , , 1 1 e e f s.y.&.; 2 2 2 2 #.Y.y.t.f w 1 1 1 1 , , , , 1 ",
", , 1 e e 7.I.Z.y.*.2 1 1 * * 1 2 1 f 6.6.' P e e e , , * , 1 1 1 2 m I {.(.E N e t.N.f f 1 1 1 1 1 2 2 2 f f f f 2 2 1 1 1 2 f g 1 , , , * * * * * , , 1 , , 1 f f f f f f f f 1 1 1 * , , , , , , , , * f 9 *.f e 1 1 1 * , , 1 1 e o A.6.5.1 1 1 , , * * * ",
", , 2 5.5.*.7 2 $ , 1 , , * * , 1 1 1 : : P K f 2 2 1 1 , 1 1 1 f 5.D.s.X O 2 2 2 2 : I.+X1 2 1 1 2 1 1 > N g e 1 1 1 , , , 1 f f h 2 2 , , , , , * * , , , , , 1 1 e e f f a f 1 1 1 , , , , , , , , 1 , f f > 1 1 1 , , , , , , , 1 = - I ' f f 1 , , , * , ",
"1 1 f 6.;.T f e 1 , , , , , , , 1 1 2 1 1 1 w g 1 1 1 1 1 1 1 f s s.r.` f e 2 2 1 1 2 y.c.5.> 2 2 2 7 ' ' I B e 1 , 1 , , , 1 2 2 N f e 1 1 , , , * * * * * , , 1 2 2 2 N B y.y.r.> w 1 1 , 1 1 1 , 1 e 2 g m w 1 1 1 , , * * * , , 1 2 1 f f K g e 1 1 , , , ",
"' ' *.2 f , , , 2 1 , , , , , , , , , , , 1 1 1 1 1 1 1 e E ' ' E , , 1 1 1 , , , , 1 < - K s.5.e z.M.E 2 1 , , , , , * * * * , , 1 f f g g 1 2 1 , , , , , 1 2 f f 0./.(./.1 9 ` U.I.` ' w e e 2 2 f 1 1 , , * , * , , , , * * & & & & , 2 2 2 f N ' ' e e w ",
"f f 2 1 , , , , 2 2 2 , , , , , , , * , , , , , 1 1 e f E ' } 1 1 1 , , $ * $ * * , * , , 1 2 f F.m.1 1 1 * * * * * * * * * * * , , , 1 f I 5.f < 1 , , 1 1 2 f Q s _.U.6 1 1 1 2 9 7 E.T.s N I I g 2 , , , , , * * , , , * * * , , 1 , 1 2 2 2 2 2 E 5.u.Q I ",
"1 1 1 , , , , , * 1 9 1 1 , , , , , , , , , , , 1 1 f f ^ 9 2 1 1 1 1 * * * * * * * * , , 1 1 2 f f 1 2 1 & * & & & # , * * * * , , , , 1 9 &.-.*.2 1 1 1 2 2 f y.r.f f 1 ; 2 2 2 2 2 B C s.&.T f f 1 , , * , , * * , , , * * * , , 2 2 2 2 2 2 2 2 g 9 r.$.` ",
"1 1 1 1 1 1 , , , , * 1 , 2 2 , , , , , , , 1 1 f f 1 1 1 * 1 1 1 , 1 1 , 1 * * * * * * * * , , , * , , , 1 1 * & & & 1 f f 2 , , , , , , 1 1 2 1 f f 2 1 1 1 , * , 1 1 , , , , , 1 1 , - 1 1 1 2 f f f f 2 1 1 1 , * , , * * * , * , , 2 1 2 2 1 1 1 1 , , , ",
"1 , 1 1 1 1 , * , , , , , 2 2 , , , , , , , , 1 1 1 , , , , , , 2 , 1 1 , , * * * , * * * * , , , , , , , 1 1 * * & * 2 f f 1 , , , , , , , , , , , 1 2 1 1 , , , , , , , * , , , , , , , 1 1 1 1 1 1 f f 2 2 1 1 , , * , * * , , , , , , , 2 2 1 , , , , , * "
};
