/* XPM */
static const char *normal_floor_155[] = {
/* columns rows colors chars-per-pixel */
"155 155 203 2 ",
"   c #0DB6EF",
".  c #15B5EE",
"X  c #1BB6ED",
"o  c #1CBCEE",
"O  c #07AFF6",
"+  c #0CAFFA",
"@  c #11AEF1",
"#  c #0DB5F5",
"$  c #0FBCF6",
"%  c #07B2FD",
"&  c #0DB3FD",
"*  c #07B8FC",
"=  c #0EBAFD",
"-  c #14B6F6",
";  c #1AB6F3",
":  c #15BAF6",
">  c #1BBBF5",
",  c #12B5FD",
"<  c #19B6FD",
"1  c #15BAFD",
"2  c #1ABDFD",
"3  c #2ABBE7",
"4  c #23B5EB",
"5  c #25BDEE",
"6  c #2CBCEC",
"7  c #34BBE3",
"8  c #33BDEC",
"9  c #20B4F4",
"0  c #22BEF5",
"q  c #2ABDF4",
"w  c #22BEFC",
"e  c #2ABCF8",
"r  c #32BFF2",
"t  c #1DC1F6",
"y  c #16C1FD",
"u  c #1DC1FE",
"i  c #1DC9FF",
"p  c #23C2EA",
"a  c #2BC2EC",
"s  c #33C2E4",
"d  c #35C2EF",
"f  c #3CC4ED",
"g  c #38C8EB",
"h  c #24C2F6",
"j  c #2CC3F5",
"k  c #23CAF4",
"l  c #2DC9F6",
"z  c #23C3FD",
"x  c #2AC5FD",
"c  c #25C9FE",
"v  c #2CC9FE",
"b  c #33C4F4",
"n  c #3BC6F5",
"m  c #34CAF5",
"M  c #3CCAF5",
"N  c #32C7FF",
"B  c #30C7FC",
"V  c #34C7FD",
"C  c #35C7FF",
"Z  c #32C6FC",
"A  c #3DC7FB",
"S  c #32CAFB",
"D  c #31CBFF",
"F  c #33CAFF",
"G  c #32C9FF",
"H  c #37CAFD",
"J  c #37CEFF",
"K  c #33CBFD",
"L  c #38CBFF",
"P  c #3ACAFC",
"I  c #3ACCFF",
"U  c #3FCDFD",
"Y  c #3ECCFE",
"T  c #3BCCFD",
"R  c #2CD1FF",
"E  c #3ED1F7",
"W  c #35D1FE",
"Q  c #3FD2FF",
"!  c #3ED2FF",
"~  c #3DD1FE",
"^  c #46C7EC",
"/  c #4CC7EB",
"(  c #4CCCEE",
")  c #51C5EA",
"_  c #53CDEF",
"`  c #5FCCED",
"'  c #43C5F2",
"]  c #43CBF5",
"[  c #4BCCF4",
"{  c #41CEFF",
"}  c #47CFFF",
"|  c #43CDFC",
" . c #4ACDFF",
".. c #4BCEFB",
"X. c #53CEF3",
"o. c #5BCEF3",
"O. c #51CCF8",
"+. c #57CEF9",
"@. c #52CFFA",
"#. c #5CCEFA",
"$. c #41D1F4",
"%. c #4CD0F6",
"&. c #43D1F9",
"*. c #45D1FF",
"=. c #44D2FE",
"-. c #4AD3FF",
";. c #4AD0FD",
":. c #4ED1FF",
">. c #4DD5FF",
",. c #4ED5FF",
"<. c #4BD3FD",
"1. c #47D9FF",
"2. c #4DD8FF",
"3. c #4DD9FF",
"4. c #54D1F6",
"5. c #5DD2F4",
"6. c #5ED8F5",
"7. c #51D2FC",
"8. c #51D4FF",
"9. c #55D7FF",
"0. c #57D5FE",
"q. c #54D4FD",
"w. c #59D7FF",
"e. c #59D4FD",
"r. c #5FD5FD",
"t. c #5DD4FE",
"y. c #5BD5FD",
"u. c #51DBFF",
"i. c #51D8FF",
"p. c #55D9FF",
"a. c #56DBFF",
"s. c #54DAFF",
"d. c #5BD9FF",
"f. c #5BDBFE",
"g. c #63D5F7",
"h. c #63D4F6",
"j. c #6AD5F4",
"k. c #64D9F7",
"l. c #6CD9F7",
"z. c #60D4FB",
"x. c #67D5FB",
"c. c #63D6FC",
"v. c #6BD7FC",
"b. c #63D8FF",
"n. c #64DBFE",
"m. c #6ADBFB",
"M. c #6BD9FA",
"N. c #6DDAFB",
"B. c #6DDEFF",
"V. c #6BDBFD",
"C. c #73DAF7",
"Z. c #7BDDF6",
"A. c #70D6FC",
"S. c #72DEFA",
"D. c #73DCFC",
"F. c #7BDDFC",
"G. c #57E0FF",
"H. c #5BE1FF",
"J. c #61E1FF",
"K. c #64E2FF",
"L. c #6CE2FF",
"P. c #6AE9FF",
"I. c #7DE2F6",
"U. c #70E4FF",
"Y. c #74E3FE",
"T. c #7BE3FE",
"R. c #75E9FF",
"E. c #7EE9FF",
"W. c #7BEAFF",
"Q. c #7FF5FF",
"!. c #83DDF5",
"~. c #8ADCF6",
"^. c #83DEFD",
"/. c #8CDEFB",
"(. c #93DEF9",
"). c #83E2F6",
"_. c #8CE3F5",
"`. c #80E7FF",
"'. c #84E3FD",
"]. c #8BE4FD",
"[. c #81E8FF",
"{. c #86EAFF",
"}. c #84EBFF",
"|. c #8BEBFF",
" X c #95E2F4",
".X c #9BE6F5",
"XX c #95E7FD",
"oX c #92E5FD",
"OX c #9BE6FD",
"+X c #9BE6FC",
"@X c #90E8FF",
"#X c #93EBFE",
"$X c #9BEBFF",
"%X c #8DF2FF",
"&X c #8DF9FF",
"*X c #93F4FF",
"=X c #9CF2FF",
"-X c #93FBFF",
";X c #A2E9F6",
":X c #A3E3FE",
">X c #A2EBFD",
",X c #A9EBF9",
"<X c #A1F2FF",
/* pixels */
"1 1 1 1 1 1 1 , & & & & & , 1 1 1 1 1 1 1 1 , , , , , , , 1 2 2 2 2 x x v v 2 2 1 1 , 1 1 1 2 2 2 2 1 1 , & & , , , , 1 1 1 1 1 & & , 2 1 2 2 2 2 2 2 2 2 1 1 1 1 , 1 , , , & , , , , , , , 1 1 1 y z x 2 2 2 , , 1 1 1 1 1 1 2 2 T T 2 2 1 1 , , , , , , , , , , 1 , , , , 1 1 1 1 2 u z z z u u 2 1 1 1 1 1 1 1 1 1 ",
"1 1 1 1 1 1 1 , & & & & & & 1 1 1 1 1 1 1 1 1 , , , , , , , 1 1 u 2 x x v v v v x x 1 1 w w >.>.w > 1 1 , & & , , , , 1 1 1 , , & % , 1 2 2 2 2 2 2 2 2 2 1 1 1 1 1 , , , , , , , , , , , 1 1 1 u z x j H Q Q 1 1 1 1 1 1 1 2 ;.| Q T G x 1 1 , , , , 1 , , , , , , , , , , 1 1 2 1 2 2 u p.d.0.p.1 1 1 1 1 1 1 1 1 1 ",
"1 1 1 1 1 2 2 2 1 1 , , , 1 1 1 1 1 1 1 1 1 1 2 2 2 z u 1 , , 1 1 1 1 2 2 2 j j C V b.J.B.U.O...2 1 1 1 1 1 , , , , , & & % % % & & 1 2 2 2 1 1 , , , , , 1 1 1 1 1 1 1 1 1 , , , , , 1 1 x x z z z : 2 &.;.;.p.u.{.E.[.`.3.u.w.r.x k B I =.| 1 2 1 1 , 1 1 , 1 1 1 1 , , 2 1 2 2 z z z x M.N.x.g.8...z z 2 2 2 1 1 1 ",
"1 1 1 1 1 2 z z 2 2 1 1 1 1 1 1 1 1 1 1 1 1 2 u z z x z 2 1 , , , , 1 1 2 2 z z G C F.S.J G 2 1 1 , 1 , 2 2 2 , 1 , , % % & & % & , , 2 2 2 1 , - , , , , , 1 1 1 1 1 1 1 1 1 , , , , 1 2 B v v z z , , 1 u z x.M.OX#XXXXXd.w.G S z z v | 8.:.2 u 1 2 1 1 1 1 1 , 1 1 , , ....x j x v v v 1 1 2 2 r.z.z z 2 2 2 1 1 1 ",
"1 1 2 2 1 2 2 2 z z z > - , 1 1 1 1 2 1 1 1 x x z z 2 u z 2 1 1 & & 1 1 2 2 z z u u 1 , 1 , 1 1 1 1 1 1 u z z z z 1 1 , , , , , 1 1 1 2 2 1 2 1 1 1 1 1 1 1 u u : 1 - : 2 2 1 1 1 1 2 z v B > 2 1 , , , , , , 1 1 2 1 z v x v u u u u 1 1 u 1 P P : 2 , < 1 1 1 1 1 1 z w @.@.x x 2 z 2 1 1 1 1 , 1 1 v v v v 1 2 1 1 ",
"2 2 2 2 2 2 2 1 z z T | | ~ 2 2 2 2 2 v J I v x z z 1 1 z z z z G K z z z z z z 1 , 1 1 1 1 1 1 1 1 2 u u z z z z 1 1 1 1 1 1 1 1 1 1 2 2 1 1 1 1 1 1 1 2 2 t u =.~ #XXX8.;.u 2 1 1 2 x z - + - & & & & , , , 2 1 1 y x v v v u u , 1 1 1 2 2 I I Z v 2 2 2 2 2 2 v z P H , < & , w 2 2 1 1 1 1 1 2 2 v v v G z z u u ",
"H H S V z z 1 1 2 u z x T ] V.V.] ;.T I J J u 1 1 1 1 1 z x ;...S G z z 2 2 , , & & , 1 1 1 z t v v z z 2 1 1 1 2 > t 2 2 1 1 2 1 1 1 1 1 2 2 1 1 1 2 z v x u t XX#XA h z M ;.S z 1 1 1 1 & , , , , , , 1 2 2 1 1 1 1 1 1 1 1 1 1 , 1 , , 1 1 1 1 z z x z K v d.w.] T 1 1 1 1 , , , , 1 1 & & & & 1 1 1 1 u u P P H K ",
">.;.=X<Xh y 1 1 2 2 z z G V L.V.&.-.T Q J J 2 2 1 1 < 1 w x ;.;.G v u u u 2 1 , & & 1 , 1 1 z z v x z z 2 1 1 1 1 u u z z z 1 : 1 1 1 1 1 2 2 2 1 = $ > x z t . =X$X&.z z ~ -.G z 1 1 1 1 , + - , , , & 1 2 2 1 1 1 1 1 1 1 1 1 1 , , , , 1 1 1 1 u u > y *X'.n.d.=.Q 1 1 1 1 , , , , 1 1 & & & , 1 1 1 1 u u I ~ J J ",
">.;.$X:X^.D.z z 2 2 1 1 1 1 z z x v z u 1 1 , , 1 1 2 z x v 2 2 1 1 , , , , & % & & & , , 1 2 2 2 2 , , , , , & & , , z z M I I x 2 2 1 1 2 2 > v T.].T.P ..B.n.2 2 2 2 2 2 2 v G H j z z j 2 2 1 , & & & & & & & , , , , & & , , 1 1 1 1 , , 1 2 > 2 XX#Xh.y.q u 1 1 1 1 1 , & & & & & & & & & , , , , 1 1 2 2 2 z z ",
"j x 2 1 M $.U.n.u 2 1 1 1 1 1 1 1 , & 1 1 1 , , 1 1 2 2 z u u 2 1 1 1 1 1 2 1 1 & & , , , , 1 1 2 2 , , , , & & & , , 1 < . x x x x z 1 1 2 2 A |.T.5.] z z ; ; 2 2 2 2 2 1 1 2 < z G P I x 2 2 1 , & & & & & , , , , , , , & & , , 1 1 1 1 < 1 1 D.D.X 2 1 2 u z 2 2 1 1 1 1 , , & & & & & & , , , , , 1 1 1 2 1 2 y ",
"v x z z I | L.B.: > 2 2 1 1 & & & & & & & & & , , , , , , 1 1 # , , # - 2 2 2 u 1 1 , , & & & & & & , , , , , 1 , 1 1 2 2 2 2 u z x z 2 1 u > 6 '.U.w.I z z 2 2 1 1 , & & , , 1 1 u v G v x u 2 2 < , , , , , & & & & 1 1 , & & & & & , , z z d.n.b.n.x z z z z z z z u 2 2 2 2 2 2 2 , - & & & , , & 1 , 1 , : : z z ",
"u u z z u u I H 8.8.u 2 1 1 & & & & & & & & & 1 , , 1 1 , 1 u : ].|.T.T.v v 2 u z z 1 , & & & & & & , , , , , 1 1 1 1 2 2 2 2 2 2 1 > u z V.F.Y.=.j z u t u 2 2 1 < , & & , , 1 1 1 1 2 u z x x z z 1 1 , , , & & & & 1 1 , , , & & & , , x j x.V.w z z w z z z z z z z z 2 2 2 2 u z 1 , & & & , , & 1 1 1 1 c.f.;.:.",
"1 1 , , u u u u v V q.8.v v u t 1 1 1 1 1 1 1 1 2 2 v K @.q.=.8.v j V.y.V.x.x v z w 2 2 1 1 1 1 1 1 , 1 2 2 u u t z z z z t 2 2 z x [ n.D.w.K v z 2 2 1 1 , , , , , , & , , , & , , & , , 1 2 2 z z z z u 2 1 , , 1 1 1 1 2 1 , , 1 1 w z 2 2 2 1 2 2 1 1 , , , 1 2 2 z z z x u u 2 2 2 2 1 1 , , 1 1 u u x.c.P J u u ",
", , , , u u u u K K u.3.v v 0 > ; . : : 1 1 : ; . . j H 0.w.=.-.c S f.H.R.L.M m 0 2 z z 2 2 1 1 1 1 1 - ; . > ; > z z z z 2 2 > x H | T.Y.f.K v c > 1 1 1 , , , , , , , , , , , , , , , , 1 2 2 z z z z 2 2 - - 1 1 1 1 1 1 1 1 1 2 1 w 2 > z 2 2 2 2 1 1 , , , 1 u y z z x j o > 2 2 2 2 1 1 1 1 - ; > > U.n.T ~ z z ",
", , , , u u u u 2 2 2 w G S P | ;.;.=.T v x w.'.'.].8.w.P S z z z z t z z z V.N.=.| v c z z z z z z P J n.B.[.d.n.z z 1 1 > x v x z u 1 , u 2 u z z z 2 1 1 , , , 1 1 2 2 2 2 , & % & % % , , , 1 , u w M T | H Z z z , 1 2 2 1 1 2 2 2 u z z z z 2 2 , , , , , 1 u u u y :.=.T.Z.v x 2 2 2 2 2 z ;.=.4.q.j x 2 1 2 2 ",
"1 1 1 2 2 1 1 < & & , , 1 1 t t x Z =.g.,X;X;.T v v z z z z z u 1 1 , , 2 2 u 2 x x w.r.B.b.T.`.T.'.n K z t 2 1 1 1 < , , & , , 1 1 , , , , , 1 1 2 t z z z 2 2 u u u 2 2 & & & & & & % % , , , 1 1 1 1 2 z S v x ;.=..XOXc z 2 2 2 u u u 2 2 z z z z 2 u u u u u u u G G | Q K j ].oX=.&.> u c =.'.=.2 > 1 2 2 2 , , ",
"1 1 1 2 2 2 < < , , , , , , z u z x =.e.;X>X8.P v x u u u z u u 1 1 , , 2 2 2 2 z v b.d.c.n.{.T.^.'.n J z t 2 1 1 1 1 , , & & & , 1 1 1 , , , 1 1 u u z z z 2 2 2 u u 2 2 , & & & & & & & , , , 1 1 1 1 u z v v v T Q .XXXz z 1 2 2 u u u 2 2 u u u u 2 u u u u u u 2 H P | T v K oX].:.:.2 1 u 8.{.T > 2 2 2 2 2 , , ",
"1 1 1 1 , & & & & & 1 1 2 2 2 2 z u z G H P v B u u u 2 1 1 & & & & & & & & 1 1 2 1 u 2 z v -.=.c.f.H J x u u 1 1 & & & & & & & , 1 1 2 2 1 1 1 1 1 1 1 2 2 2 2 2 2 , , & & & & & , , 1 1 1 1 1 u 2 2 2 2 1 1 2 2 2 1 > 1 B.N.Q Q 2 2 , , , , 1 1 2 2 2 u u u c v &.T V H 2 u u w x x '.T.B.N.b.5.2 2 2 2 , , & , , , ",
"1 1 , , , & & & % & & & & & & , 1 1 2 0 > z z z u u 2 2 1 1 , , & & % % % % & & , , 1 1 2 2 t z ....P G p.f.>.u u , , , , % % & & & , 1 1 1 2 1 1 1 1 1 2 1 , , , , , , , & & , , 1 1 z u n.b.d.I S u 2 1 2 1 1 1 1 1 2 u j h n.V.=.I 2 2 , 1 , , 1 1 2 2 v v K v x z > > 1 < < 1 2 u b a q.0.n m 1 2 1 1 , , , , & & ",
"1 1 , , , & & & % % & & % & & & 1 , 2 2 2 2 2 u u u 1 1 1 1 , , & & % % % % & & , , 1 1 2 1 u z H H J J r.T.U.v v 1 1 , , & & & % % & , , 1 1 1 1 1 1 1 1 1 , & & , , , , & & 2 1 2 2 v c _.$XXX=.=.z z 2 2 1 , 1 1 1 2 2 z z d.r.%.;.u u 1 1 , , , , 2 1 K H G v 2 2 2 2 < , , , 2 2 z z q.:.v v 2 2 1 1 1 1 1 1 & & ",
"& , , , , & & & & & % & & & 2 2 1 1 , , , , , , , , , , , 1 1 1 & & & & & & & & , , 2 2 z z I Q H G > z z c 4.V.B.G K > > 1 1 , & & & , , & & , 2 2 1 1 1 1 , , , , , , 1 1 2 1 2 z z C.'.;.z z =.n.5.c.u w 2 2 u v B G v 2 t u 2 J Q f.t.u y , , , & , , 2 2 , , 1 1 2 2 , , , , 1 , u 2 u u G V I K t u 1 1 1 1 , & ",
", , , , , , , , , , , 1 2 2 2 u 2 2 , , , , , , 1 1 , , , , , , , , , , , , 1 1 1 2 2 2 x x W W K K 2 2 v v 3.J.L.V =.q q 1 1 1 , , , & & % % % % % % % % , 1 < 1 1 1 1 2 2 1 2 2 m j T.Y.-.v z J J.f.n.6 h h h z x v v v u 2 1 2 J ~ f.w.w z , 1 , & & & & & & & 1 1 1 , , , , & , & u 2 u 2 K K K J z z : 2 1 1 1 1 ",
", , , , , , 2 2 2 2 2 1 2 2 2 2 u u 2 2 2 2 , , , , , , , , 1 1 , , , , , , 1 1 1 2 z z z z 2 1 1 1 1 1 1 u u 2 ; q.0.+X+Xz u 2 1 1 , & & % % & & % % & & , , 1 1 1 1 1 1 2 1 z c y.r.G v u 2 u 2 2 u i oX#Xe.T P v v 2 2 2 u , , 2 u u u v v 1 < & , & & & & & , , , , , , , , & , , 1 1 1 , , , 2 y H H x x 1 1 1 1 ",
"2 2 , , 2 2 2 2 t t 2 2 2 2 , = 2 1 t z Z ;.| Z u u 2 1 1 1 1 1 1 1 2 2 z z v v z z u 2 , 1 & % % % & & 1 1 2 u 2 u z v v B.b.n.B u u 1 2 , , & & & & , , 1 1 1 1 1 1 1 u v v D.l.2 y i 2 2 1 1 1 1 1 2 & , , 1 2 , , 2 2 u u z u t 2 2 2 1 y 1 2 2 2 1 1 2 1 , , & + % % % , , , , & & & , , , , 2 2 u 2 K G ;.=.j z ",
"2 2 1 1 2 2 1 1 1 2 1 1 1 2 1 1 1 2 u z j T P.] h h > > 1 1 1 1 , 1 z z z z z z u u 2 2 , , & & & & , , , , 1 u 2 z u z z | T e.M o q 2 2 , < < < , & , , 1 1 1 1 1 2 u z z z 4 X 1 2 1 1 1 , & , , 1 1 1 1 1 1 , , , 1 , 1 2 2 2 u u 2 1 2 1 1 2 2 2 2 2 2 1 - , & & & & & & & & & & & & 1 1 1 1 2 2 2 2 z z j x z z ",
"u u 2 2 2 2 , & & & & & , , 2 2 1 1 2 z z h m V.B.B.K W 1 1 2 2 P P P I z z 1 1 2 2 1 1 , , , & & , , , 1 , 2 u u u u u z z c T n.n.B.z z 1 j B G 0 2 u 2 1 1 1 u u z x x z 2 1 , 2 2 , , & & % % % , 1 1 1 1 1 , , , & & & & 1 1 2 u 1 , 1 1 2 u 2 2 2 2 2 2 1 1 1 1 - , & & & & & & 1 1 1 1 2 2 2 2 2 2 2 2 2 1 z z ",
"& , 2 2 2 u 2 2 2 2 2 2 2 u u u ~ Q v x z 2 2 z u z ] w.T.[.~ ~ S v 2 t 1 1 1 1 , , , , , , , , 1 , 1 1 1 1 1 2 1 1 1 1 1 1 2 u z u h b H v 2 2 1 C H V v v v v z z z 2 1 < 1 1 1 1 1 , , & & , % % & % % & & , , , , & & & & & , 1 1 2 1 u u n.J.$X$X8 v > 2 2 2 , 1 1 1 , 1 1 , & , 1 1 1 1 1 1 1 1 & , & , 1 1 , , ",
"& & 2 2 2 u 2 2 u u 2 2 2 u u u | T G x u u u w u z >.q.^.'.P P v v u 2 1 1 1 1 , , & & , , , , , , 1 1 1 1 1 1 1 1 1 1 1 2 2 2 u z z G P v 2 2 2 G J H v v v v z z z 1 1 < 1 1 1 1 1 , , , , , & % % & & % % , , , , & & & & , , 1 1 1 1 z z c.y.;X>Xs H 2 1 2 2 1 1 1 1 1 1 1 1 , , 1 1 1 1 1 1 1 1 & , , & , < 1 1 ",
"& & 1 1 v v B.V.XX$Xk.3.t h | | G J 2 1 1 , , , 1 1 , , 1 2 1 1 2 2 2 2 1 1 & , & , , 1 1 1 1 2 1 1 1 1 1 1 , & & , , 1 1 1 1 1 1 1 1 , , 1 1 1 , & & 1 2 2 2 1 , , 1 , , 1 1 , , 1 1 1 1 1 - , , , & , , , , 1 1 1 1 1 1 1 1 1 1 z z J v B.D.v v z u -.=.`.F.b S 2 2 1 1 , 1 1 1 1 , 1 1 1 1 , , & , & & & , & , , & ",
"& & 1 1 j b L.V.%X*XL.0.j j T =.v v 1 1 , , , , , , , , 1 1 2 2 2 2 1 1 1 , & & & & , 1 2 1 1 2 2 1 1 1 , , , % & , , , , 1 1 1 1 1 1 , , 1 , , , , , 1 1 2 1 1 , , , , , 1 1 , , , , 1 1 1 1 , , , , , 1 1 2 1 2 2 1 1 1 1 1 1 1 5 0 V I n.K.v v u z I Q L.Y.| T > > 2 2 1 1 1 1 1 1 1 1 , , , , , , , , , , , , , & ",
"2 2 T ~ oX].| =.z z z h n.V.v v 2 u 2 1 , , & & & & & & , , , , , , & % % % % % & , 1 1 1 1 1 2 1 2 , , & & & & & & & , , 1 2 2 2 1 1 & & , , , 1 1 1 , & , , , 1 1 , , 1 , , , , % & 1 1 1 1 1 1 1 1 2 z j P P P v z u u u 2 H J ].].| ..2 u 2 2 u u 2 1 u z -.Q n.N.z c u 1 z u 2 2 1 1 1 1 1 , 1 1 2 2 1 1 1 1 1 , ",
"=.;.XXoXv z u u w w 1 1 1 1 b.y.G G u 2 1 1 , , & & & & & % & & % % & & % & 1 , 1 1 1 1 2 1 1 1 1 1 1 1 1 1 , , , , , 1 1 1 2 2 2 2 z z u 2 1 , , & & & & , 1 , , , , & , , , , , , 1 1 1 2 2 z z z z z z z z j x ..:.^.F.T.Z.8...c z y u 1 1 1 1 & & & , 2 2 > u v v 7.q.].~.u u 2 2 1 1 1 , , , v x z u 1 1 2 w K v ",
";.>.T.Y.x x u u u u 2 2 2 1 f.p.G G z z 1 1 1 , , , & % & & % % % % & % & & 1 1 1 1 1 1 1 1 , 1 1 1 1 1 1 1 , , & , , 1 1 , 1 1 2 u z z z 2 1 , & & & & , & 1 1 oX^.F.c.y , 1 , 1 1 1 1 1 2 2 z z z z z z z z z z -.-./.'.F.F.-.;.z z u u 2 2 , , & & , , 2 2 2 u v x -.u.{.T.8.:.v x 1 1 x v | ..v v 2 2 1 1 2 z T P ",
"| =.u y u 2 1 1 , , , , & & & & & - > 2 z z 2 2 1 1 1 1 1 , , , , & 1 1 1 1 2 z v W f.f.v z 2 u 1 1 1 1 2 x v K K u u x x v v v z u > 2 2 1 , , , 1 1 , , X n.].a h h j T.].z 1 1 1 1 1 1 , - , , 2 y z 2 2 u 1 1 z 2 ~ I 8.8.0 t 2 2 1 , 1 1 1 1 & & & & & , 1 1 2 u z z z u | ] P H D.D.T T ; ; , 1 , 1 u z v z b l ",
"u u u u u u , , , , , , , , , , , , 1 2 z z 2 1 1 1 1 , , , , & , , 1 1 1 1 1 c W m ^.F.v v u u 1 1 1 1 2 x G I K t t Z B x v v z z 2 1 1 , , , , 1 1 , * 9 V.^.j x z z Z.!.z < , , , 1 1 , , , , , 1 1 1 2 1 2 2 u u G K 7.:.z z 1 2 , , , , 1 1 & & & & & , 1 1 z z u z u u u t v v N.V.H v 2 1 1 1 1 1 u u x v z u ",
"2 2 1 1 & & & & , , , , , , , , , , , , 1 1 1 1 1 1 1 1 1 1 1 1 2 2 2 2 u u j c.'.T.Q ~ n.V.Z.Y.2 2 1 , 1 1 u u h P I G 2 u 1 1 1 2 1 1 1 , 1 1 1 u z =.^.W.V z 2 2 2 2 2 x ..n.c.R z 1 1 2 2 2 1 1 , , , , 1 2 u u u y 1 z z j x 2 2 , , , , 2 u z z 2 2 u z K G v v 2 2 1 , , , 1 1 , & , 1 1 1 1 1 1 1 u u 2 2 y 1 ",
"2 1 1 , & & & & , , , 1 2 2 1 , , , , , , 1 1 1 1 1 2 2 2 2 1 1 1 2 y t z z G 8.d.d.K v <.;.m.U.n | > 2 2 1 1 u t v v t u 2 1 , 1 1 2 2 2 1 1 x x M ..;.p.K.x t 2 2 2 2 2 u j | ..q.p.x w z z > 2 2 < 1 2 1 2 u u 2 u 2 2 2 u u u 1 2 , , , , 2 u z z z z x z v v z z 1 1 1 1 1 1 1 1 1 1 1 1 , , 1 , 1 1 2 2 2 2 2 2 ",
"& & & & & & & & , & 1 1 1 2 2 1 1 1 , , , , 1 1 z z B B z z 1 1 1 2 x x H G G v u z z z z u -.q.I.^.] W x 1 , 1 1 2 2 , 1 , & & & , 1 1 2 z x | n.T.T.p.u u 2 2 , & , , 1 t u u u  XXX-.-.T x x > z u z z z 2 2 2 1 , , , & & , , & & , , , , 1 1 u u T Y H S : 2 , , & , , , , , 1 1 1 1 1 1 , & , , 1 , 1 1 1 1 1 1 ",
", , , , , & & & & & & & & & , , 1 1 1 1 1 1 1 1 2 2 w w x x x x V H B v > > 1 1 1 1 2 2 z u z z v v L.F.;.u u 1 1 1 1 , , & & & & & & < , x x z z 2 = 2 1 1 , & & , , & , 1 1 2 2 z u 1 u 2 2 > 2 u 1 2 2 2 2 , , & & & & & & , , 1 1 1 1 1 1 1 1 2 1 2 1 1 2 2 , , , , , , , , , , & & & 1 1 2 1 , 1 1 1 1 1 1 1 1 1 ",
", , 1 1 1 , , , & & & & & & , , 1 1 1 1 1 1 2 2 1 2 z z z z v x H H v x 2 2 , 1 1 1 u 1 z u z t v v P.Y.| z z 2 2 1 1 , , & & % & & & 1 1 v v z t 2 1 < 1 , & , & , , , , 1 < u u u u u u 2 u 2 2 2 1 1 1 2 2 , , % % % % % % , , 1 2 2 2 1 1 1 1 1 1 1 1 1 2 1 1 1 1 & , , , , , , , , & , 1 2 2 1 1 1 , 1 1 1 1 1 1 ",
", , 1 1 , , 1 1 & & % % % & , , 1 1 x P k.L.x 2 1 1 1 , , 1 u u 2 2 , 1 1 , , 1 u u z z 2 2 1 , 2 2 u 1 Y 8.&XY J , 1 % & & & & & & , & & & & , 1 1 1 1 , & , , 2 1 2 z z z z z z u u , , , 1 , 1 , 1 1 1 1 , , , % % % % % % , , , , 1 1 1 , , , , , , , , 1 1 1 1 1 1 2 , & & , & & & & % & , & 1 1 , , 1 1 1 1 1 1 ",
"z > 1 1 2 2 2 1 2 2 1 1 1 1 1 1 c z <.O.V.B.Z w 2 2 1 1 1 1 , , , 1 1 1 , , 2 2 z z < 1 & & & % & % , 1 , & 1 > 2 2 2 1 1 , , , , , , & & & & , & & & , , 1 1 1 z u j T P G u u 2 , , , , , 1 2 u z 2 2 2 2 2 1 1 1 1 1 < & & & & % % & & & & , , , , 2 1 1 , 1 1 2 u z z z z 1 , & & & % % % , , 1 1 2 2 u z T | j z ",
"w 0 : 2 > : 1 2 2 2 1 1 1 1 1 1 J ' $XW.z z e.[.v v 1 1 , , , , , 1 1 1 , , 2 2 u u 1 1 & & & & & & 1 1 , , 1 2 u 2 u 1 1 , , , , , , & & , , , , & & & , - 2 : z z z K K v z u 2 , 1 , , , 1 1 6 8 w ; 2 2 2 1 1 1 1 1 1 , & & & & & , , & & , , , , 2 1 , 1 2 1 1 2 u u z u < 1 % & % & & & , - 1 1 2 1 u u (.].j z ",
";.;.-.-.T.M.G I 2 2 1 2 2 : ;.' n.U.x z 2 2 u z G T T.T.H b 2 2 1 1 1 1 1 1 & & & % * & & & & & 1 1 1 1 , , , , 1 2 2 2 u 1 1 2 2 , 1 1 2 , , , , , , 2 v H H H z z u 1 , , , & & , 1 1 , u h K $X,Xc.d.z z z 1 1 1 1 1 1 1 1 1 , , , , , 1 1 , , 1 1 z z |._.( T 2 1 1 1 z z x x 2 2 , & , , 2 2 2 > z u c.m.K v -.;.",
", 1 1 2 w j V.D.b.u.%X%XW.Q.n.L.h z z 2 2 2 1 1 > > w w > > 2 u 1 1 1 1 1 1 , , & & & & & & 1 1 1 1 & & & & , , , , , 2 2 z v K.W.%X|.v v 2 2 2 2 z v v v v t 2 1 , , , , , , , , 2 2 v v B.L.T x y ] / [.d.v u 2 2 2 1 1 1 1 1 1 1 1 1 1 1 1 1 1 z z W.[.^ [ J.n.T.P.u 2 1 1 1 < 2 2 2 2 1 1 2 2 v G |.#X] n u z z z ",
"1 1 2 2 u > N.N.y.r.OXXXF.}.V.L.z z u u 2 2 1 1 2 2 u u u u u 2 1 1 1 1 1 1 1 , , & & & & & , 1 1 , & & & & , , , , = 2 y z c L.'.+XXXK R u 2 u u z x v v z u 2 , , , , , , , 1 & 1 y G J F.D.~ z z Q / T.y.S u 2 u 2 , 1 , , 1 1 1 2 1 1 1 2 1 , v v _.oXg W f.N.D.c.1 2 1 1 1 1 2 2 u 2 1 1 2 , v G  XoXV K z u u u ",
", , 1 1 2 2 2 2 z x w.8.T v z z 1 1 1 , & & , , , , , , , , , & 1 1 1 1 1 1 z z z z 2 2 , , , & & & % % & & , , , 1 1 z z ].'.O.K v z 0.g.`.-.=.v z z 1 , 1 , , , , , 1 1 u z w.0.&.T <.<.u z u z u u u v n.).&.;.v c z z u u u z u u z z z z k.y.j.V.z z u u u u G S 7.;.u u 1 1 1 1 u > z v 8.u.U.m.v J z u u u & & ",
"% % & , , , 1 1 u u z x z z z z z z 2 , % % & % & & , , , 1 1 1 1 1 1 1 z u z z H G z z 2 1 1 1 , , & & , , 1 2 , u 1 n.n.p.u.v z z z P T b.L.f.G z 2 1 1 1 , , , , , 1 1 1 1 H H Q Q v v u 2 1 1 1 u z x H 8.u.>.0.8.L.L.P | v v w.d.v c w.q.-.;.j I z u 1 1 u u z z S J G v 2 1 2 2 ;.=.0.f.%X%X=.P z z 2 1 1 , & & ",
"% % & , , , , , 1 1 1 2 u z z z z z 2 1 % % % % % % , , , 1 1 1 1 1 1 2 z z t u W T z u 2 2 1 , , , & & , , 1 1 u u c Z.D.j v z u z z z z u.V.f.G w 2 1 1 1 & 1 , , , , 1 1 1 1 1 x v u u 2 1 , 1 , u z v v v v x y.6.oXoXd.q.v K A.D.Z v B.D.v j u u y u 1 , , 1 u u z z V P 2 1 u 2 c.r.M.c.;...z z z u 1 1 & & & & ",
"% % & & & & & & & & , , 1 1 2 2 u 2 1 1 & & % & , , , 1 2 2 u u 2 2 z z z z -.0.e.:.| Q u u 2 1 1 1 1 1 2 1 t z p b.n.K K u u 2 , & & 1 2 z z z G =.=.=.G v 1 1 , , , , 1 1 1 1 1 1 1 1 1 1 2 2 K I v z u u 2 1 1 1 , z z 4.y.w.w.u z u =.T V x z 2 i 1 1 & & & & 1 1 2 2 2 2 z z 2 1 1 1 2 2 z t z u u z 1 1 , , & & ",
"& & & & & & & & , , , 1 1 1 2 2 u u 1 , & & & & , , 1 1 2 2 2 2 u 2 z z h b 0.X.>.-.=.=.5 h u t 1 1 1 1 1 1 4 b a H.H.K K u u 2 , & & 1 2 u z v W =.1.-.G x 2 1 , , 1 1 , 1 1 1 1 1 1 1 1 1 : > T I v c u 2 2 1 1 1 1 z z 3.u.a.a.x z z S ~ ~ z z u u 1 1 & & & & , 1 2 2 2 y t z 1 2 1 1 2 2 u u u u u u 1 1 , 1 , & ",
"& & & & & & & & 1 1 1 2 1 1 2 2 , , , , , 1 1 2 1 1 u u x x z c u z v S L.D.`.T.z z K G d.q.K v z y u z H -.B.n.V.u u 2 2 2 , , & & & & & 1 1 , , 1 1 2 2 2 z 2 1 2 2 , 1 1 1 1 , & & , 1 z H Q I I 2 u 1 - & , , 1 1 1 1 1 1 x v v x x j 2 u 2 1 1 1 & , & & & & , , 2 1 1 u v G u z 1 1 1 , , 1 , 1 1 1 u z z u 1 1 ",
", , , , 1 1 1 1 2 2 Q u.*X=Xz z 1 1 1 1 1 1 2 u u u u u t z Q M F.F.N.B.K K u z u z t u 2 y J P Y.D.C.S.p.v z = 1 1 1 1 1 1 1 , , , , , , , , , 1 1 1 1 1 1 > 2 v I G v 2 1 1 1 1 1 1 c z v j z 1 1 1 1 , & & & & & , 1 1 1 1 y 2 G B w 2 1 1 1 1 , , , & & & & & 1 1 1 2 v v v j =.| H H 1 1 , 1 & & & & , , 2 2 u u ",
"1 1 , , 1 1 1 2 i y &.h.+X>Xc z , 1 1 1 1 2 2 u u u u u u z | &.!.'.C.M.J K 2 u u u u 2 2 2 K V T.T.Z.Z.u.z u 1 , 1 1 1 1 1 , , 1 1 , , , , , , 1 , 1 1 , 1 2 2 P H K v z 2 , , 2 1 2 v v G x z 2 1 1 1 & & & & & & , 1 1 2 1 2 2 v x > 2 1 1 1 1 , , , & , & , & 1 1 1 2 v j v j ..] M P , 1 1 1 , & & & , , 2 u u u ",
"1 1 1 1 1 1 z z B.D.~ K v S D.N.z v u 2 u u 2 u u 2 , , 1 2 2 2 2 2 2 2 2 1 1 1 , , u u u z 2 1 , 1 1 , 1 1 & , , % % & % & , , 1 1 1 & & % % & & , 1 1 1 1 1 , , , 1 z x z u u z v v z z 2 1 1 , 1 & & & & & , , 1 1 2 t z z z z 1 2 1 1 1 1 , , , , , & , , 1 2 u z x B v x 1 1 1 1 Y P J H 2 2 1 1 , , , , , & 1 , ",
"2 2 2 2 0 j f.b.e.w.x x z z | ..b.H.M > z z 2 2 2 2 1 1 1 1 1 1 1 , , , 1 , , , , , u u z z G Z e e : , , 1 , , , % % & & & , , 1 1 1 & & & & & & , , 1 1 , , , , , 1 1 z x j e m x x 1 2 , , & , , , , , & 1 1 1 1 2 2 2 u 2 1 1 , , , 1 , , & & & & = , 1 1 1 2 z z z z 1 , , , , , , , z z x z 2 1 , , , & & , 1 1 ",
"z x K j M.S.V.c.v v 2 u u u z z v.j.].m I G u 2 2 2 2 1 1 1 , 1 , 1 & , 1 , % % , , 1 1 u u H I t.q.A J v 1 1 , , & , , , & & & & , , 1 1 2 2 1 , & & & & & , , , , 1 : v d.T.^.f.u 2 , , & & & , , , , 2 1 1 z z u 2 2 1 , , , , & & & & , , 2 1 2 1 u z k G v z c z 2 2 , , , , , & , , 1 1 z x z z 2 2 2 2 2 2 2 2 ",
"z z D.Y.~ T u 2 2 u 1 1 & , 2 2 t > J |.].}.t u 2 2 2 1 , , 1 1 , 1 z 2 & & , , , , 1 1 u u 2 2 u z -.>.3.k u 1 1 , , 2 1 1 1 1 1 & & 1 1 2 2 1 , & & % % & , 1 & 1 u 4.'.F.V.t u , , , , % & & , , , 1 u x S P T z z 1 1 , & & , % & & % , , 2 2 2 2 K P `.].D.b.z z 2 1 1 , & & & & , 1 1 1 2 2 z z G G y 1 y u u y ",
"f.n.j 0 > w 2 2 1 1 , , & & , , 2 2 z m q ' B.U.z z 2 2 2 u z z =.-.T T z z 1 1 , , 1 1 , , 1 1 1 1 2 > z z J G H J H v v 1 1 2 1 , , 1 1 1 1 , , , , , , , 1 1 E.U.V.n.f 6 ; 2 2 2 1 1 1 1 1 1 2 2 v v z v z z 2 z z z z z z 1 1 , , , , 1 1 u 2 Q =.Y.T./ m ] M T ~ |.T.u 2 , 1 1 , , 1 1 1 1 1 1 1 G G 0.>.j c c c ",
"V.V.y 2 u 2 2 2 1 1 , , & & , , 1 1 1 z z ' S.T.z x 1 2 2 u z x >.>.Q Q x z 2 1 , , 1 1 & & , , 1 1 2 1 z z S H I H V v v 1 1 2 , 1 1 1 1 & & , , , , , , , 1 1 ^.T.T.d.v > 2 2 u 2 1 1 , , , 1 y u v l x z > 2 1 z z x j z z 1 1 1 , , , 2 2 2 1 -.=.].`.6 z z z T =.].'.w 2 1 1 1 1 1 1 1 1 1 1 1 1 v k 0.0.c z c c ",
"u u 1 , , , , , 1 1 1 1 1 , , , 1 1 z z z z z x T =.q.8.J v x z 1 1 , , , 1 2 1 2 2 , , & & & & & & , & , 1 1 y u z z 2 2 2 2 2 1 1 1 2 2 2 2 2 2 1 1 1 1 . y.6.u u 2 1 1 , , 2 1 u 2 u u 1 2 2 v v z z 1 1 , , & 1 1 2 u x v x x u u 1 1 v v j.k.N.M.c u i z 2 1 2 2 u u #.7.S G u u 2 2 1 1 1 1 1 1 2 1 z u ).I.&.&.",
"z z 1 1 , & & & 1 1 2 1 1 1 1 1 2 2 z z z z z z ~ Q d.f.8.=.z z 1 1 , 1 , 1 1 1 2 2 , , & & & & & & & , 1 1 1 1 1 u u u 2 u 2 2 1 > 1 v P L.K.G.z z z w b b U.E.u 2 2 1 1 , , 1 1 z z z z 2 u z z z u u 1 , - , , 1 1 2 2 c c x x z t h ; b.K.{.D.c.d.z z u t 2 1 1 1 u u L.n.| Q P H 2 2 1 1 , , 1 1 2 1 u i U.T...=.",
"z z u u 2 2 1 1 1 1 1 2 2 2 z z z z z 1 1 1 1 1 2 2 z x T K z z u u 1 1 , , & & & & & & & & & & , 1 1 1 1 1 1 1 1 , , , , 2 B P P x x Q [ F.S.K.v v v E Y.R.H x t u 1 , , & & & & , , 2 2 z z z 1 1 , , & & & & & , , , , 1 1 u y =.-.].F.m.V.x z u u > 2 , 1 , , , , 1 1 1 , z x H G z u 1 1 1 1 1 1 1 1 1 2 1 2 z z ",
"2 2 z u 2 2 1 1 1 1 1 2 2 u z z z z 1 1 1 1 1 1 2 2 2 2 2 2 u u z u 1 , , , , , & , & & & & & & 1 1 1 1 , = 1 1 1 , , , , > v G | Q =.I G z z I V.T.T.b.S v 2 2 u 2 2 , , & & & , , , , , 1 1 1 1 1 , & & & & & & , , , , 1 1 u u v x u K z z z z u 2 1 1 , , , , , , , 1 1 1 , 1 1 , 1 1 1 1 1 - 1 1 , , 1 1 , , , , ",
"% % , , 2 2 1 1 1 1 1 1 1 1 1 1 & & , , - 1 1 u w > 2 2 1 1 , , 2 2 z z 2 2 1 1 & , , , 1 1 1 1 c z L.S.L.Q K 2 2 , 1 , , & 2 2 2 2 u z z z z v =.| =.=.G v 2 2 u u z z z z 2 1 1 , , & & , , & & & & & & & & & & , , 1 2 z v v G z t 2 z z u z z u 2 1 1 , , , , & & & & & , , , , , 1 , u u u u 1 1 , , , , , , , & ",
"& & , & & & , , 1 1 , , , , , , , , , , , 1 2 2 2 2 2 1 , , & & 1 , u 2 2 2 2 1 , 1 , 1 y 2 . . d a R.L.Y.e.M : z 1 1 , , , , , , 1 , u 2 z z u u u u u 2 2 1 1 u 2 z z x z z z w , - , , , , , & , & & , , , , & 2 , > 0 z v z v 1 1 1 1 u u z u z z 2 2 1 1 , , & & & & , & , , , , 1 1 2 u 2 2 1 1 1 , , , , , 1 , ",
", , , & & & % % % % & & & , , , , , , , , 1 2 2 1 1 1 1 , , & & , , , , 1 1 u u 2 2 2 2 j c oX)..XoX^ V K ~.}.;.2.2 u 1 2 1 , , , , , 2 1 z z u 1 u 2 2 2 1 , , , , 1 2 x j v ;.<.b x 1 1 1 1 2 1 1 , , , , , 1 1 z z 7.=.z z 1 1 1 , , , 1 1 2 2 x z j v 0 z 1 1 & & & & , & & & , , 1 1 1 1 1 1 1 1 1 1 1 , , 1 1 2 ",
"1 2 2 2 1 1 & & & & & 1 2 2 2 2 , , , , , , & & , , 1 1 1 1 , , , , , 1 2 2 u u u u =...;X#Xv v z z u z z z x 7.XXD.S.v v 2 2 2 1 , , , , 1 1 , , , , , , & & & & & , , 1 2 u v v 0.d.+X+Xf.| T z z 1 , 2 2 2 H H e.w.z u 1 1 1 1 , & & & & & 1 1 1 1 2 u z z z z 2 , , , , , , , , , , , , , 1 1 1 1 u z v H >.>.x z ",
"z > u u 1 1 1 , , , , 2 2 2 2 2 1 1 1 1 1 1 1 , 1 , 1 1 1 1 1 1 1 , & - z 0 u u V I n.n.c.w.z z t u 2 2 2 2 z J d.d.8.| | 0 z > 1 , 1 1 1 1 1 , , , , , , & & & & & , , 1 z t z x =.T | | H J H z z z u z z h H K J H 1 2 1 , , , & & & & & & , , 1 1 2 1 2 2 u u 2 2 < 1 1 , , , , , , & 1 1 1 1 > 1 M ..&.| =.Q u t ",
"G v t y 2 2 1 < < < < 1 2 2 2 2 1 1 1 < - , 2 2 < < , , , 1 1 2 v V d.e.:.-.z z b.B.D.B.K v 2 2 2 2 , , 1 2 1 1 1 v v c.c.I T v t x v z z 1 1 , , & & & & & , & & & & & 1 x v v x v > 2 2 1 z z z z j v K &.K B G 2 2 , , & , & & & & & & & & , , 1 1 , , 1 1 2 2 u u t t - - , < , - , , 1 1 1 1 =.W T.F.y.w.z z 1 1 ",
"z z x x H P x x z z x z 1 1 2 1 1 1 j S &.=.v z u t 1 , , , 1 1 t > 0 e H I '.^.G P w 2 u z 1 2 , & & & , , , 1 2 1 2 , , t v x z z u 1 2 , & , & & & & & , 1 1 2 2 z x v v v z 2 1 1 1 1 2 2 2 c v | W oXF.f.v x u 2 , , & & & & & & , , , , , , , & , , 1 1 1 1 u u z H H P x z t 2 2 u u u J K T.^.z u 1 2 1 2 1 1 ",
"& & 2 2 z z :.d.n.b.I v u i J H L.L.~ G 0 : 2 - 1 1 , , , , , , 1 1 2 2 j z j j t > < 1 , , - , & & & & , & , , , 2 2 , , , 1 2 < , = & & & & & & & & & , 1 2 2 z z x v z - , & , & , 1 1 2 z K U.U.| =.4 q h f.f.E.R.1 2 1 , , , , , 2 v G z 1 , & & & & , , 1 1 1 1 : z v G B G f.n.{.{.E.T.P K 4 4 2 2 1 1 1 , & & ",
"& & 1 1 u 2 =.:.b.n.V K z w Q I v.D.V S 2 1 1 1 1 1 , , & , & , 1 1 2 2 z z x z u u 2 1 & , & , & & & & & & , , , , , , , , 2 2 1 , & & & & & & & & & , & 1 u 2 z z z 2 2 , , , , & , 1 1 u x W oXoXW W u z z e.y.oX].y u 1 , 1 , , , 2 G j x , , & % & & & , 1 1 1 1 1 2 t 0 v K f.d.'.].].].B b u 2 1 1 , 1 1 , & % ",
"1 1 1 1 u u x x v v >X$X'.T.w.0.2 2 1 1 1 1 , , , , , , 1 1 1 1 u u u u 2 2 2 2 z x z u 2 1 & , , , , , , & , , , & & , 1 1 1 1 , & & & & & & & & , 1 u z z z z 2 1 1 1 1 1 1 1 1 z z =.T +X!.l.z z u 2 2 2 2 2 2 z z ..;.v x 2 1 < 1 1 , 1 1 2 2 , , & , & , , , , , 1 , 2 u u z K v b.f.v v 2 1 , 1 , , , & & & 1 , ",
"2 2 1 1 z u v x v x [ T.v.0.j x w u 1 1 1 , , , , , , , 1 2 1 1 u u u u 1 2 2 2 z z 2 u 2 1 & , , , , , , , , , & & & , 1 1 1 , , & & & & & & & & 1 1 u z z u z 2 1 2 1 2 1 2 1 1 u u ..=._.j.n.z u 2 2 2 2 2 2 2 z c :.:.x v u 2 1 1 2 < < 1 2 2 , , , , , & , , & & 1 , u u u t v v | | c z 1 1 1 1 , , & , & & 1 1 ",
"z z K H J J v v 2 u u u z z z z 2 2 1 , , , , 1 1 1 1 2 z v J K u u 1 1 , , 1 1 1 2 z z z u 1 1 , , , , , , , , , 1 1 , , & & % & & , 1 1 1 1 1 u w w 2 1 2 u u H G z 2 2 2 u J J b.n.8.8.z 1 2 2 2 1 , , , , , 1 1 1 1 1 u u G B x z z z 2 2 2 2 u u 2 2 1 1 1 1 u u u 2 u 2 x x v v z t 1 1 , , & & & & & & 1 1 2 2 ",
"x x G G G G z z 1 1 1 u z z z z 2 > 1 , , , , 1 1 1 1 u z v I S 2 2 1 1 , , , , 1 1 2 2 u 2 2 2 , , , , , , , , , 1 1 , , & & % & , , 1 1 1 , 2 u u 2 1 , 1 z u J P x 2 = 1 z J I p.p.G I 2 1 2 1 1 , , , , , , , , , , , 1 2 x x x z z z 2 2 2 2 u u 2 1 # = 1 , u u 2 2 u u z z v x u z 1 1 , , & & & & , , 1 1 2 2 ",
"x x 2 2 1 1 1 1 , , 1 2 1 1 z z x x z 2 2 2 1 z z v :.| S G 1 1 , , & & & & & & , , , 1 1 1 u z 2 1 1 1 , , 1 1 1 1 1 1 , , & & , = 1 2 u v =.T u 2 1 1 1 : J J z z P | n.J.J H G > z 1 , 1 , , & & & & , , , & & & & , , & & , , 1 1 1 1 2 2 2 2 w z W K |.oX/.F.u c 2 u 2 u 2 u 1 1 2 2 < 1 & & & & & & 1 1 1 2 2 2 ",
"1 1 1 , 1 1 , , , , , , 1 , 1 1 t t z c z z =.-X#X=XT.n.u u 1 1 & & & & & & & & , , , 1 1 1 1 1 c v z z z z u u u 2 1 1 1 2 2 2 u z z I Q -.x H J z z v T v w 1 & , - 1 ; 0 u z > z z z z z < 1 & & & & & & & 1 2 2 1 , , & & & & , & 1 1 1 2 z z K.K.T.Y.7 j m M oXT.v c 2 2 < 1 , & , - 1 1 1 1 1 1 1 1 2 1 u z H K ",
"1 1 1 1 1 1 , , , , 1 1 1 & , 1 u u z x c c -.*X;X;XF.R.z u , 1 & & & & & & & & & , , , , 1 1 1 z x x j T I v y x 1 2 2 1 2 u y w u j ..M Q v v ~ U.D.@.P v 2 1 , , 1 1 2 z z u 2 u u z z z 1 1 & & & & & & & 1 2 2 2 , , & & & & & & 2 , 1 1 c k V.L.Z.^.b v K ~ ].~.i i u 2 , , , , , , 1 1 1 1 1 1 1 2 y 2 H V V v ",
"% & & & & & & , 1 1 1 1 1 & , , , , 2 0 c.D.| x x x K | x.n.c u , , 1 , & & & & 1 1 2 2 u u u u w u 2 z v K ' ^.{.v v u u u I ~ oX].|.T I 2 u u G S G z 1 1 1 , & & & & , 1 1 1 1 1 1 u u x S G 2 2 , , , , , 1 1 1 , , , , , , 1 1 1 2 2 | &.S.D.M =.2 z u u w z x i ).^.F.S.G v , 1 , , , , 2 1 1 1 u u c.h.K H 2 1 ",
", , & & & & , , 1 1 1 1 1 , , , 1 - 0 b b.b.v z z z v K 8.8.j Z 1 1 1 1 , , & & 2 2 z z z z u u 2 w u u v B >.T.W.| <.m m d ..8.x.| ;.2 2 u 2 > > 2 > 2 1 1 , , & & & & & 1 1 1 , , , 1 1 z G J w z : - , , , 1 1 1 1 1 , 1 1 1 1 1 1 2 2 =.u.n.n.A P 2 2 2 u u u z z n.U.U.Y.;.=.2 2 , , , , 2 1 > 1 j h n.d.x x 2 1 ",
"1 1 1 1 1 1 , , 1 , 1 1 1 1 1 1 t 0 Q -.v c u y u u w u u u 8.d.v z 2 2 1 1 1 2 z z z z 2 2 1 1 u w u 2 u y u z 0 0.0.Z.'.T.| I z 2 2 2 2 1 1 1 1 , , , , , & & & & & & , , , 1 , , , 1 1 1 2 u I T I I z z u 1 1 1 1 1 1 1 1 z 2 1 1 2 2 2 2 , , 1 1 2 1 & & , , 2 2 1 1 z z x B v v 1 1 1 , x c =.<.c.f.2 z 2 1 1 1 ",
"1 1 2 2 2 2 2 2 , , , , 2 w f.oX;.%.2 2 1 1 1 , & , 1 2 2 2 u 2 I M n.f.J H z z 1 1 , 1 , , , , 1 1 2 2 2 2 2 2 2 z z u t u 2 u 1 1 , , , , & , , , & , , & & & , & , 1 , , , , , , , , , & , < 2 > > h T V v z z x z :.;.].{.n P 2 2 1 1 , , , , , , & & & & & & , , 2 2 2 2 2 u u 2 z z z z z m c.B.2 1 1 1 1 , & & ",
", , 2 2 2 2 2 2 1 1 , , 2 w q.~.;.;.u 2 1 1 1 , & & 1 2 2 2 2 2 T | n.c.n M z z 1 1 , 1 , , , & 1 1 2 2 2 2 2 2 2 z z u 2 u 2 2 1 1 1 , , , , , , , , & & & & & - & - 1 , , , & , , & & , , , 1 2 2 z z J H S x x v v <.=./.^.M J u 1 1 , , , , , , , , , & & & & 1 1 2 2 2 2 2 2 2 2 z z z z z z x x 1 2 1 1 1 , & & ",
"& & , , , , 2 1 1 1 z z z z u 2 1 1 2 1 , , , , , , , , , , 1 1 1 2 v S w.8.z z z z z z 2 1 , , , , , , , & , 1 1 2 2 2 2 2 2 u 2 1 1 & , , , , , , , , , 1 2 1 , 1 1 1 1 2 2 2 1 , , , , , , , , , , , , 1 2 v v $XXXq.w.u u Q I D.D.u 2 2 2 , , , , , , , , 1 1 u z z z 2 2 1 , 2 2 2 y u z 1 1 , , , , & & & & & & ",
"1 1 2 1 x H b e u u z u 2 : 1 1 1 1 , , , , , , , , , , , , , , 1 2 2 2 , 2 u u z z z z u u 2 2 1 1 , , & & , 1 1 1 1 2 2 2 2 2 2 2 2 1 1 , , , , , , , , 1 1 1 2 2 2 2 z Q f.n.w.1 2 1 1 , , , , , 1 1 2 2 : p.u.( ' e h u z z z >.;.f.u.v v 2 1 , , , , 1 2 u u 2 2 , 1 & 1 , , 1 1 1 1 < 1 , , , , , , , , 1 , 1 , ",
"1 1 t 2 u.q.T.Y.z z u u 1 , 1 1 1 1 , , & , & , & & , , & , , , 1 1 1 1 1 1 1 2 z z z z z z u u 1 1 , , , , , , , 1 1 1 2 2 2 2 2 u 2 2 2 , , , , , , , , 1 1 1 u i z u W ..].'.T.u 2 , 1 , , & , , 1 1 v p.n.b.b.v z z t u u u u G G F.Y.=.T , 1 1 , 1 1 2 u z z 2 1 , , & , , , 1 1 1 1 , , , , , & , , 1 1 1 1 2 1 ",
"u u x.y.&.=.;.:.V.J 1 1 1 1 1 , , , , , , 2 z C 2 > , & , , , , & & 1 1 1 1 , , 2 2 2 2 2 2 u u 2 u 1 1 1 1 1 1 1 1 1 1 2 2 1 , , & & & & % % & , , , , 1 1 1 2 2 c %.Z.v.f.K W W  X_.z z , , , v v V H H v v = = , , 1 1 1 1 1 2 1 1 1 1 u u z z u u 1 1 1 1 2 2 , 1 , , & , , , , , , & , , , , 1 1 u z z u u u u u ",
"j h K.n.! Q =.>.L.f.. ; 2 1 1 1 , , , , , 2 z x 2 2 & & , , , , , , 1 1 2 1 1 1 2 1 1 2 2 1 2 2 2 u 2 2 2 2 2 2 2 1 2 1 2 2 1 , , & & % & & & & , , 1 1 2 2 2 u x x 0.|.b.3.v v v E.W.j d ; @ X v x J J x z u 1 1 , , , 1 , , 1 1 1 1 1 1 2 2 z z z x 2 2 1 1 1 1 1 1 , , , , , & & , , & 1 1 1 , > > d 8 z z z z u u ",
"n.b.J J t u z z J K V.n.z 1 1 1 1 1 u 2 u 2 , , , , 1 , , , , , , , 1 1 w w u u 2 2 2 2 1 2 1 1 1 1 2 2 2 2 z z c u u 2 2 1 1 & & % % % % & & & , 2 2 u 2 u z v r.w.d.P z z z u u K K Z.`.n.%.c.v G 2 u 1 1 1 1 1 , , , , , & & & & & 1 1 1 1 2 2 G G z z 2 1 1 1 2 2 z t 2 & , & & , , & 2 2 2 y >.>.XX'.| =.z z z u ",
"v v z z 2 u u 2 u u z V 4.r.x z 2 2 z 2 1 1 , , , , 1 , , , , , , , , , 1 1 u 2 2 2 1 1 , , , , 2 1 2 2 V._.{...0.] ;.z x 1 1 1 , & & 1 1 1 2 1 1 z z x P [ y.w.j v z z z u 1 , 1 u u z z I f.N.P I u u 1 1 1 1 1 2 2 , , & & & & & & , , 2 2 z z u 2 < < , & & % 1 1 u u B z 1 1 1 , 2 2 D.F.Z.^.q.;.v z n.B.5.y.z u ",
"x x u u 1 1 1 u u u z G u.d.V b t z 2 2 1 , , , , 1 1 , , , & & & , & & & , 2 1 1 1 1 1 , , , , 2 2 u ] Y.`.P.Q | =.=.f ] 2 u 1 , , 1 1 1 1 2 1 1 u u v ~ T >.u.z x x 2 u 2 , , 1 2 2 z u G 3.p.T I z z 2 2 1 1 1 2 1 , 1 - , & & & & & & 2 2 u u 2 1 1 , , & & & , , u 2 B z 2 2 2 1 w 2 T.'.T.Y.>.1.c x f.f.0.p.b j ",
"1 1 1 1 & & & & 1 1 1 1 u > q.q.z z 1 1 1 , 1 1 1 1 1 1 1 1 & & & & , , & & , , & & , , , , 1 < > w Q OXT.p.~ y > v v '.'.z z 2 2 1 1 1 1 1 1 1 , , , , 1 1 2 2 2 2 2 2 1 , , , , 1 , z z z z x G G v v z u 1 1 1 1 1 2 2 1 1 & & & & , , 1 , , , & & & & , , , , , , 1 1 u u u y t z 0.-.c.7.z z 2 2 u u u 2 T ~ V.n.",
"& & & & , & & & & & , , 1 1 , , 2 2 x x z z 1 1 1 1 1 1 1 1 2 1 2 2 , , , , & & , , , , 2 2 8.&.~. X[ :.x i u u u u u x v V.n.-.H u u 1 1 1 1 1 , , 1 1 1 1 1 , & & & & & & & 1 2 z z z t 2 < , , , 2 z x x x > 2 1 1 1 1 1 1 2 1 1 , , , & & , , & & , , 1 1 2 1 1 1 1 1 1 2 J l ).(.Z G 2 2 1 2 1 , , , 1 1 1 y c z ",
", , & & & & & & & & , , 1 1 1 1 u u z z z z t t 2 2 1 1 2 2 2 1 2 : # - 1 , , , , , < & ; > L.D.>XXX_ =.j u u u u u u z z L.K.w.n q q > > 2 2 1 - - , < , , , , & & & , , , , 1 2 z z z z 2 1 , 1 1 u u z x x t 2 1 1 1 1 1 1 2 2 1 1 , , & , , , , & 2 1 : : : y u 1 1 1 2 2 J M |.|.G K 2 2 2 2 1 1 , & 1 1 1 2 c c ",
", & & & & & & & & & , , , , , , , , 1 1 1 x v x z z 2 2 u u v j './.oX].z z 2 2 1 1 z z q.0.| J 2 2 2 2 2 2 1 , , 1 1 1 1 2 2 =.n.S.'.=.=.x z v J z u 2 , & % & & & & , 1 1 u z 2 2 2 1 1 & & & , , , , 2 z z z z z z 2 2 2 2 2 2 2 u 1 1 , , 1 1 2 2 v v #XoX].>.z 2 1 2 j x H S t u 2 1 1 , & & & , , & , , 1 2 2 2 ",
"1 1 , , , 1 1 1 , , , , , , , , , , , , & , 1 t z z J G z S T.}.b 8 5 6 D.L.G v 2 u z z > : 2 2 2 1 1 2 , , , , , , , , & - 1 1 1 = & > z z 1 1 - + & & & & & & , , , 1 1 1 2 < - , , , 1 , & & , , , , & + & - 1 2 2 2 2 u 2 2 2 u u 2 2 2 u 2 2 J | |.|.7 b ' E R.K.2 u 2 2 1 , 1 1 1 , , , & & , , 1 , 2 2 2 1 1 1 ",
"1 1 1 , , 1 1 1 1 1 , , , , , , , , , , , 1 1 u z z H J c b ^.{.G v v S n.F.K v z t z u u 2 2 2 2 2 1 2 , & , , , , , , , - 1 < 1 < , u z z 1 , & , , & & & & & , , 1 1 1 1 1 - , , , , 1 1 & & , , , , , , , 1 1 2 2 2 2 u 2 u u u 2 2 u u u u u | Q ~.'.d v ~ -.D.F.u u 2 2 , , , , , , & & & , 1 1 1 1 2 2 2 2 , , ",
"1 1 u u 1 1 1 1 2 2 2 2 2 1 1 1 & & , , , 1 1 1 1 1 v Y r.n.u u z z t z u u :.t.Z.D.y u 2 y 1 2 & , , , , 1 , , , , , % % % & % , 1 , , , , , , & & & & % , 1 1 1 1 1 1 1 1 1 u u u 2 1 1 , , 1 , , , , & & & & & & , , , 1 1 u u I ~ z x u u G G q.8.z 2 u u u z t z !.T.H S 2 1 , , , 1 1 1 z x v j z t 2 2 , , , & ",
"u u v v f.y.z z 2 2 2 2 2 2 2 u z z 1 1 1 1 1 1 1 1 2 ; , , 1 1 1 , , , , & # , 1 > I H x z z u 1 1 , , , 1 , , , & & % % % & % % & & , , , , , , , , , 1 1 2 1 1 2 u z J 8.f.] v u 2 1 1 1 1 1 1 , , , & & & & & & , 1 1 u u K K _.].j.r.z v z z : 2 u u 2 1 1 , 1 , O # : > x v G v z z z z z z z > 1 1 1 , , , , , ",
"u u v v b.n.z z 1 y 2 y y : : 2 z z 1 1 , 1 2 2 1 1 2 1 1 1 1 1 1 , , , 1 1 1 1 2 u J I x z t u 1 , , , , , , , , & & & & % % % % & & , , , , , , , , 1 1 1 2 1 2 : z S J u.b.| G u 2 1 , 1 1 1 1 , , , , & & & & & , 1 2 > t W K OXoX5.b.l x z z u u u 2 1 1 1 , 1 1 , , 1 2 v v G G z z z v z z u u 2 1 1 , , , , , ",
"u u u u u u 8.f.<.&.S b B.Y.>.:.z z z j 0.p.z z 2 1 1 1 1 , & & & & & & , , 1 1 , 1 1 , t u G H v G > 2 1 1 , , 1 1 , , , , , & , , , , , , 1 1 2 1 2 2 2 w v h D.B.B.D.J j z 1 2 1 , 1 1 1 1 1 1 1 1 1 1 , , , , 1 2 z z q.:.`.`.c v z j n.c.K v t 1 , , , , & & & , , & & & , & 2 2 x x 2 2 , 1 & & & & & & , , 1 1 ",
"1 1 1 1 u 2 z > m.S.oXT.j h t : K S f.B.|.#X|.W.z z 1 1 , , & & % % % % & , 1 1 2 2 1 1 , & 1 < z x v K z z 2 2 2 1 1 , , , 1 1 2 2 2 2 2 1 1 u z =.d.W.%X&Xf.a.5 x z > 2 2 2 1 1 u u z z v =.=.x v 1 2 1 1 1 1 1 z z -.-.M M 2 1 u 2 y t > > 8.8.H K z u 1 1 1 1 & , & & & & & & , & , , 1 1 1 1 & & & & & & & , , , ",
", , , , 2 2 z z >.8.F.n.G v u u J V V.B.q.g.].'.v z 2 , , , & & % % % % & , 1 1 2 2 1 1 & & 1 1 z z K J x z u 2 2 , , , , , 1 1 2 u u z z 1 1 2 x <.8.].OX|.e.d.c j z 2 2 u t 1 1 u z z z v =.=.S G u u 1 1 1 , 1 z x <.<.G v 2 > 2 y 2 2 2 2 ;.:.M Q u t 1 1 1 1 & , & , & & & , , , , , 1 1 1 1 & & & & & & & , , , ",
", , , , 2 2 2 2 z z x z u u v v J J z u z z z B D.F...z 2 1 1 , & & & & & & 1 1 & & & & & & & , , , 2 1 1 1 1 , , & & , , , 1 < 2 u z z x T | P H x u z x x 2 2 u u 2 2 2 1 1 , , 1 1 2 2 2 2 2 v H e.q.v x v y.y.F.T.z z 1 1 2 1 , , , , 1 1 u 2 z v [ 8.M { z z 2 < & , , , , & , , 1 1 1 2 x z 2 2 2 1 1 1 2 1 , = ",
"1 , , 1 1 1 1 1 u z x z z z G K K K z z z z z c U.Y.:.z 1 1 1 1 & & & & & & 1 1 & & & & & & & , 1 1 2 1 1 2 1 , , , & , , , 1 1 u u u z z J J ~ G x z z c z 2 u 2 u 2 2 2 1 , , , 1 1 2 2 2 2 2 v v ;.-.e.8.| w.n.U.U.t z 1 1 1 1 , , , , 1 1 2 2 z z T =.| T x x : 1 , , , & , , , , 1 2 2 1 x z > 2 2 2 1 1 2 1 , , ",
"1 1 1 1 1 1 1 1 2 2 z v H P K K 1 1 , , 2 2 z z z z f.8.z z 2 2 1 1 2 1 , , , , & & & & 1 1 2 u 2 1 , 1 & & & % & , , 2 2 2 z w 2 u 2 1 1 2 1 2 z z z u u u 2 u 1 , , 1 , & & , 1 , & , , , , 1 2 2 z z b.b.q.x v u u 1 1 , , & & & & & & , , & , , , 1 1 ~ Q ~ T j z 1 1 , - 1 1 2 2 u 2 v v x j c.f.x x 1 1 2 1 2 2 ",
"1 1 1 1 1 1 2 1 2 2 z z J J 2 2 1 1 , , 2 2 z z z z z x z z 2 1 1 1 2 2 , , , & & & 1 1 2 2 u u 1 1 , 1 & & & % & , , 2 2 2 w z 2 1 1 1 1 1 , 1 z z z u u 2 1 1 1 1 , 1 , & & 1 , , & , , , 1 1 2 2 z x z z u u u u u 1 1 & & & & & & & , , & & & , , 1 1 1 1 z z z z z x z z z u u z z z v v x z f.J.q.q.q.0.2 2 2 2 ",
"2 1 1 2 2 w G G z z u 2 1 1 1 2 1 1 1 , 1 2 1 2 2 2 1 2 t x ;.| G v u u 1 1 1 1 1 1 2 2 2 2 2 2 , , & & , 1 1 , 1 1 1 z z u 2 2 1 & < 1 1 , , , 1 , 1 1 1 1 1 , , , , & & & & & & , & , 1 2 z v v x z z 2 2 , 2 2 u u u u 2 2 , & & , , , & & & & & & , , , 1 1 1 1 1 z z v x z > K G G G v z 2 1 1 1 =.8.U.L.T.E.L.K.",
"u 2 2 2 J H G G z z 1 1 1 1 1 2 1 1 1 1 1 1 1 1 , , 1 2 u z ;.;.G G z u 1 1 1 1 1 1 u u 2 u , , & & & , , 1 1 1 1 z u H H u 2 2 1 & 1 1 1 & , , , , 1 1 2 2 1 , , , & & & & & & , , & , 1 2 z v v v u u 1 1 , , , 2 2 z z 2 2 , , & , , , & & & & & & , , 1 1 1 1 1 1 1 1 z z u z J H G G 2 2 1 1 1 1 2 u T G ].].B.n.",
"L.L.| | n P z z 1 1 , , , , 1 1 u u 2 2 1 1 , , & , , & , 1 1 1 1 1 z z z z z z K I [.}.G v 2 2 1 1 1 1 1 1 2 | >.7.5.b | Q Q H u 1 1 , , , , 1 1 1 1 1 , , , , & & & & , 1 1 2 2 1 , 1 , , - - - - & & & & & & & , , & & 1 1 2 2 , , 1 2 2 2 1 1 , 1 1 1 1 1 1 , , , 1 , 1 1 u z z z , - , , , , 1 1 2 1 z z c c T T ",
"D.B...=.G G z z 2 1 , , , , 1 1 z u u 2 2 1 , , , , , , & 1 1 1 1 1 z z z z u z T m ].].v K 2 u 1 1 1 1 1 1 y | ( q.;.I T M =.K z 1 1 , , , , , 1 1 1 , , , , , & & & & , 1 1 z 2 1 1 1 1 , 1 1 1 , & & & & & & & , , , , 1 1 1 2 1 1 1 2 2 2 1 1 1 1 1 1 1 1 , , , , , , 1 2 u u z z , , , , , , 1 1 2 2 u z x z T Q ",
"P P z u 2 2 1 1 1 1 , & & , , , & & & & 1 1 1 , , , , , , , , , 1 1 1 1 t z T H n.f.z z z.k.S.N.0 u z z H &.a.H W 2 2 1 1 1 z t z z z 2 z z z 2 2 1 1 , & , 1 1 1 1 1 , 1 t z H Z S x 1 1 , & , & & & & & & & & , , , , & , , & & 1 1 2 w z z z z z z z z 1 2 , 1 , , , , 1 1 1 1 , 1 , , , , 1 1 z z z z z u 1 1 2 1 ",
"G G 2 2 2 2 1 1 1 1 & & , , , , , , , , 1 1 1 , , , , , , , & & 1 1 1 1 z z Q H f.p.z x V.w.m.m.t 2 z x J =.H.G K 2 2 1 1 , u t z z z t c z z z 2 1 1 , & , 1 1 1 1 1 1 1 z v J G K H 2 2 1 , , & & & & & & , 1 , , , , , , & & & 1 1 1 2 u t z z z z c v 2 2 1 1 , , , , 1 1 , 1 , 1 1 , , , 1 1 z z z z z u 1 1 1 , ",
"1 1 1 , , , 1 1 2 2 2 2 , & % & % & & & & , 1 1 1 2 1 1 , , 1 1 1 1 z z I I G K u 2 u u u z f.n.n.V.| J v z u u 2 1 1 , , , 1 1 2 u 1 n.S.`...P z 2 , , , , 1 1 1 1 2 u v J J z u x j B v z 1 1 , , , , 1 1 1 z w 2 1 1 & & & & , , , , 1 1 1 z z ~ T oX{.V H > y 2 1 , , & & & & , , , , 1 z z j u u 1 1 , & & , , , ",
", , , & , & & & , , 1 1 2 1 & & & & & & & , 2 z z z 2 1 1 2 2 2 u 2 K J x z 1 : 1 1 , # 1 1 0 y =.[ V v > 1 1 , , & , , , , 1 1 I >.f.j z 6 ..f.T.:.v z 2 1 1 1 1 1 < 1 1 < < - , - & , , 2 1 1 1 1 1 1 2 x -.u.8.P G w 2 & & & , , , , 1 u u ! W *X}._ %.K.Y.f.w.z z z u 2 1 , , , , 1 1 z v H v , 1 , , 2 2 2 , , & ",
", , , , , , , , , , 1 1 1 1 , , & & & & , , 2 z v j 1 1 1 1 1 1 u t K G u u 1 1 1 1 , , 1 1 z z =.=.Z v z 1 1 , , , , , , , 1 1 I <.y.c z 0 &.c.S.| K z 1 1 , 1 1 1 1 1 1 , , 1 1 , , , , 2 1 2 2 1 1 1 1 z -.<.q.J G 2 2 , , , & , , , 2 u u n.f.'.).T | L.N.].].i z z u 1 1 & , , , 1 1 z v v x 1 , , , 2 2 2 , , & ",
", , 2 1 1 , & & & & , , , , 1 1 1 1 1 1 1 1 1 z x v ;...P m v G 0.3.u u , , 2 1 & & % & 1 , 1 2 u u v G v v z 1 1 - , , 1 > v x u 1 1 2 2 2 u 2 1 Q -.8.S v u u 1 1 1 , , , , , , 1 , , , 1 1 1 2 2 z z S G v x u u y z z z u 1 1 1 1 x v C.S.:.0.z u y u z u P J D.Y.<.T z z 2 > z z z z 2 1 , , , , , , 1 1 1 , , & ",
", , 2 1 1 , & & & & , , , , 1 1 1 1 1 1 1 1 1 z z v -.;.T M ..7.:.3.2 2 1 1 1 1 & & & & 1 1 1 1 u u v G G v x 1 1 , , , , 2 v v z 1 2 2 2 2 2 2 u =.=.-.I K z t 2 2 1 , , , , , , 1 1 , = = 1 1 y 2 z z v v x u 2 2 2 z z z z 2 2 , 1 S T D.T...=.z z z u u u K K Y.T.-...v x u 2 z z z u 2 1 , , , , & & & , , , & & ",
"1 1 1 1 1 1 1 1 1 1 1 1 1 , 1 1 1 1 1 1 1 1 1 1 1 2 z Z q.e.0.0.2 2 1 1 , , , & & & & & & & 1 1 1 1 2 2 z u v S K 1 2 , 1 1 1 , 1 , , & , , , , 1 1 1 2 2 z x x x x z u 2 1 1 1 1 v I '.F..X#X0.v v z z 2 2 u 1 , 1 1 1 1 z z z z x x ;.=.v z 2 u y 1 & & & , 1 1 1 = v ..;.| x v 1 2 1 , 1 , , , , , & % % & & , & & ",
"1 1 1 1 1 1 1 = 1 1 1 1 1 1 2 2 1 1 1 1 1 1 2 2 2 2 z x P H ; > 2 2 1 1 1 1 , , & & & , & & , , 1 1 1 1 2 u z v c 1 2 2 2 1 1 1 , , , , , , , , , , , 1 1 2 z z z z z u u 2 2 w > 7.y.}.P.|.W.d.' ..m j z u u 2 1 1 1 2 2 2 2 z z z z ; : 1 1 1 1 1 1 & & , , , , 1 , > w K G v v u 2 , 1 1 , 1 1 , , , , , & 2 1 > w ",
"1 1 2 2 K v oXoXv v 2 2 2 2 2 2 1 1 1 1 1 2 2 J H H z z 2 1 1 , , 1 2 2 2 2 2 2 , , , , & % & & & & & & & & , & & 2 1 z z 1 1 , , , , , , & & & & , , & & & , , 1 1 2 u u x x D.V.].].i z 2 2 v D.F.r.8.J I v z t u 2 u u z z z z u u , 1 1 , , , , , & & & & & & 1 1 , , 1 1 x z B v z z 2 2 2 1 1 2 2 1 1 2 x z ;.=.",
"1 1 8.| *X*Xd f W.T.J.=.z u 2 u u u z x v z =.;.G H 1 1 , , 1 1 1 1 2 2 t z z z u u , 1 1 1 , 1 , , , & & , , , , 1 2 1 1 u 2 2 2 u 2 1 1 , , , , , , , , , 1 , 1 2 2 u v U.'.7 b , 1 1 1 2 1 2 2 = 8.q.`.*XE.B.B.Q G u u z u - - & & , , 1 1 , , , , & & , 1 , , , & , , 1 , , 1 x z P P z z 2 2 2 2 2 2 2 1 2 y u 1 ",
"u 1 /.I.].].v v q.f.U.V.v u z z z z v P P P P =.z z 2 1 & & 1 1 1 1 2 2 z x z z z z 1 1 1 1 1 1 1 1 & & & , , 1 1 u 2 1 1 2 2 2 u z u 1 1 2 1 1 1 1 1 1 1 1 1 1 2 2 t z I L.'.q x 2 2 2 2 1 1 2 1 1 x z ~ Q T q.w.T P z u 1 1 < 1 , , , 1 1 1 1 1 , , & & 1 2 , , , , , , , 1 1 , z z G V G G 2 u u 2 2 2 2 2 2 y 1 u ",
"5 5 `.E.T T u u u 2 P O.F.T.;.;.j x =.| Q z , 1 1 1 1 , , , , , , , , , , - 1 1 2 2 2 2 1 1 1 1 1 1 1 1 1 1 2 u u u u 1 1 2 t t j j r 0 0 1 2 2 1 1 1 2 z z j x Y P =.;.;.q w & 1 , , & & % % & , , 1 1 , 1 1 u 2 w 0 2 u , & & & & & , , 1 1 1 1 1 2 & , , , & , , , , , , , , & 1 , 2 t V J 6 3 0 0 1 2 2 2 2 2 2 u ",
"^.^.=.T u u u u u 2 H P n.U.=.=.=.| | G G 2 1 1 1 1 , 1 1 1 , , % & , , & , 1 1 2 2 v v x z 1 1 1 1 1 1 2 u u u 2 u u 1 , 2 z I V.].OXV.c.v x z u 2 2 2 2 z v x H G M T | w 2 2 1 , , & & & & % % & , - 1 1 1 2 1 2 2 2 2 , & % % % % , , , , 2 2 2 2 & , & & & & , & , , , , , & 1 1 u u =.| +XOX;.| z z z u 2 u u u ",
"z z 2 z 1 1 & & & & 2 2 1 2 z > >.;.j 1 1 , , , , , , , , & & & % % & & & & # & , , : 1 x x I T r q x x z z u u 2 u u u u W.R.L.f.l H h 5 z.c.=.x u u 1 1 1 2 z 2 u 2 1 1 , , & & , , 1 1 , , & & & & , 1 2 1 u 2 1 1 , & , , & & , , , , 1 1 1 1 2 2 1 2 1 , , , , , , , , , , 1 2 1 ~ J T m q w +.o.f.f.P I v x x v ",
"z z u z 1 1 & & & & 1 2 2 1 z u 8.:.z 2 2 , , , , , , , & % % % % % & , & & & & , , 1 2 z c T T r.r.] M G v v u u u u z z ].F.M.8.G K z j 0.0.>.S z u 1 , 2 2 2 2 u 2 1 1 , , & & & & 1 1 , , & & & & & 1 2 u u 2 1 1 , , , , , 1 1 1 1 1 1 1 1 1 2 u u u < , , , , , & & , 1 1 , y u | T T V u w ;.8.D.B.=.;.I J v v ",
"1 2 , & , , & & , , u u z z u u & , z c z z 2 1 1 , , , & , , , & & & , 1 1 & & & & , 1 1 1 2 2 w 2 u y H =.T K ~ u u B.V.| I z 2 z z 2 u 2 2 w ..8.| G 2 1 1 , 2 1 1 , - & & & & & , & & 2 1 1 2 z x B V x z 1 1 , & 1 , 2 2 G K | ..2 1 1 1 , , , & 1 2 z z 2 2 1 1 , 1 1 1 z z | ..z c 1 , 1 2 2 2 k z OXoXc.#.z t ",
"1 1 , , , , & & 1 1 u u z u u u , , z z z z 2 1 , , , , , 1 1 1 & & , , 1 1 & & & & , , 1 2 2 u u 2 w u v I =.] / '.).B.V.P J z u u z 2 2 u u z T 0.<.P 2 2 2 2 1 , 1 , , & & & & & , , , 1 1 1 2 z v B I G z 1 1 , & , 1 1 1 n.q.X.| 1 2 1 2 , , , , 1 1 u z u u 2 2 2 2 2 2 z z ;.=.z z 1 1 1 1 2 y x x |.|.c.n.z t ",
"& & & & & , 1 1 2 2 u 2 1 1 , , & & 1 2 u 2 z z z z 1 1 1 2 2 2 1 1 1 2 2 1 1 1 , , & & , , 1 1 u u u z z z x :.4.'. Xv v 2 2 2 1 , 1 & & 1 , , 1 z z x v z 1 1 u z 2 1 1 , , , & & , , , , , , 2 u 1 1 1 1 2 1 1 1 1 2 u !.Z.).].J.8.:.<.1 1 1 1 , , , , 1 1 u u x x I P I I x x 2 2 2 2 & , , , 1 , u 2 u > S G P K ",
"& & & & , , 2 2 2 2 & & & = , , & & , , , 1 t z z z 2 2 1 > > > 1 1 1 1 1 1 1 2 1 1 , , 1 1 2 2 u u u u W =.K z > y u 1 1 1 , , 1 , , & & & & , , , , , 1 2 2 2 z z t 2 2 1 , , , , , , , 1 1 , , , & , - , , 1 1 1 2 z > ].XXz u v k r.n.u 1 1 1 , , , , 1 1 1 1 2 1 > w z w 1 2 1 1 , - & , & & , , 1 < 2 1 2 2 v v ",
"& & & & 2 1 2 1 1 1 , , & & & & & & & , 1 , 2 z z z z x B.j.$X>Xz z u 1 1 1 2 2 2 2 2 2 1 1 u > u u J I =.| ! t u u u 2 2 , , , , , , , , , & , , , 1 1 1 1 1 1 u z x v j u 1 , 1 , , 1 1 1 - & & & , , & & & < 2 2 t b.d.w.:.v z z z Q | e.8.* 2 1 1 , 1 2 1 1 1 1 1 1 2 u 2 1 2 1 , , , & & & & , , , , 2 2 2 2 v v ",
"2 2 z z 2 2 , , & & & & & & & & & & & & 1 1 1 2 z z f.f.z z u z m.T.:.Q u z 2 2 2 u H H P H w 2 G J > 2 1 1 1 1 1 , , z z 2 2 1 , , , , , & & , , & & & & , , & , , 1 2 z v G | P z u 1 1 1 1 1 1 1 , - 1 1 1 2 2 _.'.z v 2 1 2 2 2 2 2 1 z v T.Y.<.=.t w 2 1 1 , & & & , , - , , 2 2 u u 1 , & & & & & & , , 2 2 2 1 ",
"2 2 u u 1 1 & & & & & & , & & , , & , , , 1 1 > x e r.w.z z z x n.L.] [ q 0 1 1 u 2 K G T J w u v K > 1 1 1 1 1 1 , , z z w 2 1 , & , , & & , & , & & & & & & & , 1 1 1 u v K Q H u u 1 1 1 1 1 - - & - 1 1 1 q . I.`.c v 2 2 2 2 u u 2 2 z v U.U.) 4.z 2 1 2 , 1 , , & & , & , , u u z t 1 < & & & & & & , , 1 2 1 1 ",
"1 1 1 1 & & & & & & & & , , , , , , , 1 1 , v b.c.n.x z u u z z z q n.S.b.b.p.>.z u u u u 2 x x < & & & & , , , , 1 1 1 1 2 2 1 2 1 , & - 1 1 , & & & & & & & , , 1 1 1 1 z z u 2 1 1 , 1 1 2 u B G v z , z z c.c.z x 2 2 1 1 , , , , 1 2 u u S K ].oXo.M.f P 1 2 2 1 , & , , , & 1 1 2 z z w 1 1 , & & & , , , & & & ",
"y 1 u 2 1 1 1 1 1 1 1 1 1 1 1 1 2 u u u x v x 0 1 1 1 1 , , & & 1 1 1 1 2 0 | ..Q I 1 2 1 , & - & & & & & & & , 1 2 1 1 1 1 1 1 2 u u z z 2 2 1 1 1 1 1 1 2 u z K G =.0.E.%X| : 1 1 1 , 1 1 1 , > > z e K | M 1 < = 1 , , & , , , , , , , 1 1 t t z t m n M { I J 2 1 , , , 1 1 , , 1 1 1 2 1 2 2 1 1 1 1 , , , , , = ",
"G G 2 2 1 1 1 1 1 1 1 1 1 1 1 1 u u u z x z z : 1 1 1 1 & & & & 1 , 1 1 u z T I M T u 2 1 1 , , & & & & & % & , , 2 2 1 1 1 1 , 2 2 2 z u u 1 1 1 , 1 , 1 1 y z P K ;.X.Z.|.| 2 1 2 2 1 1 1 , 1 2 2 z z K I P 1 1 1 1 1 , , & , , , , & , 1 < 2 u z w K v J V P H 2 1 , , , , , , 1 1 1 1 2 2 2 u 1 1 1 , 1 = , , & = ",
"G G 0.e.q.>.z z , 1 1 1 1 2 z z K J v z z 1 1 1 1 , , , & & & & & & , , 1 2 u u x x z z , 1 , , & & & & & % & , , & & , , - 1 1 2 z z | | =.G x z 2 u z v S 0.8.| | H h z z H q.8.2 u 1 1 1 1 , , , 2 u 1 1 1 1 , , , , & & & , , , , 2 1 2 z u u u 2 2 1 1 , 1 2 z z z z z z 2 2 1 1 , 1 1 1 u u u y z z q.4.z z 2 2 ",
"y y > > V V n.V.u.-.z z u u J K |.|.=.J z 1 1 , , , , , , , , , , , 1 1 u u u u 1 1 u u u u , , & & & & & % % % % % & , , - 1 , 1 , , - : w I &.f.n.f.n.f.u.j j : 2 2 1 1 1 2 j j f.f.v x 1 2 2 2 2 u 2 1 , , & % & & & & & & , , 2 2 z z z z z z 1 1 , , , 1 1 1 x z =.8.{.T.K K z z u w u u u u v P `.E.D.<X;.=.u u ",
"2 2 2 2 K S k.N.;.=.z z u u W W >XXX! W u 1 1 , , & , , , , , , , , 1 1 u u u u 1 1 u u 2 u , 1 & & & & & % % % % % + , , , , , 1 , 1 1 2 z H ] B.n.k.c.r.3.v z 2 2 1 1 1 2 2 z z c.k.c c 1 2 2 2 u 2 2 1 , , + & & & & & , & & & 1 1 z z t z u u 1 2 , , , , 1 1 c c Q ;.).~.K v u z u u u u u t v S _.).V.n.| | > u ",
", , 2 2 2 2 z x J G K K J b '.].=.=.T.T.T.&.u 2 1 1 , , , , , , 2 2 u u 1 2 , , , , & & 1 1 u z 1 < 1 , , , , , , , , & & & & , , , , 1 1 1 1 w >.Y.T.n.H K 1 2 1 1 , & , 1 1 1 1 2 u S.D.~ j z 2 u , , & & , , , , , , , 1 1 2 z u u 1 2 , , 1 1 1 1 1 1 1 1 z z L.V.` :.x z y.f.M I z z z z x z x x 1 1 1 1 1 1 x z ",
", , 1 1 1 2 u z v G m M ] m L.L.G J 0.w.L.| 0 1 1 1 , , , , , , 1 2 u u 1 1 , & , & & & 1 2 4 3   ; 1 1 , , , , , , , & & & , , & , , 1 1 2 2 z =.d.n.3.v z 2 2 1 1 , & & , , 1 1 2 2 u.f.H H n 2 > , 1 , , , , , , , 1 1 1 1 2 2 2 2 1 , , , , , 1 1 2 2 2 1 K j L.V.p.Q z c 3.>...n h j z z z z z z 1 1 1 1 1 1 2 u ",
", , 1 1 1 1 1 u z z 0.V.Z.u.2 2 2 2 2 z H 5.;.Z u u 1 1 1 1 1 1 1 1 , , , , & & , & 1 1 u u >XXX5.r.0 z 2 1 2 1 1 , , , , , , , , 1 1 1 u z x x z z z z z 2 1 1 , , , & & , , 1 , 1 1 2 2 ;.n.V.G G 2 2 , , , 1 1 1 1 u z t u 2 2 , , & , & & , , 1 1 u z z h w.y.| =.z 2 2 2 2 2 T.T.4...x z 1 2 1 1 1 < , , , , , , ",
", , 1 1 u u =.8.Z.F.e.| 1 1 2 2 & & 1 2 1 1 z =.:.:.J v u u u 2 , , & & , 1 1 1 2 u K v './.] J u y >.D.p.z z 1 1 1 1 1 1 2 2 2 u z z z z z 2 1 , 1 1 2 2 u x z , , , , & & & & & & & , 1 1 , , 1 2 z z z z z z z z z 1 1 , , & & , , , , , , , , , , z z | | z u = 1 , 1 & & 1 1 1 = u u B.S.:.| 1 2 1 1 - , & & & & ",
", , 1 1 z z ;.<.T.D.d.| 1 1 2 1 , , 1 1 1 2 z Q -.-.H B u u u 2 , , , & 1 1 1 1 , 2 T v oX).M Q h u -.x.d.z z : 1 1 1 2 2 1 1 2 u z z z z z 2 1 1 1 1 2 2 w v z , 1 , & & & & & & & & , 1 , 1 , 1 1 z z z z z z z z z 1 1 1 1 & % & , , , & , , , & & c z 2.| h u 1 1 1 1 , & 1 1 , 1 2 u D.S...[ 1 2 1 1 - - - & & , ",
"1 1 z z ;.;.I H z z , , , , , , , , , , 1 1 2 2 1 1 1 u x x 1 1 1 1 1 1 1 1 z j e.c.P P z u 2 2 2 2 2 > =.r.n.;.P 2 2 2 2 2 J J P G G 2 2 1 1 , , , , , 1 2 2 x w u 2 1 1 , , , , & & & & & & , , , 1 1 2 2 2 v v r.p.w.8.u 2 1 1 1 , , 1 , , , , u 2 j x t 2 1 1 , , & , & & & & , , 1 : 2 , u z B v u 2 < 1 1 , & , ",
"2 1 v j >.>.~ J u u 1 , , , , , , , , , 1 1 2 2 1 2 1 2 z z 1 1 1 1 1 , 1 2 z j P.n.=.I z u 2 2 2 2 2 2 -.J.f.&.=.2 1 2 1 > I H I G v u u 1 1 1 , , , 1 1 1 2 z z u 2 1 < 1 , , & & & & % % & , , , 1 1 y u u j h 5.5.5.q.u 1 > 1 1 , 1 1 , , 1 1 2 u v v u u 2 1 1 1 & , , & & & & - 1 1 1 1 2 2 v v z u - 2 1 , , , ",
"I I | | z z , , 1 1 2 1 , , , , , , , , , , , , , , 1 1 1 1 1 1 1 1 u u H P I I , < 1 1 1 1 , , , , , 1 1 1 : B | ;.| v x.B.J z 1 , , 1 , , , , & & & & & , 1 1 z u z x x w 2 2 1 , 1 , , , 1 1 2 2 z z q.5.'.`.'.1 w J Q S.U.T H 2 2 u u 2 2 > z 2 1 , 1 & & , , , , , , , & & & % % % % , 1 2 2 2 2 v v I Y z 2 u u ",
"x x u 2 , , , , , , 2 2 & , - - , , , , , , & , , , 1 1 1 1 1 1 1 1 z 0 H H 1 1 1 1 1 , , , & & & , , , , , 1 1 1 z c c.5.1 1 1 1 , , , , , , , & & & & & & , , , - 2 x G V x 2 2 , 1 1 , , 1 1 > y z t x.C.`.1 2 1 1 2 2 Y.R.S.c.2 u u z K G u > 1 , , , , , & & & , , , & & & & & & & & 1 < 2 2 2 2 2 2 V m 8 > t t ",
"1 1 1 1 , , , , , , & 1 w w 1 1 , , , , , , , , , , , , , , 1 2 z z I I 2 2 1 1 1 1 , , & & & & & & & & , , , , 1 u 2 z z 1 2 1 , & & % % % & & , & & & & & , , , 1 1 1 2 K T | | u 2 1 1 1 2 2 z z w.t.z z w < 2 2 1 1 2 2 2 v K n.y.M H z x 1 1 , , & & , , & & & , , , & & & & , , 2 2 1 2 2 2 2 2 2 2 v z w.0.T T ",
"1 1 1 1 , , & & , , , , 2 2 > : , , , , , , , , , , , , , , 2 2 z z x x 2 2 1 1 2 2 , , & & & & & & & & , , , , 1 1 1 u 2 1 1 2 , , & % % % % % , , & & & , , , , , , 1 1 x K =.T z z 1 1 1 2 2 z z -.=.u z 2 1 1 1 1 1 2 2 2 z x >.8.I J z c 2 2 < < & & & , , & & , , , & & & , , , 1 1 2 2 2 2 2 2 2 2 u w -.>.m G ",
"1 1 1 1 1 1 1 1 , , , , , , 1 , 2 2 , , , , , , , , , 1 1 2 z z , , 1 1 , , 1 1 , , 2 1 1 , & & & & & & & & & & , , , & & , , , 1 1 , & % % % & 1 z z 2 2 1 , , , , , , , 1 1 2 2 z z > 2 1 1 1 1 1 , , = 1 1 & & & & & & , , , 1 1 1 1 2 u u z z z z 2 2 1 1 1 , & & & & , , , , , , , , 2 2 < 2 2 2 , , , , 1 , , , ",
"1 1 1 1 1 1 1 1 & & , , , , 1 1 2 2 , , , , , , , , , , 1 1 1 1 , , , , , , 1 2 , , 1 1 , , & & & & & & & & & & & , , , , , , , 1 , 1 + & % % & 2 w z w 1 1 , , , , , , , , , , , , , 2 1 1 1 1 , , , , , 1 , , & , , , , , , , , 1 1 1 1 1 1 2 1 z z 2 2 1 1 1 1 & , & , & & , , , , , , 1 1 1 1 2 2 1 1 , , , , , & "
};
