/* XPM */
static const char *normal_floor_31[] = {
/* columns rows colors chars-per-pixel */
"31 31 109 2 ",
"   c #0DB3FD",
".  c #15B9F7",
"X  c #1BBAF4",
"o  c #12B5FD",
"O  c #15BAFD",
"+  c #1ABDFD",
"@  c #33BBEB",
"#  c #22BCF5",
"$  c #23BFF8",
"%  c #14C1FC",
"&  c #1CC1FE",
"*  c #25C5F7",
"=  c #23C3FD",
"-  c #29C6FE",
";  c #25C9FF",
":  c #2CC9FD",
">  c #30C0F4",
",  c #34CCF5",
"<  c #30C7FD",
"1  c #35CBFD",
"2  c #34C9FF",
"3  c #36C9FF",
"4  c #35CBFE",
"5  c #32CCFE",
"6  c #36CCFF",
"7  c #34CFFF",
"8  c #33CBFE",
"9  c #3ACDF9",
"0  c #3FCDFB",
"q  c #38CBFE",
"w  c #38CEFF",
"e  c #3CCDFC",
"r  c #35D1FF",
"t  c #38D0FF",
"y  c #3FD0FC",
"u  c #3FD1FF",
"i  c #3BD2FF",
"p  c #46C5F0",
"a  c #42C7F2",
"s  c #44CEFE",
"d  c #40D2FB",
"f  c #42D0FE",
"g  c #44D1FC",
"h  c #45D1FF",
"j  c #45D2FF",
"k  c #42D2FF",
"l  c #4BD0FD",
"z  c #4BD2FF",
"x  c #4AD3FF",
"c  c #4CD3FF",
"v  c #4AD5FF",
"b  c #4BD6FF",
"n  c #4DD5FF",
"m  c #4DD7FF",
"M  c #4CD4FE",
"N  c #56D1FA",
"B  c #54D6F8",
"V  c #55D5FA",
"C  c #53D6FF",
"Z  c #57D7FE",
"A  c #53D5FD",
"S  c #58D3FD",
"D  c #5AD0FE",
"F  c #58D6FE",
"G  c #5DD4FE",
"H  c #59D4FE",
"J  c #50D8FF",
"K  c #51D9FF",
"L  c #55D8FF",
"P  c #53D9FF",
"I  c #5ED8FD",
"U  c #5FDBFF",
"Y  c #5DDBFF",
"T  c #65D5FA",
"R  c #61D7FD",
"E  c #66DCFA",
"W  c #63D8FF",
"Q  c #64D8FD",
"!  c #65D9FF",
"~  c #67DCFF",
"^  c #67DAFF",
"/  c #6DDAFB",
"(  c #6CDDFB",
")  c #6EDEFE",
"_  c #72D9FC",
"`  c #72DDFD",
"'  c #74DDFD",
"]  c #76DDFC",
"[  c #72DDFD",
"{  c #7ADFFD",
"}  c #7EDFFF",
"|  c #7EDBFA",
" . c #6DE2FF",
".. c #6EE4FF",
"X. c #76E3FF",
"o. c #7BE4FF",
"O. c #77E9FF",
"+. c #8EDFFC",
"@. c #83E4FC",
"#. c #88E4FB",
"$. c #8DE3FC",
"%. c #8CE3FB",
"&. c #81E8FF",
"*. c #90E1FC",
"=. c #92E5FF",
"-. c #99E7FB",
";. c #95F4FF",
":. c #9FF0FF",
">. c #A2E8FF",
/* pixels */
"O + o O O & O + W l O o   + o O O o O = l &.G g O o o = / = O ",
":.O 5 v + O 5 + O = + & O O O & d 5 o o + O O O & Q O o   O i ",
"o & : O O 5 : T & . + = + Q = o o   o = O O o + + o = + O & 6 ",
"O   + & : +     + f -     + O + o   O + O + y o + ; 1 - ( + o ",
"o + + & o o o o = O O B &     o O = : + D + o : o   o o o 1 O ",
"+ + + 0 & N : O   o O O + 5 + : = O o       o = >.+ O o O   . ",
"o.& + 5 O       O O O o O =   o } o O = = +.l +   + K : - + = ",
"    O O O < O 5 = B - +   O ~ + o & v = + o o o & X o O O O O ",
". + o p D O o o O   o + o   o . = & o @ + O     o + &     + $.",
"  O = =   o O & = O o & K q 5 O o 1 : O C  .: H w & 6 + I = o ",
"o O ;.O + & { 5 & 9 L O o o O + 5 O = O   O + O o   + g O   + ",
"] +   & & O o   O + m o O O o   & = o o 8 O o o + ] O   O 5 & ",
"& O + = O - & o     O o < y : Z O   + O   o & E & o O 1 O O + ",
"+   + o   o o + g : = ` + o o   o - -.= + = O   O = o o o & m ",
"O c = _ O o O = + o   o +     + = o O *.= % o *   O + I %.O o ",
"+ o O - O s o   o = o O   + & - 6 1 o   o o o + = $.& O o   + ",
"O o o # & & - O = O & Z s + o     o O e & O + + O o O : o R O ",
"& X.O O   o O O = & o O + + o O = #.O o Q = & f o = o O o o O ",
"& & K = o o   o O o O.f & O O K - o & w O o   + O   + + &.; L ",
"o O o o O 5 > ..= + o o o + o   o . o o   + + + s a & o o O O ",
"& I ) = = O   o O 1 O o o o + = ) O O O o = @.Q O     + +   o ",
"O O 1 O = C O o   &   o = O = & o o o + A O   o o i O + : - O ",
"s = o & o o O = $.& O A f o O o   = o o   o + + O o o = o + = ",
"o o O   + O & & o = = o O ; ` O O O o O v +   & @.%.& o : o o ",
"+ =.+ O + = o + o     + O o   o + ` = | : & = O o   o < + + = ",
"+   O l o o     . e = & O.* - + +   O   O o   O + o o + , U - ",
"  +     & + O O o + r % o   o + & o o o o = & & o O $ o o O + ",
"& O O & - O O # O o   + O = O + k . O + 0 o o O & w o o O O o ",
"+ - 6 f & o + +   = o o   O m = o O ] & o o = o O = c 0 = O O ",
"= 1 o o + & O O 9 + g + 6 + o + + o   o + H O o + O o o o & o ",
"O   + o o o = + o   o O O   o o o f O = + O - - . o o o + + m "
};
