/* XPM */
static const char *normal_duck_155[] = {
/* columns rows colors chars-per-pixel */
"155 155 256 2 ",
"   c #010101",
".  c #0B0201",
"X  c #060801",
"o  c #01040B",
"O  c #090808",
"+  c #120200",
"@  c #1B0300",
"#  c #170B02",
"$  c #010815",
"%  c #11120F",
"&  c #260900",
"*  c #361400",
"=  c #2E0F00",
"-  c #001129",
";  c #2C2C2C",
":  c #00283B",
">  c #470800",
",  c #751801",
"<  c #593600",
"1  c #512602",
"2  c #6F3C00",
"3  c #6E4603",
"4  c #554000",
"5  c #003C66",
"6  c #003255",
"7  c #035271",
"8  c #61605F",
"9  c #B71801",
"0  c #AB1300",
"q  c #952808",
"w  c #C82901",
"e  c #D72901",
"r  c #D93301",
"t  c #C93A1A",
"y  c #E33801",
"u  c #E43001",
"i  c #C31B01",
"p  c #A65A06",
"a  c #BE6C01",
"s  c #BB790B",
"d  c #9B671B",
"f  c #D64715",
"g  c #D44911",
"h  c #EA4502",
"j  c #F54903",
"k  c #FC5C03",
"l  c #F85502",
"z  c #ED5812",
"x  c #C47301",
"c  c #CB7501",
"v  c #CC7A02",
"b  c #C77C05",
"n  c #D37C02",
"m  c #D97A02",
"M  c #C66E07",
"N  c #FD6402",
"B  c #FD6C02",
"V  c #FB680A",
"C  c #FD7201",
"Z  c #FB7906",
"A  c #F56E0F",
"S  c #D66D2A",
"D  c #61807A",
"F  c #B6921D",
"G  c #D48300",
"H  c #DC8401",
"J  c #DD8804",
"K  c #D58D12",
"L  c #E28501",
"P  c #E48C01",
"I  c #EA8D01",
"U  c #E78807",
"Y  c #E69201",
"T  c #EC9501",
"R  c #ED9A01",
"E  c #E79B0B",
"W  c #EB9C0B",
"Q  c #EB9508",
"!  c #F29B02",
"~  c #F39804",
"^  c #ED9814",
"/  c #D3B319",
"(  c #F5A302",
")  c #FAA402",
"_  c #F5AB02",
"`  c #FBAC03",
"'  c #F7A60A",
"]  c #FDB502",
"[  c #FDBA02",
"{  c #FAB608",
"}  c #F5AD0F",
"|  c #C68827",
" . c #D29528",
".. c #F39B26",
"X. c #D5BC24",
"o. c #D3A930",
"O. c #FBA529",
"+. c #FEA934",
"@. c #F6AD2A",
"#. c #FDC302",
"$. c #F5CD01",
"%. c #FDCD03",
"&. c #FFCB0B",
"*. c #FBC507",
"=. c #FED303",
"-. c #FDD30A",
";. c #FBD607",
":. c #FDCB14",
">. c #FCD516",
",. c #E7C51A",
"<. c #FDDA26",
"1. c #FCDD35",
"2. c #F6CB2F",
"3. c #FDE23A",
"4. c #FCE22E",
"5. c #EAD11D",
"6. c #B0984B",
"7. c #A49C6D",
"8. c #FEE548",
"9. c #FEEB5B",
"0. c #FDEC62",
"q. c #FEEE6B",
"w. c #FCF16B",
"e. c #055E8B",
"r. c #0A6891",
"t. c #0F6FAF",
"y. c #036BC8",
"u. c #0378DB",
"i. c #0272CD",
"p. c #017CE3",
"a. c #047BE9",
"s. c #007EF0",
"d. c #1C87B3",
"f. c #0F8DDB",
"g. c #26A9DC",
"h. c #0184EC",
"j. c #018AED",
"k. c #0385E4",
"l. c #0495EB",
"z. c #018DF2",
"x. c #0286F2",
"c. c #0194F4",
"v. c #019CF6",
"b. c #029CF9",
"n. c #0295F9",
"m. c #168EEF",
"M. c #0CACED",
"N. c #05A7EB",
"B. c #15ACEB",
"V. c #0AB2EE",
"C. c #14B2ED",
"Z. c #1AB4EC",
"A. c #19B4E7",
"S. c #03A5F5",
"D. c #03ACF5",
"F. c #0AADF4",
"G. c #01A7FC",
"H. c #02ABFD",
"J. c #09AEFB",
"K. c #0AA4F4",
"L. c #13ADF6",
"P. c #05B2F5",
"I. c #0CB3F5",
"U. c #05B2FD",
"Y. c #0AB5FD",
"T. c #05B9FD",
"R. c #0CB9FE",
"E. c #0CB9F6",
"W. c #13B5F4",
"Q. c #1AB6F4",
"!. c #13BAF6",
"~. c #1CBBF4",
"^. c #12B6FC",
"/. c #13BCFD",
"(. c #1ABDFD",
"). c #18B2F8",
"_. c #27B8ED",
"`. c #23BCF4",
"'. c #2ABDF3",
"]. c #23BEFC",
"[. c #29BCF9",
"{. c #30B6EE",
"}. c #1F9FD5",
"|. c #0EC1FE",
" X c #15C1FE",
".X c #1CC2FE",
"XX c #1DC3F9",
"oX c #2BC3F5",
"OX c #23C3FD",
"+X c #2BC5FD",
"@X c #24C8FF",
"#X c #2CC9FE",
"$X c #27C3F5",
"%X c #3BC4F5",
"&X c #33C6FB",
"*X c #3BC6FA",
"=X c #33CBFE",
"-X c #3BCCFD",
";X c #37C7F5",
":X c #35D1FF",
">X c #3CD1FF",
",X c #32C5F2",
"<X c #44CBF6",
"1X c #4CCCF5",
"2X c #43CDFC",
"3X c #4BCDFB",
"4X c #42C5F6",
"5X c #53CDF5",
"6X c #52CEFA",
"7X c #5ACEF7",
"8X c #44D2FE",
"9X c #4BD3FE",
"0X c #4BD9FF",
"qX c #49D5FA",
"wX c #55D1F6",
"eX c #5CD3F5",
"rX c #54D3FD",
"tX c #5BD5FC",
"yX c #54DAFF",
"uX c #5CDAFE",
"iX c #5ED8F3",
"pX c #4FC7ED",
"aX c #63D4F6",
"sX c #6CD5F5",
"dX c #63D5FC",
"fX c #6BD6FB",
"gX c #64DBFE",
"hX c #6BDBFD",
"jX c #69D9F5",
"kX c #73DCFD",
"lX c #7BDDFC",
"zX c #76D8F6",
"xX c #6AD2F1",
"cX c #59E1FF",
"vX c #64E2FF",
"bX c #6CE3FF",
"nX c #6BE9FF",
"mX c #74E3FF",
"MX c #7CE3FE",
"NX c #7CEBFF",
"BX c #75E7FC",
"VX c #4C9DB3",
"CX c #8F8D8B",
"ZX c #ACACAA",
"AX c #82DEFC",
"SX c #86DDF8",
"DX c #90DFFF",
"FX c #84E2FE",
"GX c #8AE4FD",
"HX c #83ECFF",
"JX c #8AE7FC",
"KX c #94E9FE",
"LX c #89F1FF",
"PX c #96F3FF",
"IX c #F3F2F0",
"UX c gray80",
/* pixels */
"H.U.U.U.U.U.U.U.H.H.H.H.G.G.H.H.H.H.H.H.H.H.G.G.G.G.H.H.H.U.U.U.Y.Y.U.U.U.H.G.G.H.U.R.R.Y.U.H.H.H.G.H.H.H.H.U.U.U.R.Y.Y.U.U.H.G.G.G.G.H.H.H.H.H.H.U.U.U.U.U.H.U.H.H.H.U.U.U.U.U.U.U.U.H.G.H.H.H.H.H.H.H.H.U.U.Y.Y././.R.R.Y.U.H.H.G.H.G.H.H.H.U.U.H.H.H.U.U.U.U.U.H.H.H.H.G.H.H.H.G.G.H.H.H.H.H.U.U.U.U.U.U.U.U.U.U.U.",
"U.U.U.U.U.U.U.U.H.U.H.H.G.G.H.H.H.H.H.H.U.H.G.G.G.G.H.H.U.U.U.H.R.R.Y.U.U.H.G.G.H.U.R.R.Y.U.H.H.H.H.H.H.U.H.Y.T.E.|./.R.U.U.H.G.G.G.G.H.H.H.H.H.H.U.U.U.U.U.H.U.H.H.H.U.U.U.U.U.U.U.H.H.H.H.H.H.H.H.H.H.H.U.U.T.U.R./.R.R.Y.T.U.H.H.H.G.G.H.U.U.U.H.H.U.U.U.U.U.U.H.H.H.H.G.H.H.H.H.H.H.H.H.H.H.U.U.U.U.U.U.Y.R.U.U.U.",
"H.H.U.U.U./.OX.X#X#XY.R.Y.U.H.H.G.G.H.H.Y.R./.U.H.H.U.U.R./.@X+X8XqX>X>XR.R.Y.U.U.U.H.G.G.G.H.H.H.H.U.U.R.R.-X=XhXuXmX=XY.R.U.U.G.G.G.G.G.G.G.G.H.U.Y./.(.(.Y.U.U.U.Y././.#X@X&X#XR.R.J.U.G.G.G.G.H.H.U.U.R.R.-X=XFXFXFXhX(.(.R.R.U.U.G.H.G.G.H.H.U.U.Y.Y.(. XlXAXuXyXU.U.H.H.G.G.G.G.G.G.G.G.H.H.U.U.+X+X-X-X+XOXT.R.",
"H.H.U.U.Y.!.+X#X-X-XP.U.Y.U.U.H.G.G.H.H.U.Y./.Y.Y.U.U.U./.(.#X#X0X0X8X9XR.I.Y.Y.H.U.H.H.G.G.H.H.U.H.U.U.$XOXqX<XnXvXgX8X@X+XU.U.H.H.G.G.G.G.G.G.H.Y./.(.(..XI.I.H.U.R.+X#X-X;X2X-X~.Q.U.U.H.H.G.G.H.H.U.U.R./.rX9XLXHXFXhX<X2XR.!.U.U.H.H.G.G.H.H.U.U.R.R.oX`.zXmXgXgXU.U.U.G.H.G.G.G.G.G.G.G.H.H.I.I.&X+X2X2X&X#XI.Y.",
"H.U.R.R.OX$X+X+X8X9X9X9X.XR.R.R.R.R.U.H.H.H.G.U.R./.+X+XOXOXU.U.U.U.I.I.wXuX!.P.R./.Y.R.U.U.Y.Y.(.(.=X-X;X=XC.C.T.U.U.T.=X&X#X#XR.R.U.U.U.U.R./.(.(..XP.H.U..X+X9X3X1X;X#XU.U.U.U.8X2X(.!.Y.T.Y.U.Y.R.(./.-X2X9X9XY.T.!.R.dXgX>X-X X(.R./.U.U.R.R./.(.tXrXgXrXR.R.C.{.uX{.D.Y.U.Y.U.U.U.U.U.U.Y.Y.+X@X/.R.U.U..X.X#X@X",
"H.H.(.(.+XOXU.U.U./.yXgXgXdX X/.Y.Y.U.U.H.H.G.U.Y.!.+XOXU.U.U.U.U.U.T.T.rXtXgXtXZ.A.Y.R.U.U.Y.P././.-XoX-X=XR.Y.Y.U.Y.R.(..XoX&X=X@XP.U.Y.I././.(..X(.U.U.H.+X+X2X2X;X~.Y.U.U.Y.Y.OXOX=X2XP.Y.Y.U.Y.R.2X3XqX2XY.R.R.Y.R.R.~.!.aXtX{._.R.R.U.U.R.Y.-X=XtX9X/.R.U.U.R.C.bXmX9X!.R.Y.U.U.U.U.Y.P.&X;X#X#XY.U.U.U.Y.Y.OX.X",
"OXOXXXOXU.U.U.U.U.U.T.~.>XhXbXhX0X0XR.U.U.Y.!.OXOX+XU.H.U.H.G.G.G.H.U.U.U.U.I.C.mXlXdXeX#X#X+X+X+XOX/.R.U.U.U.H.H.G.G.H.U.U.U.R.=X&X-X-X+X@XOX.XP.U.H.H.H.U.U.U.Y.R.Y.U.U.H.H.U.U.U.U.W.!.3X9X=X=X-X-X8X8XR.Y.U.U.H.H.U.U.Y.R.M.I.hXgXcXyX`.'.;X&XqXyXR.T.U.R.H.H.Y.U.U.+X].uX9X+XP.I.R.R.&X;X+XOXU.U.H.H.G.G.H.H.U.U.",
"OXOX(. XU.U.U.H.H.U.Y.Y./.~.uXuX1XrX8X-X+XOXOX X XR.U.U.H.H.G.G.G.G.H.U.Y.U.R.R.+X&XtXaXrXwX#X#X+X.XY.U.H.U.H.G.G.H.G.H.H.U.Y.P.R.R.#X=XOX.XY.Y.U.U.H.H.H.U.U.U.Y.Y.U.U.H.H.H.H.H.U.U.R.R.8X8X2X3X8X<X.X(.Y.Y.U.U.H.G.U.U.R.R./.R.0X0XjXfXdXrX5XrX.X.X/.R.Y.R.H.H.U.U.Y.R.Y.vXyXvX>XqX-X-X#X+XR.R.U.U.H.G.G.G.G.G.U.U.",
"(./.U.U.U.U.G.H.H.H.H.U.U.Y.U.U.R.R.=X=X+X+X XU.U.U.H.H.G.G.H.G.G.G.G.G.H.H.U.U.U.U.R.U.Y.R.Y.R.Y.Y.H.H.U.U.U.U.H.H.H.G.G.G.U.U.H.H.U.Y.U.U.U.U.U.U.U.H.H.H.G.H.H.G.G.G.G.H.H.G.G.H.G.U.U.R.Y.#X#X.X(.R.Y.H.H.G.G.G.G.G.G.H.H.U.U.U.R.(.(.].(.!./.R.Y.H.U.G.H.G.G.G.G.G.H.U.U.U.(.&X&X#X+XU.U.U.H.G.G.G.G.G.G.G.G.G.G.",
"U.U.Y.Y.H.H.G.H.H.H.H.U.U.Y.U.U.Y.Y.U.U.R.U.Y.U.U.H.G.G.G.G.H.G.G.G.G.G.H.H.H.H.U.U.U.U.Y.Y.Y.Y.R.Y.H.U.Y.R.U.U.U.H.H.G.H.H.U.U.H.D.U.H.U.H.H.U.U.U.U.U.H.H.H.G.G.G.G.G.G.H.H.H.G.G.G.U.U.R.R.Y.Y.R.R.Y.R.U.H.H.G.G.G.G.G.H.H.U.U.Y.R.T.U.R.R.Y.Y.R.Y.H.H.H.H.G.G.G.G.G.H.U.U.U.Y.Y.R.Y.R.U.U.U.H.G.G.G.G.G.G.G.G.G.H.",
"G.G.H.H.G.G.G.G.G.G.H.H.H.H.G.G.G.H.H.G.H.G.G.G.G.G.G.G.U.U.Y.R././.U.U.G.H.G.G.H.G.G.G.H.H.H.H.U.U././.9XyXBXrXyXR.R.U.U.U.H.H.Y.Y././.Y.R.U.H.H.H.U.U.U.R.R./.R.R.Y.U.U.H.H.U.U.G.G.G.G.G.H.H.H.H.H.H.H.R.R.Y.Y.U.H.H.G.G.G.G.G.H.H.Y.R..X(./.R.H.G.H.H.U.U.R.R.U.U.G.G.G.U.U.U.U.H.H.H.Y.Y.H.H.G.G.H.U.U.U.Y.U.U.H.",
"G.G.H.H.G.G.G.G.G.G.H.H.H.H.H.H.R.R.H.H.H.H.G.G.G.G.H.H.U.U.R.R.I.Y.H.U.G.G.G.G.G.G.G.G.H.G.H.H.U.U.uX0XdXbXBXgXNX0X0XY.U.U.H.H.U.Y././.R.R.U.H.H.H.U.U.Y.Y.W.C.I.I.Y.Y.U.H.G.U.U.G.G.G.G.G.G.H.H.H.H.H.H.R.R.Y.Y.U.U.H.G.G.G.G.G.H.H.R.Y.(.(.(./.Y.Y.U.U.Y.Y.R.R.Y.U.H.H.G.U.U.U.G.G.H.H.R.Y.U.U.H.H.H.U.U.Y.U.U.U.U.",
"G.G.H.H.U.U.Y.U.U.U.H.H.G.U.U.R././././.U.H.G.G.H.U.R.R..X.XhXdXFXHX/. XU.U.G.G.G.G.G.H.U.U.(./.2X8X2X-XW.R.U.U.M.4X8X2XR.R.U.U.H.H.G.G.H.H.U.U.Y.P./.^.$X&XlXMXkXkX~./.R.U.Y.H.H.G.G.G.G.G.G.G.G.H.H.Y.Y..X.XuXuX(.R.R.Y.H.H.H.G.U.U.U.H.H.H.Y.Y.R.R.R.R. X XbXMX9X9XR.Y.U.G.G.G.G.G.G.G.G.G.G.H.Y.U.R.I.uXgXuXtXR.R.",
"G.G.H.U.Y.Y.U.U.Y.U.U.U.H.U.H.U.Y.Y.(.(.R.R.U.U.U.U.R.R.HXJXHXNXPXPXHXC.Y.Y.U.U.G.G.U.U.Y.Y.uXuXmXvXY.R.U.Y.U.Y.Y.U.Z.qX2X8XY.Y.U.U.G.G.H.H.U.U.Y.Y.~.`.rXPXNXmXhXNXhX%X[.R.Y.U.U.H.G.G.G.G.G.H.H.Y.Y.R.P.NXHXzXkXNXNXY.Y.U.U.H.H.H.U.G.G.G.G.U.H.Y.Y.R.R.KXHXkXhXuXnX].I.U.H.H.G.G.G.G.G.G.G.H.H.Y.I.BXbXlXhXkXgXuXuX",
"G.G.U.Y.+X#XgXgX`.Q.R.Y.H.H.G.G.G.G.H.U.Y.Y.Y.T.R.U.+X-XgXgXR.R.(.!.kXgXW. XY.Y.H.H.Y.Y..X+X=X&X^.Y.U.Y.H.H.H.H.U.U.U.R.=X-X-X>XU.U.U.H.H.H.Y.Y.R.(.FXkX1X%X/.Y.Y.(.6XdXtX/.R.T.Y.H.H.G.G.H.H.U.U.R.R.2X<XrXrXY.R.-X8X-X#XU.Y.U.U.H.H.G.G.G.G.H.H.^.T.-X-XrXrXR.Y.(.~.9X`.R.U.U.U.G.G.G.G.H.H.Y.U. X>XwXwX!.Y.Y.T.3X3X",
"U.H.(.!.8X8XhXkXkXkX/.R.R.Y.H.G.G.G.U.U.U.Y./.-X9X2XjXhXR.R.Y.T.Y.U.I._.kXgX/.R.Y.R././.+X@XY.U.U.H.G.H.G.G.G.G.G.U.H.U.Y.U.2X-X;X&X(./.R.Y./..XBXkX{._.Z.Y.U.U.Y.^.R.oX{.tXgX!.R.Y.Y.U.U.Y.Y././.9X8XdXjXR.R.U.Y.!.C.wXrX-X=XR./.U.U.H.H.H.U.R.R.@X=XgXrXT.T.U.U.R.Y.'.yX1XW.R.R.Y.Y.U.U.R.R.(.$X2X<X/.R.R.Y.Y.Y.T.U.",
"U.U.@X@X#X@XY.R.$X&XkXgXU.Y.U.U.H.H.U.U.R.!.!.9XuXhXuXuXR./.Y.Y.Y.Y.Y.Y.bXgXdXrXY.Y.(.|.R.R.U.U.H.H.G.G.G.G.G.G.G.H.H.U.U.U.U.U.#X&X$X.XY.I.9X9XhXhXZ.R.Y.R.U.U.Y.Y.Y.R./.dXgXdXtXR.U.U.U.R.Y.=X=X3X3XR.R.R.R.Y.U.Y.Y.Y./.yX9XI.Y.U.U.U.U.U.U.R.I.&X-XR./.U.R.U.U.U.Y.R.@X3XrX5X#XY.R.U.U.R.R.~.,X-X#XY.U.U.U.H.H.U.U.",
".X(.$X].U.Y.Y.U.U.R.gXMXeXhX/./.Y.Y./. X-XvXmX4X,X{.^.Y.U.U.G.G.H.H.U.U.R.P.eXhXtX6XI.!.R.Y.U.H.H.H.G.G.H.H.G.G.G.G.G.G.G.G.U.U.R.T..X+XjXzXdXtX!.Y.R.Y.H.G.G.G.G.H.H.U.U.Y.Y.yXyX3XrXtXrXtXqXrX9XU.D.U.U.H.H.G.G.H.H.Y.U.`.Z.rX9X8X-XR.Y..X.X4X-X[.OXU.U.U.H.G.G.G.G.U.U.U.9XyXgX5XmX9X1X2X<X3X9XU.U.H.H.G.G.G.G.H.H.",
"OXOXU.Y.U.Y.U.U.Y.Y.R.`.6XgXuXcXY.R.+X`.tXvX8X~.R.R.Y.R.U.U.G.G.H.H.U.U.Y.Y.R.!.9XyX4X2X&X=XU.U.U.H.G.G.H.H.G.G.G.G.G.G.G.G.U.U.E.U.yXhXdXsX(.W.T.R.U.U.H.G.G.G.G.H.H.U.U.Y.U.R.R.-X>XtXrX3X2XR. XY.Y.Y.Y.H.H.G.G.H.H.U.U.R.R.oX+X3X<X9X8X2X2X-X=XY.Y.U.U.H.H.G.G.G.G.H.U.Y././.-X2XgX9X5X8X2X/./.U.U.H.H.G.G.G.G.G.H.",
"H.H.U.H.G.H.H.G.H.G.Y.U.U.;X3X7XhXdXgXtXA.~.Y.Y.U.U.G.G.G.G.G.G.G.G.G.G.G.H.U.U.U.Y.W.W.#X&XOX+X.X.XY.Y.H.H.G.G.H.U.U.U.R.!..X.X;X8X2X<XY.U.U.U.H.H.G.G.H.H.G.G.G.G.H.G.G.H.G.H.U.Y.R.R.U.R.R. X.X/. XU.U.H.G.G.G.G.G.G.G.H.H.U.U.P.P.8X8XoXXXU.Y.U.H.G.G.G.G.G.G.G.G.U.U.U.U.H.U.U.U.U.U.U.U.U.P.R.R.Y.Y.Y.U.H.G.G.G.",
"H.G.H.H.G.G.H.G.H.H.U.U.R.(.@X;XjXaX=X=X(.(.Y.U.Y.U.G.G.G.H.G.G.G.G.G.G.G.H.U.U.U.U.R.Y.R.R..XOX.X(.R.Y.H.H.H.G.G.U.Y.U.R./..XXX@X#X(.R.R.R.U.Y.H.H.H.H.H.H.H.G.G.G.G.G.G.H.H.H.U.Y.Y.Y.Y.Y.R..X.X.X.XH.D.H.H.G.G.G.G.G.G.H.H.U.U.Y.R./.|..X XY.U.H.H.G.H.G.G.H.G.H.H.Y.U.U.U.H.H.U.U.U.U.U.U.U.H.Y.Y.Y.Y.Y.Y.H.H.H.H.",
"G.G.G.G.G.G.G.G.G.G.H.H.U.U.U.U.U.U.R. XOXOX.XU.U.H.H.H.G.G.G.G.G.G.G.G.G.G.G.G.G.G.H.H.H.H.H.H.U.U.R.Y.Y.Y.Y.H.H.H.G.H.U.U.U.U.U.U.H.H.Y.Y./.R.Y.U.H.H.H.H.H.H.H.H.H.H.H.Y.Y.Y.U.U.H.G.G.H.G.H.H.U.U.(.(.(.(.U.H.G.G.G.G.G.G.G.G.H.U.U.U.U.U././.(./.U.U././././.R.Y.H.G.G.G.G.G.G.H.U.U.U.U.U.U.U.U.H.H.H.H.H.U.U.U.",
"G.G.G.G.G.G.G.H.G.H.H.H.H.U.U.U.U.Y.R.R..X.X.X!.Y.U.H.H.G.G.G.G.G.G.G.G.G.G.G.G.G.G.H.H.H.H.U.H.U.U.Y.R.P.R.Y.H.G.G.G.H.U.H.U.U.U.H.H.H.Y.Y./.R.Y.R.U.H.H.U.U.H.H.H.U.U.U.Y.Y.U.U.H.H.G.G.H.H.H.H.H.H././.(./.Y.Y.H.H.G.G.G.G.G.G.G.H.H.H.U.U.R./.(./././.R./.R.R.Y.Y.H.G.G.G.G.G.G.H.U.U.U.U.U.U.U.U.H.H.H.H.U.H.U.U.",
"G.G.G.G.H.H.U.U.U.Y.U.U.H.H.H.H.U.U.U.U.U.U.P.OX+XOX+X@XOX.XY.U.U.U.G.G.H.H.G.G.G.G.G.G.U.U./. X&X@XdXkXNXOX(.Y.Y.U.U.H.H.H.G.G.G.G.G.H.H.H.U.U./././.(.}.- - - }.U.Y.U.U.H.H.H.G.G.H.G.G.G.G.G.G.H.H.H.U.T.U././././.Y.Y.U.H.H.H.G.G.G.H.H.U.U.H.H.H.H.U.H.H.H.H.G.G.U.Y.U.H.U.U.Y.R. XC.gXkX9X3XR.R.U.U.H.H.U.U.Y.Y.",
"G.G.G.G.H.U.U.U.Y.Y.U.H.H.H.H.H.U.H.U.U.P.U.U.R./.OX+X+XXXXX X(.U.U.H.H.H.H.G.G.G.G.H.H.U.U.T.OXkXlXlXkXPXhXkXY.I.P.U.H.H.G.G.G.G.G.H.H.H.H.U.U.R.R.R.T.g.      B.U.U.U.U.U.H.H.G.G.G.G.G.G.G.G.H.H.H.U.H.U.W.uX9XbXmX(.Y.U.U.G.G.G.G.H.H.U.H.H.H.H.H.H.H.H.G.H.H.H.H.U.U.U.U.U.U.U.V.tXxXhXkXyX2X-X-XU.P.U.U.U.U.:X:X",
"G.G.G.G.G.G.H.H.U.U.U.Y.U.R..X.X9XrXyXyX.XR.R.U.U.U.H.H.G.H.R.^.Y.U.U.U.U.U.H.U.H.H.R.Y./. XtXuX`..XR.U.F.OX<XrXcXR.R.R.U.U.U.U.U.H.U.Y.Y.U.U.U.H.H.U.  X =.$.;.    U.(./. X(.U.U.U.H.G.G.G.H.H.U.Y.Y./.(.#X2XtXrXgXdXuX9X!./.R.R.U.U.U.H.G.H.H.H.H.H.Y.Y.R.R.U.U.U.U.G.G.H.R.R.-X2X6X3XrXR.U.U.R.=X=X&X&X X X=X-X&X&X",
"H.H.G.G.G.G.H.H.G.H.U.U.U.(.9X<XdXhXtXeXtX-XI.U.Y.U.H.H.H.H.H.H.U.U.H.U.U.U.H.H.H.H.Y.Y.wXaXaXdX(.R.Y.Y.Y.R.W.eXaXrXuXI.U.U.H.U.U.U.R.!.R.Y.U.U.U.$ o . # $.$.%.    P.R. X.X$X!.!.U.U.H.H.H.H.H.U.Y.Y.Y.aXtX7XU.T.R.T.>XwXaXdX!.T.U.T.U.H.G.G.H.H.H.H.Y.T.R.Y.U.P.U.U.H.H.H.>X2XhXqXuXU.P.T.Y.U.U.U.U.=X=X&X&X-X-XU.P.",
"U.U.U.U.H.H.G.G.H.H.U.U./.2X-X=XU.U.P.!.=X8X9X.X.XR.Y.Y.U.U.H.H.G.G.G.G.G.G.H.U.R.Y./.(.tXtXR./.U.U.H.G.U.U.Y.U.W.-X3X9X-X2X.X.X.XOX(.(.U.R.Z.B.Z.o   *.:.8.<.[ .   d.}.d.f.T..XXX.X.XU.U.Y.Y.R.Y..X!.yXqXR.R.U.T.Y.U.Y.U.uXtXgXuX X/.R.R.Y.Y.U.U.R./..X.XmXkXbXhX!.R.Y.R.(.=X&X+XY.R.U.U.H.H.G.G.H.H.U.U.W.R./.R.U.U.",
"-X-XD.H.H.H.H.H.H.U.+X-XuX9XQ.R.Y.Y.R.R./.=XuXrXmXgXU.R.R.Y.H.H.H.G.G.G.G.H.U.U.R.Q.aXkXhXgX!./.Y.P.H.H.U.U.Y.Y.R.R.].yXyX9X2X-X&X@XY.Y.C.B.      o   *.:.8.:.[ .       . - /.|..X(.(.OXOXY.Y./.2XrX6XvXvXR.R.Y.Y.U.U.Y.Y././.mXmXlXfX~._.T.U.Y.U./.(.jXfXJXFXFXkXfXgXY./. XY.R.Y.U.U.U.H.G.G.G.G.H.H.U.U.U.U.R.R.U.U.",
"#X&X#X+XR.Y.U.U./.R.>X8X-XT.U.U.G.G.H.H.P.Y.U.OX-XdXeXfXR.R.Y.R.U.U.H.H.U.Y./.R.3XrX9X8XR.R.(./.OXOX(.(.R.U.H.H.U.U.Y.U./.R.(.(./.T.U.H.  . ,./ / s s <.<.>.R T     / ,.>.+ . N.U.Y.Y..X.X#X&X8X9XoX&XY.U.U.U.H.H.G.G.H.H.U.U./.E.yX9XuXrX(.(.(./.iXhX9X2XU.R.R.R.9XhX-X@XU.U.H.U.H.G.G.G.G.G.G.G.G.G.G.G.G.G.G.H.U.U.",
"U.U.+X+XyXyXP.Y.8X8X8X0XR.Y.U.H.G.G.H.H.U.U.Y.R.Y.+XmXmXlXjXR.R.U.P.U.U.I.I.yXuX1XqX X/.R.R.R.Y.@X+X(..X!.R.U.H.H.U.U.U.U.T.R.U.Y.U.G.H.  . [ #.#.L J <.<.=.( ~ @ M %.%.$..   I.H.H.U././.@X@XOX+XR.Y.Y.Y.H.H.H.G.G.G.H.H.U.U.R.R.R.R.8X0XgXhXzXkXNXhX!./.Y.Y.Y.T.R.I.-X=XY.U.U.U.H.G.G.G.G.G.G.G.G.G.G.G.G.G.G.H.U.U.",
"U.U.~./.-X-X2X2X-X-XY.U.H.H.G.G.G.G.G.G.G.G.G.H.U.R.R.U.gXmXhXhX(./.R.R.#X+X>X8X/.R.U.Y.H.H.G.G.H.H.H.U.Y.R.R.R.Y.H.H.U.U.H.H.  o O O .   . <.<.=.%.=.>.&.#.s v >.$.<.{ ( +   O O   O o Z.H.U.U.U.U.U.H.G.G.G.G.G.G.G.G.G.G.G.H.H.R.R./.R.eXdXrXyXR.R.U.Y.H.H.H.H.U.U.R.OX-X@XR.Y.Y.U.H.H.H.G.G.G.G.G.G.G.G.G.G.G.H.G.",
"H.U.Y.R.:X:XuXuX.X(.R.Y.H.H.G.G.G.G.G.G.G.G.G.H.U.U.Y.R..X.XNXHXkXhXtXeX3X1X:X#XR.R.U.U.H.H.G.H.G.H.H.G.H.U.Y.Y.Y.H.H.H.F.G.B.o . . . . . # =.;.=.=.=.;.-.%.b a >.=.>._ ' & + . . . . . g.U.G.U.U.U.U.H.G.G.G.G.G.G.G.G.G.G.H.U.U.(.Q.2X3XrX0X!.R.R./.Y.U.G.G.H.H.U.U.U..X0X8X=X2XQ.(.U.H.H.G.G.G.G.G.G.G.G.G.G.G.G.G.",
"G.G.H.H.U.U.U.U.Y.Y.U.U.Y.Y.U.H.G.G.G.G.H.H.H.H.G.G.G.H.R.Y./.R.Z.Z.$XW.R.R.U.U.U.H.G.G.G.G.H.U.U.U.H.H.H.H.U.U.H.H.H.U.  .   * ` ] %.%.%.=.=.=.=.=.=.=.&._ #.=.%.$.( G x { ] [ [ ) ! K       G.H.U.U.H.G.H.H.H.H.G.G.H.H.Y.Y.!.^.<X8XI.W.R.Y.U.H.H.J.G.G.G.G.G.G.G.G.H.U.Y.U.R.W.+X=X.XOXP.U.H.H.H.G.G.G.G.G.G.G.G.G.",
"G.G.H.H.H.H.U.H.H.H.H.H.U.U.U.H.H.H.H.H.^.(.(.(.R.U.G.H.U.U.R.R.(.(..XR.R.R.U.U.H.H.G.G.G.H.Y..X#X#X.X.XP.H.U.U.H.U.e.5 < 3 3.1.=.%.=.=.=.=.=.=.=.=.=.=.=.=.$.$.#.[ n Y } >.%.%.%.%.&.{ 2.3 < 5 5 H.U.U.U.U.U.H.H.H.H.U.U.&X#X4X2X~.~.Y.R.R.Y.U.Y.G.H.G.G.G.G.G.G.G.G.G.H.U.U.U.U.P.F.OXOXOX~..X.XU.U.H.H.G.G.H.G.G.G.",
"U.U.H.H.H.G.G.G.G.G.G.G.G.G.H.H.U.U.Y.Y.OX#X#X+X(.R.Y.U.R.Y.Y.Y.U.U.H.H.H.H.G.G.G.G.H.H.Y.Y..X.XOX.X X(.!./.Y.U.U.U.:   { ` &.=.=.=.=.=.=.=.=.=.=.=.=.=.=.=.=.=.] ` H { %.=.=.=.=.=.=.[ ] Y I .   H.H.U.U.Y.R.R.R././.+X+XoX#X/.R.T.U.U.H.H.H.R.R.U.U.G.G.G.H.U.H.H.H.G.G.G.H.H.H.H.H.U.H./././.(.R.R.Y.U.U.U.U.H.G.G.",
"U.U.U.U.H.H.G.H.H.H.H.H.H.H.U.H.(.(.OXOXI.I.F.D.!.OX+X+X@XOXU.U.H.G.H.H.H.H.G.G.U.U.Y.Y.Y.R.H.F.H.U.H.U.R.R.Y.H.C.$ d 2.;.%.=.=.=.=.=.=.=.=.=.=.=.=.=.=.=.=.=.=.:.:.:.-.=.=.=.=.=.=.=.=.%.{ { @.@.o $ H.U.U.Y.R.R.$X+X@X@XF.P.U.U.H.H.G.H.H.H.H.H.U.Y.U.U.(.(.=X:XY.R.U.H.G.G.H.H.H.H.H.H.H.H.U.P.R.R.R.R.R.Y.R.U.H.H.",
"H.U.Y.Y.U.H.H.H.U.U.U.U.U.U.U.U.Y.R.U.U.U.H.H.H.H.H.R.Y.R.R.Y.Y.G.H.G.G.G.G.H.H.Y.Y.R.R.Y.U.H.H.G.G.H.H.H.U.U.H.L.  d ` =.=.=.=.=.=.=.=.=.=.=.=.=.=.=.=.=.=.=.=.=.=.=.=.=.=.=.=.=.=.=.=.=.[ [ ! T     U.U.U.U.Y.R.Y./.U.U.U.U.H.H.G.G.G.G.G.G.G.G.U.U.Y.Y.OXOX-X=X+XOXU.U.H.G.G.G.G.G.G.H.H.G.U.H./.R.1XmXMX+X/.R.U.U.",
"G.G.H.H.U.U.R.Y.>X8XgXyXR.R.U.U.H.H.H.H.G.G.G.H.H.U.U.U.U.U.U.U.Y.U.H.H.U.U.Y.R.!.`.jXsXoXR.Y.U.H.H.H.H.H.J.D.X # ) #.#.$.=.=.;.=.-.=.=.=.=.=.=.=.=.=.=.=.=.=.=.=.=.=.=.=.=.=.=.=.=.=.=.=.=.%.[ [ ) ..  I.D.U.H.H.H.H.H.H.G.H.H.G.U.U.U.U.H.H.H.G.U.U.(.(.(.(.F.D..X(.(.~./.H.G.G.G.H.H.H.R.Y. X|.aXaXHXNXKXlXyXyXR.R.",
"G.G.H.H.U.U.R.R.yXtXkXuX~.R.U.U.H.H.G.H.G.G.G.H.H.H.Y.U.U.U.H.H.U.H.U.U.U.Y.R.!.uXrXdXhX8XeXY.U.H.H.H.H.H.S.  . + _ &.=.9.0.9.w.-.-.=.=.=.=.=.=.=.=.=.=.=.=.=.=.=.=.=.=.=.=.=.=.=.=.=.=.=.=.=.[ [ ) @.. o - U.H.H.H.G.H.H.G.G.H.H.U.Y.Y.Y.U.U.U.H.Y.Y.R.R.H.H.G.H.H.U./.(./.U.U.H.H.H.U.U.R.Y.yXtXdXdX/.R.(.kXsXhXR.R.",
"U.H.U.U. X.XwXwXXX(.R.`.tXbX(./.U.U.H.H.H.U.U.R./.OXdXhX2X8XR.R.U.U.H.U.I.I.gXtX-XrXU.U.~.&X<X4XR.R.Y.U.F.B.O W ] %.%.%.0.0.0.0.=.=.=.=.=.=.=.=.=.=.=.=.=.=.=.=.=.=.=.=.=.=.=.=.=.=.=.=.=.=.=.=.=.] { R O - J.H.U.U.H.H.H.U.U.R.R.#X:XmXbX~.(.Y.Y.H.H.H.G.H.G.G.G.H.H.H.H.U./.Y./.R.R.R.Y.>X9XeX6XY.R.R.R.R.T.M.V.9X9X",
"U.U.U.Y.@X#XyXyX^.R.T.!.uXmX2X2XU.U.U.H.U.U.P.R.OX9XgXdXgXgXR.Y.U.Y.R.R.>X2XyXyXR.U.U.U.U./.2X-X&XoXY.Y.- o ) [ #.%.8.w.w.0.0.0.=.=.=.=.=.=.=.=.=.=.=.=.=.=.=.=.=.=.=.=.=.=.=.=.=.=.=.=.=.=.=.=.=.[ [ ! R .   D.U.U.H.H.H.U.U.R.R.yXrXaXhX,X#XR.R.U.U.G.G.G.G.G.G.G.G.G.G.Y.R.R././.(.W.Z.2X1X XT.Y.R.U.U.U.Y.Y.U.9X0X",
"H.U.8X2X9XqXU.U.U.U.U.U.U.V.2X2X8X8XR.R.R.OX8X2XqX3XR.R.1X2XaXeX.X X.X!.XX$XU.U.U.U.G.G.H.U.T.U.OX+XOXU.$ o %.%.=.=.q.q.0.0.>.;.=.=.=.=.=.=.=.=.=.=.=.=.=.=.=.=.=.=.=.=.=.=.=.=.=.=.=.=.=.=.=.=.=.%.=.] ] &   M.H.U.U.Y.R././.3X<X-X3X/.T.yX9XcXuXR./.Y.U.H.G.G.G.G.G.H.Y.R.OXOXbXdXNXrXrXR.^.U.P.G.G.G.H.H.H.U.U.U.T.",
"=X=X%X-XR.R.Y.U.H.H.H.H.U.U.R.T.8X2X+X].+X-X2X=X#XT.U.Y.R.R.tXrX2X=XR.!.R.U.P.U.H.G.G.G.H.U.U.U.R.Y.P.  3 a $.%.=.%.w.0.0.0.&.=.=.=.=.=.=.=.=.=.=.=.=.=.=.=.=.=.=.=.=.=.=.=.=.=.=.=.=.=.=.=.=.=.=.=.%.{ ` n G O $ U.U.Y.Y.8X8X5X3XR.Y.Y.Y.#X=XeXtX#X#XY.R.U.U.G.G.H.H.P.R.!.+X@XgXtXhXZ.A.^.R.Y.U.H.G.G.G.G.G.H.U.U.U.",
".X.XU.Y.U.U.H.H.G.G.G.G.G.G.U.U.R.R.-X>X9X=X.XU.U.H.H.H.U.U.T.T.rXrX2X2XR.T.U.H.G.G.G.G.G.G.G.H.H.H.D.  F ] =.%.1.0.q.0.;.=.=.=.=.=.=.=.=.=.=.=.=.=.=.=.=.=.=.=.=.=.=.=.=.=.=.=.=.=.=.=.=.=.=.=.=.=.=.%.#.` (   $ T.R.+X+X<X;XR.Y.U.U.H.H.U.U.R.T.wXyXgXdX|. XU.Y.R.R./.@X-X8X9X(./.^.U.U.H.G.G.G.G.G.G.G.G.G.G.G.G.H.",
"U.Y.U.U.Y.U.H.H.G.G.G.G.G.H.U.U.R.R.Y.Y.R.R.Y.U.U.H.G.G.U.U.R.U.R.R.8X8X$X#XY.P.H.H.H.H.G.G.H.H.U.G.N.. F [ =.=.1.0.0.0.-.=.=.=.=.=.=.=.=.=.=.=.=.=.=.=.=.=.=.=.=.=.=.=.=.=.=.=.=.=.=.=.=.=.=.=.=.=.=.%.[ _ _   $ U.R.OX$XY.Y.Y.R.H.U.G.H.U.U.R.R.W.W.dXaXmXhXT.Y.R.(.tXmXtXrX-XOXR.Y.U.U.G.H.G.G.G.G.G.G.G.G.G.G.G.G.",
"R.R.R.R.H.H.G.H.G.G.G.G.G.G.G.G.H.H.U.U.U.U.U.G.G.G.G.G.G.G.H.H.U.U.Y.U.OXOX.X.X(./.R.R.U.U.H.H.J.o   T %.=.=.<.9.9.1.=.=.=.=.=.=.=.=.=.=.=.=.=.=.=.=.=.=.=.=.=.=.=.=.=.=.=.=.=.=.=.=.=.=.=.=.=.=.=.=.=.=.] ] m . o U.U.U.U.U.H.H.G.G.G.G.G.G.H.H.Y.Y.R.R.kXhXgXhXuXuXdX9XR.Y.R.(.(..XR.U.U.U.H.H.G.G.G.G.G.G.G.G.G.G.",
"R.R./.!.U.U.H.H.G.G.G.G.G.G.G.G.G.H.U.U.U.H.H.G.G.G.G.G.G.G.G.H.U.U.U.U.Y.Y.(.(.(.(.R.R.U.U.U.J.U.o   T &.=.=.<.9.0.4.=.=.=.=.=.=.=.=.=.=.=.=.=.=.=.=.=.=.=.=.=.=.=.=.=.=.=.=.=.=.=.=.=.=.=.=.=.=.=.=.=.=.] ] L .   U.U.U.H.H.H.H.G.G.G.G.G.G.H.H.U.Y.Y.R..X.XzXzX6X9X/.(.Y.Y.Y.!..X@X+XOXI.P.H.H.G.G.G.G.G.G.H.G.G.G.",
"G.G.U.U.R.R.Y.U.G.G.H.H.G.G.G.G.G.G.G.G.H.H.H.U.U.U.H.H.G.G.G.G.G.G.G.G.U.H.U.U.R.Y.U.U.U.U.U.R.S.o   [ =.=.;.>.>.=.=.=.=.=.=.=.=.=.=.=.=.=.=.=.=.=.=.=.=.=.=.=.=.=.=.=.=.=.=.=.=.=.=.=.=.=.=.=.=.=.=.=.=.#.[ ! .   H.H.H.G.G.G.G.H.H.G.G.G.G.G.G.G.G.H.U.Y.U.R.R.R.T.U.U.H.H.H.H.U.U.+X+X-X=XI.F.U.U.H.G.G.G.G.G.H.H.",
"G.G.H.H.R.R.Y.R.R.R.H.G.G.G.G.G.G.G.G.H.H.H.H.D.I.F.U.H.H.G.G.G.G.G.H.G.H.H.D.I.=X=XU.U.U.U.H.H.$   + [ %.=.=.=.=.=.=.=.=.=.=.=.=.=.=.=.=.=.=.=.=.=.=.=.=.=.=.=.=.=.=.=.=.=.=.=.=.=.=.=.=.=.=.=.=.=.=.=.=.[ [ ! 2   o H.H.G.H.G.G.H.H.G.G.G.G.G.G.G.H.H.U.U.U.R.Y.Y.Y.U.U.H.H.G.H.H.H.R.Y.>X-X&X#XF.F.H.D.G.G.H.G.U.U.",
"G.G.G.G.G.G.H.H.Y.Y./././.Y.Y./.U.U.H.U.U.Y.!.2X8X+X+X+XY.Y.H.H.G.G.U.H.Y.I.&X=X&X#X.X(.Y.U.H.U.o   Y #.=.=.=.=.=.=.=.=.=.=.=.=.=.=.=.=.=.=.=.=.=.=.=.=.=.=.=.=.=.=.=.=.=.=.=.=.=.=.=.=.=.=.=.=.=.=.=.%.%.#.[ ) H .   Y.U.Y.Y.U.U.H.H.G.G.G.G.G.G.U.U.Y.U.G.G.G.G.H.H.G.G.G.G.G.G.G.H.H.H.H.U./.^..XOX(./.U.U.H.H.H.U.",
"G.G.G.G.G.G.G.H.Y.Y./.R.(./. X XU.U.Y.Y.OX&XOX:X8X+X>X-X.X(.H.H.H.H.Y.Y..XOX0X>X(./.+XOX/./.U.H.o . I #.;.=.=.=.=.=.;.;.;.=.=.=.;.;.;.;.=.=.=.=.=.=.=.=.=.=.=.=.=.=.=.=.=.;.;.=.;.;.;.;.=.;.=.;.=.-.=.%.%.[ [ ' P .   U.U.U.Y.R./.Y.J.H.H.S.D.U.H.Y.Y.H.U.H.H.H.H.H.H.G.G.G.G.H.H.H.D.H.S.U.U.H.U. X(.(.(.R.Y.U.U.U.U.",
"U.U.H.G.G.G.G.G.G.G.U.U.U.R.#X&XbXkX X.X.X/.H.H.H.H.H.H.U.U.R.R.U.U.U.Y.U.U.H.H.H.H.U.U.U.Y.P.U.o O ] &.@ X X X X X X X X X X X X X X X X # =.$.=.=.=.=.=.=.=.=.=.=.=.$.$.# X X X X X X X X X X X X X . . X . } ) . O G.U.H.H.U.U.R./..XOX(.(.Y.R.H.H.G.H.U.U.U.U.U.Y.U.H.H.R./..X(..X/./.U.H.H.H.H.U.Y.U.Y.Y./.Y.H.H.",
"(.(.I.F.U.G.H.H.H.H.U.U.I.4XtXMXlXlX8X0XE.U.U.J.H.H.H.H.H.H.Y.Y.Y.Y.U.U.H.H.H.H.U.H.U.H.U.U.o O x M ] #.                                        -.=.=.=.=.=.=.=.=.=.=.#                                       ( R p s     U.U.U.U.U.U.OXOX(.(.R.U.U.H.H.H.Y.U.4X{.A.Z.P.U.U././.(..X(./.R.Y.Y.U.H.U.U.Y.B.Z._./.R.H.H.",
"R.R..XOX X XU.U.U.U.R.(.hXdX'.`.R.Y.-X;X3X=X^.U.U.H.G.G.G.G.H.H.U.U.G.G.G.G.G.H.U.U.R.R.(.(.$   d | o. .O O O O O O O O                         $.$.$.$.$.$.$.$.$.$.$..     O O O O O .                       F | d d     R.T.R.R.H.U.H.G.H.H.H.U.H.H.R.R.(.(.kXMXhXhXR./.R.H.U.H.H.G.G.H.H.H.U.U.R.R.oX3XtXtX$XE.U.Y.",
"U.H.U.U..X.X.XOXF.D.#X9X%X`.R.R.R.R.T.V.wXgX=XP.Y.U.U.H.G.H.H.G.G.G.G.G.G.G.H.H.Y.U.uXrX&X&Xo           O IXIXZXUXCX8 ; %                                                 IXIXZXZX8 8 O                                   >X=XY.P.U.Y.H.G.H.H.H.H.Y.U.!./.kXkXB.Z.C._.dXrXP.Y.Y.H.H.H.H.H.U.H.U.P.-X0XwX4XQ.M.wX8X(.(.",
"G.G.H.G.U.U. X$XrXeXuX2X(.Y.U.U.H.U.U.P.!.`.-X=X#XI.Y.Y.U.U.H.H.G.G.G.G.H.H.Y.R.OX~.9XrXOX/.o             IXIXUXUX8 8 ; %                                                 IXIXZXCX; ;                                     OX@X2X8X(.R.U.U.H.H.Y.U.!./.2X;XgXhXR.R.Y.I.0XHX9XQ.U.Y.U.U.G.G.U.U.!.!.=X=X/./.U.U.$XOX-X-X",
"G.G.H.H.U.Y.P.&XrXwXR.R.R.Y.U.H.G.G.U.U.Y.R.OX2X9X8XOX(.Y.U.H.H.G.G.G.H.U.U.D.F.8X8XR.R.Y.R.o O           IXIXCXZXO O                             . + . . . . . .         IXIX8 8 O                                   .   Y.R.;X4XrXqXU.T.H.U.Y.T.C.V.NXkXR.R.R.R.R.Y.R.>X6XhXyX=XU.Y.H.G.F.I.=X;X.X.XY.Y.U.U.Y.Y.>X:X",
"H.H.U.U.#X=X#X+XU.Y.Y.U.H.H.G.G.G.G.G.G.G.H.U.R.Y.+X2X9X3X2XT.R.U.Y.Y.T.R.(.9X3XR.E.U.U.H.H.o   m L  .    CXZX% ;                                 . m L H H J L 2         CXCX% .                               + c c .   U.U.Y.U.>X9XuXrXR.R. X XtXtXR.R.U.U.H.H.H.H.U.Y.U.yX9XhX2X+XR.!.+XoX#X@XU.U.H.H.G.G.H.H.U.U.",
"H.U.D.D.&X&X=X@XY.Y.U.U.H.H.G.G.G.G.G.G.G.H.U.R.Y.Y.@X@X<X3X8X>XP.P.I.C.qXrXhXuXU.R.U.U.H.G.o . L H |   X CXZX% ;                                 # m ` ] [ [ ] p &       CXCX                                O + m v     H.H.Y.Y..X.XpXrXrXgXdXhXBXmXR.R.Y.U.H.H.H.H.U.U.U.R.R.8X2X9X#X;X>X=XU.U.U.H.G.G.G.G.H.H.U.U.",
"U.U.+X+X(..XH.H.H.H.G.G.G.G.G.G.G.G.G.G.G.G.G.H.H.H.U.U.R.R.8X8XyXwX8XrX9X9XR.Y.U.H.H.H.H.G.o   [ [ &.L O                                       o | T %.%.=.=.%._ @.O o                                       m H R T     H.H.H.H.U.U.R.R.bXNXhXvXR.R.U.H.G.G.G.G.G.G.G.G.G.U.U.U.U.!.+XOXU.U.U.H.G.G.G.G.G.G.G.G.H.H.",
" X X+X#XY.Y.H.H.H.H.G.G.G.G.G.G.G.G.G.G.G.G.H.H.H.H.U.U.Y.R./.R.8X2X-X2XR.R.Y.Y.H.H.H.G.H.G.o   [ { *.)                                         m ` ` =.=.=.=.=._ ] m .                                       I Y T T     H.H.G.G.U.U.R.R././.R./.Y.Y.U.U.H.H.G.G.G.G.G.G.G.U.U.U.Y.!..X.X(..XH.H.G.G.G.G.G.G.G.G.G.H.",
"(.(.H.U.U.U.U.U.G.G.G.G.G.G.G.G.H.H.U.U.(.(.XX/./.R.U.H.H.H.H.H.U.U.Y.Y.U.U.H.H.G.G.G.G.H.G.o   [ ] #.] .                                     . H { X.X./ X.X.X.X.&.P .                                       ) R T T     H.H.G.G.G.H.H.U.U.U.U.U.H.H.U.U.R.Y.Y.U.G.G.G.G.G.G.G.G.H.U.U.U././.R.R.U.H.G.G.H.G.H.H.G.G.",
"U.U.U.H.U.U.U.U.G.G.G.G.G.G.G.G.H.G.U.U..X.XOX.X X/.R.Y.H.H.H.H.U.U.Y.U.U.U.H.U.U.H.H.H.H.H.$   _ ] $.$.X                                   . # ~ {               [ ' &                                     X ` ` T T .   G.G.G.G.G.H.H.H.U.H.U.U.U.U.U.U.H.U.Y.U.G.G.G.G.G.G.G.H.H.H.U.U.U.U././.Y.Y.H.D.G.G.H.H.G.G.",
"G.G.G.G.G.G.H.H.U.U.H.H.G.G.G.G.G.G.G.G.G.G.H.U.U.R./.R.Y.R.U.U.H.H.H.H.U.U.Y.Y.R.R.U.U.H.H.o   ] _ =.=.} '                               . T K . + z A A A A V g + . Y Q .                               J ( { ] P U o o U.H.G.G.G.G.G.G.H.H.Y.Y.Y.R.Y.Y.H.H.G.G.H.H.U.U.H.G.G.G.G.G.G.H.H.U.U.U.Y.R.R.Y.G.G.H.H.G.G.",
"G.G.G.G.G.G.G.G.H.U.Y.P.U.H.H.H.G.G.G.G.H.H.U.Y.I.(.lXlXMX9XR./.Y.U.G.H.G.H.H.H.G.G.U.U.Y.Y.D.P.O   $.=._ ` X O                           . L ^ . . j B C B N l e . X ) I                               . R T ` ` #   N.G.H.H.H.H.G.G.G.G.U.U./.R.FXKX.X.XR.Y.U.H.G.G.U.Y.Y.H.H.G.G.G.H.F.^.T.M.C.W.R.Y.U.H.H.G.G.G.H.",
"U.U.H.G.G.G.G.G.H.H.R./.(.R.U.U.H.H.G.G.U.U.Y.-X2XrXgXtXkXhXrXyXY.Y.G.H.G.G.G.G.G.G.H.H.R.Y.U.Y.    =.%.=.$.P =                       $ L K   . l l V +.+.Z C B h y e . . J n .                       O n ] [ ] ` #   U.U.U.U.H.H.G.G.H.H.Y.Y.9XrXAXkXgXtX/.R.U.U.G.G.H.U.Y.U.U.H.H.H.Y.Y.rXyXhXjXtX2XT.R.H.H.G.G.G.G.",
"U.Y.Y.U.H.H.H.U.U.U.H.H.S.H.U.H.U.U.U.Y./.+X-XiXgX6XR.R.R.P.dXuX9XOXP.Y.H.H.G.G.U.H.P.Y.OX+X&X#X  X ` ] =.=.%._ ! . .               S n L ^   . j k +.+.+.Z C C h h e .   T I U p           .     . H R ] ] [ ~ T .   F.R.(.(.(..XU.U.R.R.uXtXdXuX|.R.'.].rX9X X/.Y.R.U.H.G.U.U.U.R./.+X`.lXfX-X%X8XrXrX9XR.Y.Y.H.H.G.",
"U.U.R.Y.Y.U.U.H.U.U.H.H.G.G.H.H.U.U.U.Y.].+X9XE.Y.Y.Y.Y.R.U.R.P.rXrXT.U.H.U.H.H.H.H.+X+X+X+X/./.    ] ] $.%.=._ Y # . . . . . . .   S m X . j j B C +.+.+.Z Z C B N h r r O o M p       . . . X X + L ! ] [ ] T T .   S.U.R.Y.(..XY.Y.I.!.gXyXW.R.T.R.R.T.eXeXgXrXU.Y.Y.U.G.H.U.U.R.R.#X{.jXzXR.T. X XrXwXP.P.T.Y.H.H.",
"H.H.R. XrX9X9X-XU.Y.Y.U.U.Y.U.U./.R.-X;X9X=XR.Y.Y.Y.Y.U.U.R.R.Y.-X9X-X2X(.T.U.U..X.XOX+XU.U.H.H.r.e.@ K =.%.=.=.$.#.( ~ P U 3 < f g z z l l V V +.+.+.O.O.C C C C C B V V j y g f f f # 3 ^ I ! ) ] [ %.%.] ] ^ & e.e.U.H.H.U.U.U.(..X9X8X~.(.Y.Y.R.Y.U.U.R.R.wXrXyXvX/.R.R.R./.-XgXpXtXkXR.R.U.U.Y.Y.R./.9X9X+X(.U.U.",
"U.U.#X#XuXvX9X9X8X8XR.Y.U.R.R.Y.8X2X8X0XW.R.Y.U.U.H.G.G.H.H.U.U.Y.Y.8X-X%X4X&X&X$X+XU.U.H.H.H.H.H.T..  .%.%.=.=.=.%.[ _ H L o . h h j l k l O.+.+.+.B B C C C C C C C C C h h y y r y .   ^ P ] ] #.#.%.%.] ` ^   g.D.H.H.U.U..X.X&X&X8X>XY.Y.U.U.G.G.U.U.U.U.U.Y.tXlXeX9XR.~.'.dXgXkX/.I.U.U.H.H.H.H.U.U.(.(.rX8X=X=X",
".X.X+X+XU.U.(.OXyXyXyX-XF.F.hXgX9XtXQ.(.Y.U.U.H.G.G.G.G.G.G.H.H.U.Y.U.P.9XrX2X=X/.!.R.Y.H.H.H.H.H.U.    ` ] =.=.=.=.=.=.X . z A Z Z ..O.O...O.+.k N k l l l l l l k k B B B B B N B V z z . O =.=.=.=.=.[ ! T . O (.H.H.U.U.Y.OXXX/.I.P.U.U.U.G.G.G.G.G.G.H.H.U.Y.R.W.hXJXSXKXHXmXoX'.U.R.U.H.G.G.H.H.H.U.Y.R.Q.(.2X>X",
".X.XP.U.U.U.U.U.R.R.wXgXhXkXrXqXR.R.T.U.U.U.H.G.G.G.G.G.G.G.G.G.H.H.U.U.T.T./.Y.Y.T.U.H.U.H.H.H.H.H.  o ] { =.=.=.=.=.=.X o N N C Z O.O.O.O.B B N l l l l l l l l l k N B C C C B B N j l . . $.=.=.=.%.[ ! T +   H.U.H.U.H.U.Y.U.Y.Y.U.U.H.H.G.G.G.G.G.G.G.G.U.U.Y.Y.R.'.kXPX+XOX!.R.Y.U.G.G.G.G.G.G.G.G.U.U.Y.U.R.R.",
"U.U.U.U.H.H.U.H.U.U.R.&XBXNX XOXR.R.H.H.H.H.G.G.G.G.G.G.G.G.G.G.G.G.H.H.U.U.U.U.U.U.D.U.U.U.H.U.H.U.o $ M ~ _ [ %.=.=.=.X O B B C Z O.O.C C j g     . . . . . . .     f h C C C C B B j j .   =.=.=.=.` ` T T o O H.U.H.H.H.H.U.U.U.U.U.H.G.H.G.G.G.G.G.G.G.G.H.H.U.H.R.Y.R./././.R.R.H.H.G.G.G.G.G.G.G.G.G.H.U.U.U.U.",
"G.G.H.G.G.G.H.H.H.H.H.U.U.Y.OXOX+XOXU.U.Y.U.H.G.G.G.G.G.G.G.G.G.G.G.G.G.U.U.U.U.U.H.6           G.U.H.S..   T ] #.#.%.%.X O y y N N N V j z o o . . . . . . . . . . . o . f h k l h j e w O   =.=.] { ) ( O O }.D.H.H.o o         U.U.U.U.H.H.G.G.G.G.G.G.G.G.H.H.U.U.R.Y.Y.U.U.Y.R.R.Y.U.H.H.G.G.G.G.G.G.G.G.H.G.H.H.",
"H.H.G.H.G.G.G.G.G.G.H.H.U.Y.Y.Y.@X#X+X&X!.F.D.D.G.H.G.G.G.G.G.G.G.G.H.H.Y.U.U.U.H.}.: . . . .   Z.U.B.g.  . O.{ *.[ %.-.. . f f V k V V z S   . 9 9 9 9 9 9 9 0 0 0 0 . o f z z l h j t t .   =.%.[ ] ' @.    d.W.H.F.o . . . . . g.J.U.H.H.H.U.U.H.H.H.H.H.H.U.U.R.R.U.U.U.U.U.G.G.H.Y.U.U.Y.U.P.G.G.G.G.G.G.G.G.H.H.",
"R.R.U.U.H.H.G.G.G.G.G.G.G.H.H.H.U.U.OX+X#X+X+XY.^.H.H.H.G.G.H.H.G.G.U.U.H.H.H.H.S.  4 #.%.=.)   o S.. .     X L ' ` %.%.) ( X X r r w q . . 9 i e e e e e e e e e e 9 9 9 .   q w w w .   } ! ] [ ) ) c     . X . v.}.  X.%.-.] _   6 U.H.H.H.Y.Y.U.U.Y.U.I.Y.Y.U.U.U.H.G.G.G.G.G.G.G.G.H.U.U.R.!.U.Y.H.H.G.G.G.G.H.H.",
"R.R.(.(.(.(.G.H.H.G.G.G.G.G.H.H.H.H.U.U.(.#X0X,X+XOX^.!.H.H.H.H.U.U.U.H.H.H.H.7 5 * 3 %.>.=.{         + { [ ^ * 1 ' #.[ { ] < < .   . . > > r r u u u u e e e e e e e r r = & @   . . < < { ` { { W E = < ! ( =         5.%.<.*.#.* $ 7 S.H.H.U.U.P.U.+X+X&X=X=X+XU.U.G.H.G.G.G.G.G.G.H.H.U.U.Y.Y.Y.U.U.U.H.G.G.G.G.H.",
"G.G.H.H.R.R.(.(.R.Y.U.U.G.G.G.G.H.H.G.G.G.H.H.U.U.Y.OX].(./.R.R.U.U.H.H.H.H.P.o   ) [ ;.8.%.$.&     d p [ [ ( b p c G P [ ] T Q o     q r r N k r u u u u e e r r r e l k e w >       J T ` ` ! ! a M b n ` ) s d     . ,.<.8.%.=.~ .   U.H.H.U.Y..X.X(..XD.F.~.(.+XOX/.R.U.U.U.U.H.H.U.U.G.G.G.G.G.H.H.H.H.H.U.U.R.R.",
"G.G.G.H.H.H.Y.I.R.Y.U.H.H.U.U.U.U.U.U.H.H.G.H.H.H.H.U.U.R./.R.R.Y.Y.U.U.U.U.H.o   *.>.8.<.=.=.Q   X ' ` $.%.%.#.{ Q x n ( } ` ) P T   . , , j j N N N N N N N N k k k h r , q X O T P ' ` W ' n c U P ` ] [ [ ] ` . . L >.3.3.=.=.[ #   R.U.U.Y.R.^./.H.U.H.H.Y.R..X.X.X(.R.Y.Y.Y.U.Y.H.H.G.G.G.G.G.H.H.H.U.U.Y.U.#X#X",
"G.G.G.G.G.G.G.H.H.H.H.H.U.U.U.U.Y.R.Y.U.H.G.G.G.G.G.G.G.H.H.H.H.U.U.U.U.U.Y.r.= = &.<.8.>.=.%.R + @ ] ] =.%.%.%.%.( x c G n ` ) ! ! m p   . r r N N V N N N N N N N N w r     p H ! ! ` ( n G a a R ( ] [ %.=.] [ @ @ Y >.1.3.=.=.[ * = r.f.U.H.H.H.H.H.G.G.G.U.H.Y.Y.(.vXhXLX&XY.Y.R.H.G.G.G.G.G.G.G.U.U.R.T.-X;XOXXX",
"G.G.G.G.G.G.G.G.H.H.U.Y.Y.R.-XdXlXSX.XR.R.Y.U.H.G.G.G.G.H.H.U.U.Y.Y.R.R./.oX   .{ =.8.8.;.=.=.%.v v %.=.=.=.=.=.%.%.*.{ P Q x n T T Q T Q  .  . . . . . . . . . . . . . .  .K Q T I T v x Q T _ { [ [ %.=.=.=.%.%.c n $.<.3.>.=.=.%.) ] X e.R.Y.U.H.H.G.G.H.U.Y.U./.Q.vXHXSXKXsXAX(.(.Y.U.U.H.G.H.U.U.(./.&X+X>X8XP.H.",
"G.G.G.G.G.G.G.G.H.H.U.U.E.9XtXtXmXhXrXuX/./.Y.H.H.G.G.G.G.H.U.U.Y.Y.>X=X.X;X  o.] =.8.8.=.=.=.=.v v =.=.=.=.=.=.=.=.*.[ Y Q c v ! T I T J W     .             . . . .     U H T I T T c x Q P { ` #.[ =.=.=.=.=.%.v v $.<.3.-.=.=.=._ _   7 -XI.U.U.U.H.H.U.U.R.Y.;X%XdX'.!.R.~.kXtXtX/.Y.U.H.H.H.Y.U.+X+XoX+XU.Y.U.U.",
"U.U.H.H.H.H.U.U.R.R..X=X=X8X=XR.R.P.gXhXhXyX/.Y.Y.I.U.H.U.U. X(.wXrX-X-XR.`.  o.%.=.3.1.=.=.=.=.%.#.=.=.=.=.=.=.=.=.=.=.%.$.#.[ ` ` T ! ! ~ H H H H H H H n n H H H n n L T ! T T ) ) ] ] %.%.%.=.=.=.=.=.=.=.=.=.:.#.=.=.-.&.=.=.=.=.$.  e.R.@XOX/.Y.U.U.!./.yXrXrXbXY.R.Y.P.Y.W.uXhX6XuX/.R././.(.(.OX$XF.U.H.G.H.G.",
"U.U.H.H.H.H.U.U.R.R.8XqX9X^.!.Y.Y.Y./.I.gXgXmXU.R.Y.U.H.Y.Y.gXuXrXuXI.W.- $ d <.=.=.<.<.=.=.=.=.%.%.=.=.=.=.=.=.=.=.=.=.=.$.#.#._ ] R R ! ! P P H H H H H H H H P H H J H R R T R ` _ [ [ %.%.=.=.=.=.=.=.=.=.=.=.=.%.=.=.-.-.=.=.=.=.=...# $ $X+X+X#XU.T.R.I.9X6XZ.W.R.U.H.U.Y.Y.R.U.tXaXuX9XR./.(.(.U.U.H.H.H.G.G.G.",
"OXOXR.R.U.U.(. X8X9X=X@XU.U.U.H.G.G.U.U.U.~.9XgX<XC.U.T.2X2X2XrXR.R.U.U.  . P >.%.=.<.<.=.=.=.=.=.=.=.=.=.=.=.=.=.=.=.=.=.=.=.=.=.%.%.#.] ] ( ! T T T T T T T T T T ! R R ` ] #.#.=.=.=.=.=.=.=.=.=.=.=.=.=.=.=.=.=.=.=.=.=.-.=.=.=.=.=.I @   P.Y.OX.X=X-XqX6X+X@XR.Y.U.H.G.G.G.G.U.U.(.I.9X9X-X+XU.U.H.H.H.G.G.G.G.G.",
"+X+X9X2XtXtXyX9X9X9XU.U.Y.U.H.H.G.G.H.H.U.Y.Y.lXzXlXMXFXkXlXP.U.Y.P.U.H.  . _ %.=.=.>.>.=.=.=.=.%.#.=.=.=.=.=.=.=.-.&.:.;.-.=.=.=.=.%.%.[ { ( ( T T T T T T R R R R R R R ] ] %.%.=.=.=.=.=.=.=.=.=.=.=.=.=.=.=.=.&.=.=.=.=.=.=.=.=.=.%.( @   D.H.U.Y.uXyX9X9XR.U.R.U.H.H.G.G.G.G.H.U.U.U.I.I.tXgX#X XU.U.H.H.H.H.H.H.",
"U.U..X.X8X8X+XOXY.Y.U.U.U.G.G.G.G.G.G.G.H.H.Y.R.W.#XgXhX(..XU.U.U.U.H.H.  . #.%.=.=.=.=.=.=.=.%.] ] =.=.=.=.=.=.>.0.0.0.3.4.=.=.=.=.=.=.=.=.%.%.] ] ] ] ] ] ] ] ] ] ] [ #.=.=.=.=.=.=.=.=.=.=.=.=.=.=.=.=.=.=.=.=.G =.=.=.=.=.=.=.=.=.=.] @   D.H.Y.Y.!./.R.R.Y.U.H.H.G.G.G.G.G.G.G.G.U.U.Y.Y..X.X+X~.R.R.Y.U.U.U.H.H.",
"H.H.U.U.U.U.Y.U.Y.Y.H.H.H.H.H.H.H.G.H.H.U.U.U.U.U.U.T.Y.].(./.(.U.U.H.H.  . #.%.=.=.=.=.=.=.=.=.G G =.=.=.-.<.<.3.0.0.9.8.3.=.=.=.=.=.=.=.=.%.%.#.#.#.#.#.#.#.#.#.#.#.%.%.=.=.=.=.=.=.=.=.=.=.=.=.=.=.=.=.=.=.=.=.v ] =.=.=.=.=.=.=.=.#.] +   D.H.H.H.U.P.R.R.H.H.G.G.G.G.G.G.G.G.G.G.H.G.U.U.Y.U.XXoXaXaXeXrX(.R.Y.U.",
"H.H.H.U.U.U.U.Y.R.Y.U.U.H.H.H.F.F.F.H.U.U.U.U.U.U.U.Y.U..X X(.(.U.U.H.D.  . { %.=.=.=.=.=.=.%.%.H H =.=.=.=.9.0.0.0.9.9.9.8.=.=.=.=.=.=.=.=.=.=.=.=.=.=.=.=.=.=.=.=.=.=.=.=.=.=.=.=.=.=.=.=.=.=.=.=.=.=.=.=.=.=.=.G } =.=.=.=.=.=.=.=.] ` &   N.H.H.H.U.U.R.R.R.R.H.H.G.H.G.G.G.G.G.G.G.G.H.U.Y.I.8X<XjXsXaXdXrX9XR.R.",
"H.H.H.H.H.H.G.G.H.H.U.U.U.Y.R.(.OXOX/.R.H.H.G.G.G.G.G.G.H.H.Y.Y.R.R.Y.R.  . ) ] =.=.=.=.=.=.%.%.c v =.=.=.=.9.0.0.0.9.0.8.=.=.=.=.=.=.=.=.=.=.=.=.=.=.=.=.=.=.=.=.=.=.=.=.=.=.=.=.=.=.=.=.=.=.=.=.=.=.=.=.=.=.=.=.v n =.=.=.=.=.=.=.=.` ~ &   Z.OXU.U.H.G.H.H.Y.Y.R./.R.Y.U.G.H.G.H.H.U.U.Y.U.,X%X9X9XR.Y.T.R.eXrX9X2X",
"/./.H.H.H.H.G.G.G.G.H.U.R.(. X.XF.F.R.R.R.U.U.G.G.G.G.H.G.G.H.H.T.U.8X9X  + ( ] =.=.=.=.=.=.%.[ c c =.=.=.=.0.0.0.9.0.0.8.=.=.=.=.=.=.=.=.=.=.=.=.=.=.=.=.=.=.=.=.=.=.=.=.=.=.=.=.=.=.=.=.=.=.=.=.=.=.=.=.=.=.=.=.n n %.%.=.=.=.=.%.%._ ! @   pX2X9X0XY.Y.U.H.H.H.U.Y. X.X.X(.(.R.Y.Y./.R.3X3XrXuXU.D.U.Y.Y.U.T.U.2X2X",
"/./..X.XU.U.G.G.G.G.H.U.Y.U.H.G.G.G.H.H.U.Y.Y.U.U.U.H.H.G.G.H.H.Q.C.9X1Xo . L { $.=.=.=.=.=.*.R v c =.=.=.=.0.0.0.0.3.%.%.=.=.=.=.=.=.=.=.=.=.=.=.=.=.=.=.=.=.=.=.=.=.=.=.=.=.=.=.=.=.=.=.=.=.=.=.=.=.=.=.=.=.=.=.v v ` &.=.=.=.=.[ ] ' P @   _.W.<X8XC.W.U.U.H.G.G.H.H.U.U./.(.(.R.D.W.A.9X9XR.^.Y.U.G.G.H.H.U.Y.P.P.",
"U.U..X.X.X.X(.(.Y.U.U.R.U.P.H.G.H.H.U.U.U.U.U.U.U.U.H.H.H.H.Y.U.uXgXgXgXo . J { #.[ =.=.=.%.&.H v n =.=.=.=.9.0.0.9.1.=.=.=.=.=.=.=.=.=.=.=.=.=.=.=.=.=.=.=.=.=.=.=.=.=.=.=.=.=.=.=.=.=.=.=.=.=.=.=.=.=.=.=.=.=.=.G G W &.%.=.%.%.] ] ( P @   I.U.9X9XuXtXR.Y.H.H.H.H.G.G.G.U.U.U.!._.8XuXI.I.U.U.H.H.G.G.G.H.U.U.U.U.",
"G.G.U.H.R.R..X(.Y.Y.Y.Y.Y.Y.U.U.H.H.R.R.R.U.H.H.U.U.G.G.U.U.9XrXwX3XU.J.  . v ' ] [ =.%.=.] { c { { =.=.=.=.9.0.9.9.1.=.=.=.=.=.=.=.=.=.=.=.=.=.=.=.=.=.=.=.=.=.=.=.=.=.=.=.=.=.=.=.=.=.=.=.=.=.=.=.=.=.=.=.=.=.=.{ } v { [ =.#.#.] ` ' v &   N.G.U.U.;XtXtXrXT.T.H.H.G.G.H.U.Y.C.-X4XQ.(.Y.Y.U.H.G.G.G.G.G.G.G.G.U.U.",
"G.G.G.H.U.U.R.R.9XyXlXMXMXyX8X^.Y.U.H.H.H.H.H.U.H.H.H.G.-X9XhXfXB.Y.H.G.t.d.+ K Y ] #.[ [ R ` v #.%.=.=.=.=.>.>.>.=.=.=.=.=.=.=.=.=.=.=.=.=.=.=.=.=.=.=.=.=.=.=.=.=.=.=.=.=.=.=.=.=.=.=.=.=.=.=.=.=.=.=.=.=.=.=.=.%.:.v ( ( [ [ ] ) T Q @ 5 t.P.H.H.H.P.I.hXhXvXbX/.R.H.U./.+XOX8X'.+XU.U.H.H.U.U.H.H.G.G.G.G.G.G.G.G.",
"G.G.H.H.U.U.T.R.rXtXLXNXmXdX3XP.R.R.H.G.H.H.G.H.G.H.U.U.9X3X3X9XY.U.G.H.H.[.  | T ] [ [ ] ! R v %.=.=.=.=.=.=.=.=.=.=.=.=.=.=.=.=.=.=.=.=.=.=.=.=.=.=.=.=.=.=.=.-.=.=.=.=.=.=.=.=.=.=.=.=.=.=.=.=.=.=.=.=.=.=.=.=.=.>.c ! ! ] ] ] ! P P . r.H.H.H.H.H.U.U..XOXhXhX/.R.U.Y.(.+XOX/.U.U.H.H.G.G.U.U.U.H.H.G.G.G.G.G.G.G.",
"H.H.Y.Y.!.!.tXeX9XyXR.Y.F.uXMXkXW.W.U.R.U.U.U.U.U.H./..XsXkXI.U.G.G.H.J.-X9X   .H T ( ` R v c E %.=.=.=.=.=.=.=.=.=.=.=.=.=.=.=.=.=.=.=.=.=.=.=.=.=.=.=.=.=.=.=.=.=.=.=.=.=.=.=.=.=.=.=.=.=.=.=.=.=.=.=.=.=.=.=.=.=.&.R x v ] ! ! P L H   r.uXW./.H.H.G.G.U.U.yXuXvXbXR.R.Y.H.H.H.U.H.H.H.U.U./.!.9X2X/.R.U.H.G.G.G.G.",
"U.U.U.U.-X=XgXtXY.Y.U.U.U.T.=XrXuXrXR./.Y.Y.U.U.U.H..X.XdXuXR.Y.G.G.H.H.4XgXo d  .m ( ) T c a ] =.=.=.=.=.=.=.=.=.=.=.=.=.=.=.=.=.=.=.=.=.=.=.=.=.=.=.=.=.=.=.=.=.=.=.=.=.=.=.=.=.=.=.=.=.=.=.=.=.=.=.=.=.=.=.=.=.=.%.' a x R ! ! H K >   r.-X!.E.G.H.G.G.H.U.(.Q.hXNXY.U.U.U.H.G.G.G.G.H.Y.T..X(.2X2XOX~.U.U.G.G.G.G.",
"OXOXrXqX<X3XU.U.U.U.H.S.H.U.U.I.9XyXtXtX=X+X/.H.H./.bXdXwXrXU.H.G.G.&X+X1XaXH.o . ..' ' m J P ] #.#.=.=.=.=.=.=.=.=.=.=.=.=.=.=.=.=.=.=.=.=.=.=.=.=.=.=.=.=.=.=.=.=.=.=.=.=.=.=.=.=.=.=.=.=.=.=.=.=.=.=.=.=.=.=.=.#.[ ] H H x Q T ^ .   H.H.K.6XtXOXH.G.G.G.G.Y.I.7XFXvXL.H.U.U.H.H.H.U.Y..X.XOX@XD.D.=X&X].].U.H.G.G.",
"=X&X2X9XR.R.Y.Y.U.U.G.G.G.U.U.U.R.R.~.oX-XOX(.H.H./.uXtX8X-XG.G.G.G.;X<XtXuXG.A.  . H G x T R [ [ [ =.=.=.=.=.=.=.=.=.=.=.=.=.=.=.=.=.=.=.=.=.=.=.=.=.=.=.=.=.=.=.=.=.=.=.=.=.=.=.=.=.=.=.=.=.=.=.=.=.=.=.=.=.=.=.[ ] { T T a U H O   g.H.H.H.wXrX=XU.G.G.G.G.U.U.9XBXtXL.H.U.U.U.H.H.(.!..X.XU.U.U.U.U.Y.&X#XU.U.U.H.",
"/./.U.U.Y.U.U.U.G.G.G.G.G.G.G.G.U.H.U.Y.Y.U.H.H.D.dX3X-X/.Y.G.G.H.F.7XdX(.R.S.D.L.f.O . n ' ` [ [ [ =.=.=.=.=.=.=.=.=.=.=.=.=.=.=.=.=.=.=.=.=.=.=.=.=.=.=.=.=.=.=.=.=.=.=.=.=.=.=.=.=.=.=.=.=.=.=.=.=.=.=.=.=.[ [ [ [ ] ( ) n + O m.m.<X-XN.G.U.U.3X9XH.G.G.G.H.G.(.BXtXN.H.H.H.U./.(.(. XG.H.H.H.H.H.H.H.R./.+XOXU.U.",
"U.U.Y.Y.U.Y.U.U.G.G.G.G.G.G.G.H.H.H.Y.U.Y.U.H.G.S.gXwX&XR.^.G.G.H.F.hXtXR.^.G.U.L.u.  . L ` ` [ [ [ =.=.=.=.=.=.=.=.=.=.=.=.=.=.=.=.=.=.=.=.=.=.=.=.=.=.=.=.=.=.=.=.=.=.=.=.=.=.=.=.=.=.=.=.=.=.=.=.=.=.=.=.=.[ [ [ ] ] ( ` H . o k.c.hX&XS.G.Y.T.wX1XG.H.G.G.H.H.R.bXgXB.G.U.U.U././.Y.U.H.H.G.H.G.G.H.H.U.U.+X@X@XOX",
"H.H.H.H.G.G.H.H.U.H.G.G.H.U.U.U.U.U.U.U.H.H.G.G.G.yXmXhXU.H.G.G./.3XgXgXG.S.^.^.c.j.  . ~ T R [ [ [ [ [ =.=.=.=.=.=.=.=.=.=.=.=.=.=.=.=.=.=.=.=.=.=.=.=.=.=.=.=.=.=.=.=.=.=.=.=.=.=.=.=.=.=.=.=.=.=.=.=.=.[ [ [ [ ] ] ` ! ! P .   j.z.K.3XtX2XH.H.-X#X+XU.H.H.U.H.gXPX$XS.G.H.U.Y.U.U.G.G.G.G.G.G.G.G.G.G.H.H.U.U.@XOX",
"G.G.G.G.G.G.H.H.H.H.H.H.H.Y.U.U.U.U.U.H.H.H.G.G.G.+XNXhX-X-XG.H.!.'.uXgXM.F.J.J.c.z.o X m ! ~ ] [ [ [ [ =.=.=.=.=.=.=.=.=.=.=.=.=.=.=.=.=.=.=.=.=.=.=.=.=.=.=.=.=.=.=.=.=.=.=.=.=.=.=.=.=.=.=.=.=.=.=.=.=.[ [ [ [ { ` ) P P L .   h.j.l.tXaX1XS.G.+X&X+XU.G.G.P.I.MXKXoXH.G.H.U.U.U.H.G.G.G.G.G.G.G.G.G.G.H.H.Y.U.(. X",
"G.G.G.G.G.G.G.G.H.H.Y.Y.U./.:XrXtXwXR.R.U.U.G.G.G.Y.kXhX:X&XG.G.G.J.rXtX2XyXG.G.z.z.o   H ( ~ ! ] ] [ [ ] [ =.=.=.=.=.=.=.=.=.=.=.=.=.=.=.=.=.=.=.=.=.=.=.=.=.=.=.=.=.=.=.=.=.=.=.=.=.=.=.=.=.=.=.=.=.#.#.] [ [ [ ] ] ! P I I .   z.j.b.G.NXkXD.Y.OXOXY.H.H.H.-X2XyXBXY.G.G.H.H.H.H.H.U.U.H.H.R.U.R.R.Y.Y.U.U.U.U.G.G.",
"H.H.H.H.G.G.G.G.U.U.R./.`.2XgXeXtXaXeXyXF.U.H.G.G.H.+X+XgXtXH.G.G.G.].*XmXfX+X[.b.n.p.h.   .m ~ ) ' [ [ [ [ [ [ #.=.=.=.=.=.=.=.=.=.=.=.=.=.=.=.=.=.=.=.=.=.=.=.=.=.=.=.=.=.=.=.=.=.=.=.=.=.=.=.=.#.#.[ ] ] ] ] ] R ! P L G   m.s.n.c.v.OXlXhX_.+XH.G.H.H.Y.U.gXgX-X&XG.G.G.G.H.H.H.H.U.U.U.H.R.R.`.Q.Q.Q.R.R.U.H.H.H.",
"U.H.H.H.H.H.H.H.U.U..X+X<X2X#X/.U.U.;X2X=X(.U.G.G.G.@X+XiXaXU.H.G.G.R.!.sXzX,X`.c.n.h.f.. ..m ) ( ( [ { [ [ [ [ [ =.=.=.=.=.=.=.=.=.=.=.=.=.=.=.=.=.=.=.=.=.=.=.=.=.=.=.=.=.=.=.=.=.=.=.=.=.=.=.%.[ [ ] ] ] ] ] ] ! ! T L L . f.s.j.c.N.&XSXzX{.@XH.H.H.H.U.Y.sXsXP.Y.H.G.G.G.G.G.G.H.H.H.U.U.R.R.uXuXqXrXU.Y.U.Y.H.H.",
"OXOXR.Y.U.Y.U.U.R.Y.=X-X-XU.Y.Y.U.U.U.I.=X&XOXH.H.G.U.U.qX3XOX#XG.G.G.G.2X4XkXfXP.R.n.n.a.$ O H T T R ! [ ] [ [ [ [ [ [ %.=.=.=.=.=.=.=.=.=.=.=.=.=.=.=.=.=.=.=.=.=.=.=.=.=.=.=.=.=.=.=.=.&.] ] ] ] [ [ [ ] ] T T T T H O o u.j.z.G.G.fXgX*X*XG.H.H.G.H.H.-X-XdXtXU.U.H.H.H.G.G.G.H.H.Y.U.R.R.tXpXgXgXuXgX6X9XU.U.U.U.",
"=X=XrX0XU.U.U.Y.+X@X=X=XU.Y.U.U.U.U.U.U.+X#X+XR.P.G.H.H.dXgXuXtXS.G.G.G.&X=XMXJX7XtXl.k.s.- $  .o.' T ! { { [ ] [ [ ] [ &.=.=.=.=.=.=.=.=.=.=.=.=.=.=.=.=.=.=.=.=.=.=.=.=.=.=.=.=.=.=.-.=.&.[ ] ] ] ] { ] ] ` ! T ' o.| $ - s.z.j.{.{.SXGX%X=XH.G.G.H.U.U.rXeXlXkXY.U.D.D.U.H.H.H.H.H.Y.U.;X#XyXeXR.R.R.Y.rXyXgXyXU.U.",
" X XdXdXbXgX9X9X(..XH.U.U.H.G.G.G.G.H.H.U.U.P.(./.U.H.G.;X&XdXgX X(.G.G.G.G.;X%XlXkX].[.n.p.a.y.r.b T R ~ R { ] { [ [ ] [ [ [ [ [ ] &.=.=.=.=.=.=.=.=.=.=.=.=.=.=.=.=.=.=.=.=.%.%.] [ ] ] ] { ] ] ] ] ` ` T T T T x t.y.s.h.c.^.Y.zXhXpXqXS.H.G.G.H.H././.kXkX*X-XY.U.+X9X8XI.Y.Y.R.P.!.R.rXrXR.!.P.U.U.Y.R.Y.eXrX-X-X",
"U.U.Y.T.aXeXrX9XU.U.H.H.H.G.G.G.G.G.G.G.H.H.U.P.Y./.U.U.F.D.gXgXmXHXJ.G.G.G.S.M.kXlXsXAXOX^.b.k.s.f.t.t.T T T Y R ( ` ] [ [ [ [ [ [ [ [ [ [ [ [ [ [ [ [ [ [ [ [ [ [ [ [ [ [ [ [ [ [ [ [ [ [ ] ` ` R R P Y T P t.t.y.x.z.b.b.K.BXAXsXMXF.S.G.G.H.H.Y.U.BXHXHXmXU.F.H.H.R.Z.6XbXvXW.T.I.2X9XB.Z.P.U.H.H.G.U.U.U.U.Y.-X-X",
"H.H.U.U.T.U.(./.OXOXU.U.G.G.G.G.G.G.G.G.G.G.G.H.U.U.U.U.U.U.=X=XgXgXY.U.H.H.G.G.OX`.hXzXgX9Xb.c.h.a.i.y.~ T T T R ! _ ] [ [ [ [ [ [ ] ] ] [ [ ] ] ] ] ] ] ] ] ] [ [ [ ] ] ] [ ] ] ] [ [ ] [ ] ` ` ! ! P T Y T i.y.p.h.z.v.v.[.sXkX<X2XH.G.H.G.U.U./.(.SXhX-X2XH.U.G.G.U.U.R.uXuXbXdXzXOXOXT.Y.U.U.G.G.G.G.U.U.U.U.R.R.",
"G.G.U.U.Y.Y.R.Y.+X+X(./.U.H.G.G.G.G.G.G.G.G.G.G.G.G.H.H.H.H.U.Y.rXtXhXjXI.F.H.G.G.H.pXtXaXsX7X6XS.b.j.h.p.u.i.K T T ! ! ! R ] ] ` ] ] ] ] ] ] ] ] ] ] ] ] ] ] ] ] ] ] ] [ ] ] ] ] ` ] ] ] R R T T T R H i.u.u.k.p.c.b.G.[.MXAXpX6XU.H.G.G.G.H.Y.U.zXlXaXaXU.U.H.H.G.G.H.U.Y.!.W.BXaXkX#X@XU.U.G.G.G.G.G.G.G.G.U.U.U.U.",
"G.G.G.G.H.U.U.U.U.U. X/.Y.U.H.H.H.H.U.U.Y.Y.Y.H.H.H.G.G.G.H.Y.U.+X4XdXhX7XtXF.G.G.G./.R.fXkXkXlXc.l.c.l.h.p.p.7.6.6.6.T R ~ R R ! ~ { ] ] ] ] ] ] ] ] ] ] ] ] ] ] [ [ ] [ ] ] ] ` ! ! T ! T T ^ 6.6.6.6.u.u.p.j.j.l.b.B.lXFXkX5X7XU.J.G.G.OX+XkXaXlXkX+X&XU.U.G.G.G.G.H.H.T.R.R.R.R.E.#X+XR.P.H.G.G.G.G.G.G.G.G.G.H.H.",
"G.G.G.G.H.H.U.U.U.U.U.U.R.R.R.Y.H.H.R.U.Y.Y.Y.U.H.G.G.G.G.G.H.H.U.U.yXtXkXzX(.OXH.G.G.G.U.R.zXjXkXlXJ.).c.c.c.u.u.u.i.W Q ! ~ W W ! R R T T R T R T T R T R T T T T T T T R R T T R ! W W Q Q  .i.u.u.p.c.c.c.L.L.kXdXFXfXlXdXR.J.G.D.G.H.@X#XlXkX'.OXU.U.G.G.G.G.G.G.H.U.U.R.R.Y.Y.R.(.(..X(.U.U.G.G.G.G.G.G.G.G.G.G.",
"G.G.G.G.G.G.H.H.U.U.(.(.(.R.Y.Y.R.R.(.A.kXmX9X/.R.Y.U.U.G.G.H.G.H.H.R.^.DXkXbXhX&X&XG.G.D.D./.^.KXHXlXlX6X3Xc.v.n.z.h.p.p.p.u.u.D Y ! R R R R ! T T T R R R R R R R T T T R T R R K u.u.u.u.u.f.x.j.n.b.b.8X2XzXkXGXGXKXmX^./.Y.U.G.G.(. XxXuXMXFXR.U.H.G.G.G.G.H.U.U.R.Y.U.G.G.G.G.H.U.U.(.(.(./.H.H.H.G.G.G.G.G.G.G.",
"G.G.G.G.G.G.G.H.U.U.(.(.(.R.R.U.R.R.-XwXhXmXgX,X(.Y.U.U.G.H.G.G.H.H.U.U.OX+XlXkX4X%XS.K.H.D.G.H.+X&XlXkXpX5Xl.l.B.j.k.h.h.h.p.u.D E W E W W W E E E E W E E W E E E E E E E E W W | p.p.p.p.p.j.j.l.l.l.l.1X7XkXgXkXlX.X/.H.U.G.G.G.G.OX~.wXaXR.R.F.H.G.G.G.G.H.H.U.U.Y.U.H.G.G.G.G.H.H.U.U.H.(. XR.R.H.H.G.G.G.G.G.G.",
"G.G.G.G.G.G.G.G.G.G.H.H.H.Y.R.Y.9XrX+X$XM.I.M.-XuX9XR.(.R.Y.Y.Y.H.H.G.G.U.U./.~.hXgXtXhX#X+XG.G.G.S.~.!.aXaXDXAXHX2X-XH.S.G.c.j.h.x.h.h.h.x.x.x.x.h.h.h.x.x.h.h.h.h.h.h.h.h.h.h.h.h.z.c.c.b.b.D.H.2X3XlXSXfXjX[.Q.G.H.H.G.G.G.G.G.#XOXaXhXM.W.T.H.R.R.Y.Y.H.U.U.U.U.H.G.G.G.G.G.G.G.G.G.G.G.G.G.G.U.U.Y.Y.H.H.H.G.H.H.",
"G.G.G.G.G.G.G.G.G.G.H.H.H.Y.Y.I.rX1X+XOXY.Y.Y.#XuXtXeXeXY.Y.R.R.H.G.G.G.H.H.R.^.hXMXzXsXdXtX(.(.S.H.Y.U.kXlXKXlXJXAXKXKXgXvXS.G.b.b.z.z.j.j.j.z.z.j.h.h.h.h.h.h.h.h.h.j.j.c.c.c.c.c.v.S.K.rXrXFXKXkXkXSXlXAXkXR./.H.G.G.G.H.G.D.H.HXKXaXdXC.Y.G.H.R.R.R.R.U.U.U.U.H.H.G.G.G.G.G.G.G.G.G.G.G.G.G.G.H.H.U.U.H.H.H.H.U.U.",
"U.U.H.H.G.G.G.G.G.G.U.U.Y.R.2XuX9X2XU.U.U.U.U.U.U.U.9X3X3XrXT.Y.U.U.G.G.G.G.G.G.H.H.#X&X-X2X/.(.H.G.G.G.H.H.J.Y._.eXMXMXeXdXY.R.S.S.D.H.S.S.D.G.n.b.c.c.c.c.c.c.v.v.v.c.b.b.b.c.c.v.b.OX#XkXtXhXfX%X4XH.F.U.G.G.G.G.G.U.U.R./.aXuXgXhX[.R.H.D.G.H.U.H.OX.X2X4XT.T.U.U.H.H.G.G.G.G.G.G.G.G.G.G.G.G.H.H.U.U.U.U.Y.Y.R.R.",
"U.U.H.H.H.G.G.G.H.H.U.P.R.1X2X9XR.R.Y.U.U.H.H.Y.U.U.Y.U.gXuX-X-XU.U.H.H.G.G.G.G.H.H.U.U.U.U.U.U.G.G.G.G.G.G.H.U.!.uXHXJXJXMXkXkXFXJXFXlXdXhX=X=XH.H.c.c.c.c.c.c.v.v.G.OX+XtXrXlXlXMXlXFXHXAXGXKXFX=X=XH.H.G.G.G.G.G.H.H.U.gXhXJXDXgXtXY.U.G.G.G.G.H.H..X.XwX9XuXrXU.F.H.H.G.G.G.G.G.G.G.G.G.G.G.H.U.U.J.I.Z.C.Y.Y.U.U.",
"=X=XI.Y.R.U.U.U.R.R.~.oX3XQ.R.U.U.U.G.G.G.G.G.G.H.U.U.Y.T.Y.=X=X+X+XY.Y.G.G.G.G.G.G.U.U./..X`.!.F.F.U.U.G.G.G.H.G.H.H.Y.=X#XkXhXGXGXGXFXgXfX&X=X/./.U.U.U.U.H.H.U.U.U.+XOXrXtXlXMXlXmX3XwXOX(.U.H.G.H.G.H.H.H.P.H.Q.`.fXgXzXhX{.Q.U.H.H.G.H.G.G.H.R.R.U.U.R./.vXuX9XuXI.R.U.H.H.G.G.G.G.G.H.H.U.U.R.R.dXtXfXfX/.W.R.U.",
"=X>X2X-XW.I.U.U.W.W.9XyX9XW.R.Y.U.U.G.G.G.G.G.G.H.H.U.Y.U.Y.Y.U.OXOX.X.XR.R.H.H.G.G.H.U.(.(.1X8XdXhXC.M.G.S.H.G.G.G.G.H.H.G.H.G.H.H.U.U.U.Y.Y.U.U.Y.U.U.U.H.H.G.U.U.U.U.Y.U.Y.G.H.Y.Y.H.H.H.H.H.H.G.G.D.F.M.Z.*X&XdXgXHXMX2X-XP.R.H.U.G.H.H.H.Y.Y.R.R.U.U.R.R.R.T.vXbX2X2XI.H.U.H.G.G.G.G.H.H.I.P.rXrXBX~.B.A.9X3XT.Y.",
"U.U.-X-X9X3XvXdXrX3X`.].T.U.U.H.G.G.G.G.G.G.H.U.U.U.H.H.G.H.H.H.U.H.Y.U.Y.R.U.Y.H.G.G.G.H.Y.Y.R.HXNXkXgXoX;XY.U.H.H.G.G.G.G.H.H.H.H.U.U.Y.R.U.Y.U.U.H.H.H.H.H.H.H.H.H.H.H.U.U.H.H.H.U.U.H.H.H.H.H.U.U.OX#X9X9X,X2X'.Z.H.U.S.U.G.G.H.H.H.H.R.R.P.U.G.H.H.G.H.G.H.U.R.^.+X-X-XW.Y.R.Y.U.Y.U.R.R.9XyX9XrXY.Y.Y.U.'.oX=X=X",
"U.U.R.R.0XyXtXeXuXyX.X(.Y.U.U.H.G.G.G.G.G.G.H.U.U.U.H.H.H.G.H.H.H.H.H.H.U.U.Y.Y.H.H.G.G.G.H.U.Y.(./.NXNXzXkXKXKXLXH.H.H.H.G.H.H.G.D.H.H.Y.Y./.(.yXyXB.M.C.M.H.H.H.H.U.H.H.H.G.H.H.U.U.H.U.cXyX9X8XR.R.+X+XyXyX@XOXY.U.H.H.H.H.G.G.G.H.R.Y.R.R.U.H.G.G.G.G.H.G.H.H.U.U.Y.!.0X9X-X=XU.Y.U.Y.rXtX6X1X/.R.Y.Y.Y.U.Y.Y.>X>X",
"G.G.U.U.H.U.Y.R.R.Y..X.X(.(.R.Y.U.H.H.G.H.G.G.G.G.G.G.G.G.G.G.G.G.G.U.U.Y.Y.R.Y.U.U.U.H.G.G.G.H.U.P.U.Y.zXhXSXMXKXFXJXkXtXtX-X-X]..XR.U.H.H.(.(.rX9XlXhXlXJXJXGXAXMXhX-X=XOX].U.U.R.Y.+X+X-X-X-X-X(.(.U.H.U.Y.R.R.U.Y.H.H.G.G.H.H.U.Y.H.U.H.H.G.G.G.G.G.G.G.G.G.G.G.G.U.U.Y.>X-XyX8XwX2X3XrX5XU.T.P.U.H.H.G.G.U.U.U.U.",
"G.G.H.H.U.U.Y.Y.Y.Y.H.U.(. X(./..X.X=X&X@XU.H.H.H.G.G.G.G.G.G.G.H.H.R.R.9XtXPXPX(./.U.U.G.G.G.G.H.H.U.U.U.H.9X9XgXGXKXMXeXtX-X;X@XOXR.Y.H.H.R.R.+X$XmXzXFXGXKXGXSXFXsX%X-XOXOX/./.(..X#X@X(.(.U.U.U.U.U.U.Y.W.BXbX9X0XU.Y.H.G.U.Y.U.Y.H.H.G.G.G.G.G.G.G.G.G.G.G.G.G.G.H.U.R.R.Y.&X8XrX1XpXR.U.Y.Y.U.H.H.G.G.G.H.H.U.U.",
"G.G.G.G.H.H.G.G.G.G.G.H.H.G.Y.Y.(.(.@XOX@X!.R.H.H.G.G.G.G.G.U.U.R.U. X(.kXkXFXFX&X&XR.R.H.H.G.G.G.G.G.G.U.H.U.U.P.U.U.R.U.U.U.T.U.U././.R.Y.H.H.H.J.U.H.U.Y.T./.R.R./.R.Y.U.R.(././.R.H.H.H.H.U.H.U.U.U.Y.>X-X9X9X9X2X.XR.U.U.H.H.G.G.G.G.G.G.G.G.G.H.H.H.G.G.G.H.U.U.U.Y.H.U.U.U.U.U.Y.R.R.R.H.H.G.G.G.G.G.G.G.G.G.H.",
"G.G.G.G.G.H.H.H.H.G.G.G.G.H.H.U.G.S.H.H.D././.Y.U.H.G.H.H.H.Y.Y.~._.gXhXQ.W.Y.W.gXaX~.~.Y.Y.H.G.G.G.G.G.G.H.U.U.H.U.H.U.U.U.Y.U.H.U.R.Y.U.H.H.H.H.U.Y.U.U.Y.R.R.R.R.R.Y.Y.Y.Y.U.H.H.H.H.H.H.H.H.H.I.I.-X=X&X-XH.U.@X<X1X2XI.I.U.U.H.G.G.G.G.G.Y.Y.R.R.R.Y.J.H.H.U.R.R.U.U.H.U.H.U.U.U.Y.Y.Y.Y.H.H.G.G.G.G.G.G.G.G.G.G.",
"G.G.G.G.G.H.U.U.H.G.G.G.G.G.G.H.G.G.G.G.H.H.H.H.H.U.H.H.Y.Y.R./.tXhXdXgXR.Y.Y.U.OX*XtXdXR.R.U.U.H.H.G.G.G.G.G.G.G.G.G.G.G.G.U.U.U.U.U.U.U.U.G.H.Y.U.R.Y.U.H.H.G.H.H.H.U.U.H.G.G.G.G.G.G.G.H.H.U.Y.OX].-X-XU.U.U.U.U.U.2X9X<X-XP.Y.H.H.G.G.U.U.R.R..X.XXX.X/.R.U.U.H.H.G.G.G.G.G.G.G.G.G.G.H.H.U.U.H.H.G.G.G.G.G.G.G.G.",
"G.G.G.G.G.G.H.H.U.U.R.Y.Y.Y.H.H.G.G.G.G.G.G.G.G.H.U.U.Y.R.R.hXgXNXHX/.R.R.Y.Y.Y.Y.R.*XyX7XwXR.Y.P.H.G.G.G.G.G.G.G.G.G.G.H.U.Y.Y.C.V.M.B.Y.Y.H.H.H.H.H.H.H.H.H.H.H.G.G.H.H.G.H.H.H.U.U.U.U.Y.Y.R./.@X+XY.U.U.U.H.H.U.U.U.U.9X8X9X2XY.Y.U.P.Y.Y./.R.zXzXfXaXT.R.Y.U.H.H.G.G.G.G.G.G.G.G.G.G.G.G.G.H.H.H.U.U.H.H.G.G.G.G.",
"G.G.G.G.G.G.G.G.U.U.R.R.Y.Y.U.H.H.H.G.G.G.G.G.G.H.H.U.Y.9X0XuXdXR.R.H.U.H.H.H.H.U.U.R.T.yXtXyXyXY.Y.H.H.G.G.G.G.G.G.G.H.Y.Y.(.(.tXtXaXeXR./.Y.Y.G.G.G.G.G.G.G.H.G.G.G.G.G.U.U.R.Y.Y.R.Y.Y.Y.Y./.R.H.H.H.H.G.H.G.G.H.G.U.U.U.!.-X-X=X=XY.R./.R.gXaXzXkXdXhXgXuXU.U.H.U.G.G.G.G.G.G.G.G.G.G.G.G.G.G.G.G.U.U.U.H.H.G.G.G.",
"G.G.G.G.G.G.U.H.Y.Y.#X1XdXdX@X/.Y.Y.U.H.H.H.U.R././.4X-X%X2XU.U.U.Y.H.G.G.G.G.G.G.H.U.U.U.T.,X;X3X3XR.R.U.U.U.U.U.U.Y.Y.OX.XtXtX%X*X&X-XyXwX.X(.Y.U.H.H.G.G.G.G.H.H.U.Y.Y././.yXuXkXhX9X.XU.Y.U.U.G.G.G.G.G.G.G.G.G.G.G.G.H.H.U.Y.OXoX#X+X@X#X7XdXU.R.Y.!.4X1X9X8XR.Y.U.H.G.G.G.U././.R.R.U.U.G.G.G.G.U.U.R.R.R.Y.Y.R.",
"G.G.G.G.U.U.U.U.T.R.-X1XtXdXhXbXR.Y.H.U.H.Y./.OX-X-X8X-X#X=XY.U.U.U.G.G.G.G.G.G.G.G.H.H.U.U.OX+X3X-X&X&X(.(.U.U.U.U.R.R.uXuXtXjX^.Y.Y.R.wXwX8X2XU.Y.H.H.G.G.G.G.H.H.U.Y.Y.R.R.dXdXlXfXjXgXR.Y.H.U.G.G.G.G.G.G.G.G.G.G.G.G.H.H.U.U. X(.OX+XjXgX{.;XP.Y.Y.Y.#X=XqXtXT.R.H.U.G.U.U.R./.(././.U.U.G.G.H.G.Y.U.2X8X2X-XY.T.",
"G.G.G.G.H.H.R.Y.-X-X#X(.U.Y.tXrXwXtXT.U.R.R./.XX#X#XU.U.U.U.H.H.H.H.G.G.G.G.G.G.G.G.G.G.H.H.Y.U.P.U.&X&XOXOX.X(.(.R.!.`.yXrXU.U.U.Y.Y.U.U.U.<X<X9X~.I.R.R.U.H.U.U.U.Y.R.R.dXuX3X9XY.Y.BXhXrXtX/.T.R.R.U.U.G.G.G.G.G.G.G.G.G.G.U.U.Y.R.$X$XuXtXY.Y.H.U.U.U.U.Y.9X2XyXvXR.U.Y.U.Y.P.H.G.G.H.H.H.H.U.Y.R.2X2X2X8X2X>X-X-X",
"G.G.U.U.U.U.#X+X2X2XU.U.U.Y.OX$XrXtX~.OX^.R.R.R.U.H.H.H.U.U.G.G.H.H.U.H.H.H.G.G.G.G.G.G.G.G.H.H.U.U.U.U..XOXOX.X`.&XhX6X+X#XP.U.H.G.H.H.U.U.U.W.wX3XyXI.^.Y.U.U.U.R.Y.8XyXfXaX^.Y.Y.Y.R.R.eXdXtXdXR.T.U.U.H.G.G.G.G.G.G.G.H.U.R.R.~.~.gXgXF.Y.Y.Y.G.G.G.H.U.U.Y.P.eXhX2X`.R.U.U.H.G.G.G.G.H.H.Y.T.(.+X2X9XU.U.Y.R.-X-X",
"G.H.U.U.OXOX#X+XU.U.Y.U.Y.U.U.T.~.~.3X9XR.U.U.H.G.G.G.H.H.G.G.H.U.H.R.Y.Y.U.G.G.G.G.G.G.G.G.G.G.G.H.H.U.U.Y.Y.R.vXtXgXwXY.U.U.U.G.G.G.G.Y.Y.U.U.U.=X1X2X=XP.H.Y.R.R.uXtXyX(.R.Y.Y.Y.Y.R.R.R.R.rXrXdXrXU.Y.U.Y.H.H.G.G.G.G.U.H./.R.wXrXmXvXP.Y.G.G.G.G.G.G.G.H.U.U.Y.P.rXgX&XY.H.H.H.G.G.G.H.H.Y.U.-X-XY.U.U.U.U.U.R.R.",
"U.U.@X+X+XoXU.U.H.H.H.H.G.G.U.H.U.U.yXrX9X&XR.T.U.H.H.H.U.U.Y.Y.R.R.H.H.U.U.H.H.G.G.G.G.G.G.G.G.H.H.R.!.R.R.8XrXLXdXW.R.U.U.G.G.G.G.G.G.G.H.H.H.U.R.W.8XyX8XwX9X3XqX3X~.Y.U.U.G.G.G.G.H.H.U.U.Y.V.gXgX9X9XY.I.U.U.U.U.Y.U./.!.1XwXdXwXU.Y.H.H.G.G.G.G.G.G.G.G.H.H.U.U.U.(.2X-X+X!.R.U.U.U.R.R.4X%X(..XR.H.H.H.G.G.U.U.",
"@X@X$X+X!.Y.U.U.G.G.G.G.G.G.H.H.U.U.T.V.rXtX2XY.Y.H.G.H.U.U.Y.Y.Y.Y.G.G.H.H.H.H.H.H.G.G.G.G.H.H.Y.U.oX=X7XrXjXrX'./.R.R.H.H.G.G.G.G.G.G.G.G.G.G.U.Y.U.R.#X9X7X1XtXrXQ.Y.Y.U.Y.H.G.G.G.G.H.Y.Y.R.T.(.@XrX6XyXuXR.R.U.U.Y.D.yXuXeX9X XR.U.U.G.G.G.G.G.G.G.G.G.G.G.G.Y.U.Y.Y.Y.+XOX$XW.C.#X#X-X-X-X-XU.U.U.H.G.G.G.G.H.U.",
"+X+XI.U.U.U.H.G.G.G.G.G.G.G.G.G.H.H.U.R.Y.=X3X4X8X=X/./.U.Y.H.H.G.G.G.G.G.G.G.G.G.G.H.H.H.H.U.U.~.!.8X2XaXwX9X.X/.U.U.U.Y.Y.U.U.H.H.G.G.G.G.G.G.H.H.U.Y.Y.Y././.U.Y.Y.U.H.G.G.G.G.G.G.G.G.G.G.U.U.U.U.(.(.wXtX2X-XoX&X=XtX5X8X/.R.U.U.H.H.U.U.H.U.G.G.G.G.G.G.G.G.G.G.U.H.U.R./.&X+X&X&XoX;X-XU.U.H.H.G.G.G.G.G.G.G.G.",
"R.R.U.U.U.U.G.G.G.G.G.G.G.G.G.G.G.G.U.U.Y.Y.R.9X9X2XoX#XY.U.H.H.H.G.G.G.G.G.G.G.G.G.H.H.U.H.U.U.>X>X8X=XP.U.T.U.Y.U.U.U.Y.R.U.H.H.H.G.G.G.G.G.G.H.H.U.Y.!.@X]..XY.Y.U.U.H.G.G.G.G.G.G.G.G.G.G.G.G.Y.Y.R.R.'.`.0X8XyXyXrXtXN.U.U.Y.U.U.G.G.U.U.U.U.G.G.G.G.G.G.G.G.G.H.U.U.U.@X#X-X#X:XW.I.U.H.Y.U.H.G.G.G.G.G.G.G.G.G.",
"H.H.H.U.G.G.G.G.G.G.G.G.G.G.G.G.G.G.G.G.G.H.H.U.U.Y.#X@X(.(.(.(.U.U.H.H.U.U.H.U.H.H.U.U.!./.+XoX-X-XP.U.U.U.U.H.H.G.G.G.H.G.U.U.U.H.H.G.G.G.G.G.H.R..XOX&X@XOX.X(.(.R.H.G.G.G.G.G.G.G.G.G.G.G.G.G.H.G.U.H.U.U..X(.vXuX+X/.Y.Y.H.H.G.G.G.G.G.G.U.U.Y.Y.U.U.H.H.G.G.H.H.(.+X+X#X+X(.R.Y.U.U.U.U.H.H.G.G.G.G.G.G.G.G.G.G.",
"G.G.G.H.G.G.G.G.G.H.G.H.H.G.G.G.G.G.G.G.G.G.G.U.U.H.U.H. X X(././. XU.U.P.P.U.U.H.H.Y.Y.OX+X+X+XU.U.U.U.H.H.H.H.G.G.G.G.U.H.I.U.U.U.H.H.G.G.G.H.Y./.@XOX(.U.H.D. X(.(.U.S.G.G.G.G.G.G.G.G.G.G.H.G.G.H.H.U.U.Y./.!.(./.(..X X/.G.H.G.G.G.G.G.G.G.G.Y.Y.U.U.H.H.H.H.Y.Y.(.#X@XP.U.U.U.U.U.U.H.H.H.G.G.G.G.G.G.G.G.G.G.G.",
"G.G.G.G.G.G.G.G.H.H.U.I.#X+XU.U.H.H.G.G.G.G.G.G.G.G.G.H.H.H.U.U./.R.=X-XrXrXrXrXR.R.(.(.R./.H.H.U.H.G.G.G.G.G.G.G.H.H.U.+XOX&X#X&X#XY.R.U.H.H.H.Y.Y.H.H.H.G.H.H.U.U././.!.R.R.H.H.H.H.H.H.G.H.H.H.U.H.(./..XXX(.(.U.U.U.U. X.X.X.XU.H.G.G.G.G.G.G.G.G.H.H.Y.R.(. X.X.XR.U.H.H.H.G.G.G.G.G.G.G.G.G.G.G.H.H.H.G.G.G.G.G.",
"G.G.G.G.G.G.G.G.U.U.=X-X-X&X&X&XH.H.H.H.G.G.G.G.G.G.G.G.H.H.U.U.=X#X0X3XnXBXhXgX9X9XY.U.U.H.H.G.G.G.G.G.G.G.G.G.H.U.R..X+X#X=X=X>X:X+X+XU.D.H.U.H.H.G.G.G.G.G.G.H.H.H.U.Y.R.R.U.U.U.H.H.H.U.H.H.H.R.R.(.(..X.XU.U.H.G.U.U.U.U.@X.X.X(.F.H.G.G.G.G.H.H.H.H.Y.Y.(..XY.R.U.U.U.H.H.G.G.G.G.G.G.G.G.G.G.H.H.D.(.XX!.R.G.H.",
"G.H.H.H.H.H.U.U.+XOX&X=XoX+X+X+X!.Y.H.U.H.G.G.G.G.G.H.G.F.U..X.X#X&XR.Y.U.Y.R.W.8X9XU.Y.H.H.G.G.G.G.G.G.G.G.H.H.U.Y.Y.R.U.U.H.U.U.U.+X+XOX.XU.U.H.G.G.G.G.G.G.G.G.G.G.H.H.U.U.R.R.2X2X;X-XU.U.Y.U.Y.Y.U.U.H.H.G.H.G.G.G.G.H.H.U.U././.!.(.(.(.!.R.U.U.U.U.U.U.H.H.H.H.U.U.Y.P.H.U.U.H.G.H.G.G.G.G.H.U.(.!..X.X!./.Y.Y.",
"Y.R.U.U.U.U.+X+XOX+XU.U.U.U.Y.Y.+X+X.X.XU.U.H.H.H.H.U.U.@X@X+X&XP.U.U.U.U.U.U.U.U.I.2X8XR.Y.H.H.G.G.G.G.G.G.H.H.U.U.U.G.G.G.G.H.H.H.U.H.OX+X#X+XY.U.H.H.H.H.G.G.H.G.H.U.Y././.3X1XrXyXyX8X=X#XY.Y.H.U.H.G.G.G.G.G.G.G.G.G.G.G.H.H.H.H.U.R.(.(.(./.Y.Y.H.H.H.H.H.H.U.U.R.OXrXfX5XgX/.U.U.U.H.H.Y.Y.R./.R.R.H.H.H.S.Y.Y.",
"/./..X.X+X+X+X$XY.Y.H.U.U.U.U.U././.+XoXOXH.H.H.H.U.+X@X#X+X(.^.Y.U.H.H.H.H.U.U.R.Y.2X8X9X9XU.U.H.H.H.H.H.H.H.H.H.G.G.G.G.G.G.G.G.H.U.H.Y.R.$X@XOXXXI.U.H.G.G.G.H.G.H.Y.R.9X9X2X-XY.R.Y.U.+X&X=X=XU.H.G.G.G.G.G.G.G.G.G.G.G.G.G.H.H.H.H.H.H.U.H.H.U.U.G.H.H.G.G.H.U.U.-XyXwXtX6XtX=X8XP.U.H.H.Y.Y.U.U.H.G.G.G.G.G.H.H.",
"U.U.OXOX+X@XU.U.H.H.G.G.G.G.G.G.U.U.W.W.#XOX.X/..XOX$X+X^.!.U.U.H.H.G.G.G.G.G.G.U.U.U.U.-X-X=X=XY.Y.U.H.U.U.U.H.U.H.H.G.G.G.G.G.G.G.G.H.U.H.Y.U.$X@X.X(.R.U.U.U.U.Y.U.8XrXeX9XU.U.Y.U.U.U.U.Y.@X#X+XOXU.U.H.H.G.G.G.G.G.G.G.G.G.G.G.G.H.H.U.U.H.H.H.H.H.H.H.H.Y.Y.&X#X4X8XU.U.U.D.+X-X#X+XY.Y.H.H.G.G.G.G.G.G.G.G.G.G.",
"U.U.R.R.H.U.U.U.H.H.G.G.G.G.G.G.H.H.P.P.Y.!.OX+X@X+XR.Y.U.U.H.U.H.H.G.G.G.G.G.G.H.H.U.U.R.R.&X&X&X+XU.U.OXOX&X+XOXH.H.H.G.G.G.G.G.G.G.G.U.U.U.U.R..X$X.XOX.XI.H.D.F.2X2X9X!./.U.U.G.G.G.H.U.U.Y.Y.+X+X#X+XU.U.G.G.G.G.G.G.G.G.G.G.G.G.H.H.I.F.S.D.H.G.H.H.H.U./.^.=X8XU.Y.P.U.U.U.R.!.oX+X+X@XU.H.G.G.G.G.G.G.G.G.G.G.",
"H.H.H.H.H.H.G.G.G.G.G.G.G.G.G.G.G.G.G.G.H.H.U.I.I.Y.Y.Y.H.H.H.H.G.G.G.G.G.G.G.G.G.G.G.G.H.H.U.U.OX+XOX+X$X$X+XOXOX(.R.U.H.H.G.G.G.G.G.G.G.G.G.G.H.H.U.Y.Y..X+XOX;X-X2XW.U.U.U.H.H.G.G.G.G.G.H.H.H.U.Y..X.XOXOXU.H.H.H.G.G.G.G.G.G.U.U.!./.&X@XOX+X/.R.U.U.(. XOXOX/.^.U.U.G.G.G.H.H.H.U.I.+X@X(..XH.H.G.G.G.G.G.G.G.G.",
"G.G.H.H.H.H.G.G.G.G.G.G.G.G.G.G.G.G.G.G.H.H.U.U.U.U.Y.Y.U.H.G.H.G.G.G.G.G.G.G.G.G.G.G.G.H.H.U.U.R.R.].XX^.R.H.U.Y./.(.Y.G.G.G.G.G.G.G.G.G.G.G.G.H.H.U.U.Y./.OX@X-X8XW.Y.Y.U.U.H.G.G.G.G.G.G.H.H.H.U.U./.(.(.OX(./.H.H.G.G.G.G.H.H.U.H.+XOX=X#X+X+XXX(.Y.R./..X+X@XY.Y.U.U.G.G.G.H.H.U.U.Y./. XOX.XU.U.G.G.G.G.H.G.G.G.",
"G.G.G.G.G.G.H.H.G.G.G.G.G.G.G.G.G.G.G.G.G.G.G.G.G.G.H.H.U.U.U.U.H.H.G.G.G.G.G.G.G.G.G.G.G.G.H.H.U.U.H.G.H.H.G.G.G.H.U.Y.R.Y.U.U.H.H.H.H.G.G.G.G.G.G.H.H.H.H.H.D.H.H.H.H.G.H.H.G.G.G.G.G.G.G.G.G.G.G.G.G.H.H.G.Y.Y.R.R.U.U.H.H.U.U././.H.U.H.H.H.H.U.U././.U.U.H.U.H.H.G.G.G.G.G.G.G.G.G.G.H.H.H.H.R.R.R.R.U.U.H.G.G.G.",
"G.G.G.G.G.G.G.G.G.G.G.G.G.G.G.G.G.G.G.G.G.G.G.G.G.G.G.G.H.H.U.H.H.H.G.G.G.G.G.G.G.G.G.G.G.G.G.G.H.H.H.G.G.G.G.G.G.H.H.U.U.Y.H.H.H.G.H.G.G.G.G.G.G.G.G.H.G.H.G.G.G.G.G.G.G.G.G.G.G.G.G.G.G.G.G.G.G.G.G.G.G.G.G.U.U.R.R.U.U.G.G.U.U././.H.H.G.H.G.G.H.H././.Y.U.G.H.G.G.G.G.G.G.G.G.G.G.G.G.G.G.H.G.R.R.R.R.U.U.H.H.G.G."
};
