/* XPM */
static const char *normal_floor_19[] = {
/* columns rows colors chars-per-pixel */
"19 19 213 2 ",
"   c #1EB8EE",
".  c #0FB3FB",
"X  c #0DB4FB",
"o  c #0DB0FD",
"O  c #0CB2FC",
"+  c #0DB3FD",
"@  c #0FB2FD",
"#  c #0CB2FE",
"$  c #0FB2FF",
"%  c #0BB6FE",
"&  c #0CB4FD",
"*  c #0EB5FC",
"=  c #0EB7FC",
"-  c #0FB6FD",
";  c #0DB5FE",
":  c #0CB4FF",
">  c #0EB4FE",
",  c #0EB4FF",
"<  c #1DBCF6",
"1  c #11B3FB",
"2  c #10B5F9",
"3  c #13B6F9",
"4  c #10B4FB",
"5  c #11B6FA",
"6  c #14B5FB",
"7  c #14B7FA",
"8  c #11B3FC",
"9  c #10B3FE",
"0  c #10B4FC",
"q  c #11B5FC",
"w  c #11B5FD",
"e  c #12B4FC",
"r  c #12B4FD",
"t  c #13B5FD",
"y  c #12B6FD",
"u  c #11B4FF",
"i  c #13B5FF",
"p  c #12B6FE",
"a  c #13B7FE",
"s  c #13B7FF",
"d  c #14B5FD",
"f  c #15B6FC",
"g  c #16B7FD",
"h  c #14B6FE",
"j  c #14B6FF",
"k  c #15B7FF",
"l  c #12BAFB",
"z  c #14B9FB",
"x  c #17BBFA",
"c  c #17BAFB",
"v  c #17BDFB",
"b  c #11B8FC",
"n  c #13B8FC",
"m  c #12B9FD",
"M  c #11B8FE",
"N  c #11B8FF",
"B  c #13BAFE",
"V  c #15B8FD",
"C  c #14B9FD",
"Z  c #16B9FC",
"A  c #15BAFC",
"S  c #17BAFD",
"D  c #16BBFD",
"F  c #14B8FF",
"G  c #15B9FF",
"H  c #17B8FE",
"J  c #16B9FE",
"K  c #15BAFE",
"L  c #14BBFF",
"P  c #17BAFF",
"I  c #16BBFF",
"U  c #17BBFF",
"Y  c #17BCFC",
"T  c #17BFFD",
"R  c #17BCFE",
"E  c #17BCFF",
"W  c #16BEFF",
"Q  c #19B8F9",
"!  c #18BAFB",
"~  c #18BCFB",
"^  c #1DBDFB",
"/  c #1CBFFA",
"(  c #1EBEFA",
")  c #18B9FD",
"_  c #18BBFE",
"`  c #18BBFF",
"'  c #18BDFD",
"]  c #19BFFD",
"[  c #1BBFFC",
"{  c #1ABEFD",
"}  c #19BCFF",
"|  c #18BDFF",
" . c #1ABDFE",
".. c #1BBDFE",
"X. c #19BEFE",
"o. c #1BBEFF",
"O. c #1ABFFF",
"+. c #1DBCFD",
"@. c #1CBEFC",
"#. c #1FBFFD",
"$. c #1EBCFF",
"%. c #1CBFFF",
"&. c #1DBFFF",
"*. c #21BCF4",
"=. c #23BFF8",
"-. c #1CC4F3",
";. c #1DC0F9",
":. c #1CC1F9",
">. c #1EC3FB",
",. c #1AC0FC",
"<. c #18C0FF",
"1. c #1AC3FF",
"2. c #1CC0FD",
"3. c #1DC2FC",
"4. c #1FC2FD",
"5. c #1EC3FD",
"6. c #1DC1FE",
"7. c #1CC0FF",
"8. c #1EC0FE",
"9. c #1FC1FF",
"0. c #1CC2FF",
"q. c #2AC1F6",
"w. c #2BC1F6",
"e. c #22C1F8",
"r. c #21C2F9",
"t. c #20C0FA",
"y. c #27C2FB",
"u. c #20C0FC",
"i. c #22C2FC",
"p. c #20C0FE",
"a. c #22C0FF",
"s. c #21C3FF",
"d. c #25C3FF",
"f. c #27C2FF",
"g. c #21C4FF",
"h. c #20C6FF",
"j. c #23C6FF",
"k. c #24C5FC",
"l. c #26C5FC",
"z. c #26C5FD",
"x. c #25C6FD",
"c. c #24C7FE",
"v. c #28C3FB",
"b. c #28C4FD",
"n. c #29C6FD",
"m. c #29C5FF",
"M. c #2AC5FE",
"N. c #2BC7FF",
"B. c #2CC7FD",
"V. c #2DC7FD",
"C. c #27C8FF",
"Z. c #2ACAFC",
"A. c #28C9FF",
"S. c #2CC9FF",
"D. c #2DCAFF",
"F. c #2CCBFF",
"G. c #2FCAFF",
"H. c #37C3F4",
"J. c #39C2F6",
"K. c #38C9F6",
"L. c #34C6F9",
"P. c #35C5FA",
"I. c #34C7FA",
"U. c #31C9F8",
"Y. c #32CAFB",
"T. c #30CAFC",
"R. c #31C8FF",
"E. c #32C9FF",
"W. c #30CAFE",
"Q. c #30CBFF",
"!. c #31CBFF",
"~. c #33CAFF",
"^. c #31CCFC",
"/. c #30CEFD",
"(. c #32CCFF",
"). c #33CEFE",
"_. c #3ECBF9",
"`. c #3ACCFB",
"'. c #39CDFD",
"]. c #3BCDFC",
"[. c #3CCDFF",
"{. c #3DD1FF",
"}. c #45CAF3",
"|. c #40CCFD",
" X c #40D0FF",
".X c #42D4FD",
"XX c #43D7FD",
"oX c #43D4FF",
"OX c #4DD4FF",
"+X c #4DD6FF",
"@X c #4FDAFF",
"#X c #50D3FD",
"$X c #52D5FF",
"%X c #50D8FF",
"&X c #5ED8FF",
"*X c #5CDAFF",
"=X c #5DDCFF",
"-X c #63D7FC",
";X c #67DAFF",
":X c #66DDFF",
">X c #64DFFF",
",X c #68DAFC",
"<X c #6DDBFF",
"1X c #69DDFF",
"2X c #74DDFA",
"3X c #75D9FD",
"4X c #71DCFF",
"5X c #6CE2FF",
"6X c #7CE1FD",
"7X c #7CE0FF",
"8X c #81DEFF",
"9X c #91E7FF",
"0X c #94E9FD",
/* pixels */
"Y m Z a.` Q ^ X Z Z m P.a ].q.g 1XZ a.",
"7.C.Z @X5XY o.d.;X4 a v Z Z ^ 4 d.Z >X",
"a ; m a ; z.z.@.; g Y XX@.^ Y @.a ^ Z ",
"z.:.Z 4 Z Z Z Z a Q g Z 4 Z ,X7XZ Y 9 ",
"; Z 4 a.W.e.Z Z 7.@.:.[.@.4 a W.4 Z Z ",
"7.8Xo.o.Z @ @ o.o.a.a 3XG.Z Z  XZ Z W.",
"Z 0Xg 7./.o.m.g a Y m W.@ Z m @ B.Z Z ",
"a Z z.`.Z ; Z @.< P.a @.a A.U.:.*XZ J.",
"o.o.c a #XW.` =Xg % G.~ {.9 ; Z 4 l |.",
"Y Z o.U.; Z a g e.m.K.g a ; o.9X7.Z m ",
"; z.a g $X` @ o.9 Z Y 9 o.7.o.a o.7.9 ",
"9 <.Z Y ; a %X<XZ ` a z.c Z a a 7.+Xe.",
"e.4X+XZ a 7.Z 9 a h.y.Z a XX*Xa ; 7.a ",
"/.Z Z 7.Z o.Z W.@ Z @ 7.a @.@ Z a.Q -X",
"Z a Z ].Z 7 G.Z <.v.. 7 P.7.2Xh.h.Z c ",
"a.>X/.Z ; m.o.Z G.m.@.@ Z ; a ; 9 }.<.",
"o.; g z.h.`.Z a.; 9 W.Z c o.A.` 1 a g ",
"o./.7X9 ` Z a @ Y =.Y XX9 Z a Z -.m.Z ",
"a 7.9 a *.; a q.@ @ _.g   <.B.9 @ c H."
};
