/* XPM */
static const char *trail_155[] = {
/* columns rows colors chars-per-pixel */
"155 155 205 2 ",
"   c #008FEE",
".  c #0091EE",
"X  c #029AED",
"o  c #089EEF",
"O  c #008FF1",
"+  c #0094F4",
"@  c #0199F6",
"#  c #089CF4",
"$  c #0097F8",
"%  c #019CFA",
"&  c #0A9DFA",
"*  c #09A6EE",
"=  c #13A4EE",
"-  c #03A4F5",
";  c #0BA4F6",
":  c #04AAF5",
">  c #0AABF5",
",  c #01A3FC",
"<  c #0AA5FA",
"1  c #03ABFD",
"2  c #0AADFD",
"3  c #14ADF6",
"4  c #1BABF4",
"5  c #12A5F9",
"6  c #13ADFA",
"7  c #1AAFFA",
"8  c #0AB2F6",
"9  c #05B2FD",
"0  c #0CB3FD",
"q  c #05BAFD",
"w  c #0CB9FD",
"e  c #14B4F5",
"r  c #1FB2F7",
"t  c #1DB9F7",
"y  c #12B2FE",
"u  c #12B5FD",
"i  c #14B5FD",
"p  c #16B6FD",
"a  c #15B5FE",
"s  c #14B5FE",
"d  c #15B7FE",
"f  c #13B4FD",
"g  c #1CB5F9",
"h  c #18B6FD",
"j  c #1AB6FD",
"k  c #18B7FE",
"l  c #1AB4FD",
"z  c #1EB5FC",
"x  c #1AB6FC",
"c  c #15BBFE",
"v  c #14BAFD",
"b  c #18BAFD",
"n  c #18B8FE",
"m  c #19B8FE",
"M  c #1BB9FE",
"N  c #1CB9FD",
"B  c #1FBBFE",
"V  c #1CBAFD",
"C  c #24A2EE",
"Z  c #24ACF4",
"A  c #23B2F5",
"S  c #2BB3F6",
"D  c #24BAF7",
"F  c #2CB9F3",
"G  c #23B5F9",
"H  c #22BBFB",
"J  c #20B9FD",
"K  c #20BBFD",
"L  c #22B9FC",
"P  c #22BFFE",
"I  c #25BEFD",
"U  c #23BDFD",
"Y  c #2BBEFC",
"T  c #3AB2F3",
"R  c #30BFF7",
"E  c #3DBBF7",
"W  c #33BEFB",
"Q  c #38BBFA",
"!  c #42BFF3",
"~  c #4FB6FB",
"^  c #0EC3FE",
"/  c #14C1FD",
"(  c #1CC2FD",
")  c #17CAFE",
"_  c #25C1F7",
"`  c #24C1FD",
"'  c #2DC4FD",
"]  c #2CC2FD",
"[  c #23C9FD",
"{  c #2CC9FD",
"}  c #35C2F7",
"|  c #3DC3F6",
" . c #34C4FE",
".. c #33C4FD",
"X. c #3BC4FD",
"o. c #3BC5FC",
"O. c #34C9FD",
"+. c #3FC9FE",
"@. c #3FCDFE",
"#. c #3CC9FD",
"$. c #41C7F6",
"%. c #4DC4F2",
"&. c #4ACAF7",
"*. c #45C6FC",
"=. c #43C6FB",
"-. c #4BC5FB",
";. c #49C6FA",
":. c #43C9FD",
">. c #43CCFE",
",. c #44CBFD",
"<. c #48CAFE",
"1. c #4BCDFD",
"2. c #59C4F6",
"3. c #52CCF6",
"4. c #5CCCF6",
"5. c #55C7F9",
"6. c #53CEFC",
"7. c #5BCDFB",
"8. c #44D1FD",
"9. c #4CD1FD",
"0. c #54D3FD",
"q. c #54D2FD",
"w. c #5AD6FC",
"e. c #5CD5FF",
"r. c #5CD3FD",
"t. c #51D9FC",
"y. c #59DBFD",
"u. c #5DD9FE",
"i. c #5CD9FE",
"p. c #69CFF7",
"a. c #61C7F8",
"s. c #63CFFA",
"d. c #60D0F6",
"f. c #6AD3F6",
"g. c #63D5FD",
"h. c #69D5FB",
"j. c #6BD6FC",
"k. c #63D9FD",
"l. c #65DAFD",
"z. c #68DAFD",
"x. c #6CDFFD",
"c. c #6CDAFD",
"v. c #70D0F5",
"b. c #7AD6F6",
"n. c #72DAF7",
"m. c #72D5FB",
"M. c #7AD6FB",
"N. c #75DEFD",
"B. c #74DCFD",
"V. c #7CDCFD",
"C. c #66E3FE",
"Z. c #6BE1FE",
"A. c #74E1FE",
"S. c #7AE1FD",
"D. c #78E2FD",
"F. c #7DE2FD",
"G. c #88D6F7",
"H. c #84DAF7",
"J. c #82D6FB",
"K. c #83DDFD",
"L. c #8ADEFC",
"P. c #93DDF7",
"I. c #93DFFC",
"U. c #9BDFFB",
"Y. c #85E7FE",
"T. c #84E2FD",
"R. c #8CE3FD",
"E. c #83E9FF",
"W. c #8BE9FE",
"Q. c #98E0F6",
"!. c #93E4FD",
"~. c #9BE5FD",
"^. c #91ECFE",
"/. c #95EAFE",
"(. c #99EBFC",
"). c #9FECFD",
"_. c #9DEEFD",
"`. c #9CEAFE",
"'. c #93F0FE",
"]. c #9AF2FE",
"[. c #A3E6FD",
"{. c #AAE7FC",
"}. c #A3EAFD",
"|. c #ACECFD",
" X c #B1E6FC",
".X c #B3ECFD",
"XX c #BBEDFD",
"oX c #A4F1FE",
"OX c #ACF1FF",
"+X c #AFF9FF",
"@X c #B4F2FD",
"#X c #BBF2FD",
"$X c #BCF9FE",
"%X c #C4EEFD",
"&X c #C4F3FE",
"*X c #CAF3FE",
"=X c #CBFAFE",
"-X c #D3F5FE",
";X c #DCF6FD",
":X c #D3F9FE",
">X c #DBFAFE",
",X c #E3FCFE",
"<X c #E9FBFE",
"1X c #F2FFFF",
"2X c #FFFFFE",
/* pixels */
"% % % % % % % $ + + + + + + % % % % % % % % @ $ $ + + + + % % % , , u u k M % , % $ $ $ % % % % k j U % % + $ +                                                                                                                                                                                                       ",
", % % , , % % % $ $ $ + + + % % % % % % % % % @ $ $ $ $ + + % % , , M k k k I ` a a % % 9 9 u.(.g 1 , % , $ $ +                                                                                                                                                                                                       ",
"% % 1 1 , 2 a a 0 1 % % % % % % % % % % % % % < a v v M % $ $ % @ % % % , 0 2 0 M M E.N.z.^.:.;.% % % % , % , %                                                                                                                                                                                                       ",
"% % , % % 2 y j j j 1 % % % % % % % % % % % % < a a a M % $ $ @ % % % % , , 1 1 a M k.h.0 9 % , % % % % % < < @                                                                                                                                                                                                       ",
"$ % % % % % , , y Y =.W , , % % % % % % % , :.V 1 1 % % k 0 % % @ @ % @ % , 1 1 1 1 % % % % % @ , , v % % k V a                                                                                                                                                                                                       ",
"% % % % % % % % 1 1 a ] ..,., , % @ % , V 1.M M 1 1 % % 2 2 0 0 k B 1 1 1 1 1 1 % % % % $ % $ % , 1.,.V k V a l                                                                                                                                                                                                       ",
"v y u 9 , , % % % % , % 0 a z.1.I I v M a v , % $ $ $ % 1 ,  ...0 v 1 1 , , % % + + % % % % 1 1 ` I p 1 1 , , ,                                                                                                                                                                                                       ",
"..I q.0., % % % % % % % , % T./.T.6.1.>.u y , % $ $ $ % 1 , 1.Y v 0 , 1 , , % $ + + @ @ , % < l =.M 2 1 1 % % %                                                                                                                                                                                                       ",
"P M I I o.R.1 , % % % % % % , , 1 1 , 1 % % $ $ @ $ , 1 1 U , , % % $ $ $ $ + + + + + $ 2 6 >. ., , , @                                                                                                                                                                                                               ",
"1 1 % , &X|./.R., 1 % % % % $ @ % @ $ @ $ $ @ % % @ % @ , , , % @ % % % @ % , % + . + + @ @ + + $ @ + $                                                                                                                                                                                                               ",
"u 0 1 >.T...#.6.&X, , , , , @ @ @ % $ $ $ + z.@ % % % % -X@ , @ $ $ $ % , , , , , , $ O O   + + + + + +                                                                                                                                                                                                               ",
", , 1 , 1 , 0 0 I ..F.R.1 6.F.1 % $ $ $ % % @ , , , % , ;.~.j.B.`.w.=Xy.0 0 , , , , $ + O O + + + + + +                                                                                                                                                                                                               ",
"$ $ + $ , , , , 1 9 [ 6.>.;.9 h., , % % % % % , , , q w 1.| /.}.B.g.V.N.B.O.0 0 , , , , % @ $ $ $ $ $ $ % ,                                                                                                                                                                                                           ",
"$ $ + + , , , , v 1 [ B u ..1 6.% % % % % % % % @ $ =Xn.r.> { `.9 ] O.h.T.l.0 0 @ , 1 1 % , @ % @ % + $ . ,                                                                                                                                                                                                           ",
"+ + $ $ , , , % , % % % 2 0 a 2 :.#X9 0 , % &X|..X*X*XXX] #.1 1 , , 9 0 V ` F.` 0 u , 1 , 1 1 1 1 , M.q.                                                                                                                                                                                                              ",
"% % % % % % $ $ $ % $ $ % % 1 1 a {.!.`.{ #.P ] !.&XI V.0 9 , , $ $ $ % , 9 T.F.B.c q c q / ( B 0 : .X{.                                                                                                                                                                                                              ",
"% % @ @ % % @ $ $ $ % % % % 9 1 9 1 oX!.@X}.V 0 q.>., 1 1 , , , @ @ $ % , , , w R.R.~.R.!.-Xj.v c 2 ~.Y 9.9 0 , % M., % % $ $ $                                                                                                                                                                                       ",
"% @ % $ $ + + + . + % % , , % % 1 1 0 6 R.w..Xh.1 1 1 1 % % + + + + + + + $ % % 2 1 s.r.R.|.L.[.8.o.h.M P >.: % j .XE + + + + +                                                                                                                                                                                       ",
"% % $ $ $ + + + . + + + . + % % u.e.W W % , % , 1 , % % $ % + + + + .       . $ + + $ @ , , c .X.X;X&X7.Z.@.O.>XR.% % $ % + + +                                                                                                                                                                                       ",
"$ $ $ $ $ + + + .   + + $ $ 1 V 0 Q 1 , , , , 1 1 , % % $ $ $ + + + +       + + + $ $ % , , c .X[.R.K.%X=Xh.~.&XY % % % $ + + +                                                                                                                                                                                       ",
"+ + $ $ $ + + + + + + + % $ U 0 , , $ + $ $ $ $ $ $ + $ $ % % % + + +     + + @ $ @ 1 1 ..o.~.OXr./.;.R.R.~.-XR.{.v B % , $ $ $                                                                                                                                                                                       ",
"+ + + $ $ $ + @ @ + % , 2 l 1 1 , , @ @ % + % $ $ $ $ $ $ $ $ $ $ + +   + + , % , ] y g 1.c.E.|.D.@.k V ] E.}.|.g.g v 1 4 $ @ %                                                                                                                                                                                       ",
"+ + + $ + + % % % , 2 , , , % % 1 , , , % , % @ $ + @ @ $ % $ $ + $ $ $ + % I , , 9 u u v 1 1 , , , , , 1 >.+.: V.~.T.R.-XZ % 1                                                                                                                                                                                       ",
", % $ $ % @ % , , , , , , , $ $ % % 1 , 0 B P 0 , , % % % % $ $ @ @ , , M Y I j 2 2 , , % @ O + + + - q 1 q...9 9 j.K.9.#.1.w.k.                                                                                                                                                                                      ",
", , % % % % % @ , , , @ @ , @ % % % 0 < Y c.V.&.@ , , % % % % % % % I j u 1 1 1 1 , % % @ @ . $ , 2 s._.oX@ w 0 9 L O.] 9 q.9.0.                                                                                                                                                                                      ",
", , , , , , % $ $ $ $ $ @ $ , , , W ] 1 1 a v o.j.j.0 b $ @ % % P U U k 1 1 % % % , $ $ + + + $ @ @ +   + % $ E.!...v ` e.] :.>.                                                                                                                                                                                      ",
"+ + , % , 1 , , , , , , , , 1 : g.c.0 2 , % % 1 - ` N.1.o.j.0 u 1 u , , % % % % + + + + + $ $ + % % % % % % , , , % , % < % Y V                                                                                                                                                                                       ",
"+ + 1 1 1 1 , % , , , , , , 1  .u.[ 1 9 % % , , , , b o.e.c.u y 1 0 , , $ % % % + + + + + + $ $ @ @ % % % % , , , @ % , , , 9 1                                                                                                                                                                                       ",
"+ + $ $ B B ( 0 a a 1 1 , , ....2 0 % % $ $ + $ % % % $ $ % , , , , % % % % + + + $ @ @ % % , , % % % % % % % + $ $ @ % % % % %                                                                                                                                                                                       ",
"% $ $ $ =.&.}.R.I i 0 y , 4 V. .1 1 % % $ $ + $ @ $ + + $ $ , % % % , % @ @ $ + + + % % % % % % , % % % , $ % + + $ $ % % % , %                                                                                                                                                                                       ",
", % w / |.L.] o.~.~.c.V.V.|.r.v % % % % $ $ + + + + + + $ + $ $ $ + + + + + + + . $ , , % % % , , , % % % $ $ + + $ + % @ % 1 1                                                                                                                                                                                       ",
"v B ;.}.R.1.1 1 6.6..X/.D.9.}.1.0 0 , , % % $ $ $ + + + . + + . + + + + + $ % @ , , % , % % % % % , , % , % % % $ % $ % , , 1 ,                                                                                                                                                                                       ",
"` P F.F.w w 1 1 9 : q.1.c w (.T.v 0 1 1 % % % % @ $ + + + + + + + + $ + $ $ , , , % , % % % % % % % % % % , , % $ + % % % % , ,                                                                                                                                                                                       ",
"I .., 1 , % % @ + + + X ..g.0 s.B.h.>.=.0 M a , % % @ @ $ $ $ $ $ + ` 1 1 1 , ) 9 9 1.>.w 9 , , % % % % % 0 0 I P , , a a 0 M a                                                                                                                                                                                       ",
"1 1 1 , , , @ $ + + + % 1 , , 1 1 ..0 , 0 u 1 % % % % % + $ $ $ + @ v @ , .X0 -XK.1 o.] 0 1.w c % % % % % 0 0 I I , , v a v M a                                                                                                                                                                                       ",
"1 , % $ + + + . + + + + + + $ $ % % @ @ , , , V k 0 % % , % , % % , % , I =X;X>X*XK.,.p :.T.B.1., , % @ + % % 1 1 I I k 1 1 % ,                                                                                                                                                                                       ",
"% @ $ + + . . . + . + @ % % % , % @ $ @ @ @ , l Y  .I =.1 2 , % , , < m.-XR.s.K.*X&X~.R.q.i ` v ] R.5.- 1 , , , , 2 < % , , % @                                                                                                                                                                                       ",
"+ + + + +   .   . + + @ % % , % % % $ + + $ , , 1 9 B 0 l.B., , , % V.R.6.q w { F.*X%X%X&X: 9 9 O.O.v ( &X, % @ % , , % % @ $ +                                                                                                                                                                                       ",
"+ + @ @ $ $ $ + + + + + + + $ $ , , % , % % @ , , , , , v =.o.1 0 W F.[ 1 @ , , ] &XV.V.<X.X7.g.2 1 P q.y.9 1 , , % % $ $ + + +                                                                                                                                                                                       ",
"+ + % % @ $ $ @ + . + $ + + + $ % % , , @ % % , % % 1 , 9 , :.] }.T.4 *X, % , , 9 : 7.j.&X*XG.` , 1 < 0 B  .8.1 % % % $ + $ $ +                                                                                                                                                                                       ",
"% % @ % % @ % % + + + + + $ $ $ , % c 1 X.7.0 % % % % % % , 1 1 9 , ` H.!.h.1 1 % @ w #.w .X{.~.|.B.L 1 < k ;.l V @ % + + $ + +                                                                                                                                                                                       ",
"0 9 , 1 0 , , % , % % @ % % % , M 1 j.;.6.;.0 , % , % % % % % % % % $ $ u R.R.) 1 0 Q.=XR.c.O }.& , , , % % % 1 ] ..9 % % $ $ +                                                                                                                                                                                       ",
"1 1 , 1 1 , % % , % % % % @ % , B e Y.3., % o.].0 0 $ % % % % % % , $ + 1 1 Y.~.1.-XL.#X@.9 % 9 @ % , , % % % , 1 1  .% , $ $ %                                                                                                                                                                                       ",
"O...' ' x.N.9 c , % % , , @ >.w k.N.1 1 $ $ , 0 0 9 x.c.0 v , , % % , , % % 1 R.*Xh.B...% $ % < @X;.G , % % % % % 1 1 1 2 , , ,                                                                                                                                                                                       ",
", , 1 , 1 1 w.q.b 0 <XQ.` { l.l.9 , @ % $ @ @ @ % , 1 , 9 , , 1 % % , , , , % @ + $ @ + 1 $ @ % % % + + + $ $ + $ % % , , 0 0 g                                                                                                                                                                                       ",
", , , 1 1 1 1.9.P oX-X!.c./.+.>.1 , , % % % % @ % % , , , , , , % % % , , , % @ $ + $ I L $ % $ $ $ @ + + + + + $ @ % , , v 0 y                                                                                                                                                                                       ",
"+ $ 9 < U 1 1 1 b #X~.T.B u 1 1 % $ $ + + $ + $ $ $ $ $ $ + @ $ % % , % % , 2 1 1 , , , $ + + + + + O   + + + $ $ @ @ 0 0 A. .L                                                                                                                                                                                       ",
"+ + < < 4 6 2 0  .0 A D  .#.1 1 1 , % $ + + + + $ + + + $ % % % % % , , < , , 1 u u , , % % % % $ + + + + + $ % % 1 , l.f.A k 2                                                                                                                                                                                       ",
"+ + @ @ % % % 1 1 1 @ 1 u M V k V 2 % % + + . $ % $ , $ % % % % % % , % 2 1 1 1 ` P , 1 , , % % $ + + + $ % @ % % 9 9 e.e., 9 1                                                                                                                                                                                       ",
"+ + $ $ $ $ @ $ + $ % % , , , , 1 1 % , + . % < 0 0 +.*.- , , , 1 1 1 1 1 1 P [ ' ..M B 1 , % % % % % % % % , 1 1 ,.,.c 0 % , ,                                                                                                                                                                                       ",
"+ + $ $ $ @ $ $ $ @ @ % , % , , 1 1 % , @ + + 6 2 % 0 ..1.y , , 1 , 1 1 1 0 ` 0 ..I V B , , , , % % % % % $ , 1 0 1.Y 0 u 1 , ,                                                                                                                                                                                       ",
"+ + $ $ $ $ $ $ % % % , , % % @ + $ $ + $ , % , , % 1 , v a M 1 , 1 0 0 q.l.z.u., , 0 0 >.>.0 0 1 1 1 , < w.V 1.#., , , % , $ $                                                                                                                                                                                       ",
"$ $ $ $ % % % % , , c p /.,X, , % $ $ % % % , , 1 1 1 1 9 < 6.0 r.n.o.,.M v 1 1 , , 1 1 , , B I oXz.R.|.@XM 1 % @ % % @ % % % %                                                                                                                                                                                       ",
"% $ $ + % % , , 1 % M 3 F.V., 1 % + @ % % % , , 1 1 , , , , c ,.L.b.q.k.v v , , , , , , , , 0 0 _.q.;.w.w.1 1 % @ % @ $ @ % % @                                                                                                                                                                                       ",
", % % , % , 0 0 1.q.0 1 , 1 q.w.1 c , , , , , 1 1 1 % % % , , % , % 1 Y ] , % % $ % 1 , 1 1 % , + % % % % % @ $ % + + $ + + % %                                                                                                                                                                                       ",
", , , , , , 1.A.a M , , , , 1 v 7.T.' $ 1 1 , , , , % % % % @ @ @ $ + $ @ @ + $ $ $ 1 , 1 1 v V % % y $ , % % @ $ + $ + + $ @ $                                                                                                                                                                                       ",
", 1 v 1 k.F.o.] 0 1 % , , , 1 1 +.>.}.9 B ( , , , % , , % % @ @ @ $ $ + % % + + + + % % , , v ] w.1.#.T.E.$ % % @ + $ $ + $ + +                                                                                                                                                                                       ",
", , g.k...Y 1 , , , % % $ $ % , , , v /.V.e., , , , , , 3 @ +._ % % , , @ @ $ + + + % % , , , , , , y o.^.0 B % % @ @ % % % % %                                                                                                                                                                                       ",
"9.>.% % , , , , % % $ $ + $ + + % , 1 < 1 l.A.X.9 0 , . V.1.Y Q.|.#.v M 1 1 % % $ $ @ % + O $ @ @ @ , % % a B.:.9 V k l a % % %                                                                                                                                                                                       ",
"1.1.% , , % , , % % $ $ $ + + $ % , , 9 : XX&X&XT.9 @XXX1 1 9 1 l.Q.v u 1 1 @ % @ @ % % + + $ $ % @ % % % 0 < :.>.M k a y % % %                                                                                                                                                                                       ",
"1 1 % % $ $ % % , , , , , , + $ , % ( v B.R.}.B.R.}./.!.u 0 1 1 @ - `.0 , a p 1 , , $ + + + + . + + + + $ , % 1 B 1.o.1 1 , , ,                                                                                                                                                                                       ",
"1 1 @ % $ $ % Y , % , , g., % % 1 % ` K..XT.( ` >.~.~.g.1 2 y a @ $ , /., 1 1 1 , , $ $ + + + + + + . $ $ % % , , 9 1 1 , < , 1                                                                                                                                                                                       ",
"1 1 1 1 , % , , V.k.2 F .X[.1 1 e.T.e.6.a < % , 1 G ..7.1.=.2 - 1 1 % % $ $ $ + $ + + $ + + + + $ % % % , , , , , $ + @ $ % M 0                                                                                                                                                                                       ",
", % 0 1 , , , % % & R.}.K.1.q @XB.0 , , % % % % , % , @ 0 1 V.V.1 , $ @ % @ + + $ + + + + + + + @ % @ , , , , , , + + @ % % 1.N.                                                                                                                                                                                      ",
"                                                                                                                                                                                                                                                                                                                      ",
"                                                                                                                                                                                                                                                                                                                      ",
"                                                                                                                                                                                                                                                                                                                      ",
"                                                                                                                                                                                                                                                                                                                      ",
"                                                                                                                                                                                                                                                                                                                      ",
"                                                                                                                                                                                                                                                                                                                      ",
"                                                                                                                                                                                                                                                                                                                      ",
"                                                                                                                                                                                                                                                                                                                      ",
"                                                                                                                                                                                                                                                                                                                      ",
"                                                                                                                                                                                                                                                                                                                      ",
"                                                                                                                                                                                                                                                                                                                      ",
"                                                                                                                                                                                                                                                                                                                      ",
"                                                                                                                                                                                                                                                                                                                      ",
"                                                                                                                                                                                                                                                                                                                      ",
"                                                                                                                                                                                                                                                                                                                      ",
"                                                                                                                                                                                                                                                                                                                      ",
"                                                                                                                                                                                                                                                                                                                      ",
"                                                                                                                                                                                                                                                                                                                      ",
"                                                                                                                                                                                                                                                                                                                      ",
"                                                                                                                                                                                                                                                                                                                      ",
"                                                                                                                                                                                                                                                                                                                      ",
"                                                                                                                                                                                                                                                                                                                      ",
"                                                                                                                                                                                                                                                                                                                      ",
"                                                                                                                                                                                                                                                                                                                      ",
"                                                                                                                                                                                                                                                                                                                      ",
"                                                                                                                                                                                                                                                                                                                      ",
"                                                                                                                                                                                                                                                                                                                      ",
"                                                                                                                                                                                                                                                                                                                      ",
"                                                                                                                                                                                                                                                                                                                      ",
"                                                                                                                                                                                                                                                                                                                      ",
"                                                                                                                                                                                                                                                                                                                      ",
"                                                                                                                                                                                                                                                                                                                      ",
"                                                                                                                                                                                                                                                                                                                      ",
"                                                                                                                                                                                                                                                                                                                      ",
"                                                                                                                                                                                                                                                                                                                      ",
"                                                                                                                                                                                                                                                                                                                      ",
"                                                                                                                                                                                                                                                                                                                      ",
"                                                                                                                                                                                                                                                                                                                      ",
"                                                                                                                                                                                                                                                                                                                      ",
"                                                                                                                                                                                                                                                                                                                      ",
"                                                                                                                                                                                                                                                                                                                      ",
"                                                                                                                                                                                                                                                                                                                      ",
"                                                                                                                                                                                                                                                                                                                      ",
"                                                                                                                                                                                                                                                                                                                      ",
"                                                                                                                                                                                                                                                                                                                      ",
"                                                                                                                                                                                                                                                                                                                      ",
"                                                                                                                                                                                                                                                                                                                      ",
"                                                                                                                                                                                                                                                                                                                      ",
"                                                                                                                                                                                                                                                                                                                      ",
"                                                                                                                                                                                                                                                                                                                      ",
"                                                                                                                                                                                                                                                                                                                      ",
"                                                                                                                                                                                                                                                                                                                      ",
"                                                                                                                                                                                                                                                                                                                      ",
"                                                                                                                                                                                                                                                                                                                      ",
"                                                                                                                                                                                                                                                                                                                      ",
"                                                                                                                                                                                                                                                                                                                      ",
"                                                                                                                                                                                                                                                                                                                      ",
"                                                                                                                                                                                                                                                                                                                      ",
"                                                                                                                                                                                                                                                                                                                      ",
"                                                                                                                                                                                                                                                                                                                      ",
"                                                                                                                                                                                                                                                                                                                      ",
"                                                                                                                                                                                                                                                                                                                      ",
"                                                                                                                                                                                                                                                                                                                      ",
"                                                                                                                                                                                                                                                                                                                      ",
"                                                                                                                                                                                                                                                                                                                      ",
"                                                                                                                                                                                                                                                                                                                      ",
"                                                                                                                                                                                                                                                                                                                      ",
"                                                                                                                                                                                                                                                                                                                      ",
"                                                                                                                                                                                                                                                                                                                      ",
"                                                                                                                                                                                                                                                                                                                      ",
"                                                                                                                                                                                                                                                                                                                      ",
"                                                                                                                                                                                                                                                                                                                      ",
"                                                                                                                                                                                                                                                                                                                      ",
"                                                                                                                                                                                                                                                                                                                      ",
"                                                                                                                                                                                                                                                                                                                      ",
"                                                                                                                                                                                                                                                                                                                      ",
"                                                                                                                                                                                                                                                                                                                      ",
"                                                                                                                                                                                                                                                                                                                      ",
"                                                                                                                                                                                                                                                                                                                      ",
"                                                                                                                                                                                                                                                                                                                      ",
"                                                                                                                                                                                                                                                                                                                      ",
"                                                                                                                                                                                                                                                                                                                      ",
"                                                                                                                                                                                                                                                                                                                      ",
"                                                                                                                                                                                                                                                                                                                      ",
"                                                                                                                                                                                                                                                                                                                      ",
"                                                                                                                                                                                                                                                                                                                      ",
"                                                                                                                                                                                                                                                                                                                      ",
"                                                                                                                                                                                                                                                                                                                      ",
"                                                                                                                                                                                                                                                                                                                      ",
"                                                                                                                                                                                                                                                                                                                      ",
"                                                                                                                                                                                                                                                                                                                      "
};
