/* XPM */
static const char *wall_42_71[] = {
/* columns rows colors chars-per-pixel */
"71 71 156 2 ",
"   c #020204",
".  c #060608",
"X  c #080709",
"o  c #0A0A0C",
"O  c #0F0F10",
"+  c #100F10",
"@  c #0F1011",
"#  c #141416",
"$  c #161618",
"%  c #181719",
"&  c #171818",
"*  c #1B1B1C",
"=  c #1E1F20",
"-  c #201F22",
";  c #1E2123",
":  c #252525",
">  c #242426",
",  c #252426",
"<  c #242526",
"1  c #252526",
"2  c #242427",
"3  c #252427",
"4  c #242527",
"5  c #252527",
"6  c #262526",
"7  c #262427",
"8  c #262527",
"9  c #252626",
"0  c #252627",
"q  c gray15",
"w  c #262627",
"e  c #272627",
"r  c #262727",
"t  c #272727",
"y  c #252527",
"u  c #252528",
"i  c #262528",
"p  c #252628",
"a  c #262628",
"s  c #272628",
"d  c #262728",
"f  c #272728",
"g  c #272729",
"h  c #262628",
"j  c #282629",
"k  c #282729",
"l  c #272828",
"z  c #282828",
"x  c #282829",
"c  c #29282A",
"v  c #29292A",
"b  c #29292B",
"n  c #2A292A",
"m  c #2A292B",
"M  c #2A2A2B",
"N  c #2A2B2B",
"B  c gray17",
"V  c #2B2A2C",
"C  c #2B2B2C",
"Z  c #2B2B2D",
"A  c #2C2B2C",
"S  c #2C2B2D",
"D  c #2C2C2D",
"F  c #2C2C2E",
"G  c #2D2C2E",
"H  c #2A2A2B",
"J  c #2E2E30",
"K  c #2F2F30",
"L  c #2F2E30",
"P  c #313132",
"I  c #323232",
"U  c #323233",
"Y  c #353537",
"T  c #333335",
"R  c #393837",
"E  c #39393B",
"W  c #3A393B",
"Q  c #3A3A3B",
"!  c #3B3A3B",
"~  c gray23",
"^  c #3C3C3C",
"/  c #3B3B3C",
"(  c #403F3F",
")  c #414140",
"_  c #434241",
"`  c #414242",
"'  c #444343",
"]  c #444443",
"[  c #444444",
"{  c #454544",
"}  c #454445",
"|  c gray27",
" . c #464545",
".. c #474546",
"X. c #464646",
"o. c #474646",
"O. c #474746",
"+. c gray28",
"@. c #454545",
"#. c #484746",
"$. c #484747",
"%. c #484747",
"&. c #474847",
"*. c #484847",
"=. c #494847",
"-. c #494947",
";. c #484847",
":. c #474748",
">. c #484748",
",. c #474848",
"<. c #484848",
"1. c #494848",
"2. c #494948",
"3. c #484849",
"4. c #494849",
"5. c #494949",
"6. c #4A4949",
"7. c #494A48",
"8. c #4A4A49",
"9. c #4B4A49",
"0. c #4A4B49",
"q. c #49494A",
"w. c #4A494A",
"e. c #4B494A",
"r. c gray29",
"t. c #4B4A4A",
"y. c #4B4B4A",
"u. c #4B4A4B",
"i. c #4B4B4B",
"p. c #4C4B4B",
"a. c #4C4C4A",
"s. c #4C4C4B",
"d. c #4B4B4C",
"f. c #4C4B4C",
"g. c #4D4B4C",
"h. c #4B4C4C",
"j. c #4C4C4C",
"k. c #4D4C4C",
"l. c #4D4D4C",
"z. c #4D4C4D",
"x. c gray30",
"c. c #4E4D4C",
"v. c #4E4D4D",
"b. c #4D4E4D",
"n. c #4E4E4D",
"m. c #4D4D4E",
"M. c #4D4E4E",
"N. c #4E4E4E",
"B. c #4E4F4F",
"V. c gray31",
"C. c #4A4A4A",
"Z. c #504F4F",
"A. c #4F5050",
"S. c #505050",
"D. c #515050",
"F. c #515252",
/* pixels */
"                                                                                                                                              ",
"      # # # $ # # o . .   # # $ # # 6.X.X.$.t t t       # # % % % P * = X.t J P . . . . X X # 6.-.' X.' ' X.' ^ j.F.F x j > . . o o o .       ",
"      p.6.6.j.f.p.P # #   6.p.j.f.f.6.d.s.h.x x x       j.f.j.j.j.j.t u F.x D J   X X X o O j.j.j.j.f.j.j.j.j.j.j.j.C C x t   . x C x #       ",
"  t p.6.t t t t t t D C   6.-.X.t > > t t t t t #     6.6.j.t t t t 6.] t t t t t # #   j.6.$.u t t t t t u t t t t # # # x D F $ # * P # o   ",
"  t 6.d.> t u t t t C C   $.6.X.t t t t t u t t #     6.j.F.t t t t 6.>.t t t t u # #   j.6.6.t t t t t u t u u t t > # # C D F > % x T # o   ",
"  t j.> t t t t t t # #   % % t t > t t t t t t #     p.t > t t t t t t t t t t t # #   d.6.t t t t t t u u t t u t t # # t u u t t t % # X   ",
"  t d.> t t t t t t # #   * % t > t t t t t u t #     j.t t u u u t t t t t t t t # #   j.X.t t t u t t t t t t u t t t t t u t t t t # # X   ",
"  t s.t t t t t t t # #   o o t u t t t t # t t #     x t t t t t t t t t t t t # # #   j.>.t t t t t t u u t t t t t t t u t t u t t # # X   ",
"  > ,.o # # t t t t # #   o o . # # # # # # * * #     t t t t u t t > t t t t t t # #   6.X.t t t t t t t t t t t u t t t t t t t t u # # X   ",
"  t X.= % # t t t t # #   o o . # # # # # # * * #     t t t t u t t > > t t t t u # #   j.X.t t t t t t t t t t t t t t t t t t u t t # # X   ",
"  o > ; ; # # # # #     %     o                 .     t t u t u t t t t t t t t # # #   u u t t t t t t t t t t t t u t t t t t t t t # # X   ",
"  o $ #             X X # # % * # # # O # # # $       > # # u u t t t u t * * * # # #   * * * t t t t t t t t % t t > t t u u u u * * # # X   ",
"                    o o o E E E E E E F J J J x       * # # t u t t t t t # # # # # #   # # # t t t u u u u u # t t u t t t u u t # # # # X   ",
"  . .   j.6.6.6.6.6.6.6.$.X.X.t t t > > x X.> t >     * # # # t u u # # # . O # # # #   # # # # # # # # # # # # # # t u t t # # # # # X . .   ",
"  . X   A.h.6.6.6.6.6.6.6.-.X.t t t > t t X.t t t     % # # # t t u # # #   + # # # #   # # # # # # # # # # # # # # t u u t # # # # # X . .   ",
"      6.6.j.t t t t t t t t t t t t t t t t t t #     . # # # # # # # #   # # # .                             X o X # # # # # # # # # . # o   ",
"  : j.6.t t t t t t t t t t t t t t > u u t u t # X .                             . . j.6.6.6.E T T           X                         . .   ",
"  t 6.j.> t t t t t t t t t u t t t t t t t t t # X .                               . p.d.6.f.P T T           X                         X .   ",
"  > j.> t t t t t t t t t t t t t t t t t t t t #     . 6.6.6.$.! D # #     ^ 6.6.6.-.t > t t t t t t >       X $.&.-.6.6.6.6.-.:.C # @       ",
"  # D t t t t t t t t t t u t t t u t t t # t t #     ' 6.6.t l t t > u $   R 6.t t u t t u u t t t # #       ' u t u u u t u t t u t t $ X   ",
"  $ D u t t t t t u t t t u t u t t t t t # > u #     6.-.j.t t t t t t $   ~ 6.t t t t t t t t u u # #       X.t t t t t t t t t t t t $ o   ",
"  X # t t u t t t u t t u t t t t t t # # t # # #     X.t t t t t t # # #   * t t t t t t t t t t t # #   6.6.X.t t t t t u u t t t t t # X   ",
"  X # u u t u # # u t t t t u # t t t t t t # # #     * t t t t t u # # #   * t t t t t t u t t t # # #   X.:.> t t t t t t t t t t u # # X   ",
"  X # t t t t # # u t u u t u # t t t t u t # # #     % t t t u u u # # #   % t t t u t u u u t u # # #   X.X.t t u t t u u t t t t u # # o   ",
"  X # * # # # t t u u u u t t # # # # # # # $ # .     # t u t t t u # # #   # # u t t u u u u C x # # #   # # t t t t t t u t t u t t t # o   ",
"    . X # #   $ # # # # # # # # $ # # # # #         .   # # # # # # # # .   . . # # # # # # # # # #       # # t t t t t t t t t t u u # # X   ",
"    . X # #   # # # # # # # # # # # # # # #             # # # # # # # # . . . . # # # # # # # # # #     . # # t t > t t t t u t t t u # # X   ",
"  . + .                                         O o #                   o o .                             # # # > t t t t t u t t t t % # X   ",
"      s.X.X.6.-.X.-.X.-.=     o .     $.-.6.6.6.6.j.s.p.6.6.u * # X       j.X.6.p.6.$.t X.6.6.-.X.  # #   X X o # # > > > t t > # # O > # X   ",
"    . 6.6.6.6.>.6.6.6.-.=     o .   . i.6.6.6.6.6.6.6.6.6.j.x * # o       6.p.6.6.6.6.C 6.6.6.6.6.  # $   X . X # # > > > > > t # # o t # o   ",
"  t p.6.> > t t t t t u t - * .   . -.6.X.t t t t t t t t x # t > =   . 6.j.P t t t t ' u u t t t t .     # # . # # # # # # # #   # # # # o   ",
"  t p.s.> t t t t t t t t * = . o . 6.6.-.t t t t t t t t u $ t > -   . p.s.P t t t t X.> t t t t x       # #   # # # # # # # #   # # # # X   ",
"  > 6.> > t t t t t t t t # $   ' X.X.t t t t t > t t t t t t t = #   . j.t t t t u t t t t t t t #                                           ",
"  $ J t t > t t t t t t # # $   > > ' > t t t t t t t t t t u t * #   . X.t t t t u t t u t t t t #     . X.$.X.$.-.X.6.X.x x C x D D * .     ",
"  & P t t > t t t t t t $ # $   - t u t t t t t t t u t t t t u = $     t t t t u u t u t u t t t #     o 6.X.6.6.6.6.6.$.D u x x D J *       ",
"  + t t t > t t t u t t # # #   # # t t t t t t t t t t u t t # $ $     t t t t u u u u u u u t u #     X.$.>.t t t t t t t ' ' t t t T J &   ",
"  O > t t t u t t t t t t # #   # # t t t t t t t t u t t t t t = #     t t u t u t u t t u t t u #     $.u t t t t u t u u t t t t t * # X   ",
"  O > u t t u t t t t t u # #   # $ u t t t u t t t t u u t t u * #     > t t t u t t t t u t u u #     X.t t t t t u t u t t t u t u * # o   ",
"  o % # > u $ t t t t t # # #   . . # t t t t t t t t # u x % # # #   . # t t t u # # t u t * % $ #     # t t t t t t t t t t t t u l * # o   ",
"      # # # # # # # # # #     #     # # # # # # # # # # # # # # o       # # # # # # # . # # # # #       # t t t t t t t u t o o # * * * # o   ",
"      # # # # # # # # # #     O     # # # # # # # # # # # # # # o       # # # # # # # . # # # # #       # t t t > t t u t t o o # * * * # o   ",
"                              .                         .                                               o # # # # # u t t #     # # # # # X   ",
"      6.-.X.6.6.6.C C C X.X.6.X.X.6.X.T T C   . #       6.>.X.X.X.6.X X . o T X.X.-.X.X.X.X.X.,.-.t u t                                       ",
"      6.6.6.p.6.d.J J C 6.6.j.6.6.6.6.T T D .   #       6.6.6.6.6.6.X X . o E 6.6.6.6.6.6.6.6.6.6.x u x                                       ",
"  > 6.X.t t t t > t t t > > t t > t $ # # t t x       ' ' X.t t t t t =   X.] ] t t t t t t t t t t # # ( ^ ^ .     . X.>.:.6.-.&.6.X.x .     ",
"  > 6.j.> t t t t t t > t > > t t t * $ % t t t       X.' X.t t u u t x   X.X.X.t u t u u u u t t t # # ' ^ '       . X.X.6.6.X.>.6.6.u .     ",
"  t 6.t t t t t t t t t u t t t t t t # # t # #   % $ ( t t t t u u $ #   X.x t t u t t t t u t u t > > t t u x     6.6.X.t t t t t t t # X   ",
"  # x t > t t t t t t t t t t t t t t t t t # #   # # u t t t t t t # #   j t u u t u u u t u t u t t t u t t #     X.u t t t t t t u # # o   ",
"  # x t u t t t t t t > t t u t t t t t t t # #   # # > t t u t t > # #   t t u t u u t t u t u t u t u u t t #     X.t t t t u t t u # # o   ",
"  # t t u t t t u t t t t t u t t t t t t t # #   # # # u u t t = #       > t u u t u u t t u u t t t u t t t #     t u t t t t u t u # # o   ",
"  O > t t t t t t t t t t t t t t t u u t t # #   . . o # # # # o . $ #   # > u t t t u u u u u u u t t u # # #     # t u u u t u u u # # o   ",
"  @ ; t t t t t t > > t t t t t t u u u t t # #   . . o # # # # o . % #   # > j u t u t t t u t t u t t u # #       # # # t t u t t u # # o   ",
"  X # # u u t t t t t t t # # t u t t # # # # #   . .               . .   # # # # u t t u u # t t t t u # o O X     # $ # t t u u u u # # o   ",
"  . # # u t u t t t t t t # # > u u t # # # # #   . .     . .       . .   # # # # u t t t j # u t t t t # o o X     . # # # # # # # # #       ",
"      # # # # # # # # # # # #   # # # # #         6.6.6.6.6.6.s.6.p.D x         # # # # # # # # # # # # #     .                               ",
"  . # .                                   6.6.6.X.t t t t t t t t t > > t   . .                               X X.X.X.X.X.X.X.X.X.X.[ .   .   ",
"  X # .                           .       6.6.6.X.> > t > t t t t t t t t . . .                               X $.X.-.6.6.:.X.X.X.X.6..   .   ",
"    . 6.6.6.6.6.6.6.C C D o o . X X X ' ' t t t t > > t t t t t = # t t t t # . X ' ! C F D o . . o # $ :.X.:.X.t t t t > > t > t t t t . .   ",
"  x j.6.t u u t t t u t # u x .     6.' ' t t t t t t t t t t t * # % $ u # X   6.T E t t u u     ^ ' X.t u u u t t t t t t t u t t t t # o   ",
"  t 6.6.> t > > > t t t # u x       6.] ' t u t t t t t t t t t * # # $ t # X   j.T E u t t t .   ^ ] ' t t t t t t u t t t t u t u t u # o   ",
"  $ T > t t > t t t u t t u t >     6.t t t t t > u t t t t t t t t t t u # .   t u u t t u #     E u t > t t t t t u t t t u t t t x # # o   ",
"  # x > # # t t t t u t u t t #     X.t u u t u t t t t t t t t t t t u t $ .   $ u t t t u #     u t t t t t t t t u t t t u t u # # x # o   ",
"  # x > # # t t t t t t u t u #     t t t t t u t t t t u t t t t t t u u # .   % u u u u j #     x t u u t t t t t t t t t t t u # # u # o   ",
"  # x * t > t t t t t t t t t #     t t t t u t u t t t u u t u t u t t # # .   # t u t # $ #     t t t t t > t t u u t t t t u t # # t # o   ",
"  # x * t t u t t t u u u u j # .   t u u t u t t t t t t t u t t u u t # $ .   $ x x u # # $     t u t x t t t t t t u t t t t u # # t # o   ",
"  o # $ u t u t t t t t t # # $ . . # # # t u t t t t t u j # t u u # # $ .     X # # # # # # . . # u x # t t t t t t t t t t t u # # u # o   ",
"  X O # # # # t t u # # # # # # . . # # $ # # # # t t t u x . # # # # # . P * % X # # . .   . . . # # # . t t t t t t t t # t t # . . # # o   ",
"  . O # # # # t t t # # # # # # . . # # # # # # # u u t t j   # # # $ # . J > % X # # . . . . . . # # #   t t t t t t t t # t > # . . # # o   ",
"      # # # . # # # # # . . . . . . . # # # # # # # # # . .   # # # . . . o o O . . . . # # O . . . . . # # # # # # # # # # # # . # # #   . . ",
"                                                                                                                              .               ",
"                                                                                                                                              "
};
