/* XPM */
static const char *wall_42_93[] = {
/* columns rows colors chars-per-pixel */
"93 93 163 2 ",
"   c #020204",
".  c #070608",
"X  c #080709",
"o  c #070809",
"O  c #0B0B0C",
"+  c #0F0F10",
"@  c #100F11",
"#  c #0F1011",
"$  c #141416",
"%  c #161618",
"&  c #181719",
"*  c #171818",
"=  c #1B1A1C",
"-  c #1E1F20",
";  c #201F21",
":  c #1E2023",
">  c #252425",
",  c #242525",
"<  c #252525",
"1  c #242425",
"2  c #242426",
"3  c #252426",
"4  c #242526",
"5  c #252526",
"6  c #242427",
"7  c #252427",
"8  c #242527",
"9  c #252527",
"0  c #262526",
"q  c #262427",
"w  c #262527",
"e  c #252626",
"r  c #252627",
"t  c gray15",
"y  c #262627",
"u  c #272627",
"i  c #272727",
"p  c #252526",
"a  c #252528",
"s  c #262528",
"d  c #252628",
"f  c #262628",
"g  c #272628",
"h  c #262728",
"j  c #272728",
"k  c #272629",
"l  c #272729",
"z  c #262628",
"x  c #282729",
"c  c #282729",
"v  c #272829",
"b  c #282829",
"n  c #28282A",
"m  c #29282A",
"M  c #29292A",
"N  c #29282B",
"B  c #29292B",
"V  c #2A2A2B",
"C  c #2B2A2B",
"Z  c #2B2A2C",
"A  c #2A2B2C",
"S  c #2B2B2C",
"D  c #2B2B2D",
"F  c #2C2C2D",
"G  c #2C2C2E",
"H  c #2D2C2E",
"J  c #2C2D2E",
"K  c #2D2D2E",
"L  c #2D2C2F",
"P  c #2D2D2F",
"I  c #2D2E2F",
"U  c #2E2E2F",
"Y  c #2A2A2B",
"T  c #2F2D30",
"R  c #2F2E30",
"E  c #2F2F30",
"W  c #2F2F30",
"Q  c #302F30",
"!  c #313133",
"~  c #323133",
"^  c #333335",
"/  c #343335",
"(  c #343436",
")  c #373737",
"_  c #343335",
"`  c #383837",
"'  c #393837",
"]  c #373738",
"[  c #373738",
"{  c #393739",
"}  c #383839",
"|  c #393939",
" . c #38383A",
".. c #39393A",
"X. c #393A3B",
"o. c #3A3A3B",
"O. c #3B3A3C",
"+. c #3B3B3C",
"@. c gray24",
"#. c #3C3C3C",
"$. c #41403F",
"%. c #3F3F40",
"&. c #403F40",
"*. c gray25",
"=. c #434242",
"-. c #444443",
";. c #454444",
":. c #454544",
">. c #454445",
",. c #444545",
"<. c gray27",
"1. c #464545",
"2. c #464646",
"3. c #474646",
"4. c #474746",
"5. c gray28",
"6. c #454545",
"7. c #484747",
"8. c #484747",
"9. c #474846",
"0. c #484847",
"q. c #484847",
"w. c #474748",
"e. c #484748",
"r. c #474848",
"t. c #484848",
"y. c #494848",
"u. c #494948",
"i. c #494949",
"p. c #4A4948",
"a. c #4A4949",
"s. c #4A4A49",
"d. c #4A494A",
"f. c gray29",
"g. c #4B4A4A",
"h. c #4B4B4A",
"j. c #4B4A4B",
"k. c #4B4B4B",
"l. c #4C4A4A",
"z. c #4C4B4A",
"x. c #4C4B4B",
"c. c #4B4C4A",
"v. c #4B4C4B",
"b. c #4C4C4B",
"n. c #4D4C4B",
"m. c #4C4B4C",
"M. c #4C4C4C",
"N. c #4D4C4C",
"B. c #4D4D4C",
"V. c #4C4C4D",
"C. c #4D4C4D",
"Z. c gray30",
"A. c #4E4D4C",
"S. c #4E4C4D",
"D. c #4E4D4D",
"F. c #4E4D4E",
"G. c #4F4F4E",
"H. c #4A4A4A",
"J. c #504F4F",
"K. c #50504F",
"L. c gray32",
"P. c #535252",
"I. c #585958",
/* pixels */
"                                                                                                                                                                                          ",
"                                                                                                                                                                                          ",
"        M.f.f.f.f.f.f.f.T M $     1.f.M.M.z.z.f.f.f.f.f.f.M M M M         f.f.n.M.M.M.M.| 1 f.M.T M H H     o o X . O O M.M.n.M.z.z.M.M.M.M.M.z.n.f.f.f.M M M 1 1     M M M M $ $         ",
"        z.f.n.z.z.n.M.M.~ D $     -.z.M.M.M.n.v.M.M.z.m.n.f M M M         M.z.M.M.J.M.M.@.f L.J.H M H T     o o o o O O M.M.M.M.M.M.M.M.M.M.M.M.M.M.f.M.D D D f f     M D D D $ $         ",
"    f.f.f.M.1 1 1 1 1 f 1 f M     =.f.1.1.1 1 1 1 1 1 1 1 1 1 $ $     f.M.f.M.1 1 1 1 f ] f.1 1 f 1 1 1 1 f $ $     1.f.0.f.1 1 1 1 1 f f f f f 1 1 1 1 $ $ $ ; M H H D * $ $ ( ~ $ $     ",
"    z.f.v.f.1 1 1 1 1 1 1 f H     =.1.1.1.1 1 1 1 1 1 1 f 1 1 $ $     z.f.f.M.1 1 1 1 1 | v.f f 1 1 1 1 1 f $ $     7.f.f.0.1 1 1 1 1 f 1 1 f f f 1 1 1 $ $ $ 1 M H H H & $ $ ] ^ $ $     ",
"    f.M.1 1 1 f 1 1 1 1 1 1 $     $ & - 1 1 1 1 1 1 1 f f f 1 $ $     n.f.1 1 1 1 1 1 1 1 1 f f 1 1 1 1 f c * *     f.f.1 1 1 1 1 1 1 f f 1 f f 1 f 1 1 1 $ $ $ 1 1 f 1 1 1 1 * $ $ $     ",
"    f.n.1 1 1 1 1 f 1 1 1 1 $     * = f 1 1 1 1 1 1 1 1 f f 1 $ $     M.f.1 1 1 1 1 f 1 f 1 1 1 1 1 1 f f f $ *     1.f.1 1 1 1 1 1 1 1 f 1 f f 1 1 1 1 1 $ $ $ 1 1 1 1 1 1 1 = & $ $     ",
"    f.f.1 1 1 1 1 1 1 f f 1 $     & * 1 1 1 f 1 f 1 1 1 f f 1 $ $     f.f.1 1 1 1 f f f 1 1 1 f 1 1 1 1 1 f $ $     1.1.1 1 1 1 1 f f f f 1 1 1 f 1 f 1 1 1 1 1 1 f 1 1 1 1 1 & * $ $     ",
"    f.z.1 1 1 1 1 1 1 1 f 1 $     O O 1 1 1 f f 1 1 1 $ $ 1 1 $ $     M M 1 1 1 f f 1 1 1 1 1 1 1 1 1 1 $ $ $ $     1.0.1 1 1 1 f f f f 1 1 1 f 1 f 1 f 1 1 1 1 1 1 1 1 1 1 1 * * $ $     ",
"    f.f.1 1 1 1 1 1 1 1 1 1 $     O O x 1 1 1 f 1 1 1 $ $ 1 f $ $     M M 1 1 1 1 1 1 1 1 1 1 f 1 f f 1 $ * $ $     7.0.1 1 1 1 1 f 1 1 1 f f 1 1 1 1 f 1 1 1 f f f 1 1 1 1 1 $ $ $ $     ",
"    1.f.O $ $ $ 1 1 1 1 f 1 $     o O . X $ $ $ $ $ $ $ $ = = $ $     1 1 1 1 f f f 1 1 1 1 1 f f f f 1 1 f $ $     1.1.1 1 1 1 1 1 1 1 1 1 1 1 1 1 1 f f f 1 1 f f f f 1 1 1 $ $ $ $     ",
"    1.=.- - & $ 1 1 f f 1 : $     O O o . $ $ $ $ $ $ $ $ = = $ $     1 1 1 1 f f f 1 1 1 1 f 1 f f f f 1 f $ $     1.1.1 1 1 1 1 1 1 1 1 1 1 1 1 1 1 1 f 1 1 1 f f 1 1 f f 1 $ $ $ $     ",
"    1 1 : : 2 $ $ $ $ $ $ $   & &     O O                             1 1 1 f f f f 1 1 1 1 1 1 1 f 1 f $ $ $ $     1 f 1 1 1 1 1 1 1 1 1 f 1 1 1 1 1 1 f f f 1 1 1 1 1 f f 1 $ $ $ $     ",
"    : : : : $ $ $ $ $ $ $ +   & &     O O                             1 1 1 f f 1 f f 1 1 1 1 f 1 1 1 1 $ $ $ $     f f f f 1 1 f 1 1 1 1 f f 1 1 1 f 1 1 f 1 1 f 1 1 1 f 1 f $ $ $ $     ",
"                            O O o ^ | | | | | | | H H H H H H         = = $ $ 1 1 f 1 1 1 1 f f & $ $ $ $ $ $ $     $ * $ $ f f f 1 f f 1 f f f $ $ f 1 1 1 1 f 1 f 1 1 f * $ $ $ $ $     ",
"                            O o O | | +.| +.| | | H T E T H H         = = $ $ f f 1 1 1 1 1 1 1 & $ $ $ $ $ * $     $ $ $ $ f f 1 f f f f f 1 1 * $ f f 1 1 f 1 1 f 1 f f $ $ $ $ $ $     ",
"    . .     0.f.f.f.f.f.f.f.0.7.1.7.1.1 1 1 1 1 1 1 1 1.=.1 1 1 1     = = $ $ $ $ 1 1 1 1 $ $ $ o   * $ * $ $ $     $ $ $ $ $ $ $ $ $ $ $ $ $ $ $ $ $ * 1 1 1 1 f $ $ $ $ $ $ o o         ",
"    X o     f.f.f.f.f.f.f.f.f.f.0.7.1.1 f 1 1 1 1 1 1 =.1.1 1 1 1     = = $ $ $ $ 1 1 f 1 $ $ $ o   * $ $ * * $     $ $ $ $ $ $ $ $ $ $ $ $ $ $ $ $ $ * 1 f 1 1 1 $ $ $ $ $ * o o         ",
"        1.f.f.M.1 1 1 1 1 1 1 1 1 1 1 1 f f 1 1 1 1 1 1 f 1 1 $ $         $ $ $ $ $ $ $ $ $     O + $ $                                         O o o O $ $ $ $ $ $ $ $ $ $ $     $ $     ",
"        z.f.f.v.1 1 1 1 1 1 f 1 1 1 1 1 f f f 1 1 1 1 1 1 1 1 $ $         $ $ $ $ $ $ $ $ $     O $ $ $                                         o o o o $ $ $ $ $ $ $ $ $ $ $     * *     ",
"    f.M.f.z.1 1 1 1 1 1 1 1 f 1 f 1 1 1 f f 1 1 f f 1 1 1 1 1 $ $ . .                                           f.M.z.M.m.7.] ( ( (             o X                               X o     ",
"    f.f.n.f.1 1 1 1 1 1 1 f 1 1 f f 1 1 1 1 1 1 f f f f f f 1 $ $ o X                                           f.f.v.f.z.n./ ( ( (             o .                               o o     ",
"    f.f.1 1 1 1 1 1 f 1 1 f f f f f f 1 1 1 f f f 1 1 1 1 1 1 $ $         f.f.f.f.1.M.D 1 $         K.M.1.f.f.9.2 1 1 1 1 1 1 1 1 1 1 1         o   f.0.0.f.f.f.f.f.1.1.e.D D $ +         ",
"    n.n.1 1 1 1 1 1 1 1 1 f 1 f f f 1 1 1 f f f 1 1 1 1 1 1 1 $ $         f.f.f.f.f.1.H 1 $         P.f.z.z.f.0.1 1 1 1 1 f f f 1 1 1 1         o   7.e.0.f.f.f.f.f.0.f.f.M D # +         ",
"    H f 1 1 1 1 1 1 f f 1 1 1 1 1 f f 1 f f f 1 1 1 1 $ $ 1 1 $ $     M.M.f.f.1 1 1 1 1 1 1 & *     M.z.1 1 1 1 1 1 1 1 1 f f f f 1 $ $         f.f.1 1 1 1 1 1 1 1 1 M x f f 1 1 * *     ",
"    D H 1 1 f 1 f f f f 1 1 1 f 1 1 1 1 f f 1 1 f 1 1 $ $ 1 1 $ $     f.f.7.f.1 1 f f 1 1 f * *     L.f.1 1 1 1 1 1 1 1 1 1 f f f f $ $       . 1.1.1 1 1 1 1 1 1 1 1 1 1 1 1 1 1 * *     ",
"    $ $ 1 f f f 1 1 f f f f 1 1 1 1 1 1 1 1 1 1 1 $ $ f 1 $ $ $ $     f.1.1 2 1 f 1 1 1 - * $ $     M 1 f 1 1 1 1 1 1 1 1 1 1 f 1 f $ $     -.1.0.f.1 1 1 1 1 1 1 1 1 1 1 1 1 1 1 $ $     ",
"    $ $ 1 f 1 f f 1 1 1 1 f f 1 1 1 f 1 f 1 1 1 f $ $ 1 f $ $ $ $     7.1.1 1 1 1 1 1 1 - * $ $     f 1 1 1 1 1 1 1 1 1 1 1 1 1 f f $ $     e.f.f.f.1 1 f f 1 1 1 1 1 1 1 1 1 1 1 $ $     ",
"    $ $ f 1 f 1 f 1 $ $ f f f 1 1 1 f $ $ 1 1 1 f 1 1 1 f $ $ $ $     = = 1 1 1 1 1 1 1 = $ $ $     c f 1 1 f 1 1 1 1 f f 1 1 1 $ $ $ $     1.f.1 1 1 1 f f 1 1 1 1 1 1 1 1 f $ $ $ $     ",
"    $ $ f 1 f f 1 1 $ $ 1 1 1 f f f f $ $ 1 1 1 1 1 1 f f $ $ $ $     = & 1 1 1 f 1 1 f = $ $ $     f f f f f f 1 1 1 1 x f f f $ $ $ $     1.=.1 1 1 1 f f f f 1 1 1 1 f f f $ $ $ $     ",
"    $ $ = = $ $ $ & 1 x 1 1 f 1 1 f 1 $ $ $ $ $ $ $ $ $ $ $ $         $ $ 1 1 f f 1 f f - $ $ $ .   $ $ f f f f 1 f f f x x D D $ $ $ $     $ * 1 1 1 1 f 1 f 1 1 1 f f f f 1 f 1 $ $     ",
"    $ $ = = $ $ $ $ f x x x 1 1 1 1 1 $ $ $ $ * $ $ $ $ $ $ *         * $ M f M 1 1 1 1 - $ $ $     & $ M 1 1 f 1 f 1 f f x D D $ $ $ $     $ $ 1 1 1 1 1 f 1 1 f f f f f f 1 1 1 $ $     ",
"        o o $ $   . $ $ $ $ $ $ $ $ $ $ $ $ $ $ $ $ $ * $                 $ $ $ $ $ $ $ $ $         . . $ $ $ $ $ $ $ $ $ $ $ $ $ $         $ $ 1 1 1 1 1 1 1 1 f f 1 1 1 1 1 $ $ $ $     ",
"        o o $ $     $ $ $ $ $ $ $ $ $ $ $ $ $ $ $ $ $ $ $                 $ $ $ $ $ $ $ $ $         .   $ $ $ $ $ $ $ $ $ $ $ $ $ $         $ $ f 1 1 1 1 1 1 1 f 1 f f f 1 f $ $ $ $     ",
"    $ O o .                                                   O O O O                       O O O O                                         $ $ $ $ 1 1 1 1 1 1 f f f f 1 1 1 * & $ $     ",
"    + $ . .                                                   + O + +                       O O O O                                         $ $ $ $ 1 1 1 1 1 1 1 1 1 1 1 1 f & & $ $     ",
"        f.1.1.1.1.1.1.1.1.1.1.= =     O O         1.1.f.f.f.f.1.e.f.1.0.f.1.1.M f = - o .       { f.1.f.f.f.f.9.c M 1.1.r.1.1.1.    * $     o o O O $ $ 1 1 1 1 1 1 1 $ $ $ $ f 1 $ $     ",
"        f.f.f.f.0.f.f.1.f.e.f.; -     O O         M.f.f.m.f.f.f.f.f.f.f.f.f.f.M M = = O .       ( f.f.f.f.f.f.f.D M 1.f.0.f.f.f.    $ *     o o O O $ $ 1 1 1 1 1 1 1 * $ $ $ 1 1 $ $     ",
"    1.f.f.f.1 1 1 1 f 1 f f f f 1 = = . .     f.1.f.f.1 f f 1 f 1 1 1 f 1 f 1 $ $ 1 1 = $   =.f.f.M.1 f 1 1 1 1 %.=.1 1 1 1 1 1 1 1         $ $     $ $ $ $ $ $ $ $ $     $ $ $ $ $ $     ",
"    f.f.f.7.1 1 1 1 f 1 1 1 1 f 1 ; -   o     f.f.0.f.1 1 1 f 1 1 1 1 1 1 1 M $ * f 1 1 $   v.z.n.M.- 1 f 1 1 1 1.-.f 1 1 1 1 1 1 M         $ $     $ $ $ $ $ $ $ $ $     $ $ $ $ $ $     ",
"    f.n.M f 1 1 f f 1 1 1 1 1 1 1 * *     =.@.f.0.f f 1 1 1 1 1 1 1 1 1 1 1 f 1 1 1 1 * $   f.z.H 1 f f f f 1 1 1 f 1 1 1 1 f 1 $ $                                                       ",
"    f.f.1 1 1 1 1 f 1 1 1 1 1 1 f * *     =.1.f.1.1 1 1 1 1 1 1 f 1 1 1 1 1 1 1 1 1 1 $ +   f.f.f 1 1 f f 1 1 1 1 1 1 1 f f 1 1 $ $                                                       ",
"    ~ H 1 1 1 1 1 1 1 f 1 1 1 * $ $ $     1 1 @.1.1 1 f 1 1 1 1 f 1 1 1 1 1 1 1 1 1 1 $ O   1.1.f 1 f f f 1 f 1 1 1 1 1 f 1 1 1 $ $     o   f.1.1.f.1.7.7.1.1.D M M M M D D H = =         ",
"    ~ ~ 1 1 1 1 1 1 1 f 1 f 1 $ $ $ $     - 1 =.&.1 1 1 1 1 f 1 f f 1 f 1 1 1 1 1 1 f * +   7.-.D 1 1 1 1 f 1 1 1 1 f f 1 f 1 1 $ $     . O e.1.w.0.1.e.f.f.1.f D D M M M H H - =         ",
"    1 1 1 1 1 1 1 1 1 1 1 1 1 $ $ $ $     $ $ 1 1 1 1 f 1 f f 1 1 f 1 1 f 1 1 1 1 * * * O   1 1 1 1 1 f f 1 1 1 f 1 1 f f 1 1 1 $ $     1.f.7.w.1 1 1 1 1 1 1 M f =.=.f 1 1 1 ( ~ D T     ",
"    1 f f f 1 1 f 1 1 1 f 1 f * $ $ $     $ $ 1 1 1 f 1 1 1 1 1 f f f 1 1 f f f 1 * * * +   1 1 1 1 f f 1 M f f f 1 f f 1 f f f $ $     f.1.f.1.1 1 1 1 1 1 1 f 1 =.=.1 1 1 1 / ( H H     ",
"    1 1 f f 1 1 f 1 f 1 1 f f f 1 $ $     $ $ 1 1 1 1 1 1 1 f 1 f f 1 1 1 1 f M 1 1 1 * O   1 f f 1 1 1 1 f 1 1 f f 1 f 1 1 1 1 $ $     9.1.M f 1 1 1 f 1 f f f f 1 1 1 1 1 f = = $ $     ",
"    1 1 1 1 1 1 1 f 1 1 1 1 1 f f $ $     $ $ 1 f 1 1 1 1 1 1 f f 1 f f f 1 1 1 f M 1 $ +   1 1 f f x f 1 f 1 f 1 1 1 f c f 1 f $ $     f.1.f 1 1 1 1 f 1 f 1 f f f 1 1 f 1 f = = $ $     ",
"    & & $ $ 1 1 $ $ f f 1 1 1 $ $ $ $         & $ 1 1 1 1 1 1 1 1 1 1 $ $ f 1 & * $ $ $ +   $ $ 1 1 f 1 1 f $ $ 1 1 f 1 = = & & $ $     & $ 1 1 1 1 1 f 1 f f f f 1 1 1 f 1 f = = $ $     ",
"    * & $ $ 1 f $ $ f 1 f 1 1 $ $ $ $       . $ & 1 1 1 1 1 1 1 1 1 1 $ $ 1 f * & $ $ $ O   $ $ 1 1 1 1 f f $ $ f 1 1 1 = = & * $ $     $ * 1 1 1 f 1 1 f 1 1 1 1 1 f f 1 1 1 = = $ $     ",
"    $ $ $ $ $ $ $ $ $ $ $ $ $ $ $     $ $     $ $ $ $ $ $ $ $ $ $ $ $ $ $ $ $ $ $ $ *       $ $ $ $ $ $ $ $ $ $     $ $ $ $ * $         $ $ f 1 f 1 f 1 1 1 1 1 1 o o $ $ & = = = $ $     ",
"        $ $ $ $ $ $ $ $ $ $ $ $ $     $ +     $ $ $ $ $ $ $ $ $ $ $ $ $ $ $ $ $ $ $ $       $ $ $ $ $ $ $ $ $ $     $ $ $ $ $ $         $ $ 1 1 f 1 1 1 1 f 1 f 1 O O $ $ = = = = $ $     ",
"                                                                                                                                        o O $ $ $ $ $ $ 1 1 1 $ $     $ $ $ $ $ $ $ $     ",
"                                                                                                                                        o O $ $ $ $ $ $ 1 1 1 $ $     $ $ $ $ $ $ $ $     ",
"        7.1.-.=.f.0.1.0.M M M 0.-.1.1.1.1.;.-.=.=.H H 1 M     $ $         0.1.-.-.1.1.1.~ .     O O 1.=.-.-.1.0.-.1.-.-.-.1.1.0.1 1 1 f                                                   ",
"        f.f.m.f.n.f.n.f.H T H 1.f.f.f.f.f.f.f.f.f.( ( H D     $ $         f.f.f.0.f.f.0.H o     O O f.7.f.f.f.f.f.f.f.f.f.f.f.f.M M f M                                                   ",
"        f.f.M.M.M.M.M.f.H H H f.f.M.M.M.M.M.f.n.M.Q ( D D     $ $         0.f.f.f.f.f.v.~   .   o o M.1.f.z.f.f.f.f.z.f.f.f.f.z.x M x M                                                   ",
"    f.f.0.0.1 1 1 1 1 1 1 1 1 1 1 f 1 1 1 1 1 1 $ & $ 1 1 1 1         =.=.=.=.1 1 1 1 1 f f     ( 1.-.1.1 1 1 1 f 1 1 f 1 1 1 1 1 1 $ $ =.=.| @..         =.1.9.f.f.1.9.1.7.1.f M         ",
"    f.f.M.0.1 1 1 1 1 1 1 1 1 1 1 f 1 1 1 1 1 f $ * * 1 1 1 1         =.=.=.=.1 1 1 f f 1 1     | -.-.1.1 1 f 1 f 1 1 f 1 1 1 1 1 f $ $ =.@.@.@.  .     O 1.1.1.f.0.0.7.7.1.f.x f         ",
"    f.M.1 f 1 1 f 1 1 1 1 1 1 1 1 1 1 1 f 1 1 1 1 $ $ 1 1 $ $     & = =.=.f 1 1 1 f f f - $     Q 1.1 1 f 1 f f f 1 f 1 1 f 1 f f 1 1 1 1 1 f 1 M D   O f.0.0.M 1 1 1 1 1 1 1 1 1 $ $     ",
"    f.f.1 1 1 f 1 1 1 1 1 1 1 1 1 1 1 1 f f 1 1 1 $ $ 1 f $ $     = & 1.$.1 1 1 1 f f 1 1 $     | =.1 f f 1 f f u 1 1 f 1 f 1 1 1 1 1 1 1 f f f M T   O f.f.f.1 1 1 1 1 1 1 1 1 1 $ $     ",
"    M M 1 1 f 1 1 1 f f 1 1 f 1 1 f f 1 f 1 1 1 1 1 1 1 1 $ $     $ $ 1 1 1 1 1 f 1 1 1 = $     = f 1 1 f f 1 x f f f f 1 1 1 f f 1 1 f f 1 1 1 $ $   o 7.M f 1 1 f 1 1 1 1 1 $ $ $ $     ",
"    M M f f 1 1 1 1 f f 1 1 f 1 1 1 1 f f 1 1 1 1 1 1 1 1 $ $     $ $ 1 1 f f 1 1 1 1 1 - $     = 1 f f x f 1 f 1 1 1 f f 1 f f 1 f f f f f 1 1 $ $   O 7.M f f f f 1 1 1 1 1 $ $ $ $     ",
"    1 1 1 1 1 1 1 1 1 f f f 1 1 1 1 f 1 f f 1 f 1 f 1 1 1 $ $     $ $ $ $ 1 1 f 1 1 f $ O       * - 1 1 1 1 f f 1 f f 1 f 1 1 1 1 M 1 f 1 1 f 1 $ $     1 1 1 1 1 1 1 1 f 1 1 $ $ $ $     ",
"    1 f 1 1 1 1 f 1 f 1 f 1 1 1 1 1 1 f 1 1 1 f 1 1 1 1 1 $ $     $ $ $ $ f 1 f 1 f f $ O       @ $ f 1 f 1 1 1 f f 1 1 1 f c 1 c 1 f 1 f f 1 1 $ $     - 1 1 1 f 1 1 1 f f 1 $ $ $ $     ",
"    1 1 1 1 1 1 1 1 1 1 f 1 1 1 1 f f 1 1 f 1 1 f 1 1 1 1 $ $       . O O $ $ $ $ $ $ . O $     + $ f f f f f f x x M f 1 1 1 f f f f f f 1 $ $         $ 1 1 1 f f 1 1 f 1 1 $ $ $ $     ",
"    1 1 1 f 1 1 1 1 1 1 f 1 1 f 1 f f 1 1 1 1 1 1 1 f 1 1 $ $         O O $ $ $ $ $ $   + &     + $ M f M x x 1 f i f f f f 1 1 f x f f f f $ $         $ $ $ 1 1 f f f 1 f f $ $ $ $     ",
"    $ $ $ $ 1 f 1 1 1 1 1 1 1 1 f $ $ f f f 1 1 f $ $ $ $ $ $                                   + $ * * $ $ 1 1 1 f 1 1 $ $ 1 1 1 f 1 1 $ $ @ O o O     * $ $ 1 f f 1 1 f f f $ $ $ $     ",
"    $ $ $ $ 1 1 1 1 1 1 1 1 1 f 1 $ $ f 1 f f 1 1 $ $ $ $ $ $                                   + $ $ * $ $ 1 1 1 1 f 1 $ $ 1 1 1 1 f 1 $ $ O O O O     . $ $ $ $ $ $ $ $ $ $ $ $         ",
"        * * $ $ $ $ $ $ $ $ $ $ $ $ $     $ $ $ $ $ $             f.7.0.f.f.f.f.f.z.f.f.` D             $ $ $ $ $ $ $ $ $ $ $ $ $ $ $ $ $ $               $ $ $ * $ $ $ $ $ $ $ $         ",
"        $ $ $ * $ $ $ $ $ $ $ $ $ $ $     $ $ $ $ $ $             f.z.f.f.f.f.f.f.f.M.n.| H             * $ $ $ $ $ $ $ $ $ $ $ $ $ $ $ $ $                                               ",
"    O O                                               0.1.1.1.=.1.M f f f f f f f f f f M 1 1 1 .                                               o   M.M.L.M.f.f.M.M.L.M.M.L.f.. .         ",
"    $ $                                               f.f.f.f.f.0.1 1 1 1 1 1 1 f 1 1 1 1 1 1 1 o                                               o . 1.1.7.f.1.1.f.1.1.1.7.1.w.. .         ",
"        f.f.w.7.1.f.f.f.f.1.D M D O O X . o o o . %.=.f 1 f 1 1 1 1 1 f 1 f 1 1 f f 1 $ = 1 1 1 f 1   . o o | @.M M D M O O     O O $ $ 1.1.1.1.1.1.1 1 1 1 f 1 1 1 1 f 1 1 1 1 1 . .     ",
"        f.f.f.f.f.f.f.f.m.@.H H H + O X . o o . o 1.=.1 1 1 1 1 f 1 f 1 1 1 1 1 1 f f $ = 1 1 1 f 1 .   o o %.+.H D D F O O     O o * * 9.9.7.f.0.1.1 1 1 1 1 1 1 1 1 1 1 1 1 1 1 . .     ",
"    L.P.f.f.1 1 1 1 - 1 - 1 1 $ $ M H         L.P.=.-.f 1 1 1 1 1 1 1 f f f 1 1 1 1 f $ $ $ 1 1 * *     I.L.] | M 1 1 1 M M     1.1.7.M.1 1 - 1 1 1 1 1 1 1 1 1 f 1 1 1 f f 1 1 1 * *     ",
"    f.f.f.f.1 1 1 1 1 1 1 1 1 $ $ M f         M.f.-.=.f 1 f 1 1 1 1 1 f 1 f 1 1 f 1 f $ * $ 1 f & $     L.f.| | 1 f 1 f f 1     @.%.1.=.1 1 1 1 1 f 1 1 1 1 1 1 f 1 1 1 1 1 f 1 1 $ $     ",
"    ] ~ 1 2 1 1 1 1 1 1 1 1 1 1 1 1 f - -     f.f.M f f f 1 1 1 1 1 f 1 f f 1 1 1 1 1 1 1 f f f & $     D 1 1 f f 1 f 1 $ $     #.{ 1 f 1 1 1 1 f 1 f 1 1 f 1 f 1 f f 1 1 1 1 $ * $ $     ",
"    ( ( 1 1 1 1 1 1 1 1 1 1 1 f 1 f f 1 1     f.f.1 1 f f 1 1 1 1 f 1 f 1 1 1 1 f 1 f 1 f f f f = *     1 1 f f f 1 1 f $ $     ( | 1 1 1 1 1 1 f f 1 1 1 1 1 f 1 f 1 1 f 1 f $ $ $ $     ",
"    D D 1 1 * $ 1 1 f 1 f f f f f f 1 * *     z.1.1 f 1 f f f 1 1 1 1 1 f f 1 1 1 1 1 1 1 1 1 f & $     = & 1 f f 1 f f * $     M M f f 1 1 1 1 1 1 1 f f 1 1 f 1 f f M f $ * 1 1 $ $     ",
"    f M 1 1 $ $ 1 1 1 1 f f f f f 1 1 $ $     1 1 1 f 1 f f 1 1 1 1 1 1 f f f 1 1 1 f 1 1 1 f 1 & $     & & 1 f f f 1 c $ $     f f f 1 f 1 1 1 1 f f 1 f 1 1 1 f f f 1 f $ $ f f $ *     ",
"    M M 1 1 $ $ 1 f 1 1 f 1 1 f 1 1 1 $ *     1 1 f 1 f 1 1 f 1 1 1 1 1 f f 1 1 f f f f 1 1 1 1 * $     & & 1 f 1 f 1 1 * *     1 1 f f f 1 1 1 1 f 1 f 1 1 1 f 1 1 1 f f $ $ f f $ $     ",
"    f M = = f 1 f 1 1 1 1 1 1 1 f 1 1 $ *     1 1 1 1 1 1 1 1 1 1 1 1 1 f c f 1 f f 1 f 1 f * $ $ $     $ * 1 1 1 f * * * *     1 1 f 1 f 1 1 1 1 1 1 1 1 1 1 1 1 1 1 1 1 $ $ f 1 $ $     ",
"    M M = = 1 1 f f 1 f 1 1 1 f 1 f f $ *     1 f f f 1 f f f f 1 f f f f 1 f M M f 1 f M M $ $ $ *     & * x f f f $ $ * *     f f 1 1 M x f 1 f 1 1 1 1 1 1 1 1 1 f 1 f $ $ f f $ $     ",
"    $ * * $ 1 f f f f 1 1 1 1 1 1 $ * $ $     $ $ $ $ 1 1 1 f f f 1 1 f 1 f f $ $ f 1 f - $ $ $ o       O O $ * $ $ $ $ $ *     $ $ 1 f $ $ 1 1 1 1 1 1 1 1 1 f 1 f f f f $ $ 1 f $ $     ",
"    $ $ * $ 1 f f f f f 1 1 1 1 1 $ $ $ $     $ $ $ $ 1 1 x 1 M f 1 1 1 1 i 1 $ $ f f f = $ * *         o O $ * * $ * $ * *     $ $ x f $ $ 1 f 1 1 1 1 1 1 1 1 1 f f x c $ $ f f $ $     ",
"    + + * $ $ $ $ $ 1 1 f 1 $ $ $ $ $ $ $     $ $ * $ $ $ * $ $ $ 1 1 1 1 1 1     $ $ $ $ $     f ~ $ & O o $ $                 $ $ $ $     f f f 1 1 f 1 1 1 * $ f 1 $ $     $ $ $ $     ",
"    + + $ * $ $ * $ f f f 1 $ * $ * & $ $     $ $ $ $ * * * $ $ $ f f f f f f   . $ $ * $ $     2 ~ & & o o $ $ . .             $ $ $ $     f f f 1 1 1 1 1 1 * $ f x $ $   . $ $ $ *     ",
"        $ $ $ $     $ $ $ $ $   .   . .           $ $ $ $ * $ $ $ $ $ $ $         $ $ $ O       o O O O             $ $ + O             * $ * $ $ $ $ $ $ $ $ $ $ $ $ .   $ $ $ $         ",
"        $ $ $ $     $ $ $ $ $       . .           $ $ $ $ $ * $ $ $ $ $ $         $ $ $ O       o o O O             $ $ O +             $ $ $ $ $ $ $ $ $ $ $ $ $ $ $     $ $ $ $         ",
"                                                                                                                                                                                          ",
"                                                                                                                                                                                          "
};
