/* XPM */
static const char *wall_42_24[] = {
/* columns rows colors chars-per-pixel */
"24 24 206 2 ",
"   c #010002",
".  c #010102",
"X  c #010103",
"o  c #020102",
"O  c #020103",
"+  c #010203",
"@  c #020202",
"#  c #020203",
"$  c #030203",
"%  c gray1",
"&  c #010104",
"*  c #020104",
"=  c #020204",
"-  c #030204",
";  c #030304",
":  c #030205",
">  c #020305",
",  c #030305",
"<  c #040305",
"1  c #040405",
"2  c gray2",
"3  c #060605",
"4  c #040406",
"5  c #050406",
"6  c #050506",
"7  c #050507",
"8  c #060608",
"9  c #070708",
"0  c #070609",
"q  c #070709",
"w  c #07070A",
"e  c #070809",
"r  c gray3",
"t  c #090909",
"y  c #08080A",
"u  c #09080A",
"i  c #09090A",
"p  c #08080B",
"a  c #09090B",
"s  c #0A090B",
"d  c #0A0A0B",
"f  c #0C0B0B",
"g  c #0C0C0B",
"h  c #090A0C",
"j  c #0A0A0C",
"k  c #0B0A0C",
"l  c #0B0B0C",
"z  c #0A0B0D",
"x  c #0B0B0D",
"c  c #0C0C0D",
"v  c #0D0D0E",
"b  c #0D0C0F",
"n  c #0C0E0F",
"m  c #0E0E0F",
"M  c #0F0E0F",
"N  c #0E0F0F",
"B  c #0E0D10",
"V  c #0D0E10",
"C  c #0E0E10",
"Z  c #0F0E10",
"A  c #0F0F10",
"S  c #0E0E11",
"D  c #0F0F11",
"F  c #101011",
"G  c #111111",
"H  c #101012",
"J  c #111112",
"K  c #101113",
"L  c #111113",
"P  c #131313",
"I  c #111114",
"U  c #131214",
"Y  c #131315",
"T  c #141314",
"R  c #141315",
"E  c #151315",
"W  c #141316",
"Q  c #131414",
"!  c gray8",
"~  c #141514",
"^  c #141415",
"/  c #151515",
"(  c #141416",
")  c #151416",
"_  c #141516",
"`  c #151516",
"'  c #151417",
"]  c #151517",
"[  c #161517",
"{  c #151617",
"}  c #161617",
"|  c #151518",
" . c #171718",
".. c #171719",
"X. c #181719",
"o. c #171819",
"O. c #181819",
"+. c #18181B",
"@. c #19191B",
"#. c #191A1A",
"$. c #1A1A1B",
"%. c #1B1A1C",
"&. c #1B1B1C",
"*. c #1C1C1D",
"=. c #1C1C1E",
"-. c #1D1D1E",
";. c #1D1D1F",
":. c #1D1E1E",
">. c #1D1E1F",
",. c #1E1E1F",
"<. c gray12",
"1. c #1D1D20",
"2. c #1E1E20",
"3. c #1F1E20",
"4. c #1F1F21",
"5. c #1F1F22",
"6. c #201F21",
"7. c #1F2123",
"8. c #202021",
"9. c #212122",
"0. c #212123",
"q. c #222123",
"w. c #222223",
"e. c #222323",
"r. c #232323",
"t. c #222224",
"y. c #232324",
"u. c #232325",
"i. c gray14",
"p. c #252524",
"a. c #252425",
"s. c #252525",
"d. c #242426",
"f. c #252426",
"g. c #252526",
"h. c #252527",
"j. c #262426",
"k. c #262526",
"l. c #262527",
"z. c #252626",
"x. c #252627",
"c. c gray15",
"v. c #262627",
"b. c #272627",
"n. c #262727",
"m. c #272727",
"M. c #252528",
"N. c #262528",
"B. c #262628",
"V. c #272628",
"C. c #272728",
"Z. c #272629",
"A. c #282829",
"S. c #28282A",
"D. c #29282A",
"F. c #2A2A2B",
"G. c #2A292C",
"H. c #2D2C2C",
"J. c #2C2D2C",
"K. c #2E2D2D",
"L. c #2D2D2E",
"P. c #2E2D2F",
"I. c #2F2E2E",
"U. c #2F2E2F",
"Y. c #2F3030",
"T. c #303031",
"R. c #323232",
"E. c #323233",
"W. c #353535",
"Q. c gray21",
"!. c #393839",
"~. c #3A3A39",
"^. c #39393A",
"/. c #3B3B3C",
"(. c #3C3D3D",
"). c #3E3D3F",
"_. c #3E3E3E",
"`. c #3F3F3E",
"'. c #3E3E40",
"]. c #414041",
"[. c #424241",
"{. c #444443",
"}. c gray27",
"|. c #474646",
" X c #474746",
".X c #484647",
"XX c #484747",
"oX c #484847",
"OX c #494947",
"+X c #484748",
"@X c #484848",
"#X c #494848",
"$X c #494948",
"%X c #484849",
"&X c #494949",
"*X c #4A4949",
"=X c #494A49",
"-X c #4A4A49",
";X c #4B4A49",
":X c #4A494A",
">X c gray29",
",X c #4B4B4A",
"<X c #4B4B4B",
"1X c #4C4B4A",
"2X c #4B4C4B",
"3X c #515050",
/* pixels */
"# ! ! a L !  XP.1 f #.n.Z.8.8 1 {.].`.3Xt.y a - ",
"n.Z.n.Z.].P.n.Z.- ;Xn.~.n.n.n ;Xn.n.n.n.8.S.~.j ",
"n.n.n.8.j n.n.,.- S.n.n.n.4.n ;Xn.n.n.n.n.n.%.a ",
"n 7.Y L - 1 # < < n.n.n.n.8.C Z.n.n.n.n.n.n.,.a ",
"1 `.;X;XXXn.n.Y.1 ..4.8.a ! C ! ! ! ! ..n.! C 1 ",
"L `.n.n.n.n.n.n.1 a a j a 8 L P.,.< 1 8 j j 8 8 ",
"n.n.n.n.n.n.n.n.# P. X8.< ;X`.n.n.! 8  X;X;XC # ",
"a n.n.n.n.j.X.%.# E.n.4.1 n.n.n.n.a XXn.n.n.n.a ",
"a ! ,.Z.Z.! ! ! 1 8.Z.,.1 #.n.Z.n.n ..n.n.Z.n.a ",
"e 1 - # # # # - n # - - n # - # - - E n.n.n.8.a ",
"n.n.n.n.4.1 oXn.n.n.4.Q 2Xn.E.n.n.- ! E E a E j ",
"..n.n.Z.! ..S.n.n.n.n.n G.Z.n.Z.,.8 XX+XZ.S.n.< ",
"C n.Z.n.! C n.n.n.n.n.C Z.Z.n.Z.,.P.n.Z.Z.Z.8.j ",
"# ! ! ! # 8 ! ! E ! ! - ! ! n ! 8 n n.Z.n.L ,.j ",
"# ;X;XP.;X;X XL - /.;XP.j oX;X;X'.! # # # # # # ",
"n.n.n.n.n.n.4.,.#.E.n.8.W.n.n.Z.n.n.S.g Z.n.n.a ",
"Y n.n.n.n.n.n.#.E 6.n.C ..n.n.n.n.Z.t.1 n.n.8.j ",
"L n.n.n.n.Z.n.%.1 H Y n C S.Z.Z.Z.Z.n # t.n.t.j ",
"# ! ! ! ! L ! - ;X;X1X~.- a ! ! ! ! - - # # # # ",
"- ;X;X`.C y W.n.n.n.n.,.n.8 ~.E.a E.;Xn.n.n.n.1 ",
"o.n.n.n.Z.n P.n.n.n.n.Z.#.L Z.S.,.n.n.n.n.Z.8.n ",
"Y n.n.n.n.a n.n.n.n.n.n.! a Z.! Y n.n.n.n.Z.,.j ",
"8 ! %.8.! a ..! n.n.n ! n.! L 1 j n n.n...#.n j ",
"# # # - - - # # # # - - # - - # - # # - - - # - "
};
