/* XPM */
static const char *wall_42_22[] = {
/* columns rows colors chars-per-pixel */
"22 22 165 2 ",
"   c black",
".  c #000001",
"X  c #010001",
"o  c #000101",
"O  c #010101",
"+  c #000002",
"@  c #010002",
"#  c #010102",
"$  c #010103",
"%  c #020103",
"&  c #010202",
"*  c #010203",
"=  c #020202",
"-  c #020203",
";  c #030203",
":  c #020204",
">  c #030204",
",  c #020304",
"<  c #030304",
"1  c #030305",
"2  c #030306",
"3  c #040304",
"4  c #040205",
"5  c #040305",
"6  c #040306",
"7  c #030405",
"8  c #040405",
"9  c gray2",
"0  c #040406",
"q  c #050406",
"w  c #040506",
"e  c #060607",
"r  c #070709",
"t  c #080809",
"y  c #090909",
"u  c #09080A",
"i  c #09090A",
"p  c #0A090B",
"a  c #0A0A0C",
"s  c #0C0C0D",
"d  c #0C0C0E",
"f  c #0D0D0E",
"g  c #0D0D0F",
"h  c #0E0E0F",
"j  c #0E0E10",
"k  c #0F0F10",
"l  c #0F0F11",
"z  c #101012",
"x  c #111112",
"c  c #121213",
"v  c #121114",
"b  c #121214",
"n  c #131214",
"m  c #121314",
"M  c #131314",
"N  c #131315",
"B  c #131316",
"V  c #141315",
"C  c #141415",
"Z  c #151415",
"A  c #141515",
"S  c #151515",
"D  c #141416",
"F  c #151416",
"G  c #141516",
"H  c #151516",
"J  c #141417",
"K  c #151417",
"L  c #141517",
"P  c #151517",
"I  c #161416",
"U  c #161516",
"Y  c #161517",
"T  c #161616",
"R  c #161617",
"E  c #151618",
"W  c #161618",
"Q  c #171618",
"!  c #171718",
"~  c #161619",
"^  c #171719",
"/  c #19191A",
"(  c #1A191B",
")  c #1C1C1E",
"_  c #1D1D1F",
"`  c #1E1E1E",
"'  c #1E1E20",
"]  c #1F2122",
"[  c #222120",
"{  c #232324",
"}  c #242325",
"|  c #242425",
" . c #242426",
".. c #252426",
"X. c #242526",
"o. c #252526",
"O. c #252427",
"+. c #242527",
"@. c #252527",
"#. c #262526",
"$. c #262527",
"%. c #252626",
"&. c #252627",
"*. c gray15",
"=. c #262627",
"-. c #272727",
";. c #252528",
":. c #262528",
">. c #272528",
",. c #252628",
"<. c #262628",
"1. c #272628",
"2. c #272728",
"3. c #272729",
"4. c #28272A",
"5. c #282828",
"6. c #282829",
"7. c #28282A",
"8. c #29292A",
"9. c #29292B",
"0. c #2A2A2A",
"q. c #2A2A2B",
"w. c #2A2B2C",
"e. c #2D2B2D",
"r. c #2C2C2D",
"t. c #2C2C2E",
"y. c #2D2D2E",
"u. c #2D2D2F",
"i. c gray18",
"p. c #2F2F31",
"a. c #323130",
"s. c #373737",
"d. c #363638",
"f. c #38373A",
"g. c #3E3D3E",
"h. c #414040",
"j. c #424243",
"k. c #434343",
"l. c #454444",
"z. c #464646",
"x. c #474646",
"c. c #474746",
"v. c gray28",
"b. c #484747",
"n. c #474847",
"m. c #484848",
"M. c #494848",
"N. c #494949",
"B. c #494A49",
"V. c #4A4A49",
"C. c gray29",
"Z. c #4B4B4A",
"A. c #4A4B4B",
"S. c #4B4B4B",
"D. c #4C4B4B",
"F. c #4C4C4B",
"G. c #4B4C4C",
"H. c #4C4C4C",
"J. c #4D4D4C",
"K. c gray30",
"L. c #4E4E4E",
"P. c #4E4E4F",
"I. c gray31",
"U. c #50504E",
"Y. c #4F5050",
/* pixels */
": A.A.v A.A.A.7.: K.K.1.q r Y.A.K.A.w.7 7.7 ",
"D.....r.K.....v F...1...1.- A.....1.v r...Q ",
"A.....v f ..D D 7.......D - ....1.........D ",
"] D V 5 : - - 5 ........D : ..........1...v ",
"t A.A.A.x...x...( D 7.q Q : D D D D 1.D D q ",
"F...1.1...1...D : - - : - K.U.d.- - - - - t ",
"D 1.......1.1.D A.....: ......1.[ ........D ",
"D D ..1...D D q D ..1.: ....1.D a ......1.Q ",
"j - - : : : : j : : : f - - : : t ........D ",
"K.......' a.......D } A...j...1.t v D v D Q ",
"p.......D s.....1.1.Q ........D _ x.A.7.r.q ",
"{ ......D _ ....1.1.Q 1.1.1.1.D j...1...1.D ",
": D D D - f D D D D : D D q D - _ ....f _ Q ",
"- A.A.r.G.G.r.V : A.A.f A.A.A.4.- - - - - - ",
"F.............5 j...1.x...1...1.7.: A.....Q ",
"..........1...- v ..D v ..1.......- 1.....Q ",
"c ......D 1.D - - : - D D ..D 1.v - D D D 5 ",
"c : - - - 5 A.A.......q : - : - : b.A.n.x.q ",
"K.......7.r.........D D K.1...g.......1...Q ",
"7.D ......Q 1.....1.1.D ( ..D 1.........D Q ",
"f v ..v D f D c ..: D f.t : : D j ......q Q ",
"- - - - : - - - - - - - : : - - - - - - - 5 "
};
