/* XPM */
static const char *wall_42_19[] = {
/* columns rows colors chars-per-pixel */
"19 19 132 2 ",
"   c black",
".  c #010101",
"X  c #010002",
"o  c #010102",
"O  c #010103",
"+  c #020102",
"@  c #020103",
"#  c #010202",
"$  c #010203",
"%  c #020202",
"&  c #020203",
"*  c #020303",
"=  c gray1",
"-  c #020104",
";  c #020204",
":  c #030204",
">  c #020304",
",  c #030304",
"<  c #030305",
"1  c #040305",
"2  c #030406",
"3  c #040405",
"4  c #050405",
"5  c #040505",
"6  c #050406",
"7  c #040506",
"8  c #050506",
"9  c #040507",
"0  c #050507",
"q  c #060607",
"w  c #060608",
"e  c #070608",
"r  c #08080A",
"t  c #08080B",
"y  c #0A0A0C",
"u  c #0C0B0D",
"i  c #0C0C0E",
"p  c #0D0D0E",
"a  c #0D0D0F",
"s  c #0E0E10",
"d  c #0F0F10",
"f  c #111113",
"g  c #111213",
"h  c #131314",
"j  c #131315",
"k  c #141316",
"l  c #131415",
"z  c #131416",
"x  c #141415",
"c  c #151415",
"v  c #141515",
"b  c #151515",
"n  c #141416",
"m  c #151416",
"M  c #151516",
"N  c #141417",
"B  c #151417",
"V  c #151517",
"C  c #161517",
"Z  c #151617",
"A  c #161617",
"S  c #151518",
"D  c #161618",
"F  c #171719",
"G  c #181719",
"H  c #18181A",
"J  c #1C1C1D",
"K  c #1C1C1E",
"L  c #202021",
"P  c #212122",
"I  c #242425",
"U  c #242426",
"Y  c #252426",
"T  c #252526",
"R  c #252527",
"E  c #262526",
"W  c #262527",
"Q  c #252627",
"!  c gray15",
"~  c #262627",
"^  c #262727",
"/  c #272727",
"(  c #252528",
")  c #262528",
"_  c #272528",
"`  c #252628",
"'  c #262628",
"]  c #272628",
"[  c #272728",
"{  c #272729",
"}  c #282829",
"|  c #292829",
" . c #29282A",
".. c #292A2B",
"X. c #2A2A2A",
"o. c #2C2C2D",
"O. c #2C2C2E",
"+. c #2D2C2E",
"@. c #2E2D2F",
"#. c #2E2E2F",
"$. c #2F2E2F",
"%. c #2E2E30",
"&. c #2F2F30",
"*. c #303031",
"=. c #343435",
"-. c #3D3C3E",
";. c #444344",
":. c gray27",
">. c #454645",
",. c #474646",
"<. c #484747",
"1. c #484847",
"2. c #494947",
"3. c #484848",
"4. c #494848",
"5. c #494948",
"6. c #494949",
"7. c #4A4949",
"8. c #4A4A49",
"9. c #4A4B49",
"0. c gray29",
"q. c #4B4A4A",
"w. c #4B4B4A",
"e. c #4A4A4B",
"r. c #4B4A4B",
"t. c #4B4B4B",
"y. c #4C4B4B",
"u. c #4B4C4A",
"i. c #4C4C4B",
"p. c #4C4C4C",
"a. c #4D4D4C",
"s. c gray30",
/* pixels */
"@ e.&.: e.e.| @ s.e.O.r s.y.s.O.R | : ",
"i.R R @ R R m u.R R ` @ R R ` R R R j ",
",.j R @ m j m R R R ` @ R R R R R R j ",
"0 @ @ 0 -.O.@ J R | m : m | ` R ` m j ",
"e.R R R R R m 0 @ @ @ s.e.: @ : @ @ r ",
"O.R ` R ` R m e.R H e.R R m 1 R R R D ",
"m m R R m m 0 g R m j ` R m m R ` R m ",
"s : : @ @ @ s : 1 i @ : @ : z ` R R m ",
"e.R R R ,.R R R R e.R R R : : : @ : : ",
"R R ` m m R R R m R ` ` ` @ <.R R R &.",
"J D m m : m m m m m D w m @ R ` R J m ",
": e.*.e.e.=.z 0 2.0 2.e.e.` @ @ @ @ : ",
"e.R R R R j 1 ,.` @ ` ` R P ` e.R R m ",
"P R R R R R @ i m @ R R R R k m R ` m ",
"@ m m m m m 1 e.i.0 : m m m @ 2 @ @ : ",
"0 e.e.O.y ;.R R R ` w O.u G 2.` R R w ",
"| m R R : ` R R R ` @ ` D R R R R m D ",
"D R ` R 0 m ` R R m @ D m ` R R R g m ",
": j m 0 0 m m m m 0 i 0 s 0 m m m m @ "
};
