/* XPM */
static const char *wall_42_56[] = {
/* columns rows colors chars-per-pixel */
"56 56 142 2 ",
"   c #020204",
".  c #070608",
"X  c #080709",
"o  c #0B0A0C",
"O  c #0F0E10",
"+  c #100F11",
"@  c #141416",
"#  c #161618",
"$  c #181719",
"%  c #1B1B1D",
"&  c #1E1E20",
"*  c #201F21",
"=  c #1F2122",
"-  c #262727",
";  c #272727",
":  c #262627",
">  c #252527",
",  c #252526",
"<  c #252528",
"1  c #262528",
"2  c #252628",
"3  c #262628",
"4  c #272628",
"5  c #262728",
"6  c #272728",
"7  c #272629",
"8  c #272729",
"9  c #262628",
"0  c #282629",
"q  c #282729",
"w  c #282829",
"e  c #28282A",
"r  c #29282A",
"t  c #29292A",
"y  c #29282B",
"u  c #2A2A2B",
"i  c #2A2A2C",
"p  c #2B2A2C",
"a  c #2B2B2C",
"s  c #2B2B2E",
"d  c #2C2A2C",
"f  c #2C2B2D",
"g  c #2C2C2D",
"h  c #2C2C2E",
"j  c #2D2D2E",
"k  c #2D2D2F",
"l  c #2E2E2F",
"z  c #2F2E2F",
"x  c #2E2F2F",
"c  c #2B2B2C",
"v  c #2F2F30",
"b  c #302F31",
"n  c #2F3030",
"m  c #323132",
"M  c #333234",
"N  c #323335",
"B  c #343435",
"V  c #353536",
"C  c #373737",
"Z  c #333234",
"A  c #383737",
"S  c #363638",
"D  c #393839",
"F  c #39393A",
"G  c #3A3A3B",
"H  c #3F3F3E",
"J  c #3E3E3F",
"K  c #3B3B3C",
"L  c #414041",
"P  c #414141",
"I  c #434343",
"U  c #444342",
"Y  c #444243",
"T  c #454445",
"R  c #444545",
"E  c gray27",
"W  c #464444",
"Q  c #464545",
"!  c #464645",
"~  c #474646",
"^  c #464746",
"/  c #474746",
"(  c gray28",
")  c #454545",
"_  c #484646",
"`  c #484747",
"'  c #494747",
"]  c #484747",
"[  c #474847",
"{  c #484846",
"}  c #484847",
"|  c #494947",
" . c #484847",
".. c #474748",
"X. c #484748",
"o. c #484848",
"O. c #494848",
"+. c #494948",
"@. c #494849",
"#. c #494949",
"$. c #4A4949",
"%. c #494A49",
"&. c #4A4A49",
"*. c #4B4A49",
"=. c #4B494B",
"-. c gray29",
";. c #4B4A4A",
":. c #4B4B4A",
">. c #4A4A4B",
",. c #4B4A4B",
"<. c #4B4B4B",
"1. c #4C4A4A",
"2. c #4C4B4A",
"3. c #4C4B4B",
"4. c #4C4C4A",
"5. c #4C4C4B",
"6. c #4D4C4B",
"7. c #4C4C4C",
"8. c #4D4C4C",
"9. c #4D4D4C",
"0. c #4C4D4D",
"q. c gray30",
"w. c #4E4D4D",
"e. c #4E4E4D",
"r. c #4E4E4E",
"t. c #4A4A4A",
"y. c #504F4F",
"u. c #4F504F",
"i. c #50504F",
"p. c #50514F",
"a. c #515050",
"s. c #515150",
"d. c #505051",
"f. c #515051",
"g. c #515151",
"h. c #525150",
"j. c #525151",
"k. c #515250",
"l. c gray32",
"z. c #525352",
"x. c #535353",
"c. c #565655",
/* pixels */
"                                                                                                                ",
"    7.:.:.3.3.z @   / :.7.3.:.:.:.C u u     :.3.7.7.:.7 7.u z ,   X . o 7.5.5.:.7.7.7.5.:.:.u a ,   u u % @     ",
"    :.u.y.g.p.m @   P :.7.g.g.g.g.A u f     :.g.g.g.g.& g.u b >   X X X 7.c.g.g.g.g.g.g.p.5.& % u   a z % @     ",
"  :.3.7 , , , , z   P :./ , 7 , , 7 , @   5.:., , , , :., , , , , @   :.:., , , , , , , , , $ @ u z # @ F M @   ",
"  3.> , , , , , @   # $ , , , , , 7 , @   7., , , , , , , , , , , @   :., , , , , , , , , , , @ , 7 , , & % @   ",
"  :.> , , , , , @   o o , , , , @ % , @   f , , , 7 , , , , 7 > @ @   } , , , , , , 7 , , , , , , , , , % @ @   ",
"  / o @ @ , , 7 @   o o . @ @ @ @ $ % @   , , , , , , , , 7 7 , , @   / , , , , , , 7 , , , , , 7 , , , % # @   ",
"  / & % @ , 7 , @   o o . @ @ @ @ $ % @   , , , , , , , , , 7 , 7 @   P , 7 , , , , , , , , , , , , , , % @ @   ",
"  = = = @ @ @ @   $     o                 , , 7 , , , 7 , , 7 > @ @   7 , , , , , , 7 , , , , , , , , , % @ @   ",
"                o o S F F F F z z z z     % @ , , , , 7 , @ @ @ @ @   @ @ , , , 7 7 7 @ , , , , , 7 , @ @ @ @   ",
"  X   H :.:.:.:.:.:.` / , , , , / n , ,   % @ @ & , , @ @   @ @ # @   @ @ @ @ @ @ @ @ @ @ # 7 , 7 @ @ @ O X .   ",
"  X   / 7.:.:.:.:.:.} :., , , , Y z , ,   $ @ @ % 7 7 @ @   @ @ # @   @ @ @ @ @ @ @ @ @ @ # , 7 , @ @ @ o X     ",
"    7.:.:., , , , 7 , , , , , , , , , @     @ @ @ @ @ @   @ @ o                       X X X @ @ @ @ @ @ o . #   ",
"  :.:., , , , , , , , , , , , , , , , @ X                           :.:.3.M C C       X                     X   ",
"  :.> , , , , , , , , 7 , 7 , , , , , @     :.:.:.:.z @     :.} :./ , , , , , , >     X :.:.:.:.:.} } a o @     ",
"  z , , 7 , , , , , , 7 7 , , , @ & , @   :.:., , , , , @   :.H , , , , , , , 7 @     ` , , , , , , , , , > @   ",
"  @ 7 , , , , , , 7 , , , , , @ u % # @   :.7 , , , , # @   f u , , , , , , , 7 @   Y / , , , , , , , , , , @   ",
"  @ , , 7 7 , , , , , , , , , @ , % @ @   / , 7 , , , # @   , , , , , , , , , , @   / / , , , , , , , , , > @   ",
"  @ , , 7 , @ , 7 7 , 7 @ , 7 , 7 % @ @   $ , , 7 7 7 @ @   , , , 7 , , 7 , > @ @   / , , , 7 , , , , 7 > @ @   ",
"  @ % @ @ @ 7 7 7 , , 7 @ # @ @ @ @ #     @ 7 7 7 7 7 @ @   # % , 7 7 , 0 a a @ @   @ , 7 , , , , , , 7 7 , @   ",
"    . @ @   @ @ @ @ @ @ @ @ @ @ @ X         @ @ @ @ @ @       X @ @ @ @ @ @ @ @     @ , , , , , 7 7 , , > @ @   ",
"  O X                                 O o               o o                         @ @ , , , , , 7 , , > $ @   ",
"    :.} / / ` } / &     o     / :.:.:.:.:.:.:.u > % X     7.` 3.5.` 7 :.:.[ X   @   X o @ # , , , , @ @ $ , @   ",
"    7.:.:.:.:.X.X.>     o     :.:.:.:.:.:.:.:.u , & X     3.:.:.:.:.u :.:.:.X   #   X X @ @ % % % % o o + $ @   ",
"  :.:., , , , , 7 , & > .   3.:., , , , , , , @ & , >   7.7., , , , P , , , , u     @   @ @ @ @ @ @   @ @ @ @   ",
"  :.> , , , , , , , # #   / } , , , , , , , , , , , @   :., , , , , , , , , % @                                 ",
"  v , , , , , , , @ @ @   * P > , , , , , , , , 7 , @   / , , , 7 , , , 7 , % @   X } / } ` / / u u a z , &     ",
"  , , , , , , , , @ @ @   @ , , , , , , 7 7 , 7 = @ @   , , , , , , 7 , 7 , % @   :./ , , , , , 7 P 7 , z C z   ",
"  > , , , , 7 , , 7 @ @   @ , , , , 7 7 , , , , , 7 @   , 7 7 , 7 7 , 7 , 7 % @   ` a , , , , 7 , 7 7 , > % @   ",
"  > , , , 7 , , , 7 @ @   @ 7 , , , , 7 7 7 7 , 7 7 #   7 7 , 7 7 7 , , 7 7 % @   / , , , , , , , , 7 , > % @   ",
"  $ @ > 7 @ , , , @ @ @     @ , , , , , 7 @ , $ # @ @   @ , , 7 7 @ , 7 % $ # @   @ , , , , , , 7 , 7 7 > % @   ",
"    @ @ @ @ @ @ @ @     O   @ @ @ @ @ @ @ @ @ @ @ @     @ @ @ @ @ @   @ @ @ .     @ , , , 7 , , , o @ % % % @   ",
"                                                                                  o @ @ @ @ , , @   @ @ @ @ @   ",
"    :.} / :.:.z f / ..:./ / / m a @   @     :.X./ / :.X   o / / / / / / / :.I 7 ,                               ",
"    7.:.:.:.<.v z :.:.:.:.5.7.M z @   @     :.:.:.:.:.X   o :.:.:.:.:.:.:.:.P u 0                               ",
"  :.} , , , , , , , , , , , @ $ , , >     Y P , , , , ,   / / F , , , , , , , , @ H H       X / ` X./ ` F 7     ",
"  :., , , , , , , , , , , , , @ , % @   $ P 7 , , 7 7 #   Y , 7 , 7 7 , , 7 , , > , , u   o :.:.> , , , , , @   ",
"  u , , , , , , , , , , , , , , , $ @   @ 7 , , , , , @   7 7 7 7 7 , , 7 , , 7 , 7 , @   X :., , , , , > @ @   ",
"  , , , , , , , , , , , , , , , , $ @   @ @ , 7 , 7 @     > , , 7 , 7 , , , , 7 , 7 , @     , , , , , , > @ @   ",
"  , , , , , , , , , , , , , , 7 , $ @   @ @ , , , , @     @ , , , , , , , , , 7 , , , @     # , , , 7 7 > @ @   ",
"  > , , , , , , , , , , 7 , 7 7 , % @     o @ @ @ @ . $   @ 7 7 7 7 7 , , , , 7 , 7 @       @ @ , , , , > @ @   ",
"  @ @ > , , , , , , @ @ 7 7 7 @ @ @ @                     @ @ # @ , , , @ , , , , @ + o     @ @ 7 7 0 7 > @     ",
"    @ @ @ @ @ @ @ @ @ @   @ @ @         ` ` } :.:.:.5.a       X @ @ @ @ @ @ @ @ @ @           @ @ @ @ @ @ @     ",
"    # @ @ @ @ @ @ @ @ @   @ @ @     .   5.3.5.:.3.7.7.z       X @ @ @ @ @ @ @ @ @ @                             ",
"  @                             3.:.:.:., , , 7 , , , , ,                             X :...:.` ..X.} / > .     ",
"    7.:.:.:.:.:.a z O o . X . P , , , , , , , , , , # , , ,   . o K a z o   X X # X.X.:., , , , , , , , , , .   ",
"  :.` a , , , , , @ a 7     :.Y , , , , , , 7 , , , @ # 7 @   , :.F 7 , 7   > H I , , , , , , , , , , 7 , , @   ",
"  M , , , , , , , , 7 , >   :., 7 , , , , , , , , , , 7 , @   @ , 7 7 7 @   > F 7 , , , , , , , , , , , > @ @   ",
"  a > @ @ , , , 7 7 7 , @   } , 7 , , , , , , , , , , , , @   X # , , 7 @   @ 7 , , , , , , , , , , , @ % u @   ",
"  u > @ @ , , , , , , 7 @   , , , , , , , , , 7 , , , , 7 @   X $ , , 7 @   @ 0 , 7 , , , , , , , , 7 @ % 7 @   ",
"  7 % , , , , , , 7 7 , @   , , 7 , 7 , , 7 7 , , , , , @ @   X @ , , @ @   @ , , , , , , , , , , , 7 @ % 7 @   ",
"  @ # , , , , 7 , , @ @ @   @ @ , 7 , , , , , @ % 7 7 @ @       X @ @ # @   o @ 7 @ , , , , , , , , , @ % 7 @   ",
"  O @ @ @ @ , , @ @ @ @ @   @ @ @ @ @ @ , , 7   o @ @ @   m # @ X @ .       o @ @   , , , , , , @ , @   o @ @   ",
"    @ @ @   @ @ @ .           # @ @ @ @ @ @     o @ @     X O o     . @ o         @ @ @ @ @ @ @ # @ . @ @ @     ",
"    @ @ @   @ @ # . .         @ @ @ @ @ @ @     o @ @     X o X       @ O .       @ @ @ @ @ @ @ @ @   @ @ @     ",
"                                                                                                                "
};
