/* XPM */
static const char *wall_42_34[] = {
/* columns rows colors chars-per-pixel */
"34 34 240 2 ",
"   c black",
".  c #010000",
"X  c #000001",
"o  c #010001",
"O  c #000101",
"+  c #010101",
"@  c #020001",
"#  c #020101",
"$  c #010002",
"%  c #010102",
"&  c #010103",
"*  c #020102",
"=  c #020103",
"-  c #030103",
";  c #010202",
":  c #010203",
">  c #020202",
",  c #020203",
"<  c #030203",
"1  c #020303",
"2  c gray1",
"3  c #010104",
"4  c #020104",
"5  c #030104",
"6  c #010204",
"7  c #020204",
"8  c #030204",
"9  c #030304",
"0  c #020205",
"q  c #030205",
"w  c #020305",
"e  c #030305",
"r  c #040304",
"t  c #040205",
"y  c #040305",
"u  c #050306",
"i  c #030405",
"p  c #040404",
"a  c #040405",
"s  c #040406",
"d  c #050406",
"f  c #050506",
"g  c #050507",
"h  c #060506",
"j  c #060507",
"k  c #060607",
"l  c #060608",
"z  c #070608",
"x  c #060708",
"c  c #070708",
"v  c #070709",
"b  c gray3",
"n  c #080909",
"m  c #08080A",
"M  c #09090A",
"N  c #08080B",
"B  c #09090B",
"V  c #090A0A",
"C  c #090A0B",
"Z  c #0A0A0B",
"A  c #090A0C",
"S  c #0A0A0C",
"D  c #0A0B0C",
"F  c #0B0B0C",
"G  c #0B0B0D",
"H  c #0C0B0D",
"J  c #0C0C0E",
"K  c #0D0D0F",
"L  c #0E0E0F",
"P  c #0E0E10",
"I  c #0F0F10",
"U  c #0F0F11",
"Y  c #100E11",
"T  c #100F12",
"R  c #0F1010",
"E  c #0F1011",
"W  c #101011",
"Q  c #101111",
"!  c #101012",
"~  c #111012",
"^  c #101112",
"/  c #111112",
"(  c #101113",
")  c #121013",
"_  c #121214",
"`  c #121314",
"'  c #131314",
"]  c #131215",
"[  c #131315",
"{  c #131316",
"}  c #141315",
"|  c #141316",
" . c #131415",
".. c #141415",
"X. c #151415",
"o. c #141515",
"O. c #141416",
"+. c #151416",
"@. c #141516",
"#. c #151516",
"$. c #151417",
"%. c #141517",
"&. c #151517",
"*. c #161416",
"=. c #161516",
"-. c #161517",
";. c #151617",
":. c #161616",
">. c #161617",
",. c #151518",
"<. c #161618",
"1. c #171718",
"2. c #171719",
"3. c #171819",
"4. c #181818",
"5. c #181819",
"6. c #18181A",
"7. c #1B1B1B",
"8. c #1A1A1C",
"9. c #1B1B1C",
"0. c #1B1B1D",
"q. c #1C1B1D",
"w. c #191C1F",
"e. c gray11",
"r. c #1C1C1D",
"t. c #1D1D1E",
"y. c #1C1C1F",
"u. c #1D1E20",
"i. c #1F1F20",
"p. c #1F1F21",
"a. c #212022",
"s. c #222123",
"d. c #222223",
"f. c #222124",
"g. c #202325",
"h. c #222224",
"j. c #232324",
"k. c #232325",
"l. c #232326",
"z. c #242326",
"x. c #252524",
"c. c #242425",
"v. c #252425",
"b. c #242525",
"n. c #252525",
"m. c #242426",
"M. c #252426",
"N. c #242526",
"B. c #252526",
"V. c #242427",
"C. c #252427",
"Z. c #252527",
"A. c #262526",
"S. c #262527",
"D. c #252626",
"F. c #252627",
"G. c gray15",
"H. c #262627",
"J. c #272627",
"K. c #262727",
"L. c #272727",
"P. c #252528",
"I. c #262528",
"U. c #252628",
"Y. c #262628",
"T. c #272628",
"R. c #272728",
"E. c #262629",
"W. c #272629",
"Q. c #272729",
"!. c #282728",
"~. c #282829",
"^. c #28282A",
"/. c #2A2A2B",
"(. c #2A2A2C",
"). c #2B2B2C",
"_. c #2C2C2D",
"`. c #2D2D2F",
"'. c #2F2F2E",
"]. c #2E2E2F",
"[. c #2F2F31",
"{. c #302F31",
"}. c #323130",
"|. c #313133",
" X c #343435",
".X c #373638",
"XX c #3B3A3C",
"oX c #3D3D3E",
"OX c #404041",
"+X c #424141",
"@X c gray26",
"#X c #434242",
"$X c #434343",
"%X c #444343",
"&X c #454444",
"*X c gray27",
"=X c #474646",
"-X c #474746",
";X c gray28",
":X c #484747",
">X c #474847",
",X c #484847",
"<X c #484947",
"1X c #484848",
"2X c #494848",
"3X c #484948",
"4X c #494948",
"5X c #494949",
"6X c #4A4949",
"7X c #494A49",
"8X c #4A4A49",
"9X c gray29",
"0X c #4B4A4A",
"qX c #4B4B4A",
"wX c #4A4B4B",
"eX c #4B4B4B",
"rX c #4C4B4B",
"tX c #4B4C4B",
"yX c #4D4B4C",
"uX c #4C4C4C",
"iX c #4D4C4C",
"pX c #4D4D4C",
"aX c #4D4E4D",
"sX c #4E4E4C",
"dX c #4E4E4D",
"fX c #4E4E4E",
"gX c gray31",
"hX c #504F4F",
"jX c #50504E",
"kX c #505050",
"lX c #505150",
"zX c #515150",
"xX c #505051",
"cX c #525050",
"vX c #515251",
"bX c #525251",
"nX c gray32",
"mX c #525352",
"MX c #525253",
"NX c #535453",
/* pixels */
"7 7 7 7 7 7 = = = = = 7 7 = 7 = = 7 = = = = 7 = 7 = = = = = 7 7 7 7 ",
"7 4XhXvX|.R 4XpXjXvXpX(.7 vXvXvXc.vX{.= z M pXvXvXvXvXhXr.^.^.].' k ",
"7 c.c.c.c.' 6.c.c.c.c...i g.c.c.c.c.c.Y.<.4Xc.c.c.Y.c.c...c.c.c.9.= ",
"= c.c.c.c.' J c.c.c.....7 c.Y.Y.c.c.c...<.;Xc.c.c.c.c.Y.c.c.c.Y...= ",
"= u.! c.c...G k ..' ....7 c.Y.c.c.c.Y.!.<.#Xc.c.c.Y.c.c.c.c.Y.Y...= ",
"= g.Y ! ! 7 = z = = = k y g.Y.c.c.c.^.....Y.^.c.c.Y.Y.c.c.c.c.Y...= ",
"= 7 4X4X4X,X;Xc.c.c.#Xc.7 } ..c.....<.<.................c.Y.....M = ",
"= pXrXc.c.c.c.c.c.c.c...= ........k ! k 7 7 = = 7 k M M ........k = ",
"= vXc.c.c.c.c.c.Y.c.c...M = = = = 7 = = = vXpX.X= 7 M = = = = = = = ",
"7 c.c.c.c.Y.c.c.c.c.<...= 4Xc.c.c...4Xc.c.c.c.Y...k ;Xc.c.c.c.Y.g.= ",
"= c.c.c.Y.c.c.Y.c...Y...= c.c.c.....c.c.c.c.Y.c...c.;Xc.c.c.c.c.c.= ",
"= r...<.Y.Y.c...<.<.<.k 7 c.c.c.....} Y.Y.c.Y.....G c.c.Y.c.c.Y.c.= ",
"= z ..= ..............y y ........7 k ..........k M c.c.c.c.c.c...= ",
"= z 7 = 7 = 7 7 7 7 7 P J = 7 7 7 J y 7 7 = = 7 7 M ..c.Y.c.c.c.6.= ",
"= 4Xc.c.c.c.p.z |.4Xc.c.c.c. .c.7 pXc.c.s.c.c.Y.k M 7 } ....7 ....= ",
"= g.c.c.c.c.<.7 ,Xc.c.c.c.c.c.c.= pXY.c.c.c.c...= 7 7 = = = 7 = = 7 ",
"7 c.Y.c.c.c...= s.c.c.Y.c.c.c.c.= Y.Y.Y.Y.Y.Y...7 6.4X;X:X].^.].r.= ",
"7 c.c.c.Y.c...= p.Y.Y.Y.Y.c.c.c.= c.Y.c.Y.Y.Y...= 4Xc.c.c.c.c.Y.q.7 ",
"7 ..c.' c.c.} = P c.c.Y.c.Y.6...= ' c.Y...!.r...= p.c.c.c.c.c.Y.9.7 ",
"= P ! ! ! Y 7 P G P ! P ! ! R ! 7 ! ! ! ' ! P 7 = ' } ..c.} ......7 ",
"= tX4X4X[.[.eX4X4X X^.' i NX4X4XM k ;X4X,X4X4Xc.c.= = = = = = = 7 = ",
"= >Xc.c.c.c.c.c.c.<.c.k 7 #Xc.Y.Y.= ;XY.c.c.c.c.' oXz 7 :X4X;X:XY.= ",
"= c.c.c.c.c.c.c.c...c.7 6.Y.c.c...= c.c.c.c.Y.c.s.Y.^.= 4Xc.Y.c.c.= ",
"= c.c.c.c.c.Y.Y.c.c.c.= ..Y.c.c.= = c.c.Y.Y.c.c.c.c.! = Y.c.c.c...7 ",
"7 c.c.c.c.c.c.Y.c.c.Y.= k ......<.= c.Y.Y.c.c.c.Y.c.= = Y.c.c.c...7 ",
"7 <.c.c.c.Y...c.Y.....= k 7 7 7 k = ....c.Y...Y.Y.' G = ..........7 ",
"k z i = = = = 7 y 7 ;X#XY.Y.Y.Y.z.g.k k 7 7 y y 7 = M pXpXpXpXpXk 7 ",
"7 pX4X4X4X].G z M #Xc.c.c.c.c.c.c.c.z G #X(.J G 6.,X;Xc.c.c.c.c.c.= ",
"7 4Xc.c.c.c.Y.k ].%Xc.c.c.c.c.c...Y.7 yXXXY.c.oX;Xc.c.c.c.Y.Y.Y.Y.= ",
"7 g...c.c.c.c...r.c.c.c.c.c.c.c.c.Y.= 3.c.Y...^.Y.c.c.c.c.Y.Y...Y.= ",
"7 9.Y.c.Y.c.c...6.c.Y.Y.c.Y.c.c.c...= ..c.....c.^.c.c.c.c.c.Y.' c.7 ",
"7 ..c.Y.Y.c.....P <.Y.Y.c.Y...c.....= G ........^.9.c.c.c.c.c.! c.= ",
"= ....k } ..k k z ........y k ..k z P k k ' P k k ..........= ....7 ",
"= = = 7 7 7 = 7 7 = = 7 = 7 = = 7 = 7 = 7 = 7 7 = = = 7 = 7 7 7 7 7 "
};
