/* XPM */
static const char *wall_42_155[] = {
/* columns rows colors chars-per-pixel */
"155 155 168 2 ",
"   c #020204",
".  c #080707",
"X  c #080807",
"o  c #070608",
"O  c #080709",
"+  c #070809",
"@  c #0B0A0C",
"#  c #0F0E10",
"$  c #100F11",
"%  c #0F1012",
"&  c #141416",
"*  c #181717",
"=  c #161618",
"-  c #181719",
";  c #171818",
":  c #1B1B1C",
">  c #1F201F",
",  c #1E1F20",
"<  c #201F21",
"1  c #1E2123",
"2  c #252527",
"3  c #262628",
"4  c #282729",
"5  c #272829",
"6  c #2B2B2C",
"7  c #2C2B2D",
"8  c #2C2B2E",
"9  c #2B2C2D",
"0  c #2C2C2C",
"q  c #2C2C2D",
"w  c #2D2D2D",
"e  c #2C2C2E",
"r  c #2D2C2E",
"t  c #2D2D2E",
"y  c #2D2D2F",
"u  c #2E2D2E",
"i  c #2E2D2F",
"p  c gray18",
"a  c #2E2E2F",
"s  c #2F2E2F",
"d  c #2E2F2F",
"f  c #2A2A2C",
"g  c #2E2E30",
"h  c #2F2E30",
"j  c #2F2F30",
"k  c #2F2F31",
"l  c #2F2E30",
"z  c #302F32",
"x  c #302F30",
"c  c #2F3030",
"v  c #303031",
"b  c #303032",
"n  c #313132",
"m  c #313133",
"M  c #323133",
"N  c #323233",
"B  c #353534",
"V  c #343436",
"C  c #353536",
"Z  c #343437",
"A  c #353636",
"S  c #363637",
"D  c #373637",
"F  c #333334",
"G  c #393737",
"H  c #383837",
"J  c #383837",
"K  c #363638",
"L  c #383739",
"P  c gray22",
"I  c #383839",
"U  c #3B3B3C",
"Y  c #3D3C3C",
"T  c #3B3B3B",
"R  c #403F3F",
"E  c #3F403F",
"W  c #40403F",
"Q  c #3F3F40",
"!  c #403F40",
"~  c #3F4040",
"^  c #454443",
"/  c #444543",
"(  c #454444",
")  c gray27",
"_  c #464545",
"`  c #464645",
"'  c #454546",
"]  c gray28",
"[  c #474646",
"{  c #454545",
"}  c #484747",
"|  c #484746",
" . c #484747",
".. c #474846",
"X. c #484847",
"o. c #484847",
"O. c #474748",
"+. c #484748",
"@. c #474848",
"#. c #484848",
"$. c #494848",
"%. c #484948",
"&. c #494948",
"*. c #494949",
"=. c #4A4949",
"-. c #494A49",
";. c #4A4A49",
":. c #4A4B49",
">. c #49494A",
",. c #4B494A",
"<. c #494A4A",
"1. c gray29",
"2. c #4B4A4A",
"3. c #4A4B4A",
"4. c #4B4B4A",
"5. c #4A4A4B",
"6. c #4B4B4B",
"7. c #4B4B4B",
"8. c #4C4B4A",
"9. c #4C4B4B",
"0. c #4D4B4B",
"q. c #4B4C4A",
"w. c #4B4C4B",
"e. c #4A4C4B",
"r. c #4C4C4B",
"t. c #4D4C4B",
"y. c #4C4D4B",
"u. c #4D4D4B",
"i. c #4C4C4A",
"p. c #4B4B4C",
"a. c #4D4B4C",
"s. c #4C4B4C",
"d. c #4B4C4C",
"f. c #4C4C4C",
"g. c #4D4C4C",
"h. c #4D4D4C",
"j. c #4C4C4D",
"k. c #4D4C4D",
"l. c #4C4D4D",
"z. c gray30",
"x. c #4C4D4C",
"c. c #4E4D4C",
"v. c #4E4D4D",
"b. c #4E4E4D",
"n. c #4F4E4D",
"m. c #4F4D4E",
"M. c #4D4E4E",
"N. c #4E4E4E",
"B. c #4F4E4E",
"V. c #4F4F4E",
"C. c #4F4E4F",
"Z. c gray31",
"A. c #4A4A4A",
"S. c #504F4F",
"D. c #504F4F",
"F. c #4F504F",
"G. c #50504F",
"H. c #50504F",
"J. c #4E4E50",
"K. c #4F5050",
"L. c #505050",
"P. c #515050",
"I. c #525251",
"U. c #525253",
"Y. c gray33",
"T. c #565657",
"R. c #525252",
"E. c #595959",
/* pixels */
"                                                                                                                                                                                                                                                                                                                      ",
"                                                                                                                                                                                                                                                                                                                      ",
"                                                                                                                                                                                                                                                                                                                      ",
"            D Z.Z.Z.4.4.4.r.d.Z.p.4.r.D z t 3 & & &       Z.9.p.4.Z.p.4.4.4.Z.4.4.4.4.4.4.4.4.4.2 f f f f f f             T.4.4.4.4.p.Z.Z.Z.Z.Z.4.Z.3 2 2 f w.Z.Z.3 f 6 k k k       o + o + O o o @ @ @ Z.Z.Z.w.r.Z.4.4.4.4.4.4.p.r.Z.Z.Z.Z.Z.4.4.4.4.4.X.4.t 6 6 6 6 6 2 2 2 &       f f f f f f & & & +             ",
"            H Z.Z.4.4.4.4.9.9.4.9.r.Z.I k b 6 & & &       4.4.w.Z.r.r.w.r.Z.9.4.9.4.4.4.4.4.4.4.f f f f f f 6             P.4.4.4.r.Z.Z.Z.Z.Z.Z.Z.9.3 3 2 2 Z.Z.9.f f f t t t       + + + + o + + @ @ @ r.Z.Z.Z.Z.r.Z.r.r.4.Z.Z.r.Z.Z.Z.Z.Z.9.9.r.Z.r.4.4.4.t f f 6 f 6 3 2 2 &       f f 6 f f f & & & +             ",
"            Y r.4.4.9.9.w.4.r.r.Z.Z.r.I b b t & & &       4.4.9.Z.Z.Z.r.9.r.Z.r.9.s.Z.Z.4.9.r.4.2 f f f f f 4             T.Z.4.s.Z.Z.Z.Z.Z.Z.Z.Z.Z.f 2 2 3 S.P.4.4 f 6 t b k       + + + + + + + @ @ @ P.Z.Z.Z.Z.Z.Z.Z.Z.Z.s.Z.Z.Z.Z.Z.Z.Z.4.r.Z.Z.Z.Z.Z.Z.f 6 6 6 7 6 3 3 3 =       f 6 f f f 6 & & & +             ",
"          o D 4.4.4.Z.r.9.9.r.Z.Z.9.9.U b b f & & &       4.4.9.r.r.9.Z.Z.r.4.9.4.Z.Z.9.r.4.4.w.2 3 f f f f f             T.9.s.s.r.Z.Z.Z.Z.Z.r.r.Z.f 3 2 t Z.s.P.f f 6 k t k       + + + + + + + @ $ & 9.r.9.Z.Z.Z.9.r.Z.r.r.Z.r.Z.Z.Z.Z.r.9.r.r.Z.r.4.r.r.6 6 6 6 f 6 f f 5 =       f f f 6 6 0 = & = +             ",
"      r.4.Z.4.4.4.G.3 2 2 2 2 2 2 2 2 2 2 2 3 f 6 f       4.4.4.( ( ( z 2 2 2 2 2 2 2 2 2 2 2 2 2 2 2 2 & & &       4.4.9.4.4.s.F.2 2 2 2 2 2 2 3 2 s.4.X.^ 3 2 2 2 2 2 2 2 2 2 2 2 & & & &       ( } 4.} ( X.3 2 2 2 2 2 2 2 2 2 2 2 2 2 2 2 2 2 2 2 2 2 2 & & & & & & < 6 f 9 t t 7 : = : & & & D b b : & & &       ",
"      r.4.4.4.4.4.Z.2 2 2 2 2 2 2 2 2 2 2 2 3 6 t t       4.4.X.( ( ^ t 2 2 2 2 2 2 2 2 2 2 2 2 2 2 2 2 & & &       4.r.4.4.4.Z.P.2 2 2 2 2 2 2 2 2 ( 9.4.( 2 2 2 2 2 2 2 2 2 2 2 2 & & & &       } 4.4.4.4.} 2 2 2 2 2 2 2 2 2 3 2 2 2 2 3 3 3 3 2 2 2 2 2 & & & & & & , 6 6 t t t t : = : & & & D D D : & & =       ",
"      Z.4.4.4.w.s.9.2 2 3 2 2 2 2 2 2 2 2 2 3 t t f       } } 4.( ( ( k 2 2 2 2 2 2 2 2 2 2 2 3 2 2 2 2 & & &       4.9.4.4.4.9.P.2 2 2 2 2 2 2 2 3 4.4.4.4.2 2 2 2 2 2 3 3 2 2 2 2 & & & &       4.4.4.4.4.4.2 2 2 2 2 2 2 2 2 3 3 2 3 3 3 2 2 2 3 2 2 2 2 & & & & & & 2 f f t t t 7 : : : & & & D D D : & = =       ",
"      9.4.4.4.Z.4.Z.2 2 2 3 2 2 3 2 2 2 2 2 3 7 6 7       ( ( 4./ ( ( 6 2 2 2 3 2 2 2 2 2 2 2 2 2 2 2 2 & & &       Z.4.4.9.s.4.P.2 2 2 2 2 3 2 2 3 4.4.X.X.2 2 2 2 2 2 3 2 3 2 2 3 & & & &       4.X.4.4.4.( 2 2 2 2 2 2 2 2 2 2 3 2 3 2 3 2 2 2 2 2 2 2 2 2 2 2 & & & 2 f f 7 t t t 2 2 2 2 2 2 N D D , & & =       ",
"      Z.4.Z.t 2 2 2 2 2 2 2 2 3 2 2 2 2 2 2 2 & & &       : : : 2 2 2 2 2 2 2 2 2 2 2 2 2 2 2 2 2 2 2 2 & & &       Z.4.s.2 2 2 2 2 2 2 2 2 2 3 2 2 3 2 2 3 2 2 2 2 2 2 2 2 2 2 2 2 & & & &       ( 4.4.2 2 2 2 2 2 2 2 2 2 2 3 2 2 2 3 3 2 3 2 2 2 3 2 2 2 2 2 2 & & & & 2 2 2 2 2 3 2 2 2 2 2 2 : : : = & & &       ",
"      4.w.s.t 2 2 2 2 2 2 3 2 2 2 2 2 2 2 3 2 & & &       : : : 3 2 2 2 2 2 2 2 3 2 2 2 2 2 2 2 3 3 2 2 & & &       Z.s.4., 2 2 2 2 2 2 2 2 3 2 2 3 3 3 3 2 2 2 2 2 2 2 3 2 2 2 2 2 & & & &       ( 4.4.2 2 2 2 2 2 2 2 2 2 2 2 2 3 3 3 2 3 2 2 2 2 2 2 2 2 2 2 2 & & & & 2 2 2 3 2 2 2 2 2 2 2 2 : : : & & & &       ",
"      r.4.9.t 2 2 2 2 2 2 2 2 2 2 2 2 2 2 3 < & & &       : : : 3 2 2 2 2 2 2 2 2 2 2 3 2 2 2 2 2 2 2 3 & & &       Z.9.Z.2 2 2 2 2 2 2 3 2 2 2 3 2 2 2 2 3 2 2 2 2 2 2 2 2 2 2 3 3 & & & &       ( 4.4.2 2 2 2 2 2 2 2 2 2 2 3 2 3 3 3 3 2 2 3 3 2 2 2 2 2 2 2 2 2 2 2 2 2 2 2 3 2 2 2 2 2 2 2 2 : : : & & & &       ",
"      w.4.4.t 2 2 2 2 2 2 3 2 2 2 2 2 2 2 2 2 & & &       @ @ @ f 2 2 2 2 2 2 2 2 2 2 2 2 & & & 3 2 2 3 & & &       4.+.4.2 2 2 2 2 2 3 2 2 2 2 2 2 2 2 3 2 2 2 2 2 2 2 2 2 2 & & & = & & =       ( 4.+.2 2 2 2 2 2 2 2 2 2 2 2 2 2 3 2 2 3 2 2 2 2 2 2 2 2 2 2 2 2 2 2 2 2 2 2 2 2 2 2 2 2 2 2 2 & & & & & & &       ",
"      4.4.4.t 2 2 3 2 2 2 3 2 2 2 2 2 2 2 2 , & & &       @ @ @ 4 2 2 2 2 3 2 2 2 2 2 3 2 & & & 3 2 2 3 & & &       f 6 6 2 2 2 2 2 2 2 2 2 2 2 2 2 2 2 2 2 2 2 2 2 3 2 2 3 2 & & & & & & =       ( @.4.2 2 2 2 2 2 2 2 2 2 2 2 3 3 2 2 2 3 2 2 2 2 2 2 2 2 2 2 2 2 2 2 2 2 2 2 2 2 2 2 2 3 2 2 2 & & & & & & &       ",
"      Z.4.r.t 2 2 2 2 2 2 2 2 2 2 2 2 2 2 2 , & & &       @ @ @ 3 2 2 2 2 2 2 3 2 2 2 2 2 & = & 3 2 2 3 & & &       f 6 6 3 2 2 2 2 2 2 2 2 3 2 2 2 2 2 2 2 2 2 2 2 2 2 3 3 2 & & & & & & =       ( +.4.2 2 2 2 2 2 3 2 2 2 2 2 3 2 3 3 3 3 2 2 2 2 2 2 2 2 2 2 2 2 2 2 2 2 3 2 3 2 2 2 2 2 2 2 2 & & & & & & &       ",
"      Z.4.4.k 2 2 2 2 2 2 2 2 2 2 2 2 2 3 2 1 & & &       @ @ @ 4 2 2 2 2 2 2 2 2 2 2 2 2 & & & f 2 2 4 & & &       f f f 2 2 2 2 2 3 2 3 2 2 2 2 2 2 2 2 2 2 2 3 2 2 3 3 2 2 & & & & & & &       } ( 4.2 2 2 2 2 2 2 2 2 2 2 2 2 2 2 2 3 3 2 2 2 2 2 3 2 2 2 2 2 2 2 2 2 2 2 3 2 2 2 2 2 2 2 2 3 & & & & & & &       ",
"      ( ( 4.: @ # & & & & 2 2 2 2 2 2 2 2 2 2 & & &       @ @ @ o o o # & & & & & & & & & & & & : : : : & & &       2 2 2 2 2 2 2 2 2 2 2 2 3 2 2 2 2 2 2 2 2 2 2 2 3 2 2 2 2 2 2 2 & & & &       ( ( ( 2 2 2 2 2 2 2 2 2 2 2 2 2 2 3 2 2 3 2 2 2 2 2 2 2 2 2 2 2 2 2 2 2 3 2 2 2 2 2 2 2 2 2 2 2 = & & & & & &       ",
"      ( ( 4.: @ @ & & & & 2 2 2 2 2 2 2 2 2 2 & & &       @ @ @ o + o @ & & & & & & & & & & & & : : : : & & &       2 2 2 2 2 2 2 2 3 3 2 2 2 2 2 2 2 2 2 2 2 2 2 3 2 2 2 2 2 3 3 3 & & & &       ( ( ( 2 2 2 2 2 2 2 2 2 2 2 2 2 2 3 3 3 2 2 2 2 2 2 2 2 2 2 2 2 2 3 2 2 3 2 2 2 3 2 2 2 2 2 3 2 & & & & & & &       ",
"      ( ( ( 1 , , : : & & 2 2 2 2 2 2 2 2 2 < & & &       @ @ @ o   o % & & & & & & & & & & & & : : : : & & &       2 2 2 2 2 2 3 3 3 2 2 2 2 2 2 2 2 2 2 2 2 2 2 2 2 2 2 2 2 3 3 3 & & & =       ( ( ( 2 2 2 3 2 2 2 2 2 2 2 2 2 2 2 2 3 2 2 2 2 2 2 2 2 2 2 2 2 2 2 2 2 2 2 3 3 2 2 3 2 2 3 3 2 = & & & & & &       ",
"      Z.} / 2 , , , : & & 2 2 2 2 2 3 2 2 2 2 & & &       @ @ @ O o o % & & & & & & & & & & & & = = = = & & &       2 2 2 2 2 2 3 2 2 2 3 3 3 2 2 2 2 2 2 2 2 2 2 2 2 2 2 2 2 3 3 2 & & & =       ( / ( 2 2 2 2 2 2 2 2 2 2 2 2 2 2 2 2 2 2 2 2 2 2 2 2 2 2 2 3 2 2 2 3 2 2 2 2 2 3 3 2 2 3 2 2 2 = & & & & & &       ",
"      , 2 2 1 1 1 1 2 & & & & & & & & & & & &       : : -       @ @ @                                               2 2 2 2 2 2 2 3 2 3 2 3 2 2 2 2 2 2 2 2 2 2 2 2 2 2 2 3 2 & & = & & & =       2 f 3 3 2 2 2 2 3 2 2 2 2 2 2 2 2 2 3 3 2 2 2 2 2 2 2 2 2 3 2 3 2 2 2 2 2 2 2 2 2 3 2 2 2 2 2 2 = & & & & & &       ",
"      , 1 1 1 1 1 1 1 & & & & & & & & & & & &       : : :       @ @ @                                               2 2 2 2 2 2 3 2 3 2 2 3 2 2 2 2 2 2 3 2 2 2 2 2 2 2 2 2 2 & & & = & & &       3 3 2 2 2 2 2 2 2 2 2 2 2 2 2 2 2 2 2 2 3 2 2 2 2 2 2 2 3 2 2 3 2 2 2 2 2 2 2 2 2 2 2 3 2 3 2 2 = & = & & & &       ",
"      1 1 1 1 1 1 1 & & & & & & & & & & & & #       : : :       @ @ @                                               2 2 2 2 2 2 2 2 2 2 3 2 2 2 2 2 2 2 2 2 3 3 2 2 3 2 3 2 3 & & & & = = =       3 2 3 2 2 2 2 2 2 3 2 2 2 2 2 2 2 2 2 2 3 2 2 2 2 2 2 2 2 2 2 2 2 2 2 2 2 2 2 3 3 2 2 3 2 2 2 2 = = = & & & &       ",
"                                              @ + @ @ @ + K I K I K I I I I I I I I t t t t t t t t t N             : : : & & & & 3 3 2 2 2 2 2 2 2 2 2 2 3 2 3 2 & & & & & & = & & & & = =       & & & & & & 2 3 2 2 2 2 2 2 2 2 2 3 2 3 2 3 2 & & & 3 2 2 2 2 2 3 2 2 2 2 2 2 2 2 3 2 2 2 & & & = & = & & & &       ",
"                                              @ @ @ @ @ @ I I I I I I I I I I I I I t t t t t t t t t t             : : : & & & & 2 3 2 3 3 3 2 2 2 2 2 2 2 3 2 3 & & & & & & & & & & & & =       & & & & & & 3 3 2 3 2 3 2 2 3 2 3 3 3 2 2 3 2 & & & 2 2 2 2 2 2 2 2 2 2 2 2 3 2 3 3 2 2 2 & & & & & = & & & &       ",
"                                              + @ @ + @ @ L I I U U I I U I U I I L t t t k k k t t t b             : : : & & & & 2 3 3 3 3 2 2 2 2 2 2 3 3 3 3 2 & & & & & & & & & & & & =       & & & & & & f 3 2 2 2 3 3 3 3 3 3 2 2 3 2 3 2 & & & 2 2 2 2 2 2 3 2 2 2 2 3 2 3 2 3 3 2 2 & & & & = = & & & &       ",
"                                              @ @ @ @ @ @ U I U I I I I I I I I I L t t k k b b t t k D   o         : : : & & & & 3 2 2 3 2 2 2 3 3 2 2 2 3 2 2 3 & & & & & & & = & & & & =       & & & & & & 4 2 2 2 2 2 2 2 3 3 3 3 2 2 2 2 2 & & & 3 3 2 2 2 3 2 2 2 2 2 3 3 f 3 2 2 2 2 & & = = = = & & & &       ",
"      + + +         4.4.4.4.4.4.4.4.4.4.4.4.4.X.X.X.4.( ( ( ( ( 3 2 2 2 2 2 2 2 2 2 2 2 2 ( ( / , 2 2 2 2 2 2       : : : & & & & & & & 2 3 2 2 2 2 & & & & & & &       & & & & & & & & & &       & & & & & & & & & & & & & & & & & & & & & & & & & & & & & 2 2 2 3 3 2 2 3 3 : & & & & & & & & & + @ + o             ",
"      + O +         s.4.4.4.9.4.4.4.4.4.4.4.4.4.4.4.4.X.4.4.} ( 2 2 2 2 2 2 2 2 2 2 2 2 2 ^ / ( 2 2 2 2 3 3 2       : : : & & & & & & & 3 2 2 3 3 3 & & & & & & &       & = = & = = = & & &       & & & & & & & & & & & & & & & & & & & & & & & & & & & & & 2 3 2 2 2 3 2 2 2 , & & & & & & & = & + + @ o   o         ",
"      + + +         4.4.Z.4.4.9.4.4.4.4.4.4.4.4.4.4.4.4.4.@.( } 2 2 2 2 2 2 2 2 2 2 2 2 2 / ^ ( 2 2 2 2 2 2 2       : : : & & & & & & & 3 3 2 2 2 3 & & & & & & &       & = & & & = & & & =       & & & & & & & & & & & & & & & & & & & & & & & & & & & & & 3 2 2 2 2 2 2 2 2 , & & & & & & & & & + + + o             ",
"            F ( 4.4.4.4.Z.2 2 2 2 2 2 2 2 2 2 2 2 2 2 2 2 2 2 2 2 2 2 2 2 2 2 2 2 2 2 2 2 2 2 3 2 2 2 2 & & &             & & & & & & & & & & & & & & & & &       & @ # & & &                                                                 o + + + + + + & & & & & & & & & & & & & & & & & & &       & & & =       ",
"            N 4.4.4.4.4.r.2 2 2 2 2 2 2 2 2 2 2 2 2 2 2 2 2 2 2 2 2 2 2 2 2 2 2 2 2 2 2 2 2 2 2 2 2 2 3 & & &             & & & & & & & & & & & & & & & & &       # & $ & & &                                                                   + + + + + + & & & & & & & & & & & & & & & & & & & o     & & & :       ",
"            H 4.4.4.4.9.@.2 2 2 2 2 2 2 2 2 2 2 2 2 2 2 2 2 2 2 2 2 2 2 2 2 2 2 2 2 2 2 2 2 2 2 2 2 2 2 & & &             & & & & & & & & & & & & & & & & &       & & & & & &                                                                   @ @ @ + @ @ & & & & & & & & & & & & & & & & & & &       & = & :       ",
"      0 f t ( 4.4.Z.I D L 2 2 2 2 2 2 2 2 2 2 2 2 3 2 3 2 2 2 2 3 2 2 2 2 2 2 2 2 2 2 2 2 2 2 2 3 2 2 2 & & &             @ @ @ @ @ + @ + + + + + @ @ @ @ @       @ + + + + +               f t t t t t t f f : : : > : : :                     @ @ @ o o o @ @ @ @ @ @ @ @ @ @ + @ @ @ @ @ @ @ @       @ # # &       ",
"      4.4.9.4.4.r.P.2 2 2 2 2 2 2 2 2 2 2 2 2 2 2 2 2 3 2 2 2 2 2 2 2 2 3 2 3 2 2 2 2 2 2 2 3 2 2 2 3 3 & & & + + +                                                                         r.4.r.4.w.r.r.4.4.L N V D D D D                     + + o                                                   o o + +       ",
"      9.w.4.4.r.4.Z.2 2 2 2 2 2 2 2 3 2 3 2 2 2 3 3 2 2 2 2 2 2 2 3 2 2 2 2 2 2 2 2 2 3 2 2 2 3 2 2 2 3 & & & + + O                                                                         4.4.r.w.4.9.4.Z.r.b N D D D D D                     + + o                                                   o + o +       ",
"      9.9.4.4.Z.4.Z.2 2 2 2 2 2 2 2 2 2 2 2 2 2 3 2 2 2 2 2 2 2 2 2 3 2 2 2 2 2 2 3 2 2 2 2 2 2 2 2 2 2 & & & O O +                                                                         4.4.4.Z.r.9.r.9.4.t D N D D D D                     + + O                                                   + + + +       ",
"      Z.4.Z.k 2 2 2 2 2 2 2 2 2 2 2 2 2 2 2 2 2 3 2 3 3 2 2 2 2 2 2 2 3 2 2 2 2 3 2 2 2 2 3 2 2 2 2 2 2 & & &             P.4.4.4.4.4.4.4.( 4.k 6 t & & & &             4.Z.4.( 4.4.4.4.( Z.2 2 2 2 2 2 2 2 2 2 2 2 2 2 2 2 2 2 2               + +   4.4.4.@.X.( } X.4.4.4.@.( ( ( ( } ( I f f f & $ #               ",
"      r.9.Z.t 2 2 2 2 2 2 2 2 2 2 2 2 2 2 2 2 2 2 2 2 2 2 2 3 2 3 2 2 2 3 2 2 2 2 2 2 2 2 2 2 2 2 2 2 2 & & &             P.4.4.4.4.4.4.( 4.4.6 t 9 = & & &             r.4.4.4.4.4.4.} X.4.2 2 2 2 2 2 2 2 2 2 2 3 2 2 2 2 2 2 2               + o   @.X.X.4.4.4.4.4.4.4.4.+.X.4.} } @.4.D f 9 f # # &               ",
"      Z.w.4.t 2 2 2 2 2 2 2 2 2 2 2 2 2 2 2 2 2 2 2 2 2 2 2 3 2 2 2 2 3 2 2 2 2 2 2 2 2 2 2 2 2 2 2 2 3 & & &             4.4.4.4.X.4.@.@.4.( f t t & & & #             Z.X.4.4.4.4.4.4.4.Z.2 2 2 2 2 2 2 2 2 2 2 2 3 2 3 2 2 3 2               + + o ( X.X.X.X.4.4.4.4.4.4.4.4.4.4.4.4.( b 6 f 6 & # &               ",
"      6 t f 3 2 2 2 2 3 2 2 2 2 2 2 2 2 2 2 2 3 2 3 2 2 2 3 3 2 2 2 2 3 2 2 2 3 2 2 2 2 2 & & & 4 2 2 2 & & &       P.4.4.9.4.4.9.2 2 2 2 2 1 2 2 2 3 2 3 5 & : =       4.4.4.2 2 2 2 2 2 2 2 2 2 2 2 2 2 3 2 3 3 2 3 3 3 2 & & &             : Z.4.4.2 2 2 2 2 2 2 2 2 2 2 2 2 2 2 2 3 3 3 3 3 2 2 3 2 : = : :       ",
"      t t t 3 2 2 2 2 3 2 2 2 2 2 2 2 2 2 2 2 3 2 2 2 2 2 2 2 3 2 2 3 2 3 2 2 2 2 2 2 2 2 & & & 3 2 2 2 & & &       Z.4.4.4.4.X.X.2 2 2 2 2 2 2 2 2 2 2 2 2 = = &       4.Z.4.2 2 2 2 2 2 2 2 2 2 2 2 2 2 2 2 2 2 2 3 3 3 3 & & &             * ( ( ( 2 2 2 2 2 2 2 2 2 2 2 2 2 2 2 2 3 3 3 2 3 2 2 2 2 : & = :       ",
"      t t t f 3 3 2 3 2 2 2 2 2 2 2 2 2 2 2 2 2 2 2 2 2 2 2 3 2 2 3 2 2 2 2 2 2 2 2 2 2 2 & & & 3 2 2 3 & & &       4.4.4.4.4.4.Z.2 2 2 2 2 2 2 2 2 2 2 2 2 & = =       Z.4.4.2 2 2 2 2 2 2 2 2 2 2 2 2 2 2 2 2 2 3 2 2 2 3 & = &             : } ( } 2 2 2 2 2 2 2 2 2 2 2 2 2 2 2 2 2 3 2 2 2 2 2 2 2 : = = :       ",
"      6 f f 2 2 2 3 2 2 2 2 2 2 2 2 2 2 2 2 2 2 2 2 2 2 2 2 2 2 2 3 2 2 2 3 2 2 2 2 2 2 2 : : : 2 2 2 2 & & &       4.4.4.( ( ( ( 2 2 2 2 2 2 2 2 2 2 2 2 2 = = &       4.( ( 2 2 2 2 2 2 2 2 2 2 2 2 2 2 2 2 2 2 3 2 2 3 3 & = &       & @ & 2 } ( 4.2 2 2 2 2 2 2 2 2 2 2 2 2 2 2 2 2 2 2 2 2 2 2 2 2 : = = :       ",
"      & = & 2 3 3 2 2 3 3 2 2 2 2 2 2 2 2 2 2 2 2 2 2 2 2 2 2 2 2 2 2 2 2 2 2 2 2 2 & & & 2 2 2 & & & & & & &       4.} ^ , 2 2 2 2 2 2 2 2 2 2 2 2 & = = & & & &       2 2 2 2 2 2 2 2 2 3 2 2 2 2 2 2 2 3 2 2 2 3 2 3 3 3 & & &       ( @.( } ( } 4.2 2 2 2 2 2 2 2 2 2 2 3 2 2 2 3 2 2 2 2 2 2 2 2 2 : & & &       ",
"      & & & 2 2 3 2 2 2 3 3 2 2 2 2 2 2 3 2 3 2 2 2 2 2 2 2 2 2 2 2 2 2 2 2 2 2 2 2 & & & 2 2 3 & & & & & & &       4.( ( 2 2 2 2 2 2 2 2 2 2 2 2 3 & = & & & & &       2 2 2 2 2 2 2 2 2 2 3 2 2 2 2 2 2 2 2 2 3 2 3 3 3 3 & & &       ( } ( X.( } 4.2 2 2 2 2 2 2 2 2 2 3 2 2 3 2 2 2 2 2 2 2 2 2 2 2 : & & &       ",
"      & & & 2 3 3 3 3 2 2 2 2 2 3 2 2 2 2 3 2 2 2 2 2 2 2 2 2 2 2 2 3 2 2 2 2 3 2 3 & & & 2 2 3 & & & & & & &       4.X.X.2 3 2 2 2 2 2 2 2 2 2 3 2 & & & & & & &       2 2 2 2 2 2 2 3 2 2 2 2 2 3 2 2 2 2 2 3 2 3 2 2 3 2 & & &       ( ( ( } ( 4.4.2 2 2 2 2 2 2 2 2 2 2 2 2 2 2 3 2 2 3 2 3 2 2 2 2 : & & &       ",
"      & & & 2 2 2 3 2 3 2 3 3 3 & & & 2 3 3 2 2 2 2 3 2 2 2 3 3 & & & 2 2 2 2 2 2 3 2 2 2 2 2 3 & & & & & & &       : : : 2 2 2 2 2 2 2 2 2 2 3 3 3 & & & & & & &       2 2 2 2 2 2 2 2 2 2 2 2 2 2 3 2 2 2 2 2 2 2 3 & & & & & &       4.( ( ( 2 2 2 2 3 2 2 2 2 2 2 2 2 2 2 3 3 2 2 2 2 2 2 2 2 & & & & & & =       ",
"      & & & 2 2 3 3 2 3 3 2 3 3 & & & 2 2 2 3 2 3 2 2 3 2 2 3 3 & & & , 2 2 2 2 2 2 2 2 2 2 3 2 & & & & & & &       : : : 3 2 2 2 2 2 2 2 2 3 3 3 3 & & & & & & &       2 2 2 2 2 2 2 2 2 2 2 2 3 2 2 3 3 3 2 2 2 3 3 & & & & & &       4.( ( Y 2 2 2 2 2 3 2 2 3 2 3 3 2 2 3 2 2 3 3 3 2 2 3 2 2 & & & & & & =       ",
"      & & & 2 2 2 2 2 2 2 2 3 3 & & & 2 2 3 3 2 3 2 2 2 3 2 2 3 & & & , 2 2 2 2 3 2 2 2 3 2 2 3 & & & & & & =       : : : 3 2 2 2 2 2 2 3 2 3 3 2 3 & & & & & & &       2 3 2 2 2 2 2 2 2 3 2 2 2 2 2 3 3 2 2 3 3 3 f & & & & & &       4.( ( / 2 2 2 3 2 3 2 3 2 2 2 2 3 2 2 2 2 2 2 2 2 2 2 2 2 & & & & & & =       ",
"      & & & : : : : & & & & & = f 2 2 3 3 2 2 3 3 2 3 2 2 2 2 3 & & & & & & & & & & & & & & & & & & & &             & & & 2 2 2 3 2 3 3 3 2 2 2 3 3 & & & & & & &       & & & 2 2 2 2 2 3 3 3 2 2 3 3 3 3 2 3 6 6 f 6 & & & & & &       & & & : 2 2 2 3 2 2 2 2 2 2 2 2 2 2 2 2 2 2 2 2 3 2 2 3 2 2 2 2 : & & =       ",
"      & & & : : : : & & & & & & 2 2 2 3 3 3 3 3 3 2 2 3 2 2 2 2 & & & & & & & & & & & & & & & & = = & &             & & & 2 3 3 3 3 2 2 3 3 3 2 3 3 & & & & & & &       & & & 2 3 2 2 2 2 3 3 2 2 3 3 2 3 3 3 6 6 f k & & & & & &       & & & = 2 2 2 2 2 2 3 2 2 2 2 2 2 2 3 2 2 3 2 3 3 2 2 2 3 2 2 2 : & & =       ",
"      & & & : : : : & & & & & & 2 4 3 3 3 3 3 3 2 2 3 2 2 2 3 3 & & & & & & & & & & & & & & & & & & - :             & & & f 3 2 2 3 3 2 2 2 3 2 2 3 & & & & & & &       & & & f 2 2 2 2 3 2 2 2 3 2 2 2 2 3 4 f 6 6 t & & & & & &       = & & = 2 2 3 2 2 2 2 2 2 2 2 2 2 2 3 2 3 3 3 2 3 2 3 3 2 3 2 2 : & & &       ",
"            o O o o & & &       = & & & & & & & & & & & & & & & & & & & & & & & & & & & = & & &                           & & & & & & & & & & & & & & & & &               o o & & & & & & & & & & & & & & & & & & & & & & &             & & & = 2 2 2 2 2 2 2 2 2 2 2 2 2 2 2 2 2 2 2 2 2 2 2 2 2 & & & & & & &       ",
"            o o + + & & &       & & & & & & & & & & & & & & & & & & & & & & & & & & & & & & & &                           & & & & & & & & & & & & & & & & &             o o   & & & & & & & & & & & & & & & & & & & & & & &             & & & = 2 2 2 2 2 2 2 2 2 2 2 2 2 2 2 2 3 2 2 2 3 3 2 3 3 & & & & & & &       ",
"            o + + + & & &       & & & & & & & & & & & & & & & & & & & & & & & & & & & & & & & &                           = & & & & & & & & & & & & & & & &             o o o & & & & & & & & & & & & & & & & & & & & & & &             & & & = 2 2 2 3 2 2 2 2 2 2 2 2 2 2 2 3 3 3 2 2 2 3 2 3 3 & & & & & & &       ",
"            o + + o & & &       & & & & & & & & & & & & & & & & & & & & & & & & & & & & & & & &                           = & & & & & & & & & & & & & & & &             o   o = & & & & & & = & & & & & & & & & & & & & & &             & & & & 2 2 2 2 2 2 2 2 2 2 2 2 2 2 2 2 3 2 2 3 3 2 2 2 2 & & & & & & =       ",
"      # @ @ + O o                                                                                       @ @ @ @ # #                                         @ @ @ @ @ @                                                                 & & & & & & & 2 2 2 2 2 2 2 2 2 2 2 2 3 3 3 3 3 2 2 2 2 2 = = : & & & &       ",
"      @ @ # @ O o                                                                                       # @ @ @ # %                                         @ @ @ @ @ @                                                                 & & & & & & & 2 2 2 2 2 2 2 3 2 2 2 3 2 2 2 2 2 2 2 2 2 2 : - = & & & =       ",
"      # # # O o o o                                                                                     # @ # @ # #                                         @ @ @ @ @ @                                                                 & & & & & & & 2 2 2 2 2 2 2 2 2 2 2 2 2 2 2 2 2 2 2 2 2 2 : - : & & & =       ",
"            D 4.4.( ( ( ( ( ( ( ( ( ( ( ( ( ( ( ( ( , : ,       @ @ @               ( @.( 4.4.4.4.O.4.@.( ( 4.4.4.( 4.4.4.4.( 4.4.f 3 3 : : : + + +               4.4.4.( 4.4.4.4.4.4.4.@.Z.3 f f ( ( ( O.@.( ( ( ( (       & & &       + + + + @ @ @ & & & 2 2 2 2 2 2 2 2 2 2 2 2 2 & & & & & & 4 2 2 : & & =       ",
"            I 4.4.4.+.4.4.4.4.4.4.4.4.4.X.X.} 4.4.4.: : :       @ @ @               4.4.4.4.4.4.4.4.4.4.4.4.4.4.4.4.4.4.4.4.4.4.Z.f 3 6 , : : + + +             + r.4.4.4.4.9.4.4.4.p.4.4.4.f f f 4.4.4.4.4.4.+.} } (       = & &       + + + + @ + + & & & 2 2 2 2 2 2 2 2 2 2 2 2 2 & & & & & & 3 2 2 : & & =       ",
"            I 4.4.4.4.4.4.4.X.4.} X.X.X.X.4.X.X.4.X., , ,       @ @ @               9.4.4.4.4.4.4.4.4.4.4.4.4.4.4.4.4.4.4.4.4.4.Z.f f f : : : @ @ +               X.4.r.r.4.4.4.4.4.4.4.4.S.6 f 4 } 4.4.X.4.4.4.( 4.4.      & & =       + + + + @ + @ & & & 2 2 2 2 2 2 2 2 2 2 2 2 2 & & & & & & 2 2 2 : & & =       ",
"            Y 4.4.+.p.4.Z.d.Z.Z.r.Z.r.4.4.Z.r.r.4.4., 2 ,       @ @ @               4.4.4.Z.Z.Z.Z.Z.Z.Z.Z.Z.Z.Z.Z.Z.Z.Z.Z.Z.G.J.G.f 4 t : : :     +               9.r.4.Z.Z.Z.Z.Z.Z.Z.Z.Z.Z.2 3 6 Z.4.4.s.r.r.4.4.9.(       & - &       + @ + @       & & & & & & & & & & & & & & & & @ @ # @ + + & & & & & & =       ",
"      4.9.9.4.4.4.Z.2 2 2 2 2 2 2 2 2 2 2 2 2 3 3 2 2 3 2 < : : o O o         4.X.4.4.4.X.2 3 2 2 2 2 2 2 2 2 2 2 2 2 2 2 2 2 2 f & & & 2 2 2 : , 2 o       4.9.4.Z.r.Z.2 2 2 2 2 2 2 2 2 2 / / ( f 2 3 2 2 2 2 2 2 2 2 2 2             & & & $       & & & & & & & & & & & & & & & &       & & & & & & & & & =       ",
"      Z.4.4.4.4.4.4.2 2 2 2 2 2 2 2 2 2 2 2 2 2 2 2 3 2 2 , , 2 o O o         9.4.4.X.4.4.3 2 2 2 2 2 2 2 2 2 2 2 2 2 2 2 2 2 3 f & & = 2 2 2 , 2 2       + r.4.r.Z.Z.9.2 2 2 2 2 2 2 2 2 2 ( / ( 3 2 2 2 2 2 2 2 2 2 2 2 f             & & & &       & & & & & & & & & & & & & & & &       & & & & & & & & & &       ",
"      r.4.4.4.r.( 4.2 2 2 2 2 2 2 2 2 2 2 2 2 2 2 2 2 2 2 : , 1   o o o o     Z.4.( +.4.( 2 2 2 2 2 2 2 2 2 2 2 2 2 2 2 2 2 2 2 f & & = 2 2 2 2 , 2       . 9.4.4.Z.} Z.2 2 2 2 2 2 2 2 2 2 / ( / 2 2 2 2 2 2 2 2 2 2 2 f 3             & & & &       & & & & & & & & & & & & & & & &       & & & & & & & & & &       ",
"      4.4.Z.k 2 2 2 2 2 2 2 2 2 2 2 2 2 2 2 2 2 2 2 2 2 2 & = =       D ( ^ ( X.+.9.2 2 2 2 2 2 2 2 2 2 2 2 2 2 2 2 2 2 2 2 2 2 2 2 2 2 2 2 2 & & &         4.Z.G.2 2 2 2 2 2 2 2 2 2 2 2 2 2 2 2 2 2 2 2 2 2 2 2 2 3 & & &                                                                                           ",
"      4.4.s.t 2 2 2 2 2 2 2 2 2 2 2 2 2 2 2 2 2 2 2 2 2 2 = & &       b ( ( ( 4.( ( 2 2 2 2 2 2 2 2 2 2 2 2 2 2 2 2 2 2 2 2 2 2 2 2 2 2 2 2 2 & & &         4.w.Z.2 2 2 2 2 2 3 2 2 3 2 2 2 2 2 2 2 2 2 2 2 2 2 2 2 3 & & &                                                                                           ",
"      4.4.4.t 2 2 2 2 2 2 2 2 2 2 2 2 2 2 2 2 2 2 2 2 2 2 & & &       N ( ^ ( } ( ( 2 2 2 2 2 2 2 2 2 2 2 2 2 2 2 2 2 2 2 2 2 2 2 2 2 2 2 2 2 & & &         4.4.( 2 2 2 2 2 2 2 2 2 2 2 2 2 2 2 2 2 2 2 2 2 2 2 2 2 2 & & &                                                                                           ",
"      b c t 3 2 2 2 2 2 2 2 2 2 2 2 2 2 2 2 2 2 2 2 & & & & & &       : 2 , : Y / ( 2 2 2 2 2 2 2 2 2 2 2 2 2 2 2 2 2 2 2 2 2 2 2 2 2 2 2 2 2 & & =         4.^ / 2 2 2 2 2 2 3 2 2 2 2 2 2 2 2 2 2 3 2 2 2 2 2 2 2 2 & & &       + O o @.4.4.( ( ( 4.} 4.+.} } ( } ( 4.6 f f f f f f f f 7 6 t 7 : : : @             ",
"      k b b 3 2 2 2 2 2 2 2 2 2 2 2 2 2 2 2 2 2 2 2 & & & & = =       : , , 2 / / / 2 2 2 2 2 2 2 2 2 2 2 2 2 2 2 2 3 3 2 2 2 2 2 2 2 3 2 2 2 & & &         ^ ( ( 2 2 2 2 2 3 2 2 3 3 2 2 2 2 2 3 3 2 2 3 2 2 2 2 2 2 & & &       o + + 9.@.4.} ( ( } } } 4.X.} @.4.4.( 6 f f f f f f f f f t t 6 : : : &             ",
"      b b b f 3 2 2 2 2 2 2 2 2 2 2 2 2 2 3 2 2 2 2 & & & & & =       : 2 2 : / / ! 2 2 2 2 2 2 2 2 2 2 2 2 2 2 3 3 2 2 2 2 2 2 2 3 2 3 2 3 3 & = =         / ^ ( 2 2 2 2 2 3 3 3 3 3 2 2 2 2 2 3 2 2 2 2 2 2 2 2 2 3 & & &       + + + P.4.( X.+.4.4.( } } 4.4.X.4.( ( 4 6 6 6 f f f 6 f f t t t , : : @             ",
"      7 t t 5 2 2 2 2 2 2 2 2 2 2 2 2 2 2 2 2 2 2 2 = & & & & &       & : 2 : 2 2 2 2 2 2 2 2 2 2 2 2 2 2 2 2 2 3 3 2 3 3 2 2 2 2 2 3 2 2 2 2 & = &         2 2 2 2 2 2 2 2 2 3 2 2 2 3 2 3 2 2 2 2 3 2 3 2 3 2 2 2 3 & & &       - 2 2 } } X.4.Y Y Y Y Y Y Y Y Y Y Y Y t 6 f b t b b f f f t 6 6 2 2 2 : @ & &       ",
"      2 2 2 2 2 2 2 2 2 2 2 2 2 2 2 2 2 2 3 2 2 2 2 & & & & & &       @ & & & 2 2 2 2 2 2 2 2 2 2 2 2 2 3 2 2 3 2 3 2 2 3 2 3 2 2 2 3 2 & & = & = =         2 2 2 2 2 3 2 3 2 3 3 2 2 2 2 3 2 2 3 3 2 3 3 3 2 2 2 3 2 & & &       ( ( 4.( ( 4.4.2 2 2 2 2 2 2 2 2 2 2 2 2 2 2 / / / / 2 2 2 2 2 2 D D D b t t b       ",
"      2 2 2 3 2 2 2 2 2 2 2 2 2 2 2 2 3 3 2 2 2 2 2 & & & & & &       @ & & & 2 2 2 2 2 2 2 2 2 2 2 2 2 2 2 3 2 2 3 2 2 3 2 3 3 2 2 2 2 = & = & & =         2 2 2 3 3 2 2 2 2 3 3 3 3 2 3 2 3 3 2 2 3 2 3 3 2 2 2 3 3 & & &       4.( ( X.( +.( 2 2 2 2 2 2 2 2 3 2 3 3 3 2 2 / / / / 3 2 2 2 2 2 F F D k k k b       ",
"      2 2 2 2 2 2 2 2 2 2 3 2 2 2 2 2 2 3 2 2 2 3 2 & & & & & &       @ & & & 2 2 2 2 2 2 2 2 2 2 2 2 2 2 3 3 2 3 3 3 2 2 3 2 3 2 3 2 2 & & & & & &         2 2 2 2 2 2 2 2 2 2 3 2 3 3 3 3 2 3 3 2 3 2 3 3 2 3 3 2 4 & & &       } } ( ( 4.} ( 2 2 2 2 2 3 2 3 2 2 2 2 3 2 3 I / / / 2 2 2 2 3 2 D D b b t z b       ",
"      2 2 2 2 2 2 2 2 3 2 2 2 3 2 3 3 2 2 2 3 2 3 2 2 2 2 & & =       @ & & & 2 2 2 2 2 2 2 2 2 2 2 3 2 2 2 2 2 3 3 2 3 3 2 3 2 2 2 3 2 2 2 2 & & &         2 2 2 3 2 3 3 2 3 3 3 2 3 2 2 2 3 3 3 2 3 2 2 2 3 3 3 2 f & & &       X.} ( 4.3 2 2 2 2 2 2 2 2 2 3 3 2 2 2 2 3 2 3 2 2 2 2 2 2 2 2 2 : : : = & & &       ",
"      2 2 2 2 2 2 2 2 2 2 3 3 3 3 2 2 2 2 2 2 3 2 3 3 3 2 & & &       @ & & & 2 3 2 2 2 2 2 2 2 2 2 2 2 2 3 3 2 2 2 3 3 2 2 3 2 2 2 3 3 3 3 2 & & &         2 2 2 3 3 2 3 2 2 2 3 2 3 2 2 3 2 3 3 3 2 3 3 f 3 2 2 3 f & & &       +.4.( ( 3 2 2 2 2 2 2 2 2 2 3 3 2 3 2 3 3 3 2 3 2 3 2 2 2 2 2 3 : : : : & & &       ",
"      2 2 2 2 3 2 2 2 2 2 2 2 3 2 2 2 2 2 2 2 2 3 2 2 3 2 & & &       # & & & 2 f 2 2 2 2 2 2 2 2 3 2 2 2 3 2 2 3 2 2 3 3 2 3 3 2 2 3 3 3 3 f & & =         2 2 2 3 2 2 2 2 2 3 2 3 2 2 3 2 2 2 3 2 2 3 3 2 2 3 3 2 f & & &       4.( ( ( 2 2 2 2 2 2 2 2 2 3 3 3 3 3 2 3 3 2 3 3 2 2 2 3 2 2 3 3 : : : = & & &       ",
"      : : : = & & & 2 2 2 & & & 2 2 2 2 2 2 2 2 2 2 & & & & & &             o : & = 2 2 2 2 2 2 2 2 2 2 2 2 2 2 2 2 , & & 3 3 2 3 : : = & & & & & &         & & & 2 2 2 2 2 3 2 3 2 & & & & 2 3 2 3 2 2 : : : : : : : & & &       : = & 3 2 2 2 2 2 2 2 2 2 3 2 2 3 3 2 2 2 2 3 2 2 2 3 2 3 2 2 3 : : : = & & &       ",
"      : = : & & & & 2 3 2 & & & 2 2 2 2 2 2 2 2 2 2 & & & & & &               ; = = 2 2 2 2 2 2 2 2 2 2 2 2 2 2 2 2 , & & 3 2 3 3 : : : & & & & & &         & & & 2 2 2 2 3 2 2 2 2 & & & & 2 2 2 3 4 2 : : : : : = & & & &       & & & 2 2 2 2 2 2 2 2 2 2 2 3 3 3 3 2 2 2 2 2 2 2 2 3 3 3 3 2 2 : : : = & & &       ",
"      : : : = & & & 2 2 2 & & & 2 2 2 2 2 2 2 2 2 2 & & & & & &               & & = 2 2 2 2 2 2 2 2 2 2 2 2 2 2 2 2 : & & f 2 3 f : : : & & & & & &         & & = 2 2 2 2 2 2 3 2 2 & & & & 2 2 2 2 2 3 : : : = = ; : & & &       & & = 2 2 2 2 2 2 2 2 2 2 2 2 2 2 2 2 2 2 2 2 2 3 3 2 3 2 3 3 3 : : : = & & &       ",
"      : : = & & & & 2 2 3 & & & 2 2 3 2 2 2 2 3 3 3 & & & & & &               & & = 3 3 3 3 3 3 3 3 3 3 2 3 3 4 4 f , & & f 2 f f : : - & & & = & &         & & & 3 3 3 3 3 3 3 3 3 & & & & 2 5 9 3 3 f : , : = = : : & = =       & & & 2 2 2 2 2 2 2 2 2 2 2 2 2 2 2 2 2 2 2 3 f f f 3 2 3 3 3 4 : : : = & & &       ",
"            # & & & & & & & & & & & & & & & & & & & & & &       & & #         & & & & & & & & & & & & & & & & & & & & & & & & & & & & & & & =               & & & & & & & & & & & & & & & &       & & & & & & & & & &             & & & 3 3 2 2 2 2 2 2 2 2 2 2 2 2 2 2 2 2 2 : @ @ @ & & & : : : : : : = & & &       ",
"            # & & & & & & & & & & & & & & & & & & & & & &       & @ # O       & & & & & & & & & & & & & & & & & & & & & & & & & & & & & & & &               & & & & & & & & & & & & & & = &       & & & & & & & & & &             & & & 3 2 2 2 2 2 2 2 2 2 2 2 2 3 2 2 2 3 2 : @ @ @ & & & : : : : : : = & & &       ",
"            # & & & & & & & & & & & & & & & & & & & & & &       & # & o       & & & & & & & & & & & & & & & & & & & & & & & & & & & & & & & &               & & & & & & & & & & & & & & & =       & & & & & & & & & &             & & & 2 2 2 2 2 2 2 2 2 2 2 3 2 2 2 2 2 3 2 : + @ @ & & & : : : : : : = & & =       ",
"                                                                                                                                                                                                                                  @ @ @ & & & & & & & & & & 3 2 2 2 2 2 & & & @       & & & & & & & & & & & & =       ",
"                                                                                                                                                                                                                                  @ @ + & & & & & & & & & & 2 3 2 2 2 2 & & & @       & & & & & & & & & & & & =       ",
"                                                                                                                                                                                                                                  @ + @ & & & & & & & & & & 2 2 2 2 2 2 & & & @       & & & & & & & & & & & & =       ",
"            B } ( ( ^ / / 4.4.4.X.( X.4.f f f f f f ^ ^ / ( @.( ( ( ( ^ ( ^ ( / / ^ t 7 t f 2 f         & & &             9.X.( ( ( ( ^ ( ^ ( ( ( @.O o o o       @ @ @ ^ ^ / ^ ^ ^ ( @.X.^ ^ ( / / / ( ( ^ ( ( ( ( w.2 2 2 2 2 3                                                                                     ",
"            G p.4.4.4.4.4.4.4.4.4.4.4.4.k t k t t t X.4.4.4.4.4.4.4.4.4.4.4.4.4.4.4.D D D t t 6         & & &             P.9.4.4.4.4.4.4.@.4.4.4.X.o + + + o     @ @ @ } 4.4.} X.4.4.4.4.X.4.X.O.O.4.4.4.4.4.4.4.4.4.3 f f f 3 2                                                                                     ",
"            I 4.4.4.4.4.4.4.r.4.r.4.Z.4.k t k k t t 4.4.4.4.4.4.4.4.4.4.9.4.4.4.4.Z.D D D 7 t 9         & & &             Z.4.4.4.4.4.4.4.4.4.4.} X.@ + + O     o # @ # ( ( 4.4.4.4.4.4.4.4.4.4.4.4.4.4.4.4.4.4.4.+.4.f f f 3 3 f                                                                                     ",
"            I 4.4.4.4.4.4.4.Z.r.4.4.4.4.k t k t t t 4.4.4.4.4.4.4.4.4.r.4.9.w.Z.Z.4.D b N t t 6         & & &             Y.4.4.4.4.4.4.4.4.4.@.4.4.@ o + +   o o @ @ & 4.X.4.4.4.4.4.4.4.4.4.4.4.4.4.4.4.4.4.4.4.4.r.5 3 f f f 5                                                                                     ",
"      4.X.4.O.( ( 4.2 2 2 2 2 2 2 2 2 3 2 3 2 2 2 2 2 2 2 2 2 2 2 2 2 2 2 2 2 = : & & : : 2 2 2 3 2 3 f             / ! / ( / ( ( 2 2 2 2 2 3 3 f 3 2 2 2 2       / ( ( ( ^ ( 2 2 2 2 2 2 2 2 2 2 2 2 2 2 2 2 2 2 2 2 2 2 2 & & = Y R / Y I I U                   ( 4.4.4.( 4.4.X.( ( ( ( ( } 4.} 4 3 4 #             ",
"      4.4.4.( X.( p.3 2 2 2 2 2 2 2 2 2 3 2 2 2 2 2 2 2 2 2 2 2 2 2 2 2 2 2 2 & & & ; & & 2 2 2 2 2 2 f             / / / / / ( ^ 2 2 2 2 3 3 3 2 2 3 3 2 ,       ( ( ( ^ ( ( 2 2 2 2 2 2 2 2 2 2 2 3 2 2 2 2 2 2 2 2 2 2 2 & & & Y R / Y I I Y o o         o   o ( ( O.@.+.4.4.4.( ( ( ( 4.4.( ( 5 f f #             ",
"      4.4.4.} 4.4.4.2 2 2 2 2 2 2 2 2 2 2 2 2 2 2 2 2 2 2 2 2 2 2 2 2 2 2 2 2 & & & - = = 2 2 2 2 3 3 2             ( ( / / / / ( 2 2 2 2 2 2 3 2 2 2 3 2 2       ( ( ^ ( ( ( 2 2 2 3 2 2 2 2 2 2 2 2 2 2 2 2 2 2 2 2 2 2 3 & & & / / Y T Y Y I                 o 4.X.( } 4.4.X.( } ( ( @.X.4.4.4.6 f 3 #             ",
"      4.4.4.r.Z.4.Z.2 2 2 2 2 2 2 2 2 2 2 2 2 2 2 2 2 2 2 2 2 2 2 2 2 2 2 2 2 f f 3 = = = 2 2 2 3 2 2 f             / / / / ^ / @.2 2 2 2 2 2 3 3 3 3 2 f f       ( ^ ( 4.( ( 2 2 2 3 2 2 2 2 2 2 2 2 3 2 2 2 2 2 2 2 2 2 3 & & & / ( Y Y ~ Y I     o       + + X ( } } 4.Z.4.4.4.4.4.4.4.4.4.4.4.f 3 3 #             ",
"      4.4.4.k 2 2 2 2 2 2 2 2 2 2 2 2 2 2 2 2 2 2 2 2 2 2 2 2 2 2 2 2 2 2 2 2 2 2 2 & & & 2 2 2 & & = :       : : : W / ( 2 2 2 2 2 2 2 2 3 2 3 3 3 & & = &       / ( ( 2 2 2 3 2 3 2 3 3 3 3 3 2 2 2 2 2 3 2 2 2 2 2 3 2 2 2 2 2 2 2 2 3 3 2 f f f 6       4.4.4.} ( X.4 2 2 2 2 2 2 2 2 2 2 2 2 2 2 2 : = & =       ",
"      4.4.4.t 2 2 2 2 2 2 3 2 2 2 2 2 2 2 2 2 2 2 2 2 2 2 2 2 2 2 2 2 2 2 2 2 2 2 2 & & & 2 2 2 & & : &       : : : ( / / 2 2 2 2 2 2 2 3 2 2 2 3 3 = = & &       / ( / 2 2 2 2 2 2 3 2 2 2 3 3 3 3 3 2 3 3 3 2 2 2 3 2 2 2 2 2 2 2 2 2 3 3 2 f 6 f t       4.4.X.4.4.( 4 2 2 2 3 3 2 2 2 2 2 2 2 2 2 2 : = & =       ",
"      4.4.( 6 2 2 2 2 2 2 2 2 2 2 2 2 2 2 2 2 2 2 2 3 2 2 2 3 2 2 2 2 2 2 2 2 2 2 2 & & & 2 2 3 & & & =       : : = ( / ! 2 2 2 2 2 2 2 2 3 3 3 2 3 = & & &       ( / ( 2 2 2 3 2 2 3 3 3 2 3 2 2 2 2 2 3 3 3 2 3 2 2 2 3 2 2 2 2 2 2 2 3 3 3 f 4 6 k       9.4.} 4.4.( 2 2 2 2 2 2 2 2 2 2 2 2 2 2 2 2 : & & -       ",
"      f 6 f 3 2 2 2 2 2 2 2 2 2 2 2 2 2 2 2 2 2 2 3 2 2 2 2 2 2 2 2 2 2 2 2 2 2 2 2 2 2 2 2 2 2 & & & &       & & & 2 3 3 2 2 2 2 2 3 2 2 3 2 2 2 2 & & & &       f 3 3 2 2 2 3 2 3 2 3 2 2 3 3 2 3 2 3 3 3 2 2 2 2 2 2 3 2 2 2 2 2 3 3 2 2 2 2 & & &       4.( X.f 2 2 2 2 2 2 2 2 2 2 2 2 2 2 3 & & & & & & =       ",
"      f f f 3 2 2 2 2 2 2 2 2 2 2 2 2 2 2 2 2 2 2 2 2 2 2 3 2 2 2 2 2 2 2 2 2 2 2 2 2 2 2 2 2 2 & & & &       & & & 2 2 3 2 2 2 3 2 2 2 2 2 2 2 2 2 & & & &       2 3 2 2 2 2 2 3 3 3 3 2 2 2 2 3 3 3 2 2 2 2 2 3 3 2 3 2 2 3 2 3 2 2 2 2 2 2 2 & & &       ( ( X.2 2 2 2 2 2 2 2 2 2 2 2 2 2 2 2 & & & & & & &       ",
"      f f 6 3 2 2 2 2 2 2 2 2 2 2 2 2 2 2 2 2 2 2 2 3 3 2 2 2 2 2 2 2 2 2 2 2 2 2 2 2 2 2 2 2 2 & & & &       & & & 2 2 2 3 3 2 2 3 2 2 2 3 2 2 2 2 = & & &       2 2 3 2 2 2 2 3 2 2 2 3 2 3 3 3 2 3 3 2 2 2 2 2 3 3 2 3 2 3 2 3 3 3 2 2 2 2 2 & & &       } ( ( 3 3 2 2 2 2 2 2 2 2 2 2 2 2 3 2 & & & & & & &       ",
"      2 2 2 2 2 2 2 2 3 2 3 2 2 2 2 2 2 2 2 2 2 2 2 2 2 2 2 2 3 3 2 2 2 2 2 2 2 2 2 2 2 2 2 2 3 & & & &       & & & & & & 4 3 3 3 2 2 2 2 2 2 & & &               2 2 2 2 3 2 3 3 3 2 3 3 2 2 2 2 3 2 3 2 3 2 2 2 2 2 3 2 2 3 2 3 3 2 2 2 2 2 2 & & &       2 1 2 2 2 2 2 2 2 2 2 2 2 2 2 2 2 2 2 & & & & & & =       ",
"      2 2 2 2 2 2 2 2 2 2 2 2 2 2 2 2 2 2 2 2 2 2 2 2 2 2 2 2 2 2 3 2 2 2 2 2 3 2 3 2 2 2 3 2 2 & & & &       & & & & & & 3 2 3 3 2 3 2 2 2 3 & & &               2 , 2 2 2 2 2 2 2 3 2 3 3 3 3 2 3 2 2 3 2 2 2 2 3 3 2 3 3 2 2 3 2 2 3 2 2 2 2 & & &       2 2 2 2 2 2 2 2 2 2 2 2 2 2 2 3 2 2 2 & & & & & & &       ",
"      2 2 2 2 2 2 3 2 2 2 2 2 2 2 2 3 2 2 2 3 2 2 2 2 2 2 2 2 2 2 2 2 2 2 2 2 2 2 2 2 2 2 2 3 2 & & & &       & & & & & & 3 3 3 2 3 3 2 2 2 3 & & &               2 2 2 2 2 2 3 2 2 2 2 3 3 2 3 2 2 2 2 2 3 3 3 2 2 3 2 2 2 2 2 3 3 3 2 2 3 2 2 & & &       2 2 2 2 2 2 2 2 2 2 2 3 3 3 2 2 2 2 2 & & & & & & &       ",
"      2 2 2 2 2 2 2 2 2 2 2 3 2 2 2 2 2 2 2 2 2 2 2 2 2 2 2 2 2 2 2 2 3 2 2 2 2 2 3 2 2 2 2 2 2 & & & &       & & & & & & 3 2 2 2 2 2 2 2 3 2 & & &               & & = 2 2 2 3 2 3 3 3 2 2 3 2 2 3 2 3 3 3 3 2 2 3 2 2 2 3 2 2 2 2 3 2 2 2 2 2 & & &       & : = 2 2 3 2 2 2 2 2 2 3 2 2 3 2 3 2 & & & & & & =       ",
"      2 2 2 2 2 2 2 2 2 2 2 2 2 2 2 2 2 2 2 2 2 2 2 2 2 2 2 2 2 2 2 3 3 2 2 2 2 2 2 3 3 3 2 2 3 & & & &         o o @ @ @ & & & & & & & & & & o o   = & = &       & & = 2 2 3 2 3 2 2 2 2 3 3 3 2 2 3 3 3 3 3 2 2 2 3 3 3 2 2 2 2 3 2 3 2 & & & @ @ @       & & & 2 2 2 2 3 2 2 3 2 3 2 2 3 2 2 2 & & & & & & =       ",
"      2 2 2 2 2 2 2 2 2 2 2 2 2 2 2 2 2 2 2 2 2 2 2 2 2 2 2 2 2 2 2 2 2 2 2 2 2 3 3 2 2 2 2 2 3 & & & &             @ @ @ & & & & & & & & & & o   o & = : &       & & & 2 4 3 3 3 3 2 3 3 3 2 2 2 2 3 2 3 2 3 2 2 2 3 3 3 2 2 3 2 2 3 3 2 & & #             & & & 2 2 2 2 2 2 2 2 2 2 2 3 3 3 2 2 & & & & & & =       ",
"      2 2 2 2 2 2 2 2 2 2 2 2 2 2 2 2 2 2 2 2 2 2 2 2 2 2 2 2 2 2 3 2 2 2 2 2 2 2 3 2 2 3 2 3 2 & & & &             @ @ @ & & & & & & & & & & o   o : : : &       & & & 3 3 3 3 3 3 3 2 2 2 2 3 2 3 3 2 3 2 3 3 2 2 2 3 2 2 2 3 3 2 3 2 f & & @             & & & & & = 2 2 3 2 2 2 2 3 2 3 3 3 2 & & & & & & =       ",
"      , : : 2 2 2 2 2 2 2 3 2 2 2 2 2 2 2 2 2 2 2 2 2 2 2 2 2 2 2 2 3 3 2 2 3 2 3 3 2 2 2 2 2 2 & & & &             + + + # # @ @ @ @ @ @ @ @       & & & &       & & & & & & & = & 3 2 2 2 2 2 2 2 3 3 2 2 2 3 2 2 2 2 2 3 2 3 2 2 2 2 f & & #             & = - & & & 2 2 2 2 2 2 2 2 2 3 3 2 2 & & & & & & &       ",
"      & & & & & & & 2 2 2 3 2 2 2 2 2 2 2 2 2 2 2 2 2 2 2 & & & 2 2 2 2 2 3 3 3 3 2 & & & & & & & & & &                                                           & & & & & & & & & 3 2 2 3 2 2 2 2 3 3 & & & 3 2 2 2 3 2 3 3 2 2 & & & @ & # @ @ + @       = = & & & & 2 2 2 3 3 2 2 3 3 2 3 3 3 & & & & & & &       ",
"      & & & & & & & 2 2 3 2 2 2 2 2 2 2 2 2 2 2 2 2 2 2 2 & & & 3 2 2 2 3 2 2 3 2 2 & & & & & & & & & &                                                           & & & & & & & & & 2 2 2 3 2 2 2 2 3 2 & & & 3 3 2 2 2 2 2 2 2 2 & & & # # # @ + @ @             & & & = & & & & & & & & & & & & & & & +             ",
"      & & & & & & & 2 2 2 2 2 2 2 2 2 2 2 2 2 2 2 2 2 2 2 & & & 3 2 3 2 3 3 3 2 2 2 & & & & & & & & & =                                               o           & & & & & & & & & 3 2 2 2 2 2 2 2 3 3 & & & f 2 2 2 2 2 2 2 2 2 & & & # @ # @ @ @ @             & & & & & & & & & & & & & & & & & & & @             ",
"            & & & & & & & & & & & & & & & & & & & & & & & & & &       @ & & & & & & & & &                     9.X.} 4.4.4.X.4.4.4.4.4.4.4.4.4.4.4.r.f f 7 2                   = & & & & & & & & & & & & & & & & & & & & & & & & & & & &                           & & & & & & & & & & & & & & & & & & & @             ",
"            & & & & & & & & & & & & & & & & & & & & & & & & & &       # & & & & & & & & &                   o X.4.9.4.9.4.4.4.4.4.4.4.r.9.r.9.4.9.4.t 6 6 7                   & & & & & = & & & & & & & & & & & & & & & & & & & & & & &                                                                               ",
"            & & & & & & & & & & & & & & & & & & & & & & & & & &       & & & & & & & & & &                     4.9.r.4.r.4.4.4.4.4.4.9.4.4.w.Z.4.4.4.6 t t 2                   : & & & & & & = & & & & & & & & & & & & & & & & & & & & &                                                                               ",
"            & & & & & & & & & & & & & & & & & & & & & & & & & &       # & & & & & & & & & O +   O             P.Z.4.w.9.4.9.4.r.Z.4.4.4.r.Z.Z.Z.4.Z.t 6 9 f                   = & & & & & & & & & & & & & & & & & & & & & & & & & & & &             o                                                                 ",
"      & $ $ o                                                                             4.X.4.4.4.4.4.X.4.9.2 2 2 2 2 2 2 2 2 2 2 2 2 2 2 2 2 2 2 2 2 2 2 2 2 2           o                                                                   + +   ( +.} ( ( ( ( ( ( ( ( ( ( ( ( ( ( ( ( ( ( / o                   ",
"      & & & o   o                                                                         4.} 4.4.4.4.4.4.4.( 2 2 2 2 2 2 2 2 2 2 2 2 2 2 2 2 2 2 2 2 2 2 2 2 2 2         o                                                                     + @ + ( ( ( ( } +.+.( ( ( ( 4.X.+.( ( X.@.( ( ( ( @   o               ",
"      & & & +                                                                             9.4.4.4.4.4.4.4.( 4.2 2 2 2 2 2 2 2 2 3 3 2 2 3 2 2 2 2 2 2 2 2 2 2 2 2         o                                                                     + @ O ( ( ( X.4.4.4.4.4.4.4.4.4.} ( X.} X.( ( ( ( +   o               ",
"            I 4.4.4.4.} 4.4.4.4.4.4.4.4.4.4.( 6 f 6 t 6 6 + + + O o o + + + + O + o / / / 2 2 2 2 2 2 2 2 2 2 2 2 2 2 2 2 2 2 2 2 2 2 2 2 2 2 & & & 2 2 2 2 2 2 2 3 2 2 o   o + + + Y I Y Q 7 6 f f 6 6 @ @ @ o       @ + @ & = & ( ( ( ( ( ( ( ( 4.X.2 2 2 2 2 2 2 2 2 2 2 2 2 2 2 2 2 2 2 2 2 2 2 2 2 & o o O       ",
"            Y 4.4.4.4.4.4.4.4.4.4.4.4.4.4.4./ t 6 t t 6 6 + @ @ O O o + + + + o + + / / / 2 2 2 2 2 2 2 2 2 2 2 2 2 2 2 2 2 2 2 2 2 2 2 2 2 2 & = = 2 2 2 2 2 2 3 3 2 f     o + + @ / U U Q 6 t 6 6 t t @ @ @ o       @ @ + & = = ( @.( ( ( ( O.} ( ( 2 2 2 3 3 2 2 2 2 2 2 2 2 2 2 2 2 2 3 2 2 2 2 2 2 # o o +       ",
"            T 4.} 4.4.4.4.4.4.4.4.4.4.4.4.4.E 6 t t t t t @ @ + O O o + + + @ o o @ ( ^ / 2 2 2 2 2 2 2 2 2 2 2 2 2 2 2 2 2 2 3 2 2 2 2 2 2 3 & = & 4 3 2 2 2 3 2 3 4 3       + + + / Y T Q 6 6 6 t t 7 @ @ @         @ @ @ : = = 4.@.X.( X.} 4.+.( } 2 2 2 3 2 2 2 2 2 2 2 2 2 2 2 2 2 2 2 3 3 2 2 2 2 # o o o       ",
"      E.Z.Y.r.4.4.Z.2 , 2 1 2 < < : , < 2 , 2 2 2 2 & & & 6 t t               G.T.P./ ^ ^ 2 2 2 2 2 2 2 2 2 2 2 2 2 2 2 2 2 2 2 2 2 2 2 2 2 2 & & & & = & & 2 2 3 & & &       E.P.G.V I I T f 2 2 2 2 3 f t f         ( ( ( +.( Z.2 2 2 2 , 2 2 2 2 2 2 2 2 3 2 2 2 2 2 2 2 3 2 2 2 2 2 2 2 3 2 2 2 2 2 : & = :       ",
"      4.X.4.4.X.4.Z.2 2 2 2 2 2 2 2 2 2 2 2 2 2 2 2 & & & f f 3               4.4.4./ / ^ 2 2 2 2 2 2 2 2 2 2 2 2 2 2 2 2 2 3 2 2 2 3 2 2 2 2 & & & & = = = 3 3 2 & & =       Z.4.4.I I I I 3 3 3 3 2 2 2 3 3         Y Y Y ( ( ( 2 2 2 3 2 2 2 3 2 2 2 3 2 2 3 2 2 2 2 2 2 2 2 2 2 2 2 3 2 2 3 2 2 2 2 : & & =       ",
"      4.4.4.4.4.4.4.2 2 2 2 2 2 2 2 2 2 2 2 2 2 2 2 & & & 3 3 f               4.4.4.^ ^ / 2 3 2 2 2 2 2 2 2 2 2 2 2 2 2 2 2 2 2 2 2 2 2 2 2 2 & & & = & & = 2 2 3 & & =       P.Z.4.K L I I 3 3 2 3 3 3 3 2 2         Y Y / ( ( / 2 2 2 3 2 2 3 2 2 2 2 2 2 2 2 2 2 2 2 2 2 2 3 3 2 3 2 2 2 2 3 3 2 2 2 : & & =       ",
"      Z.4.} 4.Z.4.4.2 2 2 2 2 2 2 2 2 2 2 2 2 2 2 2 & & & f f f               4.4.4.( / ^ 2 3 2 2 2 2 2 2 2 2 2 2 2 2 3 2 2 2 2 2 2 2 2 2 2 2 & & & & & & : 3 2 3 & & &       Y.Z.4.D K L U 2 2 2 2 3 2 2 4 2         Y Y Y / ( ^ 2 2 2 2 3 2 2 2 2 2 2 2 3 3 3 2 2 2 2 3 2 3 2 2 2 3 2 3 2 2 2 2 2 2 2 : & & =       ",
"      D N N f 2 2 2 2 2 2 2 2 2 2 2 2 2 2 2 2 2 2 2 2 2 2 3 2 2 2 2 2 @       4.4.Z.2 2 2 3 2 2 2 2 2 2 2 3 2 2 2 3 3 2 2 2 2 2 2 2 2 2 2 2 2 2 2 2 2 2 2 3 3 2 2 & = &       3 2 2 4 3 3 f 2 3 2 3 3 3 & & &         I I I 3 2 2 2 2 2 2 2 2 2 2 2 3 2 2 2 2 2 2 2 2 2 3 2 2 2 2 3 2 3 3 2 2 2 2 & & & & & & :       ",
"      b D K f 2 2 2 2 2 2 2 2 2 2 2 2 2 2 2 2 3 2 2 2 2 2 3 2 2 2 2 2 @       4.4.4.2 2 2 2 2 2 2 2 2 2 2 2 2 2 2 2 2 2 2 2 2 3 2 2 2 2 2 2 2 2 2 2 2 2 2 2 3 3 3 & & &       2 2 3 3 3 3 3 3 2 2 2 3 3 & & &         D I I 2 2 2 2 2 2 2 2 2 2 2 2 2 2 2 2 2 2 2 2 2 2 2 2 2 3 3 2 3 3 2 2 2 2 2 & & & & & & -       ",
"      N D F 2 2 2 2 2 2 2 2 2 2 2 2 2 2 2 2 2 2 2 2 2 2 2 2 2 2 2 2 2 @       9.} ( 2 2 2 2 3 2 2 2 2 2 2 2 2 2 2 2 2 2 3 2 2 2 2 2 2 2 2 3 2 3 2 3 2 2 3 2 3 2 3 & & &       3 2 2 2 3 3 2 3 2 2 2 3 3 & & &         I I D 2 3 2 2 2 2 2 2 2 2 2 2 2 2 2 2 2 2 2 2 2 2 2 2 2 2 2 2 3 2 3 2 3 2 2 & & & & & = :       ",
"      6 f f 2 2 2 2 & & & 2 2 2 2 2 2 2 2 2 3 2 3 3 2 2 3 2 2 3 & & & +       b k k 2 2 3 2 3 2 2 2 3 2 2 2 2 2 2 2 2 2 3 2 2 2 3 2 3 3 2 2 2 2 2 2 2 2 2 2 3 3 3 = & &       : : : 2 3 3 2 3 3 2 2 3 3 & & &         f 4 f 3 3 2 2 2 2 2 2 2 2 2 2 2 3 2 2 2 3 2 2 3 2 2 3 2 2 2 2 2 2 3 3 & & & 2 3 3 : & & =       ",
"      f f 6 2 2 2 2 & & & 2 2 2 3 2 2 2 3 2 2 2 3 3 3 2 2 2 2 2 & & & o       2 2 2 2 2 2 2 2 2 2 2 2 2 2 2 2 2 2 2 2 2 2 2 2 3 2 3 2 2 2 2 2 2 2 2 2 2 2 2 3 3 3 = & &       = = : 3 3 2 3 3 2 3 2 3 4 & & &         2 3 4 3 2 2 2 2 2 2 2 2 2 2 2 2 3 3 2 2 2 2 2 2 2 2 2 2 3 2 2 3 2 3 3 & & & 2 3 3 : & & =       ",
"      f f 6 2 2 2 2 & & & 2 2 2 2 2 2 2 2 2 2 3 2 2 3 3 2 2 2 2 & & & O       2 3 2 3 2 3 3 3 3 2 3 3 2 2 2 2 2 2 2 2 2 2 2 3 2 3 2 2 2 2 2 2 3 2 2 2 3 3 3 3 4 3 & & &       : : - 2 2 2 2 3 2 2 2 3 4 & & &         3 5 3 2 2 3 2 2 3 2 2 2 2 2 2 2 2 2 2 3 2 2 2 2 2 2 2 2 2 2 2 2 3 2 3 & & & 3 2 3 : & & :       ",
"      5 f f 2 2 2 2 & & & 2 2 2 2 2 2 2 2 2 2 2 2 2 3 2 2 2 2 2 & & & +       2 2 3 2 2 2 2 2 2 3 3 2 2 2 3 2 2 2 2 2 2 3 2 3 2 3 2 2 2 3 2 2 2 2 2 3 2 2 2 2 2 3 & & &       : : - 2 2 3 2 3 2 3 2 2 2 & & &         2 2 2 2 2 3 2 2 2 2 2 2 2 2 2 2 2 3 2 3 2 2 2 2 2 2 2 3 2 2 2 2 3 3 3 & & & 3 3 3 : & & =       ",
"      3 f 5 : : : : 2 2 2 2 2 3 2 2 2 2 2 2 2 2 2 2 3 2 2 2 3 2 & & & +       2 2 2 2 2 2 2 2 2 2 3 3 2 2 3 2 2 2 2 2 2 3 3 2 3 2 2 2 2 2 3 3 2 2 2 3 2 3 2 & & & & & &       & & & 2 2 2 2 2 2 2 = = = = & &         3 2 2 2 2 2 2 2 2 2 2 2 2 2 2 2 2 2 2 2 3 2 2 2 2 2 2 2 2 2 2 2 2 3 2 & & & 2 3 3 : & & =       ",
"      3 3 4 : : : : 2 2 2 2 2 2 2 2 2 2 2 2 2 2 2 2 2 2 2 3 2 2 & & & +       2 2 2 2 2 2 2 2 2 3 2 2 2 2 2 2 2 2 2 2 2 2 2 3 2 3 2 2 3 3 2 2 2 3 2 2 2 3 3 = & & & & &       & & & 2 2 2 2 2 3 3 = & = = = &         2 2 2 2 3 2 2 2 3 2 2 2 2 2 2 2 2 2 3 2 2 2 2 2 2 2 2 2 2 2 2 2 2 3 2 & & & 2 3 3 : & & =       ",
"      3 3 3 : : : : 2 2 2 2 2 2 2 2 3 3 2 2 2 2 2 3 2 2 3 3 2 2 & & = +       2 2 2 3 2 2 2 3 2 2 2 2 2 2 2 2 2 2 3 2 2 3 2 3 3 2 3 3 2 3 2 2 2 2 3 3 3 3 2 & & & & = &       & & & 3 2 3 2 2 2 2 & & & = = &         2 2 2 2 2 2 3 3 2 2 2 2 2 2 2 2 2 2 2 2 2 2 3 2 2 2 2 2 2 2 2 2 2 3 2 & & & 2 3 3 : & & =       ",
"      = & = = = = & 2 2 2 2 2 2 2 2 2 2 2 2 2 2 3 2 2 3 3 & & & & & & +       = & & & & & 2 2 2 2 2 3 2 2 2 2 2 2 2 2 2 2 3 3 3 f & & & 2 2 3 3 2 3 & & & & & = &             @ @ @ = & & & & & & & & & = = &         & & & 3 2 2 & & & 2 2 2 2 2 2 2 2 2 2 2 2 2 2 2 2 2 2 2 2 2 2 2 2 3 2 & & & 2 2 3 : & & =       ",
"      = & = & = & & 2 2 3 2 2 2 2 2 2 2 2 2 2 2 2 2 2 2 2 & & & & = & +       & & & & & & 2 2 2 2 2 2 2 2 2 2 2 2 2 2 2 2 2 3 3 f & & & 2 2 3 3 3 3 & & & & & = =             @ + + & = = & & & & & & & & = &         & & & 3 2 3 & & & 2 2 2 2 2 2 2 2 2 2 2 2 2 2 2 2 2 2 2 3 2 2 2 2 2 2 & & & 2 2 3 : & & =       ",
"      & & & & = & & 2 2 2 2 2 2 2 3 2 2 2 2 2 2 2 2 2 2 3 & & & & & = +       & & & & = & 2 2 2 2 2 2 2 2 2 2 2 2 2 2 2 3 2 2 3 f & & & 2 2 2 2 2 3 & & & & & & &             @ @ @ & = & & & & & & & & & & &         & & & 2 3 f & & & 2 2 2 3 2 2 2 2 2 2 2 2 2 2 2 3 2 2 2 2 2 2 2 2 3 2 & & $ 2 2 2 : & & =       ",
"      # @ # & & & & = = & & & & 2 2 2 2 3 3 2 & & & & & & & & & & & & @       & & & & & = = = = = & & & & & & 2 2 2 2 2 2 3 2 3 6 o     & & = = = = & & & & o   + t b b = = & + + + & & & = O o o   o o o o o         & & & & = &       3 2 2 3 2 2 2 2 2 2 2 2 2 2 2 2 : = = , 3 2 2 & = &   o o & = & & & & =       ",
"      # @ @ & & & & & & & & & & 2 2 2 2 3 3 2 & & & & & & & & & & & & +       & & & & & & & & & & & & & & & & 2 2 2 2 2 2 2 3 2 f       & = = = & & & & & &       b b k = = : + + + & & & &   o                       & & & & & &       3 2 3 2 2 2 2 2 2 2 2 2 2 2 2 2 = & & : 2 2 2 & & &       & & & & & & =       ",
"      # # # & & & & & & & & & & 3 3 3 2 2 3 2 & & & & & & & & & & & = +       = & = & & & & & & = & & & & & & 2 2 2 2 3 3 2 2 2 6     o & & & = & & = & = &     o b b k = : : @ + + & & = & o o o                     & & & & & &       2 2 2 3 3 2 2 2 2 2 2 2 2 2 2 3 : & = , 2 3 3 & & = o     & = = & & & =       ",
"      # # # & & & & & = & = = & 2 3 2 3 3 3 2 & & & & & & & & & & & = +   o   = & & & & & & & & & & = & & & & 3 2 2 2 2 2 3 3 3 f       & & & & & & = = & & o + O k b D : : : + + + & & & = o o o                     & & & & & &       2 2 3 2 2 2 2 2 2 2 2 2 2 2 2 2 = & & , 2 4 2 & & &     O & = & & & & =       ",
"            # & & & & & &       & & & & & & & & & & o       o       o o   o     o   - & = & & = & & & & & & & & & & & & &               & & & & & & o o   o   o   + @ + # # #                     & & & # @ & o o o o           o & & & & & & & & & & & & & & & & & & & & & & & & & &       & & & & & & +             ",
"            @ & & & & & &       & & & & & & & & & &               o                 & & & & & & & & & & & & & & & & & & &               & & & & & &           o   + @ + @ # #                     & & & # % #   o               o & & & & & & & & & & & & & & & & & & & & & & & & = & o     & & & & & & +             ",
"            @ & & & & & &       & & & & & & & & = & o           o o             o   & & & & & & & & & & = = & & & & & & &               & & & & & &         o     + + @ @ # @                     & & & @ & &     o               & & & & & & & & & & & & & & & & & & & & & & & & = =       & & & & & & +             ",
"                                                                                                                                                                                                                                                                                                                      ",
"                                                                                                                                                                                                                                                                                                                      ",
"                                                                                                                                                                                                                                                                                                                      ",
"                                                                                                                                                                                                                                                                                                                      "
};
