/* XPM */
static const char *wall_93[] = {
/* columns rows colors chars-per-pixel */
"93 93 153 2 ",
"   c #060709",
".  c #090A0C",
"X  c #0D0E12",
"o  c #0F1014",
"O  c #121317",
"+  c #131519",
"@  c #16181C",
"#  c #191A1E",
"$  c #1D1E22",
"%  c #201F24",
"&  c #1F2024",
"*  c #212226",
"=  c #242529",
"-  c #27282C",
";  c #292A2E",
":  c #2D2E32",
">  c #2F3034",
",  c #313236",
"<  c #363837",
"1  c #34363A",
"2  c #37383D",
"3  c #393A3E",
"4  c #40403E",
"5  c #3C3D42",
"6  c #413F40",
"7  c #3E4045",
"8  c #444445",
"9  c #484647",
"0  c #494947",
"q  c #45464A",
"w  c #464A4D",
"e  c #494B4E",
"r  c #4B4D51",
"t  c #4E5054",
"y  c #515256",
"u  c #545659",
"i  c #56595C",
"p  c #5A5B5D",
"a  c #605E5F",
"s  c #61615F",
"d  c #555D60",
"f  c #5C5D61",
"g  c #5E6163",
"h  c #636363",
"j  c #666867",
"k  c #696967",
"l  c #656669",
"z  c #696768",
"x  c #676969",
"c  c #6B6D6C",
"v  c #706F6D",
"b  c #6E706F",
"n  c #71716F",
"m  c #6D6F71",
"M  c #6F7072",
"N  c #737373",
"B  c #787775",
"V  c #797977",
"C  c #76777A",
"Z  c #777979",
"A  c #7C7C7C",
"S  c #7B7A7A",
"D  c #817E7E",
"F  c #81817F",
"G  c #7D7E80",
"H  c #808281",
"J  c #818382",
"K  c #848381",
"L  c #858482",
"P  c #868583",
"I  c #878684",
"U  c #858584",
"Y  c #888785",
"T  c #898987",
"R  c #86878A",
"E  c #878889",
"W  c #8C8B8A",
"Q  c #908F8D",
"!  c #93928F",
"~  c #939393",
"^  c #969291",
"/  c #969591",
"(  c #959492",
")  c #979694",
"_  c #969694",
"`  c #959492",
"'  c #989493",
"]  c #9A9693",
"[  c #989795",
"{  c #9B9794",
"}  c #9A9695",
"|  c #999896",
" . c #9C9895",
".. c #9D9996",
"X. c #9E9A97",
"o. c #9C9996",
"O. c #9F9B98",
"+. c #9E9D99",
"@. c #9F9E9A",
"#. c #9E9B99",
"$. c #A09C99",
"%. c #A09D98",
"&. c #A19D9A",
"*. c #A09F9A",
"=. c #A29E9B",
"-. c #A39E9A",
";. c #A09F9D",
":. c #A39F9C",
">. c #A29E9B",
",. c #9EA09D",
"<. c #A3A09B",
"1. c #A1A09C",
"2. c #A2A19D",
"3. c #A1A09E",
"4. c #A4A09D",
"5. c #A4A19C",
"6. c #A5A29D",
"7. c #A5A19E",
"8. c #A6A29F",
"9. c #A7A49F",
"0. c #A4A19E",
"q. c #A8A39F",
"w. c #A19FA0",
"e. c #A7A3A0",
"r. c #A7A3A2",
"t. c #A7A7A5",
"y. c #A4A3A2",
"u. c #A8A4A1",
"i. c #A8A5A0",
"p. c #A9A6A1",
"a. c #A9A5A2",
"s. c #AAA7A2",
"d. c #AAA6A3",
"f. c #ABA6A2",
"g. c #A9A5A4",
"h. c #ABA7A4",
"j. c #A9A7A5",
"k. c #ABA8A3",
"l. c #AAA9A5",
"z. c #A3A4A8",
"x. c #ABAAA8",
"c. c #ACABA9",
"v. c #ADAEA9",
"b. c #ADABAB",
"n. c #B2AEAC",
"m. c #B4B1AE",
"M. c #B1AFB2",
"N. c #B5B4B2",
"B. c #B8B7B5",
"V. c #BAB9B7",
"C. c #B5B6B8",
"Z. c #B9B7B8",
"A. c #BBBBBB",
/* pixels */
"+ + + + + + + + + + + + + + + + + + + + + + + + + + + + + + + + + + + + + + + + + + + + + + + + + + + + + + + + + + + + + + + + + + + + + + + + + + + + + + + + + + + + + + + + + + + + + ",
"+ + + + + + + + + + + + + + + + + + + + + + + + + + + + + + + + + + + + + @ + + + + + + + + + + + + + @ + + + + + + + + + + + + + + + + + + + + + + + + + + + + + + + + + + + + + + @ @ @ ",
"+ + + + 4.4.4.4.4.e.4.c.V l e # & S 4.e.u.e.e.e.u.e.4.4.e.N n N N & * = = u.u.u.u.u.u.u.V c t.q.l N S S = * : : : : 5 5 u.l.u.h.u.u.u.u.u.u.u.u.u.u.u.e.n N N c c * * B N B B r r O + @ # ",
"+ + + + u.e.e.e.e.e.e.x.S k e # * S 4.4.u.9.e.u.u.e.e.4.u.N n N N * * = = h.u.u.u.k.u.u.S c v.u.h N S A = * > : : > 5 7 k.l.u.h.u.u.u.u.k.u.u.u.u.u.e.h.N B N N c * = B B B B r t O + @ @ ",
"+ + &.4.&.:.k c c c c k k c N O * B ..' ) x x k k k k k l c k q q * & &.4.2.@.k k k k c @...p c n c c c h k r e = * &.&.2.&.c k x k k c k k k k j j j x w w w t N S S Z u r w S N e q + + ",
"+ + 4.4.4.:.c c c c c c c c N O * B O.) ( k c c c c c c c c k q q $ $ 4.4.:.2.k c c c c 2.&.a c c c c c c c r r * * ..&.&.&.c c c c c c c c c c c c c N w e e y N B B B y e r A A w r + + ",
"+ + 4.4.k h k c c c c c c i y . * e p h k c c c c c c c c c c w e & % 4.4.k c k c c c c c k p c c c c c c c r r * & ..&.k k c c c c c c c c c c c c c k k 8 e r c k c k c c c u u q w + + ",
"+ + :.:.k c c c c c c c c g r $ * r u m c c c c c c c c c c k e e * * 4.O.k c c c c c c c c c c c c c c c c e r $ $ &.:.k c c c c c c c c c c c c c c c c q e e c c c c c c c u u w q O O ",
"O O :.:.k c c c c c c c c f r + $ e u c c c c c c c c c c k k e e * # 4.&.c c c c c c c c c c c c c c c h l r r $ $ ..O.k c c c c c c c c c c c c c c c c k c c c c c c c c c t y q w O O ",
"+ O &.:.c c c c c c c c c g e @ $ > 3 b k c c c c c k r r k k w e * * N N c c c c c c c c c c c c c c c q r e r $ $ ..O.k c c c c c c c c c c c c c c c c c c c c c c c c c c r r q w O + ",
"+ O &.&.c c c c c c c c c f e + $ : 3 M c c c k k k k r r k c w e * * N N c c c c c c c c c c c c c c c q r e r $ $ [ O.k k c c c c c c c c c c c c c c c c c c c c c c c c c r r q q O + ",
"O O ) | 5 8 e q c c c c c f w # $ , 2 > > q w w w w w w e u u w e * & c c c c c c c c c c c c c c c c c c c r r & & ' ' k c c c c c c c c c c c c c c c c c c c c c c c c c c r r q q O + ",
"O O [ ( i i y e c c c c c g q @ & : 3 , , w e e w w e e e u i e r & * c c c c c c c c c c c c c c c c c c c t r * * ^ ( c c c c c c c c c c c c c c c c c c c c c c c c c c c r r q w O + ",
"O + d g d p g w q w w w w 7 * i i * = 5 3 & * * * * * * * * * * * * = c c c c c c c c c c c c c c c c c q r r r * * M c c c c c c c c c c c c c c c c c c c c c c c c c c c c r r q q + + ",
"O O d d i p w w q q w w e 5 * h u = = 5 2 * * * * * * * * * * * * = * k k k c c c c c c c c c c c c c c q r r r * * c c k k c c c c c c c c c c c c c c c c c c c c c c c c c r r q q + + ",
"+ + = = = = = = & & & * * ; 2 3 3 J P P P P P K P B V S S S V * * * * u u e w c c c c c c c c c m e e e r r r r * * e r r e k c c c c c c c c c e q c c c c c c c c c c c w w e e q q O + ",
"+ + = = = = = = & & & * & : 3 3 3 J I P P P P P I B V S S S S * * = * u u r e c c c c c c c c c c e e e r r r r * * e r r r k c c c c c c c c c r q c c c c c c c c c c c w e w e q q + + ",
"+ + ; ; = - &.4.4.4.4.4.<.&.2.&.@.) | N c c c c c k c [ ~ k c b N * $ i u r r w 8 c c c c w e r u = r r r r r r * * e e e r r e w e e e e e e r e e e m c c c c c e r r e w w : ; = = + + ",
"+ + ; ; * = 4.4.4.4.4.e.4.4.:.:.&.O...k c c c c c c c ( ( c k c c * * u u r r r q c c c N r r e r = r r r r r r * * r w w r e e e r r e r r r e e e e m c c c c c w r r r e w ; : = = + + ",
"+ + * = :.h.:.l.x j l j j j k k x k k c c c c c c c c k c k k q 8 * $ $ & r w e e e e w 8 w = * 5 8 q q = * * = * * * * * * * * * & * * * * = $ , > > w e e e e w e e e e w w = = r r + + ",
"+ + = * 4.:.4.e.c c c c c c c c c c c c c c c c c c c c c c k e r & & = * w w w w w e w w w @ = 1 8 q q * = * * * * * * * * * * * * * * * * * * , , , q e e e e w w e e e w w = = e w + + ",
"+ + n.N.:.@.k j c c c c c c c c c c c c c c c c c c c c c c k e e : > = = * * * * & * & $ $ * & * $ * $ & * ; ; m.n.n.m.m.m.Y I T W * * * * * * , , = * & & & $ $ $ $ $ $ $ & * * ; : + + ",
"+ + :.4.4.@.x c c c c c c c c c c c c c c c c c c c c c c c k e e > > = - * * * * * & * & * * * * * $ $ * & ; ; @.4.4.4.4.:.A A A D * * * * * * , , = * & & $ $ $ $ $ $ $ $ $ * * ; : + + ",
"+ + 4.4.h h c k c c c c c c c c c c c c c c c c c c c c c c c e r $ $ - = N.B.B.m.m.n.E h r = * = * A.V.B.B.V.n.h h h h h h k k k k Z C * * = * , * B.B.B.V.V.B.B.N.N.N.N.R E r q $ $ + + ",
"+ + 4.4.k c c c c c c c c c c c c c c c c c c c c c c c c c k r r $ $ - : &.&.&.&.O.[ S f r + * = = b.:.4.4.4.4.c c c c c c c c c c c c & * = * , # O.&.&.2.&.&.&.&.O.O.&.N B q q # $ + + ",
"+ + v k k c c c c c c c c c c c c c c c c c c c c c c q w c k r r # + b.N.&...h h s k k A c y y = * x.4.s s h s c c c c c c c c c c r r = = * @ x.b.h h h h h h h h s k k c c N k u u + + ",
"+ + N N c c c c c c c c c c c c c c c c c c c c c c c r r x k e r # # ......@.c c c c k k k u t + * b.&.c c c c c c c c c c c c c c y y = = * @ [ @.c c c c c c c c c c c c c c c t t + + ",
"+ + q e c c c c c c c c c c c c c c c c c c c c c e q c c w e e r # @ ) [ h h c c c c c i r q e $ * m h c c c c c c c c c c c c c c w q = & N.c...@.c c c c c c c c c c c c c c c q w + + ",
"+ + e e c c c c c c c c c c c c c c c c c c c c c e r k c w e r r @ + ^ ! c c c c c c c g r r r $ * N c c c c c c c c c c c c c c c r w * - ....' @.c c c c c c c c c c c c c c c q e O O ",
"+ + e w c c c c c m w h c c c c c c c r r c c c c c c c c w e r r # # p y c c c c c c c i e r r $ * N c c c c c c c c c c c c c r e r w * & ' ( k c c c c c c c c c c c c c c e r q e O O ",
"+ + w w k c c c c c e g c c c c c c c w r c c c c c c c c e r r r # + y u c c c c c c c i e r r $ * N c c c c c c c c c c k c c e r r r * = ) ~ c c c c c c c c c c c c c c c e w w w + + ",
"O O e e u u e w r e l c k c c c c c c e e r r r r r r r r r w - = * & r e c c c c c c c i e e e $ * r w c c c c c c c c c c N c r r r w * = r e c c c c c c c c c c c c c c c l l w e + O ",
"O O e e u u e e r q k k c c c c k c c r e r r r r r r r r r r = = * * e w c c c c c c c u e e e $ * r q N c k c k k k k k k N N e r r r * * w e c c c c c c c c c c c c c c c x l w w O O ",
"O + & * : : e r & = r e w w w e e e e e e r r r r r r r r * * * * * * = = e w e r r r r e e * ; = = - : e e e e r r r r r r r e e r * * * * w r c c c c c c c c c c c c c c c r r w w + + ",
"O + * * ; : w r = $ e e e e e e e e e e e e e r r r e e e * * * * * * * = e e e e r r e r e * = = * ; - e r r r e e e r r e e e e r = = = * e r c c c c c c c c c c c c c c c e r w w O + ",
"+ + 3 2 : ; & * * * * * $ * * * * * * * * * * * * & $ * * * * 3 3 5 3 * * = * * = = = * * * 5 3 3 3 * * = * & * * * * * * * * & * * * * * * e r r e c c c c c c c c c c c c c t t w w + + ",
"+ + 5 5 ; ; * * * * * * * * & & & * * * * * * * * * * * * * * 7 7 7 8 * * * * * * * * * * * 5 5 5 5 $ * * * * * * * * * * * * * * * * * * * e e r q k c c c c c c k c c c c c y t w e + + ",
"+ + = - e.y.y.y.y.w.w.w.w.:.@.u h $ * 5 3 = = = = t.y.y.y.e.y.y.y.y.e.e.e.w.2.Z C f h , = * * * A.t.e.t.t.t.y.y.N B :.:.y.w.y.y.= * u y * * : > 1 , w p k k c c c c c w e q q k c w w + + ",
"+ + - : @.:.:.:.:.:.:.:.&.&.&.e f # = 3 3 * = = * &.:.:.4.4.4.4.4.4.4.4.4.:.@.N B i i 1 = * = = V.4.4.4.4.4.4.4.N N &.&.&.&.&.@.- * r y & = , > 1 3 e p k k k k k k k r e q q l c w e + + ",
"O + N.N.&.:.h h h h h h h h h j k l h ; : = = b.m.e.&.h h h h l l h h h s h h q q c M i = * C.N.x.4.h h h l l h ) | N V V V V B C S * & * $ e e * * w w w w e e e w w & = e r w r w w O O ",
"O O :.:.:.@.c c c c c c c c c c c f f = : = = ..&.:.&.c c c c c c c c c c k c r r k l i = $ Z.:.2.4.h c c c c c ) ( c c c c c k c c = = * $ q q = $ e e e e e e e e e = = e e e e e e + + ",
"O O :.:.k k c c c c c c c c c c c p t $ $ ,.) O.&.k k c c c c c c c c c c k k c c k c e = # B.4.z s k c c c c c h l c c c c c x e r $ * * $ * & * * * * * * & * & & & $ $ & $ $ $ $ & + + ",
"+ O :.2.k c c c c c c c c c c c c i y # & W ( O...N c c c c c c c c c c c c c c c c k w = # Z.4.a c c c c c c c c c c c c c c c w t & * * * * * * * * * * * $ $ $ $ $ $ $ $ $ $ $ $ $ + + ",
"+ + B B c c c c c c c c c c c u r r r + # h p W ' k c c c c c c c c c c c c c c c c c r = # b.' p c c c c c c c c c c c c c c c w r * * 1 : ) | | | ..[ O.O.O.v N c N N c N N u u * & + + ",
"+ + S B c c c c c c c c c c k u r r r + # d g ! Q c c c c c c c c c c c c c c c c c c r = # x.Q h c c c c c c c c c c c c c c c e r * * 1 1 ....&.&.&.&.&.&.O.k N N N N n B N u i & * + O ",
"+ + k k c c c c c c c c c c k y r r r + @ e r k c c c c c c c c c c c c c c c c c r y r = # G c c c c c c c c c c c c c c c c c w r $ + ! ) [ | c c c c c k k c c ( ! c c k c S Z j k + O ",
"+ + k k c c c c c c c c c c c u r r r O # w w c c c c c c c c c c c c c c c c c c r r r = # J c c c c c c c c c c c c c c c c c e t # $ O...O.) k k c c c c k c c ~ ^ c c c c B V c c O + ",
"+ + j x c c c c c c c c c c c c l y r + # w e c c c c c c c c c c c c c c c c c c c c r = # S c c c c c c c c c c c c c c c c c w r # # O.O.c c c c c c c c c c c c c c c c c i i e e + + ",
"+ + l l c c c c c c c c c c c c c e r + # e e x c c c c c c c c c k c c c c c c c c c r = # Z c c c c c c c c c c c c c c c c c w r # # O.O.c c c c c c c c c c c c c c c c c u i w w + + ",
"+ + t t e w c c e w c c c c c q q w e + # * $ r r c c c c c c c k c c e e c c r t e q e = # e q h c c c c c w e c c c c i i r q e t # $ y q c c c c c c c c c c c c c c c c c i i w w + + ",
"+ + y u e r k c e q c c c c k q e w w @ # * = r r c k k k k k k k k c r r c c y y e e r * # w q N c c c c c r e c k c k i i r t e t # # r r c c c c c c c c c c c c c c c c c p u w w + + ",
"+ + u y r r q w e e q q q q w q e - # 8 q * * q e q q q w w q q w w w r r q q e r e e & & $ r e r w w e e q r r # # 8 q e w r r # # $ $ r e c c c c c c c c c c c ; > 8 q u u i i w w + + ",
"+ + $ $ e e e e e e e w w w w w w # $ q 5 * * w w w w w e e e e e w e e w e e e e e r $ $ $ t w e r r r r e e e * = q w w e w e * $ $ $ e q c c c c c c c c c c k 1 2 e e i i i i q e + + ",
"+ + * * # $ $ # # # # # # # # # # $ * ; = * * $ # # $ # # # # # # # # # # # # # # # $ $ $ $ * & $ # # $ $ # # # * * # # # # # # $ & $ $ > 2 w e w w w p c c c 8 e $ # w e e r r e w w O + ",
"+ + * * * * * * * * * * * * * & & * * = = * * * * * * * * * * * * * * * & & & & & & & $ $ $ * * * * * * * * * * * * * & & * & $ $ & * $ 1 > r e w w e i c c c 7 e + $ e e r r r r w w O O ",
"+ + & * 8 6 4 4 e w 0 0 < < < 8 8 8 8 9 9 8 8 , ; * & = = * * ; ; * * * * w w 8 8 8 8 8 : * = * ; : 8 8 8 8 9 8 8 8 8 8 8 8 8 8 < < , , ; , : : : : : , 3 3 5 : 1 $ $ , 1 1 1 2 1 1 1 + + ",
"+ + & * 4.4.4.4.4.4.4.4.S S B ..:.4.4.4.:.:.:.&.&.A F V B = * q q * * * = O.O.O.O.O.O...8 ; = * q 5 t.&.&.&.&.&.&.&.&.:.:.:.&.:.N N N N * & & & & & * * * & & & $ $ $ $ $ $ $ $ $ $ $ + + ",
"+ + % * :.e.2.4.4.2.4.2.S S B ..2.:.2.2.2.@.@.@.&.D A S B * * q q * * * * ....| o.o.o.| 3 = = = 3 5 h.O.@.&.<.&.&.@.&.2.2.&.@.@.N N N c # $ * & & & * * & * $ $ $ # $ $ # $ $ * # $ $ + + ",
"+ + &.&.[ ( k k k k c c c c c c c c c c c k k M r r r k c k k = = * $ ~ ^ ^ ! c c c c c c k O $ ~ [ ( ) l c c c c c c c c c c c c c r e Q ! T W : : * ; , x.O.O.&.&.O.O.O.O...c N = = + + ",
"+ + &.&.~ ) c c c c c c c c c c c c c c c c c k e e t k c c k * = $ * ^ ! ( ~ k c c c c c c o $ ~ ) | | l c c c c c c c c c c c c c r r ~ W E U ; : * 1 , M.O.O.&.&.&.&.@.@.@.N N = * + + ",
"+ + O.&.c c c c c c c c c c c c c c c c c c c c c e e k k r r * $ y u Q Q c c c c c c c d r X # W [ z c c c c c c c c c c c c c c c h l c c c c c S & z [ ..O.p c c c c c c k c c e e O + ",
"+ + ....c c c c c c c c c c c c c c c c c c c c c e e c c r r & $ y r ! W c c c c c c c d e O @ ~ ^ k c c c c c c c c c c c c c c c l l c c c c c A $ z ....O.s c c c c c c c c c r r + + ",
"+ + N N c c c c c c c c c c c c c c c c c c c c c c c c c e e # # e w k k c c c c c x l e w X # l c c c c c c c c c c c c c c c c c c c c c k c r r # h ' s c c c c c c c c c q r w w + + ",
"+ + N N c c c c c c c c c c c c c c c c c c c c c c c c c e e # # e w c k c c c c c k h y q + # f k c c c c c c c c c c c c c c c c c c c c k k e r # p ( h c c c c c c c c c e r w w + + ",
"+ + c c c c c c c c c c c c c c c c c c c c c c c c c c k e e # # e e q w c k c c k c w = & # # r h c c c c c c c c c c c c c c c c c c c c c c q w # 5 k c c c c c c c c c c e e w e O + ",
"+ + c c c c c c c c c c c c c c c c c c c c c c c c c c c w e # # r e q e c c c c c m e ; & # # 2 r c c c c c c c c c c c c c c c c c c c c c m q r # 5 g c c c c c c c c c c w r w w O O ",
"+ + h h c c c c c c c c c c c c c c c c c c c c c c c c c w e # $ = = 1 1 t r r r e w - r t o # 1 e c c c c c c c c c c c c c c c c c c c k r y $ & # 1 r m c k c c c c c c c e r w e O + ",
"+ + h h c c c c c c c c c c c c c k c c c c c c c c c c c w e $ $ = = 1 , r r t r e r = t t O # 1 e c c c c c c c c c c c c c c c c c c c c r t $ $ # 1 r r r M c c c c c c c e r w e O + ",
"+ + q q r e c c c k k k k c c c c e e c k c c c c e e e r r e $ $ = = $ & * * * * * $ $ = ; # # 1 e e w r e x c c c c c r t c c c c c c r r 8 q > , # 1 r r e N k k c c c c c e w w w + + ",
"+ + q q r w c c c c c k k k k c k e e c k c c c c r w w w e r $ $ = = & & $ & * & $ & $ = - # # 1 e e e e e h k c k c c e r c c c c c c r r 8 8 , , # $ = r r e r r r r r e e e r # $ + + ",
"+ + + # r r r r r r r r r r r r r r e - - r r r r r e * * = * * & ^ ..O.........O.O...[ N n   $ $ * & * r e r r r r r r r r r t r r r r r e $ $ = = $ * = r r r r r e e e e e e r # $ + + ",
"+ + $ $ r e e e r r r e e w e e e e e * = r e e e e e $ & * * * * 4.4.4.4.4.4.4.4.4.4.4.S B . $ $ $ $ $ r e e r r e w e e e e r e e e e r q # # = = $ $ * $ $ $ $ # # # # # # # # $ $ + + ",
"+ + 3 3 ; ; & $ # # + # # @ + + + + + $ $ & $ & $ $ @ m.m.m.m.N.n.h c c c h h c h h h c k k b B # * - ; $ * $ # # # # # # # # # # # # $ $ $ * & , = K D D D S S D S S S S S S $ * $ $ + + ",
"+ + 3 5 - ; $ & # # # # # # # # # # # $ $ * * & & # # &.&.:.4.e.4.c c c c c c c c c c c c c c c + * ; ; * * # $ # # # # # # # $ $ $ # # $ $ * $ 1 * [ [ [ [ [ ..{ [ { { [ [ [ $ = $ $ + + ",
"+ + = = Z.B.V.N.B.Z.V.V.V.t.E E E 3 , , : , , : : x.#.k k k c c k c c c c c c c c c c y x c c c j N ; ; 2 , z.y.E E E R 1 1 = = : : i i B.N.N.N.v.N.k k k k c c c c c k k k k N M = * + + ",
"+ + * * 4.4.4.e.4.4.4.e.4.~ B B B : 1 ; : 1 1 : > ~ W k c c c c c c c c c c c c c c M r h c c c c c = : 1 2 W W N B B B 1 1 = = > : y y :.:.:.&.&.2.c c c c c c c c c c c c c c c = = + + ",
"+ + = = 4.&.! ! ( ! ! ( ~ E N c c ; 7 > ; , : i p ( Q k c c c c c c c c c c c c c c b r h c c c q w $ = N k I Q n N N N < : = * ; * f h W W T W W W c c c c c c c c c c c c c c b : , + + ",
"+ + O.&.&.o.c c c c c c c c c q e B b = ; * * | ..W Q c c c c c c c c c c c c c c c b e t r N c 7 w $ $ b.&.W W c c c c c k & & W Q ^ [ k c c c c c c c c c c c c c c c c c c c c w w + + ",
"+ O e.@.h.y.c c c c c c c c c q w l b @ & * * [ ..E E c c c c c c c c c c c c c c c c q r t k c q w # $ v.2.N B c c c c M c & & W T o.[ k c c c c c c c c c c c c c c c c c c m N t r + + ",
"+ + A A l h c c c c c c c c c c c c c h h = * ' ..k c c c c c c c c c c c c c c c c c c k c c c q r + @ k j c c c c c c q e $ # K I c c k c c c c c c c c c c c c c c c c c c r r r r + + ",
"+ + A V h h x l c c c c c c c c c c c p g * * ! ! k c c c c c c c c c c c c c c c c c c c c c c q r + @ m l c c c c c c e w $ # P P c c c c c c c c c c c c c c c c c c c r y c k e r + + ",
"+ + c c h f e q c c c c c c c c c c c e e & * l c c c c c c c c c c c c c c c c c c c c c c c c q r + # u y k c c c c c w e $ & c c c c c c c c c c c c c c c c c c c c c e r c c w r O O ",
"+ + c c h h r q c c c c c c c c c c c e e $ * l c c c c c c c c c c c c c c c c c c c c c c k c r w + # y y k c c c c c q e $ $ c c c c c c c c c c c c c c c c c c c c c e r k c e e O O ",
"+ + c c u u c c c c c c c c c c c c c w e & * x c c c c c c c c c c c c c c c c c c c c c c q r w e + # r r k c c c e r e e $ $ k k c c c c c c c c c c c c c c c c c c c e e c c e e O O ",
"+ + k l u u c c c c c c c c c c c c c q r & * k k k k k k c c c c c c c c c c k c c c c c c r r e w + # y r l k c k r r r r $ & l c c k x k c c c c c c c c c c c c c c c e e k c e e O + ",
"+ + e r r w c k k c c c c c k k c q r r r & * q e e r k k k c c c c c c c c c e q c k c g e e e $ * # $ > : e e r e r r r r & $ r w k c w r k c c c c c c c c c c c c c c q q k k e r + + ",
"+ + e e r q c k k c c c c c c k k e e r r & * w e r r c k k k h g c c c c c k e 7 c k c g e e e $ = $ # > : q e r r e r r r & $ r w k k q r c c c c c c c c c c c c k c c q q j c e r + + ",
"+ + 1 1 r r r r e q c c c g e e e r r e r & * w w e e r r r e q q c k k k c x * * e r r r r # * I S q y = ; q w = = * * * * * * w e w w * = c c c c c c c c c c r c c e e = = r e e r O + ",
"+ + 1 1 r r r e q 8 x x k i e e e e q w q * * q q r e r r r r w q j x x k k k * * e r r e e $ = C N t r * ; q q = = = - * * * * q q q q = ; j x j j j j j j j k r c x q w $ = e e e q + + ",
"+ + + + e e e r * $ e w w w w $ * * * * * * = * * r e e r r e e e e w w w * * * & e w w : * * * : > 5 5 * * * * * * q w 2 2 = * * * * * e w w w w w w w w w e e e e e = * e e w w + + + + ",
"+ + + + w w w e * & q w w w w # * * * * * * * * * e r w e e w e e e e e w * * * * e w w ; * * * : > 5 5 & * * * * = w q 3 3 * * * * * * e e e w w w w w e e w e e e e = * e e w w + + + + ",
"+ + + + + + + + + + + + + + + + + + + + + + + + + + + + + + + + + + + + + + + + + + + + + + + + + + + + + + + + + + + + + + + + + + + + + + + + + + + + + + + + + + + + + + + + + + + + + ",
"+ + + + + + + + + + + + + + + + + + + + + + + + + + + + + + + + + + + + + + + + + + + + + + + + + + + + + + + + + + + + + + + + + + + + + + + + + + + + + + + + + + + + + + + + + + + + + "
};
