/* XPM */
static const char *wall_42_16[] = {
/* columns rows colors chars-per-pixel */
"16 16 105 2 ",
"   c #010001",
".  c #010101",
"X  c #010102",
"o  c #010103",
"O  c #020202",
"+  c #020203",
"@  c #030203",
"#  c #010204",
"$  c #020204",
"%  c #030204",
"&  c #020304",
"*  c #030304",
"=  c #030205",
"-  c #030305",
";  c #040305",
":  c #050305",
">  c #040306",
",  c #040405",
"<  c #040406",
"1  c #050406",
"2  c #040506",
"3  c #050506",
"4  c #050607",
"5  c #08090B",
"6  c #09090B",
"7  c #0A0A0B",
"8  c #0B0B0D",
"9  c #0B0C0D",
"0  c #0C0C0C",
"q  c #0F0F11",
"w  c #100F11",
"e  c #121213",
"r  c #131213",
"t  c #121214",
"y  c #131316",
"u  c #141315",
"i  c #141415",
"p  c #151415",
"a  c #151515",
"s  c #141416",
"d  c #141516",
"f  c #151516",
"g  c #151417",
"h  c #151517",
"j  c #161517",
"k  c #151616",
"l  c #161616",
"z  c #161617",
"x  c #161618",
"c  c #161619",
"v  c #19191B",
"b  c #1C1C1E",
"n  c #1F1F21",
"m  c #1F2022",
"M  c #202022",
"N  c #212122",
"B  c #242425",
"V  c #252525",
"C  c #252426",
"Z  c #242526",
"A  c #252526",
"S  c #242427",
"D  c #252427",
"F  c #252527",
"G  c #262527",
"H  c #252626",
"J  c #252627",
"K  c gray15",
"L  c #262627",
"P  c #252528",
"I  c #262528",
"U  c #252628",
"Y  c #262628",
"T  c #272628",
"R  c #272728",
"E  c #262729",
"W  c #272729",
"Q  c #282829",
"!  c #29292A",
"~  c #2A2A2B",
"^  c #2A2A2C",
"/  c #2B2B2D",
"(  c #2C2C2E",
")  c #2E2E30",
"_  c #333234",
"`  c #454444",
"'  c #464646",
"]  c #474646",
"[  c #474746",
"{  c #484747",
"}  c #484849",
"|  c #494949",
" . c #4A4949",
".. c #494A49",
"X. c #4A4A49",
"o. c #494A4A",
"O. c gray29",
"+. c #4B4A4A",
"@. c #4C4B4B",
"#. c #4B4C4B",
"$. c #4D4C4C",
"%. c #4D4D4C",
"&. c #4C4D4D",
"*. c #4E4E4D",
"=. c #4F4E4E",
/* pixels */
"$ @.e $.#.~ @.$.~ 5 $.$.$.^ ~ $ ",
"O.F i F F i F F F i F F F F F e ",
"m u $ 9 + $ F F F x F F F F F y ",
"$ F F F F u i i e $ + $ 5 i i i ",
"( F F F F i { F $ F F x ] F F i ",
"i i F i i < F Y $ Y Y i F F Y i ",
"$ O.{ 0 O.O.O.5 O.O.O.i 8 F i i ",
") F F + F F F i F F Y + ] ] ~ < ",
"v i F + F F Y i F i b + F F F y ",
"$ + + : $ $ $ $ $ $ $ + i F i i ",
"O.F F F i : F ~ ] Y F N ^ { F i ",
"N F F F F + u < i F Y Y + F Y i ",
"w + + $ + ] F F : $ + + 5 ] ] $ ",
"_ F F n F F F F i Y x Y F F F i ",
"Y F F i F F Y Y i F i F F Y Y i ",
"$ < i < i x < i 5 < q < i i < $ "
};
