/* XPM */
static const char *wall_31[] = {
/* columns rows colors chars-per-pixel */
"31 31 228 2 ",
"   c #060709",
".  c #101115",
"X  c #111216",
"o  c #121317",
"O  c #101417",
"+  c #141517",
"@  c #111518",
"#  c #131418",
"$  c #121619",
"%  c #12151A",
"&  c #13171A",
"*  c #13161B",
"=  c #141519",
"-  c #161618",
";  c #15161A",
":  c #14181B",
">  c #18191D",
",  c #191A1E",
"<  c #1A1B1F",
"1  c #1B1C20",
"2  c #1C1D21",
"3  c #1D1E22",
"4  c #1E1F23",
"5  c #1F2024",
"6  c #1E2225",
"7  c #222222",
"8  c #212025",
"9  c #202125",
"0  c #232325",
"q  c #212226",
"w  c #222327",
"e  c #232428",
"r  c #242529",
"t  c #25262A",
"y  c #26272B",
"u  c #27282C",
"i  c #28292B",
"p  c #2A2A2C",
"a  c #292A2E",
"s  c #2A2B2F",
"d  c #2B2C30",
"f  c #2C2D31",
"g  c #2D2E32",
"h  c #2E2F33",
"j  c #2F3034",
"k  c #323433",
"l  c #303135",
"z  c #313236",
"x  c #353736",
"c  c #343539",
"v  c #35363A",
"b  c #37383C",
"n  c #393A3E",
"m  c #393A3F",
"M  c #40403E",
"N  c #3B3C40",
"B  c #3C3D41",
"V  c #3F4044",
"C  c #414141",
"Z  c #414246",
"A  c #454344",
"S  c gray27",
"D  c #464445",
"F  c #474546",
"G  c gray28",
"H  c #484647",
"J  c #484846",
"K  c #414548",
"L  c #434448",
"P  c #43474A",
"I  c #43464B",
"U  c #444549",
"Y  c #454648",
"T  c #464749",
"R  c #45464A",
"E  c #44474C",
"W  c #44484B",
"Q  c #45494C",
"!  c #47484C",
"~  c #464A4D",
"^  c #46494E",
"/  c #474B4E",
"(  c #4B4B49",
")  c #48494B",
"_  c #48494D",
"`  c #494A4C",
"'  c #4A4B4D",
"]  c #494A4E",
"[  c #4A4B4F",
"{  c #484C4F",
"}  c #4B4C4E",
"|  c #484B50",
" . c #4A4B50",
".. c #494D50",
"X. c #4B4C50",
"o. c #4A4E51",
"O. c #4A4D52",
"+. c #494E52",
"@. c #4C4D51",
"#. c #4D4E50",
"$. c #4C4D52",
"%. c #4D4E52",
"&. c #4D4E53",
"*. c #4E4F53",
"=. c #4F5052",
"-. c #4F5054",
";. c #505155",
":. c #515256",
">. c #525357",
",. c #545559",
"<. c #55565A",
"1. c #57585A",
"2. c #57585C",
"3. c #5E5D5B",
"4. c #58595D",
"5. c #595A5C",
"6. c #5A5B5F",
"7. c #5C5D5F",
"8. c #60605E",
"9. c #61605E",
"0. c #61615F",
"q. c #60625F",
"w. c #555D60",
"e. c #5D5E60",
"r. c #5F6062",
"t. c #626260",
"y. c #636361",
"u. c #606163",
"i. c #616163",
"p. c #646462",
"a. c #606165",
"s. c #616264",
"d. c #636466",
"f. c #646464",
"g. c #646567",
"h. c #656766",
"j. c gray40",
"k. c #676966",
"l. c #666867",
"z. c #686A67",
"x. c #656668",
"c. c #666769",
"v. c #676968",
"b. c DimGray",
"n. c #686A69",
"m. c #68696B",
"M. c #696B6A",
"N. c #6A6A6A",
"B. c gray42",
"V. c #6A6C6B",
"C. c #6C6C6A",
"Z. c #696A6C",
"A. c #6A6A6C",
"S. c #6A6B6D",
"D. c #6B6B6D",
"F. c #6B6D6C",
"G. c #6B6C6E",
"H. c #6C6C6C",
"J. c #6D6D6D",
"K. c #6C6E6D",
"L. c #6C6C6E",
"P. c #6D6F6E",
"I. c gray43",
"U. c #706F6D",
"Y. c #6E706F",
"T. c #6E6F71",
"R. c #6F7170",
"E. c #6D7172",
"W. c #717171",
"Q. c #727270",
"!. c #717372",
"~. c gray45",
"^. c #757573",
"/. c #767674",
"(. c #787876",
"). c #747579",
"_. c #797B7A",
"`. c gray48",
"'. c #7C7C7A",
"]. c #7B7D7C",
"[. c #808281",
"{. c #848381",
"}. c #868583",
"|. c #898886",
" X c #8A8987",
".X c #888888",
"XX c #8D8D8B",
"oX c #908F8D",
"OX c #93928E",
"+X c #94938F",
"@X c #949391",
"#X c #959492",
"$X c #979694",
"%X c #989493",
"&X c #989795",
"*X c #9B9794",
"=X c #9A9695",
"-X c #9B9796",
";X c #999896",
":X c #9C9897",
">X c #9E9A97",
",X c #9D9998",
"<X c #9F9B98",
"1X c #9E9A99",
"2X c #9E9D9B",
"3X c #A09C99",
"4X c #A19D9A",
"5X c #A29E9B",
"6X c #A19D9C",
"7X c #A39F9C",
"8X c #A09E9F",
"9X c #A39F9E",
"0X c #A4A09D",
"qX c #A5A19E",
"wX c #A6A29F",
"eX c #A19FA0",
"rX c #A2A0A1",
"tX c #A3A3A1",
"yX c #A3A1A2",
"uX c #A4A3A1",
"iX c #A5A4A2",
"pX c #A6A6A4",
"aX c #A7A5A6",
"sX c #A7A7A7",
"dX c #AAA9A5",
"fX c #AEAEAC",
"gX c #AEAEAE",
"hX c #BABAB8",
/* pixels */
"= @ @ @ = = @ @ @ = @ = : @ @ @ @ = = = @ @ @ @ @ @ @ = @ = : ",
"@ 5XC.C.K.9 %Xv.z.h.I 5 9XN.C.3.K.d.] 5X5Xv.N.N.l.Q -.`. .^.@ ",
"@ N.K.F.r.9 T.F.F.V.] 9 N.K.K.F.K.K.X.5XV.K.K.K.K.V.] K.K.,.o ",
"O A.K.F.e.4 R.V.N. .Q 9 F.K.F.K.K.T X.=XN.K.K.K.K.K.F.K.K.X.o ",
"@ w.Q Q V 2.N 9 9 9 9 e F.F.K.K.K.T X.R.F.K.K.K.K.K.K.K.K.X.@ ",
"= r r 5 f m }.}./.`.9 9 X.F.K.K.{ X.X.{ X.K.F.K.T K.K.K.Q ] @ ",
"= 9XdXh.l.v.F.F.V.F.T 4 X.] Q r Z e e 9 9 9 9 e j ] ] ] Q r @ ",
"@ 0XV.K.F.F.F.V.F.F.] j 9 9 9 9 9 9 s 0X9X'.9 9 z 5 4 4 4 9 @ ",
"@ N.F.F.K.F.F.F.F.Q X.@ 5Xp.N.:.9 9.9.F.K.K.@.9 gXu.u.9.K.N.@ ",
"@ K.K.K.F.V.F.F.] K.X.= V.K.K.X.9 F.K.F.F.A.Q >X2XK.K.K.F.A.o ",
"o ,.Q x.V.V.] X.X.X.u 5 V.F.V.{ 9 F.V.V.V.X.Q X.F.K.K.K.F.x.@ ",
"@ s X.] ] ] ] ] X.] 9 9 ] ] ] 9 9 ] X.] ] ] e ] A.F.K.F.F.X.o ",
"@ iXtXeX9Xa.B e sXtXtXuXeX).z 9 sXsXtX9XeXe :.f z N.V.V.I A.@ ",
"O 9XF.F.V.V.r r 9XF.F.V.N.@.6.hX0XK.K.K.F.V.r T 1 ] ] ] ] ] @ ",
"@ A.F.V.V.X.= 7.N.K.K.K.K.V.{ gXK.K.F.F.F.Q 9 $X;X<XU.W.W.,.= ",
"@ K.K.K.K.X.o Q F.F.K.K.K.F.@.[.K.K.K.K.F.{ 1 <XN.F.K.@XK.(.o ",
"= { A.V.F.I = 4 F.F.V.F.V.=.{ ] F.K.] F.1.{ 1 F.K.K.F.K.K.2.@ ",
"@ ] ] ] Q Q I 9 Q ] ] ] ] ] 1 -.X.X.] E { 9 1 V.V.K.K.b 2.6.@ ",
"@ C M J x D H C 7 r s 9 ( D A e d D D D D x k f f m f 4 c c @ ",
"@ =XN.V.F.F.V.N.@.V.r 1 @XF.V.o =Xh.V.F.F.F.] |.f z <X<X<XW.@ ",
"@ F.F.F.F.K.F.V.] K.5 X.F.K.V.o @XK.K.K.K.K.h.F.].>X9.K.F.K.@ ",
"@ F.K.F.F.V.F.F.V.N.> ] V.V.Q > a.F.F.F.F.K.K.K.Q N.K.K.K.] o ",
"= F.K.V.V.V.V.F.K.K.1 r @.X.r o ] V.F.F.K.F.V.X.4 X.R.K.K.X.o ",
"= X.@.@.@.@.i @.@.9 9 >X>X<X=X  9 X.@.@.X.@.@.4 r e X.] ] X.= ",
"@ u 5 > > > 4 9 > 5X0XK.K.K.K.F.9 9 1 > > 1 > 9 9 =X>X=X=Xe = ",
"@ 0XOX+X.XK.j f #XF.F.F.K.F.X.K.( W.oXW.f s u.|.XXK.K.K.K.Y.= ",
"+ h.F.K.K.F.d.9 N.F.K.K.K.F.A.F.X.N.K.K.] {.A.F.F.K.K.K.K.X.@ ",
"@ u.T K.K.F.] 9 V.F.F.K.K.F.F.N.Q :.K.F.] K.F.F.K.K.K.K.] K.o ",
"@ X.N.F.F.V.X.9 { N.V.V.F.W F.] 9 j ] X.X.X.F.N.F.F.F.K.I N.@ ",
"= X.] v.6.] Q 9 X.X.Q v.N.9 @.4 W.9 I e 9 I T l.l.l.N.v.4 ] @ ",
"= = = = = = @ = @ @ = @ @ = @ @ @ @ = @ @ @ = = = @ @ = = = = "
};
