/* XPM */
static const char *wall_11[] = {
/* columns rows colors chars-per-pixel */
"11 11 67 1 ",
"  c #090B0A",
". c #0E0F13",
"X c #121317",
"o c #181A19",
"O c #18191D",
"+ c #1B1C20",
"@ c #1D1E22",
"# c #1C1F24",
"$ c #1D2025",
"% c #1F2024",
"& c #1E2126",
"* c #202125",
"= c #212227",
"- c #222327",
"; c #232428",
": c #22252A",
"> c #242529",
", c #25262A",
"< c #26272B",
"1 c #28292D",
"2 c #323337",
"3 c #37383C",
"4 c #3C3D41",
"5 c #414246",
"6 c #444549",
"7 c #46474B",
"8 c #47484D",
"9 c #464A4D",
"0 c #474A4F",
"q c #48494D",
"w c #494A4C",
"e c #494A4E",
"r c #4A4B4F",
"t c #484C4F",
"y c #494D50",
"u c #4B4C50",
"i c #4E4F53",
"p c #525A5D",
"a c #636466",
"s c gray40",
"d c #686866",
"f c #6B6B69",
"g c #696B6A",
"h c #6A6C6B",
"j c #68696D",
"k c #696A6C",
"l c #6A6B6D",
"z c #6B6D6C",
"x c #6D6D6D",
"c c #6D6F6C",
"v c #6C6E6D",
"b c #6C6D6F",
"n c gray43",
"m c #6B6C70",
"M c gray44",
"N c #787775",
"B c #787876",
"V c #797876",
"C c #808281",
"Z c #939290",
"A c #A09C99",
"S c #A29E9B",
"D c #A39F9C",
"F c #A3A09B",
"G c #A4A09D",
"H c #A5A19E",
"J c #A7A49F",
/* pixels */
"FMZbJV5NfMf",
"ph<izbybzby",
"Dbbht%--201",
"bhj0zybbsb0",
"DA4GF<GA3jj",
"bzXzbCbhdhV",
"--:-#-%%qqq",
"bzz0z.bb0by",
"yq-%G qy<O+",
"abmbbzz@bbq",
"q6:yo-%-6qq"
};
