/* XPM */
static const char *wall_17[] = {
/* columns rows colors chars-per-pixel */
"17 17 109 2 ",
"   c #0C0D11",
".  c #131418",
"X  c #13171A",
"o  c #141519",
"O  c #15161A",
"+  c #16171B",
"@  c #171B1E",
"#  c #19181D",
"$  c #18191D",
"%  c #191A1E",
"&  c #1B1A1F",
"*  c #1A1B1F",
"=  c #1D1D1F",
"-  c #1B1C20",
";  c #1D1E22",
":  c #1D1E23",
">  c #1E1F23",
",  c #201F24",
"<  c #1F2024",
"1  c #202022",
"2  c #222423",
"3  c #212025",
"4  c #202125",
"5  c #212226",
"6  c #222327",
"7  c #232428",
"8  c #242529",
"9  c #25262A",
"0  c #27282C",
"q  c #28292D",
"w  c #2A2B2F",
"e  c #2E2F33",
"r  c #393A3E",
"t  c #3A3B3F",
"y  c #3B3C40",
"u  c #3C3D41",
"i  c #464847",
"p  c #444549",
"a  c #45464A",
"s  c #46474B",
"d  c #44484B",
"f  c #45494C",
"g  c #47484C",
"h  c #464A4D",
"j  c #474B4E",
"k  c #474A4F",
"l  c #48494D",
"z  c #494A4E",
"x  c #4A4B4F",
"c  c #484C4F",
"v  c #4A4B50",
"b  c #494D50",
"n  c #4B4C50",
"m  c #4D4E50",
"M  c #4E4F53",
"N  c #4F5054",
"B  c #535458",
"V  c #545559",
"C  c #5B5C60",
"Z  c #595E61",
"A  c #666867",
"S  c #686868",
"D  c #686A69",
"F  c #68696B",
"G  c #696B6A",
"H  c gray42",
"J  c #6A6C6B",
"K  c #6A6B6D",
"L  c #6B6D6C",
"P  c #6B6C6E",
"I  c #6C6C6C",
"U  c #6D6D6D",
"Y  c #6D6F6C",
"T  c #6C6E6D",
"R  c #6D6F6E",
"E  c #6E706F",
"W  c #70706E",
"Q  c gray44",
"!  c gray45",
"~  c #777777",
"^  c #7B7B7B",
"/  c #7D7C7A",
"(  c #808281",
")  c #848685",
"_  c #8E8D8B",
"`  c #949391",
"'  c #959490",
"]  c #999592",
"[  c #9A9693",
"{  c #9A9997",
"}  c #9D9996",
"|  c #9B9A98",
" . c #9F9B98",
".. c #9F9B9A",
"X. c #9E9D9B",
"o. c #9F9E9A",
"O. c #A19D9A",
"+. c #A09F9B",
"@. c #A39F9C",
"#. c #A1A09C",
"$. c #A1A19F",
"%. c #A4A09D",
"&. c #A4A39F",
"*. c #A6A29F",
"=. c #A7A7A5",
"-. c #A8A4A1",
";. c #A9A5A2",
":. c #AAA6A3",
">. c #BABAB8",
/* pixels */
"o *.z *.-.W 8 -.=.^ e -.-.-.Q Q o ",
"@.L n V L J @.T L T > T T L T T d ",
"Z d 6 7 6 6 J T T L 6 L T T T T d ",
"w $.+.) L G N G g n 6 z z z T n 8 ",
"*.L T L L G 0 ... *.L T < ] +._ > ",
"z L L E T c B T n L T T 6 T T T g ",
"r 6 < 6 6 6 6 6 u 6 6 6 6 A L L g ",
"@.L J Z +.T L K >.T ` J 6 p z 6 p ",
"G T G n L L T m ( T T J ..J T T T ",
"< z g 6 z g v z N n 8 z z L L g g ",
", *.~ $.+.7 2 | 8 ..o.o.1 < 6 = > ",
"Q T L T J z G L   L L T T * T T g ",
"p T J i L z > 6 * g T L m - p T g ",
"r * @ * > @.T T L w * - * ' { ] > ",
"/ L L L } T T L L o T > G L T T n ",
"p T L z g J L K p * g < z T L T z ",
". 6 g 6 6 g z g 6 y 7 6 z g g 6 o "
};
