/* XPM */
static const char *wall_100[] = {
/* columns rows colors chars-per-pixel */
"100 100 156 2 ",
"   c #070707",
".  c #070709",
"X  c #0C0C0D",
"o  c #10100E",
"O  c #0F0F10",
"+  c #121317",
"@  c #131519",
"#  c #18171C",
"$  c #17181C",
"%  c #191A1E",
"&  c #1D1E22",
"*  c #201F24",
"=  c #1F2024",
"-  c #212226",
";  c #242529",
":  c #28272C",
">  c #27282C",
",  c #292A2E",
"<  c #2D2E32",
"1  c #2F3034",
"2  c #323236",
"3  c #35363A",
"4  c #37383D",
"5  c #393A3D",
"6  c #3B3D42",
"7  c #3E4045",
"8  c #424446",
"9  c #45464A",
"0  c #464A4D",
"q  c #494A4E",
"w  c #4E504F",
"e  c #4B4D51",
"r  c #4E5154",
"t  c #515256",
"y  c #55565A",
"u  c #56595D",
"i  c #595A5D",
"p  c #61615F",
"a  c #565E61",
"s  c #5C5E61",
"d  c #5E6063",
"f  c #636364",
"g  c #6A6765",
"h  c #666867",
"j  c #6A6A67",
"k  c #656669",
"l  c #67696A",
"z  c #6B6D6C",
"x  c #716E6C",
"c  c #6E706F",
"v  c #71706E",
"b  c #6D6E71",
"n  c #6F7071",
"m  c #737373",
"M  c #787677",
"N  c #767877",
"B  c #797977",
"V  c #757679",
"C  c #797778",
"Z  c #77787A",
"A  c #7B7B7A",
"S  c #807F7E",
"D  c #81817F",
"F  c #817F80",
"G  c #858583",
"H  c #8A8785",
"J  c #898987",
"K  c #858689",
"L  c #8B8788",
"P  c #8D8D8B",
"I  c #908E8D",
"U  c #92918E",
"Y  c #918F90",
"T  c #979694",
"R  c gray58",
"E  c #959492",
"W  c #9A9693",
"Q  c #9A9695",
"!  c #999894",
"~  c #999896",
"^  c #9C9B97",
"/  c #9E9A97",
"(  c #9D9996",
")  c #949398",
"_  c #979998",
"`  c #9B999A",
"'  c #9D9998",
"]  c #9C9B99",
"[  c #9F9B98",
"{  c #9E9A99",
"}  c #9D9C98",
"|  c #9D9C9A",
" . c #9E9C99",
".. c #A09C99",
"X. c #A19D9A",
"o. c #A29E9B",
"O. c #A39F9C",
"+. c #A29E9D",
"@. c #A39F9E",
"#. c #A29E9B",
"$. c #9EA09F",
"%. c #9FA09B",
"&. c #A3A09B",
"*. c #A1A09C",
"=. c #A1A09E",
"-. c #A2A19F",
";. c #A4A09D",
":. c #A5A29D",
">. c #A5A19E",
",. c #A4A09F",
"<. c #A6A29F",
"1. c #A7A29E",
"2. c #A7A49F",
"3. c #A5A19E",
"4. c #A2A2A0",
"5. c #A3A3A1",
"6. c #A3A2A0",
"7. c #A4A3A1",
"8. c #A7A3A0",
"9. c #A7A3A2",
"0. c #A5A4A0",
"q. c #A6A5A1",
"w. c #A4A4A2",
"e. c #A5A5A3",
"r. c #A6A5A3",
"t. c #A7A6A2",
"y. c #A7A6A4",
"u. c #A7A7A5",
"i. c #A6A6A4",
"p. c #A6A3A1",
"a. c #A8A4A1",
"s. c #A8A5A0",
"d. c #A9A6A1",
"f. c #A9A5A2",
"g. c #AAA6A3",
"h. c #ABA6A3",
"j. c #A8A7A5",
"k. c #ABA7A4",
"l. c #A8A6A4",
"z. c #A9A8A6",
"x. c #A9A9A7",
"c. c #AAA9A7",
"v. c #ACA8A5",
"b. c #ACABA7",
"n. c #A9A8A6",
"m. c #ABAAA8",
"M. c #ACABA9",
"N. c #ACACAA",
"B. c #B1B0AE",
"V. c #B2B1AE",
"C. c #AFAFB1",
"Z. c #B4B3B1",
"A. c #B5B4B2",
"S. c #B4B3B2",
"D. c #BBBBB9",
"F. c #C2C1BF",
/* pixels */
"@ @ @ @ @ @ @ @ @ @ @ @ @ @ @ @ @ @ @ @ @ @ @ @ @ @ @ @ @ @ @ @ @ @ @ @ @ @ @ @ @ @ @ @ @ @ @ @ @ @ @ @ @ @ @ @ @ @ @ @ @ @ @ @ @ @ @ @ @ @ @ @ @ @ @ @ @ @ @ @ @ @ @ @ @ @ @ @ @ @ @ @ @ @ @ @ @ @ @ @ ",
"@ @ @ @ @ @ @ @ @ @ @ @ @ @ @ @ @ @ @ @ @ @ @ @ @ @ @ @ @ @ @ @ @ @ @ @ @ @ @ @ @ @ @ @ @ @ @ @ @ @ @ @ @ @ @ @ @ @ @ @ @ @ @ @ @ @ @ @ @ @ @ @ @ @ @ @ @ @ @ @ @ @ @ @ @ @ @ @ @ @ @ @ @ @ @ @ @ $ $ $ ",
"@ @ @ @ 8.8.>.>.8.g.g.8.! B K e e & - 8.>.8.8.8.8.g.>.2.>.>.>.v z v m # - ; ; % g.g.g.g.j.b.g.e.z z >.8.m m A B - ; < < < < 2 6 3 g.j.g.g.g.g.g.g.g.g.b.g.g.g.g.e.B m m m z z - - @ m m m m e e $ $ $ $ ",
"@ @ @ @ g.8.8.8.>.8.8.>.! A K q e - - >.>.8.8.8.g.g.g.8.8.>.>.m v m m # - ; ; % g.g.g.g.j.j.g.g.z z g.g.v m A A > - 1 1 < 1 2 6 5 j.g.g.j.g.g.g.g.g.g.g.g.g.g.8.8.x m M m z z % - @ M M M M e t @ $ $ $ ",
"@ @ + # &.O.z.j.j.y.j.y.T A A 9 8 - - X.>.O.8.5.e.e.e.e.5.5.5.c m m m & = 5 - % 8.e.m.N.N.M.M.z.z z m.z.m m A A & - 2 , ; < 3 5 2 g.*.j.z.y.e.e.5.5.e.5.e.5.5.*.*.8 q 0 q m m 6 8 0 m V m z q 0 $ @ $ @ ",
"@ @ >.>.O.O.z z z z z z z z z M m - - ] ] T E z z z z z z z z z z 9 9 & & A.>.>.>.M.z z z z z z X.X.z z z z z z z z 0 e $ - 2 X.X.X.O.l z z z z z z z z z z z z z e q q q m m M M M t u q 8 A B 0 e @ @ ",
"@ @ >.>.X.*.z z z z z z z z z M M - ; W ` U R z z z z z z z z z z 9 9 & = A.>.>.O.b.z z z z z z ] ( z z z z z z z z q e $ - 4 X.] | $.z z z z z z z z z z z z z z z z q q b m M M m z z z z A A q e @ @ ",
"@ @ >.>.z z z z z z z z z z b e e - = y u z z z z z z z z z z z z e q & = Z.>.e.z z z z z z z z z z z z z z z z z z q e @ & 2 X.y.z z z z z z z z z z z z z z z z z z q q k z z z z z z z b y y 0 0 + @ ",
"+ + *.O.z z z z z z z z z z b e r = - u i z z z z z z z z z z z z q q & - B.O.e.z z z z z z z z z z z z z z z z z z q e @ & 3 X.y.z z z z z z z z z z z z z z z z z z q q z z z z z z z z b u u 8 9 + + ",
"+ + *.O.z z z z z z z z z z n q e & - 5 6 z z z z z z z l e e z z e q & - T D D z z z z z z z z z z z z z z z z q e e e @ & 2 ] 5.z z z z z z z z z z z z z z z z z z z z z z z z z z z z m e e 9 q + + ",
"@ + X.O.z z z z z z z z z z m q q & & 5 5 z z z z z z z z e e z z 0 q & - A m m z z z z z z z z z z z z z z z z e e q e @ & 2 ( *.z z z z z z z z z z z z z z z z z z z z z z z z z z z z m e e 9 0 + @ ",
"+ + | | k l l b z z z z z z n 0 0 & & 5 3 l l z z l l l l 0 0 l z 0 q & - Z m n z z z z z z z z z z z z z z z z q t q e @ & 2 ] *.z z z z z z z z z z z z z z z z z z z z z z z z z z z z m e e 9 9 + @ ",
"+ + E T 6 8 q q l z z z z z b 0 0 & = 5 5 2 < 0 0 0 0 0 0 0 0 u u 0 q & - A z z z z z z z z z z z z z z z z z z z z q e @ - 2 ( | z z z z z z z z z z z z z z z z z z z z z z z z z z z z n e e 9 9 + @ ",
"+ + E E u u t 9 l z z z z z m 8 e & & 3 5 2 < q 0 q 0 0 q q q y t 9 9 & - A z z z z z z z z z z z z z z z z z z z z e e % - 2 E *.z z z z z z z z z z z z z z z z z z z z z z z z z z z z n e e 9 0 + @ ",
"+ @ a a a u a e 8 9 0 0 0 0 t - & u u ; > 3 5 - - - - - - - - - - - - - - A z z z z z z z z z z z z z z z z z z e e e e @ - < z c z z z z z z z z z z z z z z z z z z z z z z z z z z z z n e e 9 9 @ @ ",
"+ + a a u i r 0 9 9 9 0 0 q e - ; u u ; ; 5 5 - - - - - - - - - - - - ; - A z z z z z z z z z z z z z z z z z z e e e e $ - < z z z z z z z z z z z z z z z z z z z z z z z z z z z z z z b e e 8 8 @ @ ",
"+ @ , , , , , : = = & = = - - 3 3 6 5 G G G F A A A A m M M m m m ; - - ; f i i e 9 z z z z z z z z z z e e e e e e e e $ - , r e e w z z z z z z z z z z e e z z z z z z z z z z z z m e q q q 8 8 @ @ ",
"@ @ ; ; ; ; ; ; & = = - - = & 5 5 5 5 G G G G G G G K B B A A A B ; - ; ; k u u e 8 z z z z z z z z z z 0 q q q e e e e $ - ; q e e e z z z z z z z z z z q e c z z z z z z z z z z z m 0 q q q 9 9 @ @ ",
"@ @ ; ; ; ; X O .     . . .   - - ; ; G K J G K K K J A A M m A A ; - ; ; l u u e 8 l z z z z z z z z z q e q e e e e e $ - ; q e e q b z b m m m n n b b e e M m z z z z z z m m z z m 0 q q r 9 q @ @ ",
"@ @ < , - = >.>.>.>.>.>.8.8.>.O.O.X.X.( | z z z z z z z z ! E z z z z & - k u u e e e e z z z z e e q q ; ; e e e e e e $ - > 0 q e e q q q q e e e e e e 0 q q e z z z z z z 0 e e e e 0 q , , ; ; @ @ ",
"@ @ , < - ; X.>.*.X.>.>.>.>.>.[ [ ( ( ( | z z z z z z z z _ ] z z z l % - f t u e e q q z z z c e e q q - ; e q e e e q & - - 0 0 q q q q q e q q q e q q q q q 0 b z v v z z q e e e e q q , < ; ; @ @ ",
"@ @ ; - O.>.>.>.z z z z z z z z z z z z z z z z z z z z z z z z z q q & - - ; - 0 0 0 q q 0 0 q 0 0 ; ; 8 8 8 9 > ; - - - - - - - - - - - - - - - - - - - 2 2 2 2 9 0 q q 0 0 q q q q q 0 9 ; ; q e @ @ ",
"@ @ - ; O.O.X.X.z z z z z z z z z z z z z z z z z z z z z z z z z q q & & ; ; - 0 q q q 0 0 q e e 0 ; ; 8 9 9 9 ; ; - - - - - ; ; - - - ; - - - - - - - - 2 2 2 2 9 q 0 0 0 0 0 9 q q q 0 9 ; , q e + @ ",
"@ @ X.8.O.O.z z z z z z z z z z z z z z z z z z z z z z z z z z z q q , 1 ; ; ; - - = - & & & = - = - - - & = & = - , , F.8.8.8.8.8.j.A A A A - - - - - - 2 2 - ; - = = & & & & & & & & & & - - , < @ @ ",
"@ @ >.O.O.*.z z z z z z z z z z z z z z z z z z z z z z z z z z z q q < 1 > ; ; - - - - * - - & - - - - - - = - - * , , D.*.*.*.>.>.%.A A A A - - - - - - 2 2 - - - * * & & & & & & & = & & - - < < @ @ ",
"@ @ >.>.z l z z z z z z z z z z z z z z z z z z z z z z z z z z z e e $ & ; , @ X.] X.( ( W M A 0 e - ; ; ; *.>.X.O.O.X.g l l z l z j z z z z z z = - ; ; 2 2 g.( ] X.X.] ] ( ( ( ( ( m M K 8 9 & & @ @ ",
"@ @ >.>.l z z z z z z z z z z z z z z z z z z z z z z z z z z z z e q % & ; , % X.X.X.X.] ! B A e q - - ; > 8.O.>.>.>.O.f z z z z z z z z z z z z = = - ; 1 2 ( X.X.X.O.X.X.X.X.] ] ( M m A 9 0 & & @ @ ",
"@ + m v z z z z z z z z z z z z z z z z z z z z z z z z z e e z l e e @ % C.E | ] e.z z z z z z l b e t - - O.O.z z z z z z z z z z z z z z z t t ; ; - - | E z z z z z z z z z z z z z z z b l t r @ @ ",
"@ @ m m z z z z z z z z z z z z z z z z z z z z z z z z z e e l z e e @ % Z...( ( e.z z z z z z z z t r - - 8.X.z z z z z z z z z z z z z z z t t ; ; - - ! ! h z z z z z z z z z z z z z z z z r r @ @ ",
"@ @ a s z z z z z z z z z z z z z z z z z z z z z z z i u f d y i q e $ % Z.! ` K J z z z z z z s i e e - - P G n z z z z z z z z z z z z z z e e ; ; x g ( ! z z z z z z z z z z z z z z z z z q e @ @ ",
"@ @ 9 q z z z z z z z z z z z z z z z z z z z z z z z q e z z e q q e @ % B.E P z z z z z z z z e e q q - - z z z z z z z z z z z z z z z z z e e - = ( ( ( ! z z z z z z z z z z z z z z z z z 0 0 + @ ",
"@ @ 0 q z z z z z z e 0 z z z z z z z z b 9 9 z z z z t t z z q q e e % % K m z z z z z z z z b q e e e - - z z z z z z z z z z z z z z z u u e e - = ! ! B A z z z z z z z z z z z z z z z y u 0 q + + ",
"@ @ 0 q z z z z z z 9 q b z z z z z z z z e q z z z z z z z z q q e e % % i t t z z z z z z z z q e e e - - z z z z z z z z z z z z z z z q e e q - - E T z z z z z z z z z z z z z z z z l q 0 0 0 + + ",
"+ @ 0 q z z b z z b 8 9 l z z z z z z z z q q z b b b b z b b e q y e % % d u t z z z z z z z z q e e e - - b z z z z z z z z z z z z z z q q e e - - 5.| l z z z z z z z z z z z z z z z z 9 0 0 0 @ @ ",
"+ + q q y u q q e e z z z z z z z z z z z q e e e e e e e e e e e ; ; - ; e 0 9 z z z z z z z l q q q e - ; 0 9 l z z z z z z z z z z m c e e e e - - 0 e z z z z z z z z z z z z z z z z z l l 0 0 + + ",
"+ + q 0 u u q q q q V z z z z z z z z z l e e e e e e e e e e 0 q , ; - - y 0 q z z z z z z z l q e q e - - 8 e b z z z z z z z l z l c n q e 0 e - - 0 0 z z z z z z z z z z z z z z z z z l l 0 0 + + ",
"+ @ & - , , q q = ; t q q 0 0 0 0 q q q q q q q e e e e e e e - = - - - - - - % 0 q q e e e e e e 0 ; ; - - > , 9 e e e e e e q e e e e q 0 0 ; - ; ; 0 0 l z z z z z z z z z z z z z z z l q e 0 0 @ @ ",
"+ @ - & , < 9 q - - t q q q q q q q q q q q q q e e e q q q q - - - - - - - - - q q q q e e q q q e - ; - - , > 0 e e e q q q q e q q q q q 0 ; ; ; ; q q l z z z z z z z z z z z z z z z z e e 0 0 + @ ",
"@ @ 5 6 < , & = - - = - - - - - = = - - - - - - - - - - = - - - - 6 6 6 7 & - - - - - - - - - - - - 6 6 6 6 - - - - - - - - - - - - - - - - - - - - - q q e e z z z z z z z z z z z z z z z r e 0 q @ @ ",
"@ @ 6 6 < , - - - - - = - - - = = = - - - - - - - - - - - - - - - 6 7 7 6 & - - - - - - - - - - - - 6 6 6 6 - - - - - - - - - - - - - - - - - - - - - q q e e z z z z z z z z z z z z z z z e r 0 q @ @ ",
"@ @ ; ; *.>.>.>.O.O.>.>.O.O.O.O.>.s s - - 5 5 ; ; ; ; *.>.O.>.>.8.>.>.e.e.>.>.>.O.y.m b a u 2 2 - - ; - e.e.>.8.8.8.8.>.f m A O.O.O.O.X.E ; > t r - = 1 2 5 3 0 e z z z z z z z z l q e 8 0 z z q 0 @ @ ",
"+ @ ; , X.O.O.O.O.X.O.X.X.O.X.X.X.s d ; - 3 6 ; ; ; - >.O.O.>.>.>.>.>.>.>.>.>.>.X.e.m m u i 2 2 - ; ; ; >.>.>.>.>.>.>.>.z m A X.X.X.X.X.[ > > e r - - 2 1 3 3 e 0 z l l z l z z h z 0 e 9 8 z z 0 q @ + ",
"+ @ V.A.X.O.f f f f f f f f f f f z l k k , < ; - A.B.O.X.f f f f f f f f f f p f z 9 9 z z a s - - B.Z.>.>.f f f f f f | ! J B B B B B v V M - = - - 9 q ; ; q 0 0 0 0 q q q 0 0 7 - = e e 0 e 0 0 + + ",
"+ + >.O.O.O.z z z z z z z z z z z z l s s < < ; , O.X.O.X.z z z z z z z z z z z z b e t z k i u & - >.O.>.>.z z z z z z *.E B z z z z z z z n ; ; - - 0 9 ; ; q q q q q q q q q q 9 ; & q q q q q q @ @ ",
"+ + >.O.g g z z z z z z z z z z z z l t e - & | ) X.X.x x z z z z z z z z z z z z z b m z z q 0 % & >.>.I H z z z z z z A m j z z z z z z q q = - - - & & - - & % % & % @ @ @ $ % & & % @ @ @ @ @ @ @ @ ",
"@ + O.>.z z z z z z z z z z z z z z z r t & > P E ] ] z z z z z z z z z z z z z z z z z z z 0 q % % O.>.z z z z z z z z z z z z z z z z z e 0 = - - - - - - - - - - - = & & & & & & & & & & & & & & @ @ ",
"@ + *.X.z z z z z z z z z z z z z q q r e & ; T E ( ] z z z z z z z z z z z z z z z z z z l 0 e % $ >.X.z z z z z z z z z z z z z z z z z 0 0 = - - = 2 4 4 5 0 q i i u i 8 8 8 8 9 q 8 8 5 ; > & % @ @ ",
"@ @ A M z z z z z z z z z z z z z e e e e % & d s E U z z z z z z z z z z z z z z z z z z z e e % % E E z z z z z z z z z z z z z z z z z q 0 - ; 3 3 ( ( ( ] X.X.X.X.X.X.z v m m m m v M m u i - - @ @ ",
"@ @ A N z z z z z z z z z z z z z e e e q % & i d z z z z z z z z z z z z z z z z z z z l l e e $ % z z z z z z z z z z z z z z z z z z z 0 0 - = 5 5 ( ( | | X.O.O.X.] ( x m m m m m m M m i i = ; @ + ",
"@ @ l z z z z z z z z z z z z z z e e e q $ % e 0 z z z z z z z z z z z z z z z z z z z e e e e % % z z z z z z z z z z z z z z z z z z z 0 0 % & ! | ! ( z z z z z z z z z z E E A z z z z C B z z + @ ",
"@ @ l l z z z z z z z z z z z z z e e e e $ % e 0 z z z z z z z z z z z z z z z z z z z e e e e % % z z z z z z z z z z z z z z z z z z z q 0 % % ( ( ! ! z z z z z z z z z z E I A z z z z M B z l @ @ ",
"@ @ f f z z z z z z z z z z z z z z z e e % % e q z z z z z z z z z z z z z z z z z z z z l e e % % z z z z z z z z z z z z z z z z z z z 0 q % % ( ] z z z z z z z z z z z z z z z z z z z u u 0 0 @ @ ",
"@ @ k k z z z z z z z z z z z z z z z e q % % q q z z z z z z z z z z z z z z z z z z z z z q e % $ z z z z z z z z z z z z z z z z z z z q 0 % % ( ( z z z z z z z z z z z z z z z z z z z u i 0 0 @ @ ",
"@ @ t t r r z z q r z z z z z z z 0 q 0 q % & ; ; t r z z z z z z z z z z z e 9 z c t t e 8 e e % % 9 9 z z z z z z 9 e z z z z z u s t e q 0 % & r r z z z z z z z z z z z z z z z z z z z u i 0 0 @ @ ",
"@ @ t t e e z z 0 q m z z z z z z q 0 0 q % % ; ; e e l z z z z z z z z z l e 9 z m t t q q 0 q % & 9 9 z z z z z z q q n z z z l i i e e q 0 % % e e z z z z z z z z z z z z z z z z z z z u u 0 0 @ @ ",
"@ @ r q e e q e q q e q q q q q q q q & % 8 6 - - 8 q q q q q q q q 0 0 q q 0 0 e q q q q q % @ & & q q e e q e q e q e & - - q q 0 0 e 0 % = & & e q z z z z z z z z z z z z 2 3 6 e q u u u u 0 0 @ @ ",
"@ @ & & q q q q q q q 0 0 0 0 0 0 0 q & & 6 7 - = q 0 0 0 0 0 q q q q q q q 0 0 q q q q q q % & & & q 0 q e e e e q q q % ; > 0 0 0 q 0 q - & & & q 0 z z z z z z z z z z z z < 3 5 e 9 u u u i 0 q @ @ ",
"@ @ - - % % & % % % % % % % % % % % & = = ; - - - & % % & % % % % % % % % % % % % % % % % & & & & & & = & % % & & % % % & - - % % % % % & & = & & < 3 0 0 q 0 0 q z z z z 9 q @ & & q q q e e q 0 0 + @ ",
"@ @ - - - - - - - - - - - - - - - = = - - ; ; - - - - - - - - - - - - - - - = = = = = = = = & & & = - - - - - - - - - - - - - - = = - = & & = - & 2 1 q q q 0 0 q z z z z 9 q % = & q q e e e e 0 0 + + ",
"@ @ - - ; ; ; ; - - - - - - - ; ; - - ; ; > ; ; ; ; ; ; ; ; ; - - & - - - - - & - = = - - = - ; & = ; - - - ; ; ; - - ; - - - - - - - - - = & ; ; 3 2 e q e q q q z b b z 0 q % & - q q q e q q 9 9 @ @ ",
"@ @ & - >.>.>.>.>.>.>.>.>.A A A M X.O.>.>.>.O.O.O.O.X.D G B B & ; 8 9 & - - - l X.] ] ] ] ] ] W , , ; ; 6 6 | X.X.X.X.O.O.X.X.X.O.O.X.X.( M m m z = & = = = = = = = - = = & & & & & & & & & & & & & @ @ ",
"@ @ & = *.8.>.>.>.>.>.>.O.A A M M O.*.>.>.>.O.O.O.X.| G S A M & - 8 9 & - = = k ( ] ( ( ( ( ( E ; , - ; 7 6 X.] X.X.X.X.X.X.X.X.O.O.X.X.X.m m m m & & - - = = = - - = - & & & & & & & & & & & & & & @ @ ",
"@ @ ! | ! E z z z z z z f z z z z z z z z z z z z q e e t z z z z ; ; & = A.I U R | z z z z z z l z & & ! ! E W z z z z z z z z z z z z z z z 0 q U E J J 2 < - - 2 < | | | | O.| | | | | ! m m ; ; @ @ ",
"@ @ X.X.! ! z z z z z z z z z z z z z z z z z z z q e e e z z z z ; ; - - z.E E E ` z z z z z z z z & & ! T T ! z z z z z z z z z z z z z z z e q U P J J > < = - 2 2 ] ( X.X.X.X.X.X...] ! m m ; ; @ @ ",
"@ @ ] X.z z z z z z z z z z z z z z z z z z z z z z z q q z z f u - & i e ! U I z z z z z z z z q t % % E ! v z z z z z z z z z z z z z z z z f k z z z z l b = & ` T W ] j z z z z z z z z z z e q + @ ",
"@ @ ! ] l z z z z z z z z z z z z z z z z z z z z z z q q z z e e - - t t | I P z z z z z z z l e e % % E T z z z z z z z z z z z z z z z z l f f z z z z z z - = ! ( ( ] z z z z z z z z z z z q q @ @ ",
"@ @ P E z z z z z z z z z z z z z z z z z z z z z z z 0 8 z z q e - & u e K G G z z z z z z l l 0 e $ $ K A z z z z z z z z z z z z z z z z z h h z z z z b m $ % | ( J E z z z z z z z z z b b q q @ @ ",
"@ @ z m z z z z z z z z z z z z z z z z z z z z z z z z z z z 0 q % % 0 q z z z z z z z z z k k 0 9 % % l z z z z z z z z z z z z z z z z z z z z z z z z 0 e @ $ | W z z z z z z z z z z z e e 0 0 @ @ ",
"@ @ z m z z z z z z z z z z z z z z z z z z z z z z z z z z z q q & % e q l l l z z z z z z f f 8 9 % % z z z z z z z z z z z z z z z z z z z z z z z z z 0 0 @ $ E E z z z z z z z z z z z e e 0 0 @ @ ",
"@ @ z z z z z z z z z z z z z z z z z z z z z z z z z z z z z q q & % e q 8 8 q z z z z z z 9 0 & - % % f f l z z z z z z z z z z z z z z z z z z z z z z 8 9 @ $ f l z z z z z z z z z z z q q q q + @ ",
"@ @ z z z z z z z z z z z z z z z z z z z z z z z z z z z z z 0 q % % r e 8 9 q z z l z l l q e - = % % q e z z z z z z z z z z z z z z z z z z z z z z z 9 9 $ % t u l z z z z z z z z z z q e 0 0 + + ",
"@ @ f f z z z z z z z z z z z z z z z z z z z z z z z z z z z 0 q & & ; ; 3 3 2 e e e r q 0 ; - r r % % q q z z z z z z z z z z z z z z z z z z z z z e r - = % % e e l z z z z z z z z z z e e 9 q + @ ",
"@ @ f f z z z z z z z z z z z z z z z z z z z z z z z z z z z 0 q & & ; ; 3 3 2 e e r e q q ; ; r r % % q q z z z z z z z z z z z z z z z z z z z z z r r & = % % q e e q l z z z z z z z z e e 0 q + @ ",
"@ @ 9 9 e e z z z z z z z z z z z z z q q z z z z z z q q q e e q & & > ; = & - & & & & & & & = ; - % % q q q 0 e q l z z z z z z e q z z z z z z e q 8 8 3 2 % % q e e q z z z z z z z z l q 0 0 q @ @ ",
"@ @ 8 8 e e z z z z z z z z z z z z l q e z z z z z z q q 0 0 q q & & , ; - & & - - - = = & = & ; , % % q q q q e 0 z z z z z z z e 0 z z z z z z e q 8 8 2 2 % % < , q e e e e e e e e e q 0 e & & @ @ ",
"@ @ 9 9 q e m n n n m m n b b b b b b q q m m b m n b e q t r e t & & o + + O X X X X X X X X X % # % % r e r t 9 q n z c c m c V e t b c n m m m e q q 9 2 2 % % ; ; e e e e e q q q q q q q q & & @ @ ",
"@ @ & & q e q q e e e e e q q e q 0 q q 0 ; = e q q q q q & = - - - - | >.>.>.>.>.>.>.>.>.>.>.>.M M % & & & & & 0 q q e e q 0 q q e q e e 0 0 0 0 q e & % ; ; & & - - & & & & % % % % % % & % & & % @ @ ",
"@ @ & & e q q q q q q e q q 0 0 0 q q q q ; - 9 0 q q 0 0 - & = - & * j.O.O.O.O.>.>.>.>.>.>.O.X.m m & & & & & & 9 q q q q 0 0 0 0 9 9 q 0 0 q q q q q % & ; ; & & - - & & & & & & & & & & & & & & & @ @ ",
"@ @ 6 6 ; , - & % $ % % % % $ % % % % @ % & % - - = & & $ O.X.O.O.O.>.f z z z z z z z z z z z z z z z z - - , , - - % & % % % % % % % % & & & % % & % - - 2 3 ! W W ! ! ! ! ! ! ! ! ! ! ! P - ; & & @ @ ",
"@ @ 6 5 > , - = % % % % % % % % % % % % % & & - = = & % % ..X.O.O.>.>.f z z z z z z z z z z z z z z z z = - , , - - % & & % % % & & % % & & % & % % & - - 2 2 ! ! ! ! ! ( ( ! ! ! ! W ! ! Y ; ; & & @ @ ",
"@ @ ; ; >.>.>.>.>.>.>.>.>.>.z.M A A m 2 3 < < 2 2 < < P P z z z z z z z z z z z z z z z z z e e z z z z z z , , 3 3 E P M M M M K 2 3 ; ; < 2 t e O.O.O.O.X.] l z z z z z z z z z z z z z z z z ; - @ @ ",
"@ @ ; - >.>.>.>.>.>.>.>.8.>.y.M M M B 3 3 < < 3 2 < 2 U P z z z z z z z z z z z z z z z z z e e z z z z z z > < 3 3 E P v M M M G 2 2 ; ; 1 < t r X.X.O.O.X.] z z z z z z z z z z z z z z z z z - ; @ @ ",
"+ @ *.X.X.X.z z z z z z z z l z z q 0 m m > , - = ! E P I z z z z z z z z z z z z z z z z z q e r r z z 0 q - & U ( L P f z z z z l l & - I P E U z z z z z z z z z z z z z z z z z z z z z z z 0 q @ @ ",
"@ @ ( X.X.X.z z z z z z z z z z z q e z c > , - - | ( P I z z z z z z z z z z z z z z z z z q e e t z z 0 0 & & | X.H P f z z z z z h = - P I E ! z z z z z z z z z z z z z z z z z z z z z z z 0 0 @ @ ",
"@ @ P G B B z z z z z z z z z z z d d z z q e ; = X.( A M z z z z z z z z z z z z z z z z z s d d d z z 0 q & % B M z z h z z z z u s & - J J S A z z z z z z z z z z z z z z z z z z z z z s d q e @ @ ",
"@ @ A A f f z z z z z z z z z z z z z z z f l & - | ( z z z z z z z z z z z z z z z z z z z z z z z z z e e % $ f l z z z z z z m 0 q & = G G z z z z z z z z z z z z z z z z z z z z z z z e e q e @ @ ",
"@ @ D A f f z z z z z z z z z z z z z z l k s - - ! E z z z z z z z z z z z z z z z z z z z z z z z z z e e % $ l z l z z z z z m 0 q & & H G z z z z z z z z z z z z z z z z z z z z z l f u y q e @ @ ",
"@ @ z z f d q e z z z z z z z z z z z z z q q - - z z z z z z z z z z z z z z z z z z z z z z z z z z z e e % % e t z z z z z z m q e & & z z z z z z z z z z z z z z z z z z z z z z n e e z z q e + + ",
"@ @ z z f f e e z z z z z z z z z z z z z q q - & z z z z z z z z z z z z z z z z z z z z z z z z z z z 0 e % % e t z z z z z z m q q & = z z z z z z z z z z z z z z z z z z z z z z b e e z z 0 e + @ ",
"@ @ z z y u z z z z z z z z z z z z z z z q q - - z z z z z z z z z z z z z z z z z z z z z z z z z e e q q % % 0 e z z z z f e 0 q e & - z z z z z z z z z z z z z z z z z z z z z z b q e z z q q + + ",
"@ @ z z u u z z z z z z z z z z z z z z z q e - - z z z z z z z z z z z z z z z z z z z z z z z z z q q q e % % 0 q z z z z f e e e e & - l z z z z z z z z z z z z z z z z z z z z z z q e z z q q + + ",
"@ @ q q e e z z z z z z z z z z z z z e e e q - - q e e e z z z z z z z z z z z z b 0 r z z z z q e q q ; - % % < < q e e e e e e e q = - 0 q z z e q z z z z z z z z z z z z z z z z b 9 9 z z q e @ @ ",
"@ @ 0 e e e z z z z z z z z z z z z z q e e e - - q q q e z z z z z z z z z z z z b q e l z z z q q q q - ; % % < < q q e q e e e e q = - e q z z 0 q z z z z z z z z z z z z z z z z b 8 9 z z q e @ @ ",
"@ @ 3 3 e e e e e e n z z z n q q e e e e e e - = q q q e e q q q 8 8 b z z z z z m - ; q e e e q q ; ; A A e e < , 0 0 ; ; ; - - - & = - 0 q q 0 - - z z z z z z z z z z u e z z k r e > ; e e q e @ @ ",
"@ @ 3 3 e e e e e e m z z l z q q q e e q q e - - 0 q q q e q q e 9 9 m l l l l z V - ; q e e e e e - - A A r r , , e 0 & ; ; - - - - - - q q q q - - z z z l l l l l l l u e z z l q t ; < q q e e @ @ ",
"@ @ $ & q e q q & - q 9 9 9 0 0 0 % % = = & = - - - = q q e q q e 0 q 9 0 9 9 0 % @ - - q q q q & % - ; - > 6 6 ; ; - & - ; ; q q 5 5 - ; & & & & e e 9 9 9 9 9 9 9 9 9 9 q q 9 9 6 - @ e e q q & % @ @ ",
"@ @ @ @ q q q 0 - - t 0 0 0 0 0 0 - - - - - - - - - - q 0 q q q q q q q q 0 q q - - - - q 0 0 q - - - - 1 < 6 6 ; - - - - - , 0 q 5 5 ; - - - - ; q 0 0 0 0 0 0 0 0 0 0 q q q q q q - & e 0 0 0 @ @ @ @ ",
"@ @ @ @ 0 0 q 0 - - e 0 0 q q q e - - - - - - - - - - q e e e e e e q q q q q 0 - - - ; q q 0 q - - - - 1 2 6 6 ; - - - - ; > 9 q 5 5 - - - - - - q e e e e q q q q q q q q q q q 0 - & q q 0 9 @ @ @ @ ",
"@ @ @ @ @ @ @ @ @ @ @ @ @ @ @ @ @ @ @ @ @ @ @ @ @ @ @ @ @ @ @ @ @ @ @ @ @ @ @ @ @ @ @ @ @ @ @ @ @ @ @ @ @ @ @ @ @ @ @ @ @ @ @ @ @ @ @ @ @ @ @ @ @ @ @ @ @ @ @ @ @ @ @ @ @ @ @ @ @ @ @ @ @ @ @ @ @ @ @ @ ",
"@ @ @ @ @ @ @ @ @ @ @ @ @ @ @ @ @ @ @ @ @ @ @ @ @ @ @ @ @ @ @ @ @ @ @ @ @ @ @ @ @ @ @ @ @ @ @ @ @ @ @ @ @ @ @ @ @ @ @ @ @ @ @ @ @ @ @ @ @ @ @ @ @ @ @ @ @ @ @ @ @ @ @ @ @ @ @ @ @ @ @ @ @ @ @ @ @ @ @ @ "
};
