/* XPM */
static const char *wall_42_36[] = {
/* columns rows colors chars-per-pixel */
"36 36 130 2 ",
"   c #020204",
".  c #060608",
"X  c #08070A",
"o  c #07080A",
"O  c #0B0B0C",
"+  c #0E0E10",
"@  c #141416",
"#  c #161618",
"$  c #181719",
"%  c #1B1B1D",
"&  c #1E1E20",
"*  c #201F21",
"=  c #1E2123",
"-  c #262527",
";  c #252626",
":  c #252627",
">  c gray15",
",  c #262627",
"<  c #272627",
"1  c #262727",
"2  c #272727",
"3  c #252526",
"4  c #252526",
"5  c #252528",
"6  c #262528",
"7  c #252628",
"8  c #262628",
"9  c #272628",
"0  c #262728",
"q  c #272728",
"w  c #272729",
"e  c #262628",
"r  c #282729",
"t  c #282829",
"y  c #29282A",
"u  c #29292A",
"i  c #2A292A",
"p  c #2A292B",
"a  c #292A2A",
"s  c #2A2A2B",
"d  c gray17",
"f  c #2B2A2C",
"g  c #2A2B2C",
"h  c #2B2B2D",
"j  c #2B2C2C",
"k  c #2C2C2C",
"l  c #2D2D2D",
"z  c #2C2C2E",
"x  c #2D2C2E",
"c  c #2D2D2E",
"v  c gray18",
"b  c #2E2E2F",
"n  c #2A2A2B",
"m  c #31312F",
"M  c #2F2E30",
"N  c #313232",
"B  c #353433",
"V  c #333435",
"C  c #353534",
"Z  c #343435",
"A  c #373635",
"S  c #373636",
"D  c gray22",
"F  c #393A39",
"G  c #39393A",
"H  c #3A393A",
"J  c gray23",
"K  c #3A3B3C",
"L  c #3C3C3C",
"P  c #3D3C3C",
"I  c #3C3C3D",
"U  c #3E3D3D",
"Y  c #403E3F",
"T  c #404041",
"R  c #424241",
"E  c gray26",
"W  c #434342",
"Q  c #444442",
"!  c #444443",
"~  c #454443",
"^  c #454543",
"/  c #454544",
"(  c gray27",
")  c #464544",
"_  c #464545",
"`  c #474745",
"'  c #464546",
"]  c #454646",
"[  c #464646",
"{  c #474646",
"}  c #464746",
"|  c #474746",
" . c #464747",
".. c gray28",
"X. c #484747",
"o. c #474846",
"O. c #474847",
"+. c #484846",
"@. c #484847",
"#. c #494947",
"$. c #474748",
"%. c #474848",
"&. c #484848",
"*. c #494848",
"=. c #494948",
"-. c #484949",
";. c #494949",
":. c #4A4949",
">. c #494A48",
",. c #4A4A49",
"<. c #4A4B49",
"1. c #49494A",
"2. c #494A4A",
"3. c gray29",
"4. c #4B4A4A",
"5. c #4A4B4A",
"6. c #4B4B4A",
"7. c #4B4A4B",
"8. c #4B4B4B",
"9. c #4C4B4A",
"0. c #4C4B4B",
"q. c #4C4C4B",
"w. c #4C4C4C",
"e. c #4D4C4C",
"r. c #4D4D4C",
"t. c #4E4D4C",
"y. c #4E4D4D",
"u. c #4E4E4D",
"i. c #4F4F4E",
"p. c #4B4B4B",
/* pixels */
"                                                                        ",
"  C q.q.i.@   i.i.q.q.t t   9.i.i.9 i.x   O X i.i.9.i.i.q.f t   t t O   ",
"  x 4 4 4 @   % 4 4 4 4 @ q.4 4 4 4 4 4 9 @ O 4 4 4 9 4 4 4 @ 4 4 4 @   ",
"  x 4 4 4 @   4 4 4 % 4 @ t 4 4 4 4 4 9 @ @ O 4 4 4 4 9 4 4 4 4 4 4 @   ",
"  % @ 4 4 @   . @ @ @ % @ t 4 4 4 4 4 9 9 @ O 4 4 4 4 4 4 4 4 9 9 9 @   ",
"  = 4 @ @   % O           t 4 9 4 4 4 4 @ @   9 4 4 4 4 4 4 4 4 4 4 @   ",
"          O O H K H M x   % @ 4 9 4 9 @ @ @   @ 4 9 9 9 # 4 4 9 9 @ @   ",
"  C :.4 4 4 4 4 4 4 4 4 @   @ @ @ @   @                 O @ @ @ @ @ @   ",
"  :.4 4 4 4 9 4 9 4 4 4 @                   :.:.C T                 .   ",
"  x 4 4 4 9 4 4 4 4 4 4 @   :.:.H @   L :.@.4 4 4 4     $ :.:.:.:.f     ",
"  t 4 4 9 4 4 4 4 4 % 4 @ i.:.4 4 4 # L 4 4 4 9 4 9   . L 4 4 9 4 4 %   ",
"  4 4 4 @ 4 4 @ 4 4 4 @ @ % 4 4 4 @ @ % 4 4 4 4 4 @    .4 4 4 9 4 4 @   ",
"  $ @ @ 9 9 4 @ @ @ @ #   @ 9 9 9 @ @ @ 4 4 4 9 f @   @ 4 4 4 4 4 4 %   ",
"  . @   @ @ @ @ @ @ @       @ @ @ @     @ @ @ @ @     @ 4 4 4 9 4 9 @   ",
"  C  . . . .% O     %.$.X.:. .9 @      .:.O.4 %. .@   O O 4 4 4 @ @ $   ",
"  :.4 4 4 4 4 .   :.V 4 4 4 4 @ 4   :.N 4 4 O.4 4 .   @ . @ @ @   @ @   ",
"  x 4 4 4 4 4    . .4 4 4 4 4 4 &   i.4 4 4 4 4 4                       ",
"  t 4 4 9 4 @   * 4 4 4 4 4 4 4 &   4 4 4 4 4 9 4   X :.:.:. .t t x O   ",
"  4 4 4 4 4 4   @ 4 4 4 4 4 4 9 &   4 9 9 4 9 9 4   X.4 4 4 4 4 4 4 #   ",
"  # 4 @ 4 4 @     # 4 4 4 4 4 $ @   @ 4 9 @ 9 % #   @ 4 4 4 4 4 9 9 #   ",
"  + @ @ @ @ @ O   @ @ @ @ @ @ @ O   @ @ @ @   @ @   @ 4 4 4 4 O @ % #   ",
"  B ! :.@.t ! @. .T x   @   @. . ..   m ! @.T !  .4                     ",
"   .4 4 4 4 4 4 4 @ 4 4    .T 4 9 4   ! 9 4 4 4 4 $ Y H     :.:.O.O.@   ",
"  x 4 4 4 4 4 4 4 4 % @    .4 4 9 $   t 4 9 9 9 9 4 4 9 % :. .4 4 4 %   ",
"  9 4 4 4 4 9 4 4 4 9 @   t 9 4 4 @   4 9 9 9 4 9 9 4 4 O :.4 4 4 4 @   ",
"  4 4 4 4 4 4 4 4 4 4 @   @ % $ @     4 4 4 4 4 9 9 9 @ O @ 4 4 4 4 @   ",
"  @ 4 4 4 4 4 4 4 9 @ @               @ @ 4 4 @ 4 4 @ + . @ @ 9 4 9 @   ",
"  @ @ @ @ @ @   @ @ O     :.:.:.:.t     @ # @ @ @ @ @                   ",
"  o                 t :.:.9 4 9 4 4 4                   $ :.@.X. . .    ",
"  H q.:.:.f x . O O C 4 4 4 4 4 & r 4 O O L j O   @ :.:.L 4 4 4 4 4 @   ",
"  f 4 4 4 9 4 4   :.4 4 4 9 4 4 4 9 9   4 4 4 @   f 4 4 4 4 4 4 4 4 @   ",
"  4 @ 4 4 4 4 @   4 9 9 4 4 9 4 9 4 9   $ 4 4 @   4 4 4 4 4 4 4 9 @ %   ",
"  % 4 4 4 4 9 @   4 4 4 4 4 4 4 9 9 #   @ 4 4 #   4 9 4 4 4 4 4 4 @ %   ",
"  @ 4 9 9 9 9 @   @ % 9 9 4 4 @ 4 @ #   O # @ @   4 @ 9 4 4 4 4 t @ %   ",
"  + @   @ @         @ @ # @     @ . . O       O   . # @ @ @ @ @ . @ O   ",
"                                                                        "
};
