/* XPM */
static const char *wall_82[] = {
/* columns rows colors chars-per-pixel */
"82 82 137 2 ",
"   c #0F1316",
".  c #111317",
"X  c #131519",
"o  c #16181C",
"O  c #191A1E",
"+  c #1D1E22",
"@  c #1F2024",
"#  c #212226",
"$  c #242529",
"%  c #28272C",
"&  c #27282C",
"*  c #292A2E",
"=  c #2D2E32",
"-  c #2F3134",
";  c #313236",
":  c #35363A",
">  c #37393D",
",  c #393A3E",
"<  c #3C3E42",
"1  c #3E4246",
"2  c #424446",
"3  c #44464A",
"4  c #464A4D",
"5  c #494B4E",
"6  c #4E504F",
"7  c #474C50",
"8  c #4B4D51",
"9  c #4D5054",
"0  c #515256",
"q  c #545559",
"w  c #57595D",
"e  c #5A5B5D",
"r  c #61615F",
"t  c #565E61",
"y  c #5C5E62",
"u  c #5F6162",
"i  c #636465",
"p  c #696765",
"a  c #666867",
"s  c #696866",
"d  c #656669",
"f  c #676869",
"g  c #6B6D6C",
"h  c #736F6C",
"j  c #6E706F",
"k  c #71716E",
"l  c #6D6E71",
"z  c #6F7171",
"x  c #737373",
"c  c #787677",
"v  c #797876",
"b  c #747578",
"n  c #7B7B7A",
"m  c #807F7D",
"M  c #7F817E",
"N  c #82817F",
"B  c #7D7E81",
"V  c #817F80",
"C  c #7F8180",
"Z  c #858483",
"A  c #8A8786",
"S  c #898885",
"D  c #8C8C8A",
"F  c #908F8D",
"G  c #92918F",
"H  c #949293",
"J  c #959492",
"K  c #969593",
"L  c #979694",
"P  c #959493",
"I  c #989793",
"U  c #9A9695",
"Y  c #9A9695",
"T  c #9A9997",
"R  c #9C9895",
"E  c #9E9A97",
"W  c #9C9996",
"Q  c #9B9A98",
"!  c #9C9B99",
"~  c #9F9B98",
"^  c #9F9B9A",
"/  c #9D9C9A",
"(  c #9C9E9B",
")  c #9F9F9D",
"_  c #9E9B99",
"`  c #A09B97",
"'  c #A09C99",
"]  c #A19D9A",
"[  c #A09C9B",
"{  c #A29E9B",
"}  c #A09F9D",
"|  c #A39F9C",
" . c #A29E9D",
".. c #A39F9E",
"X. c #A29E9B",
"o. c #9EA09D",
"O. c #A1A09E",
"+. c #A3A29E",
"@. c #A4A09D",
"#. c #A5A29D",
"$. c #A5A19E",
"%. c #A4A39F",
"&. c #A7A29E",
"*. c #A6A39E",
"=. c #A6A29F",
"-. c #A7A49F",
";. c #A5A19E",
":. c #A8A39F",
">. c #9FA1A0",
",. c #A3A2A0",
"<. c #A4A3A1",
"1. c #A7A3A0",
"2. c #A6A2A1",
"3. c #A5A4A0",
"4. c #A6A5A1",
"5. c #A7A6A1",
"6. c #A5A4A2",
"7. c #A7A6A2",
"8. c #A7A7A5",
"9. c #A7A7A7",
"0. c #A6A3A1",
"q. c #A8A5A0",
"w. c #A8A4A1",
"e. c #A9A5A2",
"r. c #A8A4A3",
"t. c #A8A7A2",
"y. c #A8A7A3",
"u. c #AAA7A2",
"i. c #AAA6A3",
"p. c #ABA7A4",
"a. c #A8A5A1",
"s. c #AAA9A7",
"d. c #ADABAC",
"f. c #B6B4B4",
"g. c #BAB6B3",
"h. c #B9B7B8",
"j. c #BFBBB8",
/* pixels */
"X X X X X X X X X X X X X X X X X X X X X X X X X X X X X X X X X X X X X X X X X X X X X X X X X X X X X X X X X X X X X X X X X X X X X X X X X X X X X X X X o X ",
"X X X X X X X X X X X X X X X X X X X X X X X X X X X X X X X X X X X X X X X X X X X X X o X X X X X X X X o X X X X X X X X X X X X X X X X X X X X o X X X X o o ",
"X X X 9.1.@.@.@.1.@.v n 7 8 @ 3.@.1.1.1.1.q.@.@.@.+.k x x @ # $ j.q.q.q.q.q.q.g g q.s.k n n $ # = - = < < p.p.q.q.q.q.q.q.q.q.q.q.q.1.k x x g g # n x x x 8 # X O o ",
"X X o 9.@.3.3.@.%.1.n n 5 8 # ,.| 1.@.@.@.+.@.@.@.+.x x x # # $ g.3.q.3.t.t.3.g g q.q.x n n # $ = - - < 1 q.3.q.q.%.q.@.q.q.q.@.@.@.3.x x x g x $ B x x x 8 + X O O ",
"X X @.@.| g g g g g f f x x # ) W K K f g g g g g g f 3 3 @ + @.@.@.f f g f f ] ] g g g g g g g 5 8 # ] ] ] | f g g g g g g g g g f g 5 5 5 x x x x q 8 4 n i 4 . X ",
"X X @.| | f g g g g g g x x # ( ~ K H g g g g g g g g 3 3 @ # @.| ] f g g g g ] Q g g g g g g g 8 8 # | ] ( >.g g g g g g g g g g g f g 5 5 x x x g g g g n i 8 . X ",
"X X | r f g g g g g g g 8 9 # q w g g g g g g g g g g 8 5 # # | i g g g g g g g g g g g g g g g 8 8 + @.| f g g g g g g g g g g g g g f 5 5 g g g g g g g w 9 2   . ",
". . | r g g g g g g g g 5 8 + w w g g g g g g g g g f 8 5 # # @.i g g g g g g g g g g g g g i d 8 8 + ] ~ f g g g g g g g g g g g g g f f f g g g g g g g 0 5 3 . . ",
"X . ] e g g g g g g g g 5 5 + , , f g g g g f f 8 3 f 4 5 # # x g g g g g g g g g g g g g g 8 8 8 8 + ] ~ f g g g g g g g g g g g g g g g g g g g g g g g 8 4 3 . X ",
". . T < 8 0 0 g g g g g 4 4 + , , < < 9 0 9 8 9 4 5 y 4 5 # # z g g g g g g g g g g g g g g i f 8 8 + ~ W f g g g g g g g g g g g g g g g g g g g g g g g 8 4 3   X ",
". . K = 2 4 4 g g g g g 3 4 + : : ; = 5 5 4 4 5 5 4 w 5 5 # $ g g g g g g g g g g g g g g g g g 8 8 @ U I f g g g g g g g g g g g g g g g g g g g g g g g 8 3 3 . X ",
". . i q w y 4 3 3 3 3 3 + + y O $ : : O + O + + O O O + + # $ g g g g g g g g g g g g g g g 2 5 8 8 # g s g g g g g g g g g g g g g g g g g g g g g g g g 8 4 3   X ",
". X y t w t 4 3 4 4 4 4 # # w # $ : , # # # # # # # # # # # $ g g g g g g g g g g g g g g g 5 8 8 8 # g j g g g g g g g g g g g g g g g g g g g g g g g g 8 3 2 . X ",
". X & = * % $ @ + @ # # : : < B M Z V n n n x x x x x $ # # # w 8 3 g g g g g g g g g 8 8 8 8 8 8 8 # 9 9 8 6 f g g g g g g g 8 8 g g g g g g g g g g 8 4 5 3 2 . X ",
"X X $ $ $ $ $ @ @ # # # > , , Z Z Z Z Z Z Z v n n n v $ # $ # w 8 7 f g g g g g g g g 5 5 5 8 8 8 9 # 4 8 8 8 g g g g g g g g 5 8 g g g g g g g g g g 4 5 5 3 3 X X ",
"X X * $ # @.@.@.:.@.@.:.q.] ] Q ~ g f g g g f f K K f g g # $ w 8 7 4 5 g g g 8 9 5 8 $ 8 8 8 8 8 8 # 5 5 5 8 8 8 8 8 8 8 8 8 5 5 8 4 g g g g l 9 9 9 4 5 = * $ . X ",
"X X * # # @.@.@.@.@.1.@.| | ] ~ W g g g g g g g K ~ f f g # $ w 8 8 8 5 g g g 9 8 5 8 $ 8 8 8 8 8 8 # 5 4 5 8 5 5 5 8 5 8 8 8 4 5 5 4 g g g g g 8 8 8 5 3 * $ $ . X ",
"X X $ f.@.@.q.g g g g g g g g g g g g g g g g g g g f 5 5 # @ $ 8 4 4 4 5 4 4 5 4 $ $ 2 2 3 $ $ # # # # # # # # # # # # # # # ; ; ; ; 4 7 7 4 5 5 5 5 4 3 $ 8 5 X X ",
"X X & f.| ] @.g g g g g g g g g g g g g g g g g g g g 5 5 + # $ 5 4 5 8 4 4 5 5 4 $ $ 3 3 3 $ $ # # # $ $ # # # # # # # # # # ; ; ; = 5 4 4 4 4 3 5 5 4 5 $ 8 5   X ",
"X X | @.@.f g g g g g g g g g g g g g g g g g g g g g 8 5 - = $ $ # # # # @ # @ # # # # + + # # * # @.@.@.@.1.n n n + # # # # ; ; $ # @ @ + + + + + + + + # * = . X ",
"X X @.3.@.g f g g g g g g g g g g g g g g g g g g g g 8 8 - ; * + # + + O $ + @ # # # # O O O + $ X @.1.1.1.( n n n @ + # # # ; ; # + O O O O O O O O O @ # * = X X ",
"X X @.e f g g g g g g g g g g g g g g g g g g g g g f 8 8 + + * f.] ] ] ~ U n 5 4 # # $ d.| @.@.@.3.g g g g g g g g g g @ # $ - ; W ] ] | ] ] ] ~ ~ ] x k 3 O + X X ",
"X X x g g g g g g g g g g g g g g g g g g g g g 4 5 f 8 8 O + K ] ` f f f f f g l 8 w # d.| f f f g g g g g g g g g 0 0 $ # # / K f f g g g g g g g g g g l d 0 . X ",
"X X x g g g g g g g g g g g g g g g g g g g g g 8 3 f 8 8 O + ~ W W f g g g f f g 0 8 # d.] f g g g g g g g g g g g 9 0 $ # # T W g g g g g g g g g g g g g g 9 . X ",
"X X 5 5 g g g g g g g g g g g g g g g g g g 4 5 g x 5 5 8 O o K i j g g g g g 8 8 5 5 # b g f g g g g g g g g g g g 3 4 # Z ] W W g g g g g g g g g g g g g 4 4 . X ",
"X X 5 3 g g g g g g g g g g g g g g g g g g 5 8 f x 5 5 8 o O G i g g g g g g 5 8 8 8 # x g g g g g g g g g g g f g 5 4 # n U U U g g g g g g g g g g g g f 2 4 . . ",
"X X 4 4 g g g g x 5 g g g g g g g 5 5 g g g g g g l 5 8 8 O O q g g g g g g g 4 8 8 8 # x g g g g g g g g g g g 5 8 8 5 # 0 K f g g g g g g g g g g g g g 5 3 4   . ",
"X X 5 8 g l g l g 3 g g g g g g g 5 5 l l l l g l x 5 q 8 + o w f g g g g g g 4 8 8 8 # x g f g g g g g g g f g 5 5 8 8 # 0 ) g g g g g g g g g g g g g g 3 4 4 . X ",
". . 5 w w 5 5 5 3 f f g g g f g g 5 8 8 8 8 8 8 8 8 8 $ $ # $ 4 g g g g g g g 5 5 5 8 # 8 3 g g g f f f f f f x 4 8 8 7 # + 5 f g g g g g g g g g g g g g f 2 4 . . ",
". X @ = = 5 5 @ & 5 4 4 4 4 5 5 5 5 5 8 8 8 8 8 8 8 @ # # # # # 8 4 4 8 8 8 8 5 5 $ $ $ & = 5 5 5 8 8 8 8 8 5 5 5 8 # # # @ 4 g g g g g g g g g g g g g g 8 4 4 . X ",
". X @ = = 4 5 $ @ 5 5 5 5 5 5 5 5 5 5 5 8 8 5 5 5 8 # # # # # # 8 5 5 5 8 8 5 5 8 # $ # * & 4 8 8 5 5 5 8 5 5 5 5 5 # $ $ # 5 g g g g g g g g g g g g g g 8 4 4 . X ",
"X X < * * + # # @ # # # # @ @ # # # # # # # # @ # # # < < < < # # # # # # # # # # < < < @ # # # # # # # # # # # # # # # # + 5 8 8 f g g g g g g g g g g g 9 4 4 . X ",
"X X , & = + + + + + + + # # + @ # # # # # # + + + + + < < < < @ + # O $ + # $ # # , > < + + + @ + # # + + + + # # # # # # + 5 5 5 f f g g g g g g f g g f 8 5 5   X ",
"X X $ f.| | | | | | ] ] ] | y + $ > , $ $ $ ] | | @.@.@.@.@.@.@.@.@.x x y w : $ # $ + @.@.@.@.@.@.1.x ] ] ] ] ] $ & 0 9 @ # ; : : 5 3 g g g g g g 4 4 3 3 f 3 4 X X ",
". X * f.| | | @.| ] ] ] ] ] i $ @ , < $ $ # @.| | @.@.@.@.@.@.@.@.] g x w i ; $ $ # $ @.@.@.@.@.@.,.x ] ] ] ] W & $ 8 9 # # - : , 5 0 7 4 3 5 3 3 : > ; - 3 4 4 . . ",
". X @.] ] f f f f g g g f g g e y = = $ G ] | ] f g g g g f f f f f 8 8 g d w + # | | @.p g g g g x K g g g f f g f $ $ # O 5 $ # 4 4 4 4 5 5 4 4 + $ 4 4 5 5 4 . . ",
". . | g p g g g g g g g g g g 0 0 # + o.Q ] h h g g g g g g g g g g g l f g 5 O + @.@.A s g g g g g x g g g g g 3 8 + # # O + # # + O + O X X X O O + o X X X X X X ",
"X . | i g g g g g g g g g g g 8 0 + * H W W g g g g g g g g g g g g g g g f 4 O O | ( g g g g g g g g g g g g g 4 5 + # # # # # # # # # @ + + + + + + + + + + + X X ",
"X X x i g g g g g g g g g g 8 8 8 O @ w Z H f g g g g g g g g g g g g g g g 8 X O T H g g g g g g g g g g g g g 3 4 @ # : @ W W ~ ` ] W W W z x x x x x k q w @ X X ",
"X X x g g g g g g g g g g f 8 8 8 O + y Z G g g g g g g g g g g g g g g g g 8 X O K ( g g g g g g g g g g g g g 3 5 # # : % W ~ ] ] ] ] ] W k x x x k x x w 8 # . . ",
"X X f g g g g g g g g g g f 8 8 8 o O 5 d g g g g g g g g g g g g g g g 8 8 8 O O g g g g g g g g g g g g g g g 3 5 O O ~ W W f f g g g f g g f H f g g g v n f   X ",
"X X f g g g g g g g g g f g 8 8 8 o O 4 i g g g g g g g g g g g g g g g 9 8 8 o O g g g g g g g g g g g g g g g 4 5 O O W W W f f g g g g g g g G g g g f v n g X X ",
"X X i f g g g g g g g g g g g 5 8 O O 5 i g g g g g g g g f g g g g g g g g 8 O O g g g g g g g g g g g g g g g 2 4 o O W U g g g g g g g g g g g g g g g w 9 4   X ",
". X u d g g g f u g g g g g y 7 8 O O 2 i g g g g g g g f g g f j g i i g i 5 O O q 5 g g g g g d e g g g f g l 5 5 O + e x g g g g g g g g g g g g g g g w 9 4   X ",
"X X 0 8 7 f g 5 5 g g g g f 5 4 4 O O $ 3 8 g f f f f f f f g 8 g g 0 0 5 5 8 o + 3 4 g g g g g 8 2 f g f w w 8 5 5 O O 8 g g g g g g g g g g g g g g g g w 8 4 . X ",
"X X 8 8 8 5 8 5 3 5 5 5 5 5 5 X + 2 < # > 5 5 5 5 5 5 5 4 5 5 4 8 8 5 5 5 4 O O + 5 5 8 5 8 5 7 5 0 # 3 4 4 4 5 O # O + 8 f g g g g g g g g g g : 8 5 w w w 9 4   X ",
"X X + 0 5 5 5 5 5 4 4 4 4 4 3 @ + < 1 # 2 4 4 4 4 5 5 5 5 4 5 4 5 5 5 5 5 4 + + + 5 4 8 8 8 8 5 5 8 $ 3 4 4 5 5 # @ + + 5 g f g g g g g g g g g : 8 5 w w w 8 4 X X ",
"X X # $ # @ @ # + + # # # + @ # # $ $ # # # # @ @ @ @ @ + @ + + + + + @ + + + + @ + + # # # # # # # # @ + @ + + + @ + + : 2 4 5 4 4 5 g g g 5 5 + w 5 5 8 8 4 4   X ",
"X X # # @ @ @ @ @ # # # # # @ @ @ $ $ # @ @ # # # # # # # # # # @ + + @ @ + + + @ # # # # @ @ @ @ @ @ @ @ @ @ @ + + # # ; 8 5 5 5 5 3 g g g 5 5 + 8 5 5 8 8 4 4 . X ",
"X X + f.@.@.@.@.@.@.c n n x | @.@.@.| | | ] N Z v Z $ 2 3 # # # @.~ ~ ~ ~ ~ ~ = * $ # < 3.] ] ] | | ] ] | | ] | g x x g @ @ @ @ @ @ @ # @ @ + + + + + + + + + + X X ",
"X X @ f.1.@.@.@.3.3.x n x x +.@.@.+.+.| ) ] N m n Z # 2 3 # # # | W T Q Q Q T * * # @ < 9.~ ( ] +.] ( ] +.+.] ( g x x x @ + # @ @ # # @ # @ + + + + + + + + + + X X ",
"X X ] U K f f f g g g g g g g g g g g f g 8 8 8 f g f = $ # $ G H G f g g g g g f + O U K K g g g g g g g g g g g g 8 5 F D S = = # @ - U ~ ] ] ] ~ ~ ~ W x b $ . X ",
"X X ] T K g g g g g g g g g g g g g g g g 5 8 9 f g g $ $ + # G H K i g g g g g j + + K T T g g g g g g g g g g g g 8 8 H S S $ = # @ ; / ~ ] ] ] ] ( ( ) z g $ . X ",
"X X W i g g g g g f g g g g g g g g g g g g 5 5 g g 8 # @ 0 0 F g g g g g g g 5 8 O O U s g g g g g g g g g g g g g i i g g g g g @ O W W ~ g g g g g g g g g 5 . X ",
"X X H i g g g g g g g g g g g g g g g g g g 4 3 g l 8 # + 9 8 Z g g g g g g g 4 8 o o C g g g g g g g g g g g g g g a a g g g l x O o W S H g g g g g g g l d 5 . X ",
"X X x g g g g g g g g g g g g g g g g g g g g g g z 5 O O 5 9 f g g g g g f d 4 3 O O f g g g g g g g g g g g g g g g g g g f 4 8 o X I g g g g g g g g g 8 4 4   X ",
"X X g g g g g g g g g g g g g g g g g g g g g g g g 5 + O 5 5 2 f f f g g j 4 + # O O i g g g g g g g g g g g g g g g g g g g 2 3 O O d g g g g g g g g g 5 5 5 . X ",
"X X g g g g g g g g g g g g g g g g g g g g g g g l 5 + O 5 5 3 g f f g f f 4 + # O O i g g g g g g g g g g g g g g g g g g g 2 3 O O f f g g g g g g g g 5 5 5 X . ",
"X X i g g g g g g g g g g g g g g g g g g g g g g l 5 + + $ $ ; 8 8 8 8 7 8 $ 0 8 O O 5 g g g g g g g g g g g g g g g g g f 8 : ; O X 8 g g g g g g g g g 8 4 4   . ",
"X X i g g g g g g g g g g g g f g g g g g g g g g l 5 + + $ & : 8 8 8 9 5 8 $ w 9 O X 5 g g g g g g g g g g g g g g g g g f 9 + + O O 8 8 4 g g g g g g g 8 5 4 . X ",
"X X 3 8 9 g g g f f f f g g g 5 8 g f g g g 5 5 5 8 5 + + $ $ + @ @ @ + @ + @ $ & O X 5 5 4 8 5 g g g g g 8 5 g g g g g 8 2 2 : - O O 8 8 5 f f f g g g g 5 4 4 . X ",
"X X 2 8 8 g g g g f g f f f f 8 5 f g g g g 5 4 4 4 5 + + $ * @ + @ # @ + @ + * $ O X 5 5 5 5 7 f f f g g 8 8 g g g g g 7 2 2 ; ; O O $ 5 8 7 8 7 7 7 5 5 4 5 + . X ",
"X X + 4 8 7 8 8 8 8 7 7 8 7 4 5 5 $ @ 7 7 7 5 5 + # # # @ @.@.@.@.@.@.@.@.@.@.x v O + + + + 4 5 7 8 7 4 5 8 5 8 8 7 4 4 5 $ O $ $ + + # $ # # # # # # # # @ * + X X ",
"X X + 5 5 5 5 5 5 8 4 5 3 4 5 5 5 $ # 5 5 5 4 4 + + # + + @.| | @.@.@.@.@.@.| x x + + + + + 4 5 5 5 4 4 4 3 3 5 4 4 5 5 5 # + $ $ + + # + + + + + + + + O + + + X X ",
"X X , $ * @ @ O O O O O O O O O O + + # @ @ + O ] ] | | @.g g g g g g g g g g g g g x # * * # # + O O O O O O O + + O O + + # ; : U U U U U U U U U U U ~ # # + X X ",
"X X , @ * + O X O O O O + + O o X O + + + + O . ] ] ] ] ( g g g g g g g g g g g g g x # * * @ + + + O + O O X + + + + O o + + - - U U K U W W I U H K U / $ + + X X ",
"X X $ h.@.@.1.@.@.@.1.@.x x x : : = = : ; = G D f g g g g g g g g g g g g z 8 g g g g g $ = : : D K x x x ; : $ - = 0 0 ] | | ] ~ g g g g g g g g g g g g g g $ . X ",
". X Z ( ] s s s s s g s f g 5 g x & * @ H d.D F g g g g g g g g g g g g g x 8 9 9 g f 8 + + d.d.D S f g g u d @ x h Q T p p i s s g g g g g g g g g g g g g l 8 . X ",
"X X ] ] ] g g g g g g g g f 5 x j & * # D W D F g g g g g g g g g g g g g j 5 9 0 g g 4 + + 3.] D A g g g g a @ D D H U f g g g g g g g g g g g g g g g g g l 4   X ",
"X . v u u g g g g g g g g g g f g i d # S W g g g g g g g g g g g g g g g f g g f g g 8 X O f i g g g g g 7 5 + Z Z g f f g g g g g g g g g g g g g g g g 5 8 5 . X ",
"X X n u i g g g g g g g g g g g g i d # D I g g g g g g g g g g g g g g g g g g g g g 8 X o f f g g g g g 4 5 + Z Z g g g g g g g g g g g g g g g g g g g 8 8 5 X X ",
"X X x u i 5 8 g g g g g g g g g g 5 5 # w g g g g g g g g g g g g g g g g g g g g g g 8 X O 9 0 g g g g g 5 5 + l g g g g g g g g g g g g g g g g g g 8 8 g g 5 X X ",
"X X g u i 8 8 g g g g g g g g g g 5 5 @ e g g g g g g g g g g g g g g g g g g g g g g 4 X O 0 9 g g g g g 5 5 + g g g g g g g g g g g g g g g g g g g 8 9 g f 4 . X ",
"X X g 9 w g g g g g g g g g g g g 5 5 # e g g g g g g g g g g g g g g g g g g g g 8 8 5 X O 5 8 g g g 8 8 5 8 @ g f g g g g g g g g g g g g g g g g g 5 4 g d 5 . . ",
"X X a 0 w g g g g g g g g g g g g 8 8 # e f f f f f g g g g g g g g g f g g g l f 5 8 4 X O 5 8 f f f 8 8 8 3 @ f d g f f f g g g g g g g g g g g g g 5 4 g d 5 . X ",
"X X 5 8 8 g f f g g g g g f g 5 8 8 8 # < 5 5 5 f f f g g g g g g g 3 5 g f g 4 5 5 5 # O O = = 5 5 5 8 8 8 5 @ 5 8 f g 5 i g g g g g g g g g g g g g 2 4 f i 5   X ",
"X X : 8 8 9 8 8 q g g g 8 8 8 5 8 8 8 # < 5 5 8 8 8 8 2 3 g g g g g $ @ 5 8 8 5 5 * * g 3 3 = * 4 8 $ $ $ $ $ @ 5 4 8 8 $ 0 g g g g g g g g 8 5 g 5 8 & $ 8 5 5 . X ",
"X X : 8 8 8 8 8 5 g g g 5 5 5 8 8 5 8 # < 5 5 5 8 8 8 3 3 g g g g g # $ 5 8 8 8 8 # @ n 5 9 * * 3 8 & # $ # # # 5 5 5 5 # w g g g g g g g g 8 5 g 3 8 $ $ 5 5 8 . X ",
"X X X 0 5 5 5 $ @ 4 4 4 4 4 # # # # # $ # # 5 5 5 8 5 5 5 5 4 5 # # # # 5 4 4 # # # $ - < < # # # # $ 5 4 : : # # # # # 5 4 4 4 4 4 4 4 4 5 5 5 5 O $ 4 4 4 = X X X ",
"X X X 0 4 5 8 # # 4 4 4 4 4 # # # # # # # # 5 4 5 5 5 5 5 5 4 5 # # # # 5 4 4 # # # $ = < < # # # # # 5 4 , , # # # # $ 5 4 4 4 4 4 4 4 4 5 5 5 5 + # 4 5 4 & X X X ",
"X X X   X X X X o X X X X X X X X X X X X X X X X X X X X X X X . X X . X X X . X X X X X X X X X X . X X X o . . . X X X X X X X X X X X X X X . X X X X X X X X X ",
"X X X X X X X X X X X X X X X X X X X X X X X X X X X X X X X X X X X X X X X X X X X X X X X X X X X X X X X X X X X X X X X X X X X X X X X X X X X X X X X X X X "
};
