/* XPM */
static const char *wall_56[] = {
/* columns rows colors chars-per-pixel */
"56 56 133 2 ",
"   c gray6",
".  c #0E0E12",
"X  c #111317",
"o  c #131519",
"O  c #17181C",
"+  c #191A1E",
"@  c #1D1E22",
"#  c #1F2024",
"$  c #212226",
"%  c #242529",
"&  c #27282C",
"*  c #292A2E",
"=  c #2D2E32",
"-  c #2F3034",
";  c #313236",
":  c #34363A",
">  c #36383C",
",  c #3A3A3E",
"<  c #3B3D41",
"1  c #3E4145",
"2  c #424246",
"3  c #44464A",
"4  c #464A4D",
"5  c #494A4E",
"6  c #474C50",
"7  c #4B4D51",
"8  c #4E5154",
"9  c #515256",
"0  c #54565A",
"q  c #57595C",
"w  c #5A5B5E",
"e  c #66625F",
"r  c #565E61",
"t  c #5C5D61",
"y  c #5F6160",
"u  c #636464",
"i  c #666867",
"p  c #696866",
"a  c #656669",
"s  c #676969",
"d  c #6B6D6C",
"f  c #706E6D",
"g  c #6E706F",
"h  c #71716F",
"j  c #6C6F70",
"k  c #6F7170",
"l  c #737473",
"z  c #767877",
"x  c #797977",
"c  c #767678",
"v  c #777978",
"b  c #7A7A79",
"n  c #807F7D",
"m  c #848482",
"M  c #898886",
"N  c #8A8C8B",
"B  c #8E8C8B",
"V  c #908F8D",
"C  c #95918E",
"Z  c #959492",
"A  c #969593",
"S  c #969694",
"D  c #979694",
"F  c #959491",
"G  c #999592",
"H  c #999594",
"J  c #989795",
"K  c #9A9695",
"L  c #999694",
"P  c #9A9997",
"I  c #9D9996",
"U  c #9C9897",
"Y  c #9E9B96",
"T  c #9E9A97",
"R  c #9F9C97",
"E  c #9D9996",
"W  c #979998",
"Q  c #9D9998",
"!  c #9F9B9A",
"~  c #9B9D9A",
"^  c #9F9E99",
"/  c #9D9C9A",
"(  c #9E9D9B",
")  c #9F9E9A",
"_  c #9C9E9D",
"`  c #9D9B99",
"'  c #A09C99",
"]  c #A19E99",
"[  c #A19D9A",
"{  c #A29E9B",
"}  c #A19D9C",
"|  c #A39F9C",
" . c #A39F9E",
".. c #A19E9B",
"X. c #A1A09B",
"o. c #A1A09E",
"O. c #A4A19C",
"+. c #A4A09D",
"@. c #A5A19E",
"#. c #A4A39E",
"$. c #A4A39F",
"%. c #A7A29E",
"&. c #A6A39E",
"*. c #A6A29F",
"=. c #A5A19E",
"-. c #A4A3A1",
";. c #A7A3A0",
":. c #A6A2A1",
">. c #A7A3A2",
",. c #A2A4A3",
"<. c #A5A4A0",
"1. c #A7A6A2",
"2. c #A6A4A2",
"3. c #A8A4A1",
"4. c #A9A5A2",
"5. c #A8A7A3",
"6. c #AAA6A3",
"7. c #A9A5A4",
"8. c #ABA7A4",
"9. c #A8A7A5",
"0. c #A6A8A5",
"q. c #A9A8A4",
"w. c #AAA9A5",
"e. c #ABAAA6",
"r. c #ACABA7",
"t. c #AAA9A6",
"y. c #ABABA9",
"u. c #ACABA9",
"i. c #A9AAAE",
"p. c #ADACAA",
"a. c #B0AFAD",
"s. c #B3B2AE",
"d. c #B4B2B0",
/* pixels */
"o o o o o o o o o o o o o o o o o o o o o o o o o o o o o o o o o o o o o o o o o o o o o o o o o o o o o o O o ",
"o o ) +.+.;.+.x 4 @ b +.3.;.3.+.+.p h l # % 3.3.3.3.<.d &.h b : $ = = < 3.7.7.3.3.3.3.3.3.;.l l d $ l l 5 7 o O ",
"o   ) +.<.+.;.b 5 @ l | +.w.w.3.w.s l l $ + +.7.3.5.<.h <.l b = & = = , 3.3.5.r.w.r.u.w.w.y.w w d o l v 5 5 o + ",
"o +.+.u d d d d l $ l ) A d d d d d s 3 @ +.+.s d d d ] d d d d d 7 $ ] ] s d d d d d d d d q 5 l l 9 5 b b 7 o ",
"o | s d d d d d 7 @ 7 0 d d d d d d s 5 $ | d d d d d d d d d d d 7 @ ] s d d d d d d d d d d 5 d d d d 9 q 3 X ",
"X | s d d d d d 4 @ - < d d d d 7 w s 5 $ l d d d d d d d d d u 7 7 @ Y s d d d d d d d d d d d d d d d 3 7 3 o ",
"X P 3 9 9 d d d 4 @ - < 1 8 8 8 4 9 u 5 $ k d d d d d d d d d s s 7 @ Q s d d d d d d d d d d d d d d d 3 7 3 o ",
"X A 8 8 5 d d d 3 @ ; , = 5 4 4 5 8 q 5 $ d d d d d d d d d d d d 7 # K s d d d d d d d d d d d d d d d 4 7 4 o ",
"o r q r 4 3 4 4 $ q $ % , $ $ $ $ $ $ $ $ d d d d d d d d d d u 7 7 $ g d d d d d d d d d d d d d d d d 4 7 3 o ",
"o % % % % # $ $ > , m m m m m x b b l $ $ q 7 s d d d d d 4 5 7 7 7 $ 7 5 d d d d d d 6 d d d d d d d 4 4 5 3 o ",
"o * % ,.+.+.+.+.X.) S ~ d d d d K d d l $ q 7 4 y d d 4 5 % 5 7 7 7 $ 5 5 7 5 5 5 5 5 5 5 j d d d 5 7 4 = * % o ",
"o * % i.+.+.+.+.] R Y _ d d d d W b s s $ 9 7 7 u d g 7 4 $ 7 8 7 5 $ 4 5 5 5 7 5 7 5 5 5 l d h d 7 7 5 % = % o ",
"o % | | o.d d d d d d d d d d d d d s 7 # % 4 4 4 5 4 4 % 2 3 : % $ $ $ $ $ $ $ $ $ $ : ; 3 5 5 4 5 5 4 % & 4 o ",
"o | +.s d d d d d d d d d d d d d d s 5 - % $ $ $ # $ $ $ $ @ $ # * +.+.+.b b b $ $ $ ; $ $ # @ @ @ @ @ # @ = o ",
"o +.s s d d d d d d d d d d d d d d s 7 @ & ] ] Q K b 4 $ % ;.| +.] d d d d d d d $ % ; +.] ] ] ] ] Y l 1 4 @ o ",
"o l s d d d d d d d d d d d d d 5 r s 7 + G ] s d s s s 7 $ Q g d d d d d d d d 9 % $ Y s d d d d d d d d s 8 o ",
"o r d d d d d d d d d d d d d w u w w 7 + P m d d d d t 7 $ N l d d d d d d d d 7 $ f Q s d d d d d d d d d 7 o ",
"o 5 j d d d d d d d d d d d d 7 s u 5 7 + C s d d d d 7 7 $ s d d d d d d d s d 7 $ Y G d d d d d d d d d d 5 X ",
"o 4 d d d d 5 d d d d s 5 d d d d u 7 7 + 9 d d d d d 5 7 $ s d d d d d d d l 7 7 # S d d d d d d d d d d 4 4 o ",
"X 5 q 7 5 5 s s d d d s 5 7 7 7 7 7 7 % % 4 d d d d d 5 5 $ 4 w d d s s s l z 7 7 $ 4 d d d d d d d d d s i 4 X ",
"o # * 5 3 $ 5 4 4 5 5 5 5 7 7 7 7 = $ $ $ $ 5 5 7 7 7 7 % $ & : 7 7 7 5 7 7 5 4 $ % 4 d d d d d d d d d j 7 4 o ",
"o < * $ $ $ $ $ $ # $ $ $ $ $ $ $ $ $ < 1 $ $ $ $ $ $ $ < < $ $ $ $ $ $ $ $ $ $ $ $ 5 7 d d d d d d d d d 7 5 o ",
"o ; s i u u i i w 2 = $ * $ $ w i i i c l s s 5 2 < * $ - c s d d i 5 i i s * $ : $ < 3 5 w d d d d w q 0 l 4 o ",
"X % ] | | | ] ] ] t O % , % % +.| +.+.+.+.+.+.d u r ; % $ +.+.+.+.+.l ] ] ] . = 8 $ - : 7 3 5 7 7 4 < , 1 7 5 X ",
"X | | u d d d d d d w t = % ] | d d d d d d s 4 u a w @ +.+.d d d d A d d d s l % $ 3 % 5 5 5 5 5 5 % 5 5 5 5 o ",
"X | d d d d d d d d q 9 $ A Y d d d d d d d d d d s 5 + +.s d d d d d d d d u 4 $ $ $ $ $ $ $ @ @ @ @ @ @ @ @ o ",
"o b d d d d d d d 7 7 7 + t F d d d d d d d d d d s 5 + F d d d d d d d d d i 4 $ : Y Y ] ] ] Y h l l l a w $ o ",
"o s d d d d d d d 7 7 5 O 5 d d d d d d d d d d d 7 7 + d d d d d d d d d d u 4 + ] K s d d s d d F d s l x d X ",
"o s s d d d d d s q 7 7 + 5 d d d d d d d d d d d w 7 + d d d d d d d d d d u 4 + Y B d d d d d d m d d d d u o ",
"o u d d d d d d d d 8 5 + 5 d d d d d s d s d d s s 5 + d d d d d d d d s d w 4 + K d d d d d d d d d d t w 4 o ",
"o 9 7 i d 5 d d d 5 4 5 + % 7 s s s s s s 7 d 7 7 5 7 + 3 d d d d 5 s d w 9 7 4 + 7 d d d d d d d d d d t q 4 o ",
"o @ 5 5 5 5 4 4 4 4 + @ < $ 4 4 4 5 5 5 5 4 5 5 5 3 @ @ 5 5 7 7 5 5 % 4 4 5 O @ + 4 d d d d d d s : 5 q q w 5 o ",
"o $ $ $ $ $ # $ $ @ $ $ % $ $ $ $ $ $ # # # # # # @ @ # % $ $ $ $ $ $ $ $ # @ # @ ; 4 5 4 w d d 5 @ 5 5 7 5 4 o ",
"o @ y.d.s.s.d.m m p.s.p.a.p.d.P B = % 5 $ $ w.y.7.7.0.* % 2 0.w.u.p.u.u.p.y.<.b b @ $ $ $ $ $ @ @ @ @ @ + @ @ o ",
"o # | ;.+.+.+.b l ] +.o.o.| ] n b + $ 3 $ $ Y P P P P * $ 1 Y ) ] ] ) ] o.] K l l # $ # # $ # # @ @ @ @ @ + @ o ",
"o ] K u d d d d d d d d d d 7 7 s s i % $ F F s d d d d @ K S m d d d d d d d d 7 B M = # & : Y ] ] ] Q m l % o ",
"o Y d d d d s d d d d d d d d 5 d u 7 @ 9 V d d d d d 7 + A s d d d d d d d d d i d d d $ s Y Q d d d d d d 5 o ",
"o l s d d d d d d d d d d d d i d w 4 + 5 d d d d s s 4 + d d d d d d d d d d d d d d 6 X u Y d d d d d d 5 4 o ",
"o d d d d d d d d d d d d d d d d w 5 + 5 2 d d d s 3 O + u d d d d d d d d d d d d d 3 o 2 e d d d d d d 7 4 o ",
"o d d d d d d d d d d d d d d d d w 5 + 5 3 d i s s 5 # + 7 d d d d d d d d d d d d s 3 O , q d d d d d d 7 4 X ",
"o u s d d d d d d d s d d d d d d w 5 @ % : 7 7 7 7 % 8 + 5 s d d d d d d d d d d d 7 @ + : 7 3 d d d d d 7 5 o ",
"o 3 7 d d s s s s s 5 7 d d d 5 4 5 4 @ % @ @ $ # @ # * + 5 5 7 4 s s s 7 d d d d 5 2 ; + ; 7 7 d s d d d 5 ; o ",
"o @ 5 5 5 5 5 7 7 5 4 5 $ 5 5 5 @ # # $ | | +.+.;.+.+.l @ + + > 5 5 5 5 7 7 7 5 5 7 + & @ $ $ 7 7 5 5 5 5 7 @ o ",
"o @ 5 4 7 7 7 5 5 7 7 4 $ 5 4 5 + O + O | | +.+.+.+.+.l @ @ @ : 5 7 7 4 5 7 5 4 5 5 @ % @ $ $ @ @ @ @ @ @ @ @ o ",
"o , & $ # + + + + + + + @ $ $ + ' | +.] d d d d d d d d d $ * & $ @ + + @ + @ + + @ $ : K K K Y K K G K ; % @ o ",
"o $ +.+.;.+.+.;.l l = : = : = V s d d d d d d d d d 8 d d d * ; : B l l ; % = = 9 ] | ] s d d d d d d d d s % o ",
"o Y ] u d d d d d 5 c d * $ Y B d d d d d d d d d d 7 8 d 4 # u ] B d d d @ l B G d d d d d d d d d d d d d 4 o ",
"o m i j d d d d d d d d t $ Y s d d d d d d d d d d s s d 5 + 3 d d d d 7 @ l m d d d d d d d d d d d d d 7 7 o ",
"o l u 8 5 d d d d d d d 9 $ G d d d d d d d d d d d d d d 7 + , q d d d 4 @ a l d d d d d d d d d d d 5 7 l 7 o ",
"o d u 5 7 d d d d d d d 5 # d d d d d d d d d d d d d d d 5 + ; 8 d d d 5 @ w d d d d d d d d d d d d 7 w d 5 o ",
"o d 9 k d d d d d d d d 7 $ s s d d d d d d d d d d d d 5 7 + ; 4 d d 7 7 # w s s d d d d d d d d d d 5 0 d 5 X ",
"o 5 7 d s d d d d s 3 7 7 $ 5 5 s s d d d d d 4 a s s 5 5 $ + % = 5 5 7 7 @ < 7 s 4 s d d d d d d d d 3 8 d 7 o ",
"o : 8 7 7 5 d d 4 5 5 7 7 $ 4 5 5 7 7 3 d d d $ < 5 7 5 $ b 7 < * 4 % $ $ $ < 5 4 # d d d d d d 5 d 5 % : 5 7 o ",
"o o 3 5 5 & 7 5 5 % % % % $ % 5 7 7 7 5 7 7 % $ , 5 5 % $ * < = $ % % 3 : % $ $ $ 5 7 7 7 7 7 7 5 7 % 3 4 5 . o ",
"o o 3 4 3 % 4 4 4 $ $ $ $ $ $ 5 4 5 4 5 5 4 $ $ , 4 5 $ $ - < = $ $ % 3 > $ $ $ $ 5 5 5 4 4 5 4 5 5 $ 5 5 5 o o ",
"o o o o o o o o o o o o o o o o o o o o o o o o o o o o o o o o o o o o o o o o o o o o o o o o o o o o o o o o "
};
