/* XPM */
static const char *wall_42_17[] = {
/* columns rows colors chars-per-pixel */
"17 17 119 2 ",
"   c #010001",
".  c #000101",
"X  c #010101",
"o  c #010002",
"O  c #010103",
"+  c #020102",
"@  c #020103",
"#  c #030103",
"$  c #010202",
"%  c #010203",
"&  c #020202",
"*  c #020203",
"=  c #030203",
"-  c #020303",
";  c #020104",
":  c #020204",
">  c #030204",
",  c #030304",
"<  c #030305",
"1  c #030306",
"2  c #040205",
"3  c #040306",
"4  c #030405",
"5  c #040405",
"6  c #040406",
"7  c #050506",
"8  c #050507",
"9  c #060407",
"0  c #060507",
"q  c #060607",
"w  c #060608",
"e  c #070709",
"r  c #080809",
"t  c #0B0A0C",
"y  c #0D0D0E",
"u  c #0F0F10",
"i  c #111112",
"p  c #121113",
"a  c #121214",
"s  c #121314",
"d  c #131314",
"f  c #131315",
"g  c #141315",
"h  c #141316",
"j  c #131415",
"k  c #141415",
"l  c #151415",
"z  c #151515",
"x  c #141416",
"c  c #151416",
"v  c #141516",
"b  c #151516",
"n  c #141417",
"m  c #151417",
"M  c #141517",
"N  c #151517",
"B  c #161517",
"V  c #151616",
"C  c #151617",
"Z  c #161617",
"A  c #19191B",
"S  c #1B1B1C",
"D  c #1B1B1D",
"F  c #1E1E20",
"G  c #212224",
"H  c #242425",
"J  c #242426",
"K  c #242526",
"L  c #252526",
"P  c #242427",
"I  c #252427",
"U  c #252527",
"Y  c #262426",
"T  c #262526",
"R  c #262427",
"E  c #262527",
"W  c #252626",
"Q  c #252627",
"!  c gray15",
"~  c #262627",
"^  c #272627",
"/  c #272727",
"(  c #252528",
")  c #262528",
"_  c #262628",
"`  c #262728",
"'  c #272728",
"]  c #29292B",
"[  c #2A2A2B",
"{  c #2A2A2C",
"}  c #2D2D2F",
"|  c #2F2E30",
" . c #343435",
".. c gray27",
"X. c #474746",
"o. c gray28",
"O. c #484646",
"+. c #484747",
"@. c #474847",
"#. c #484848",
"$. c #494848",
"%. c #494948",
"&. c #484849",
"*. c #494949",
"=. c #494A49",
"-. c #4A4A49",
";. c #4B4B49",
":. c #494A4A",
">. c gray29",
",. c #4B4A4A",
"<. c #4A4B4A",
"1. c #4B4B4A",
"2. c #4B4B4B",
"3. c #4C4B4B",
"4. c #4B4C4B",
"5. c #4C4C4B",
"6. c #4D4D4C",
"7. c #4E4D4C",
"8. c #4E4E4D",
/* pixels */
"@ 3.N 1.5._ 2 8.@.| e 8.8.1.[ { > ",
"1.Q h D Q Q 1._ Q Q @ Q Q Q _ Q f ",
"G f 6 6 @ 2 Q Q Q Q @ Q Q Q Q _ f ",
"r 1.....Q Q A Q j N @ N f N Q N 6 ",
"4.Q _ Q Q Q 6 O.@ 1.Q Q > ..1.1.> ",
"N Q Q _ _ N D _ N Q _ Q @ Q Q _ N ",
"u @ > @ @ > > > t @ @ > > _ Q Q N ",
"1.Q _ F 1.Q Q _ 1.Q ..Q > p f > f ",
"Q Q Q N Q Q Q N Q Q Q _ 1.Q Q Q | ",
"> N N > N N N N N N 6 N N Q Q h N ",
"> 1.} 1.1.6 e 1.e O.1.1.@ @ > @ > ",
"[ Q Q Q Q N Q Q @ _ _ _ Q @ Q Q N ",
"f Q Q N _ N > > @ N Q Q N @ N Q N ",
"p @ @ @ 4 1.Q Q Q 6 @ > > 1.1...> ",
" .Q _ Q 1.Q _ Q Q @ Q @ Q Q Q _ N ",
"N Q Q N N Q Q Q N @ N 6 N Q Q Q N ",
"@ 6 N 6 6 N N N 6 y 6 6 N N N 6 > "
};
