/* XPM */
static const char *wall_127[] = {
/* columns rows colors chars-per-pixel */
"127 127 155 2 ",
"   c #040304",
".  c #060609",
"X  c #07080A",
"o  c #0A0B0C",
"O  c #100C0E",
"+  c #0E0F11",
"@  c #0E1215",
"#  c #121316",
"$  c #131519",
"%  c #18171C",
"&  c #16181B",
"*  c #191A1E",
"=  c #201E1F",
"-  c #1E201F",
";  c #1D1E22",
":  c #201F24",
">  c #1F2024",
",  c #212226",
"<  c #242529",
"1  c #27282C",
"2  c #292A2E",
"3  c #2D2E32",
"4  c #2F3034",
"5  c #2E3138",
"6  c #313236",
"7  c #34363A",
"8  c #37383C",
"9  c #393A3E",
"0  c #3C3E42",
"q  c #3E4045",
"w  c #424346",
"e  c #44464A",
"r  c #464A4D",
"t  c #494B4E",
"y  c #474C50",
"u  c #4A4D51",
"i  c #4E5053",
"p  c #515256",
"a  c #565857",
"s  c #545659",
"d  c #57585C",
"f  c #5B5B5D",
"g  c #605E5E",
"h  c #5E605F",
"j  c #61605E",
"k  c #565D60",
"l  c #5C5E61",
"z  c #605E61",
"x  c #5E6063",
"c  c #636465",
"v  c #666867",
"b  c #696967",
"n  c #656769",
"m  c #676969",
"M  c #6B6D6C",
"N  c #706F6D",
"B  c #6E706F",
"V  c #71716F",
"C  c #6D6E71",
"Z  c #6F7072",
"A  c #737373",
"S  c #787775",
"D  c #767877",
"F  c #787876",
"G  c #767678",
"H  c #77787A",
"J  c #7A7A7A",
"K  c #807F7E",
"L  c #81817F",
"P  c #7D7E80",
"I  c #7F8082",
"U  c #858483",
"Y  c #898785",
"T  c #868887",
"R  c #898886",
"E  c #8D8C8B",
"W  c #908E8D",
"Q  c #93918F",
"!  c #979694",
"~  c #979596",
"^  c #959492",
"/  c #9B9794",
"(  c #999694",
")  c #999896",
"_  c #9D9996",
"`  c #9C9B97",
"'  c #9E9A97",
"]  c #9C9996",
"[  c #959698",
"{  c #979998",
"}  c #9B999A",
"|  c #9D9998",
" . c #9F9B98",
".. c #9D9C98",
"X. c #9F9E9A",
"o. c #9E9B99",
"O. c #A09C99",
"+. c #A19D9A",
"@. c #A09C9B",
"#. c #A29E9B",
"$. c #A09F9D",
"%. c #A39F9C",
"&. c #A29E9B",
"*. c #9FA09B",
"=. c #A2A19D",
"-. c #A1A09E",
";. c #A2A19F",
":. c #A3A29E",
">. c #A4A09D",
",. c #A5A29D",
"<. c #A5A19E",
"1. c #A4A39F",
"2. c #A6A29F",
"3. c #A5A19E",
"4. c #A19FA0",
"5. c #A3A2A0",
"6. c #A4A3A1",
"7. c #A7A3A0",
"8. c #A6A2A1",
"9. c #A2A4A3",
"0. c #A5A4A0",
"q. c #A4A5A0",
"w. c #A6A5A1",
"e. c #A6A5A3",
"r. c #A7A6A2",
"t. c #A7A7A5",
"y. c #A5A3A1",
"u. c #A8A4A1",
"i. c #A9A6A1",
"p. c #A9A5A2",
"a. c #A8A4A3",
"s. c #A8A7A3",
"d. c #AAA6A3",
"f. c #AAA7A2",
"g. c #A8A7A5",
"h. c #ABA7A4",
"j. c #A9A5A3",
"k. c #A9A8A6",
"l. c #AAA9A7",
"z. c #A7A9A8",
"x. c #ABABA9",
"c. c #ADACAA",
"v. c #ABABAB",
"b. c #B2B1AD",
"n. c #B2B1AF",
"m. c #B1B0AE",
"M. c #B2B0AF",
"N. c #B5B4B4",
"B. c #B8B7B3",
"V. c #B9B8B6",
"C. c #BCBBB9",
"Z. c #BDBCBA",
"A. c #BEBDBB",
"S. c #BCBBBA",
"D. c #C0BCBB",
/* pixels */
"$ $ $ $ $ $ $ $ $ $ $ $ $ $ $ $ $ $ $ $ $ $ $ $ $ $ $ $ $ $ $ $ $ $ $ $ $ $ $ $ $ $ $ $ $ $ $ $ $ $ $ $ $ $ $ & $ $ $ $ $ $ $ $ $ $ $ $ $ $ $ $ $ $ $ $ $ $ $ $ $ $ $ $ $ $ $ $ $ $ $ $ $ $ $ $ $ $ $ $ $ $ $ $ $ $ $ $ $ $ $ $ $ $ $ $ $ $ $ $ $ $ $ $ & $ & ",
"$ $ $ $ $ $ $ $ $ $ $ $ $ $ $ $ $ $ $ $ $ $ $ $ $ $ $ $ $ $ $ $ $ $ $ $ $ $ $ $ $ $ $ $ $ $ $ $ $ $ $ $ $ $ & & $ $ $ $ $ $ $ $ $ $ $ $ $ $ $ $ $ $ $ $ $ $ $ $ $ $ $ $ $ $ $ $ $ $ $ $ $ $ $ $ $ $ $ $ $ $ $ $ $ $ $ $ $ $ $ $ $ $ $ $ $ $ $ $ $ $ & & & $ & ",
"$ $ $ $ $ $ $ $ # # $ $ $ $ $ @ $ $ $ $ $ * $ o $ $ $ & & & & & $ & $ $ $ $ $ $ $ $ $ * & $ $ $ $ * $ $ & $ & $ * & & * & # & $ & * # $ # @ @ @ & & $ $ $ $ # $ & & $ & ; & & & $ $ $ $ & $ $ $ & & # & + + + # $ # # # # # $ $ $ $ $ & & $ $ $ $ & & & & & & ",
"$ $ $ $ $ n.7.>.>.>.>.>.e.e.>.e.F J n r r ; > , >.>.7.7.7.>.7.7.u.u.7.>.>.>.>.F A V A A A > > , < < #.u.u.u.u.u.u.u.u.u.7.M M t.7.u.V V M J J 8 < , 3 3 3 3 3 0 0 0 u.g.g.u.u.g.u.u.u.u.u.u.u.u.u.u.u.u.u.u.u. .V A A A M M M , , , A A G G G u u p & $ & & & ",
"$ $ $ $ $ n.7.7.7.7.7.7.e.e.7.7.F J M r r ; , , >.>.>.7.7.7.7.u.u.u.7.e.7.>.>.J A V A A A , , < < < %.u.u.u.u.u.g.u.u.u.k.A M x.u.u.V A A J J 6 , < 4 3 3 3 4 q 0 q l.g.u.u.u.k.u.u.u.u.u.u.u.u.u.u.u.u.7.7.u. .A G A A A M Z , , < A G G G G u u s $ $ & & & ",
"$ $ $ & * c.>.>.e.e.e.>.1.1.>.5.J J M r r ; , > %.%.7.7.>.>.e.e.e.e.1.1.e.>.>.J B A A B A , , , < 2 ` u.u.e.e.u.u.u.e.e.e.A M n.e.e.A A A J J 4 , 1 3 3 4 3 3 0 w w g.u.e.s.s.s.e.u.u.e.e.e.s.s.g.e.e.e.e.>.e.Y A G A Z A M M , < ; G G G G G u u u * $ & & & ",
"$ $ $ >.>.>.%.-.M M M M M M M M M M M G A , , ,  .` ! ! ^ M M M M M M M M M M M M M e e w > ; w >.>.>.>.-.M M M M M M M M #.#.g M M M M M M M M M M e u i , , A. .#.#.#.-.M M M M M M M M M M M M M M M M M M w r r r r p A A G G G p p r r i J J U r r @ $ $ ",
"$ $ $ >.>.>.>.%.M M M M M M M M M M M A A < , , `  .) ! ^ M M M M M M M M M M M M M q e e ; ; w >.>.>.%.-.M M M M M M M M #.#.g M M M M M M M M M M r u i , , A.#.#.#.#.-.M M M M M M M M M M M M M M M M M M e r r r r p A A G G G p p r r i J J U r u # $ $ ",
"$ $ & >.>.#.-.` M M M M M M M M M M M A G , , < (  .! Q W M M M M M M M M M M M M M q e e > > w >.>.%.>.-.M M M M M M M M #.X.c M M M M M M M M M M r u p , , A.#.#.| X.9.M M M M M M M M M M M M M M M M M M M M b r r i A A G D D M M M M M J J U u t @ $ $ ",
"$ $ $ >.>.M M M M M M M M M M M M M k i u ; , ; s d n M M M M M M M M M M M M M M M e r r , > w >.>.m m M M M M M M M M M M M M M M M M M M M M M M y u p ; ; C.#.*.m M M M M M M M M M M M M M M M M M M M M M M b r r r M M M M M M M M M C s s s r r @ # $ ",
"# # $ %.%.M M M M M M M M M M M M M x u i ; , > s s M M M M M M M M M M M M M M M M e r r , , w >.#.M M M M M M M M M M M M M M M M M M M M M M M M r u p ; ; A.#.-.M M M M M M M M M M M M M M M M M M M M M M M M r r r M M M M M M M M M M s s s e e @ # # ",
"# # $ %.%.M M M M M M M M M M M M M l u u ; ; , p p Z M M M M M M M M M M M M v M M e r r , , 9 #.#.M M M M M M M M M M M M M M M M M M M M M M M C r u p ; ; A.#.X.M M M M M M M M M M M M M M M M M M M M M M M M M M M M M M M M M M M M C s s s e r # # # ",
"$ # $ %.%.M M M M M M M M M M M M M l r r ; ; , 9 9 M M M M M M M M M M M u u u m M e r r , , 6 A G M M M M M M M M M M M M M M M M M M M M M c u u r u p ; ; V.` ` M M M M M M M M M M M M M M M M M M M M M M M M M M M M M M M M M M M M M u u u e e # # $ ",
"$ # $ #.%.M M M M M M M M M M M M M x r r ; ; ; 9 9 m M M M M M M M M M M u u r M M w r r , , 6 A A M M M M M M M M M M M M M M M M M M M M M c u u r u p ; ; V.` X.c M M M M M M M M M M M M M M M M M M M M M M M M M M M M M M M M M M M M u u u e r @ # $ ",
"$ $ &  . .M M M M M M M M M M M M M l r r ; ; ; 9 9 M M M M M M M M M M n u u r M M e r r , , 7 A A M M M M M M M M M M M M M M M M M M M M M c u u r u p ; ; V.`  .c M M M M M M M M M M M M M M M M M M M M M M M M M M M M M M M M M M M M u u u e e @ # $ ",
"# # & ! ( e 0 w r r e M M M M M M M l r r ; ; > 8 8 6 6 4 r r r r r r r r r r r s s e r r , , m M M M M M M M M M M M M M M M M M M M M M M M M M M r u p > > V.( ( M M M M M M M M M M M M M M M M M M M M M M M M M M M M M M M M M M M M M u u u e e @ # $ ",
"# # & ! ! 0 w e r e r M M M M M M M f e r ; ; , 8 8 6 6 3 r r r r r r r r r r e s d e r r , , M M M M M M M M M M M M M M M M M M M M M M M M M M M y u p > > V.( ( M M M M M M M M M M M M M M M M M M M M M M M M M M M M M M M M M M M M M u u u e r @ # $ ",
"# # $ Q E d d d s e r M M M M M M M c w r , ; < 8 8 7 4 4 r r r r t r r r r r r p i r e e , , m M M M M M M M M M M M M M M M M M M M M M M M M M M i u p , > V.^ ^ M M M M M M M M M M M M M M M M M M M M M M M M M M M M M M M M M M M M M u u u e r @ # $ ",
"# # $ k x k d d x y r e e r r r r r q , , f d s < < 9 8 8 , , , , , , , , , , , , , , , , , , M M M M M M M M M M M M M M M M M M M M M M M M c r u u u p , , U B M M M M M M M M M M M M M M M M M M M M M M M M M M M M M M M M M M M M M M u u u e e @ $ $ ",
"# $ $ k k k d d k e r e e e r r r r 0 , , f s s < < 8 8 7 < , , , , , , , , , > , , , , , < , M b M M M M M M M M M M M M M M M M M M M M M M c u u u u p , , U C C M M M M M M M M M M M M M M M M M M M M M M M M M M M M M M M M M M M M M u u u e e @ $ $ ",
"# $ $ x x x k x q q r 8 9 9 9 8 9 0 8 < , l l f ; * 4 7 3 & & * * * * ; * * * * * * 1 , , < < c M M s p s M M M M M M M M M M M M M C C C C M x u u u u p , , Y A C M M M M M M M M M M M M M M M M M M M M M M M M M M M M M M M M M M M C M u r r e e @ $ $ ",
"$ $ $ < < < < < < < < , , , , , , , 2 8 8 9 9 0 Y U U U U U U U U U G F F J J J J F < , , , , r s s r r r M M M M M M M M M M M M M r t t t u u u u u u p , , i u u u r e M M M M M M M M M M M M M t r s M M M M M M M M M M M M M M M e r r t r r e e # # $ ",
"$ $ $ < < < < < < < < > , , > , , , 3 9 9 9 9 9 U Y U U U U U U Y Y A F J J J J J J < , , < < r s s u u t M M M M M M M M M M M M M r t t t u u u u u u p , , i t u u u r M M M M M M M M M M M M M u u d M M M M M M M M M M M M M M M w t t r r r e e # $ $ ",
"$ $ $ 2 2 < < < j f f f g f a f f f f c c c c c Q Q J J F J J J J J A A A Y Y E M A # & & , , 9 d d u u u M M M M M M M M Z C C M M 8 9 q u u u u u u u p , , u r t t u u k k f x x x l l l l l k l r r k l l M M M M M M M M c x x x x u r u 0 0 0 8 9 $ $ $ ",
"$ $ $ 3 2 < , , 7.>.>.>.>.>.>.>.7.7.>.%.%.%.#.#.` / A M M M M M M M M M M ) ! ) M M M M M , , 8 d s u u u u r x M M M M M u u u r r 1 < < u u u u u u u i , , i r r t u u t t t t t u u u u u u u u r r r r u M M M M M M M C t u u u u t r r 2 3 2 , < # $ $ ",
"$ $ $ 2 2 , , < >.>.>.>.>.>.>.>.7.>.>.%.%.%.#.#.` ` A M M M M M M M M M M ! ! X.M M M M M , , 8 s s u u u u r c M M M M M u u u t r , < < u u u u u u u p , , i r r r u u t t t t u u u u u u u u t r r r r r M M M M M M M C t u u u u t r u 3 3 2 < < # $ $ ",
"$ $ $ < < A.N.V.>.>.) b M M M M M M M b b b c b c b M M M M M M M M M M M M M M M M u r e , , , ; , r u r t t t r e e e r r t < > , e e e e e 8 , , , > , , , ; ; > ; ; ; ; ; ; > > ; ; , ; ; ; ; , 6 8 6 7 8 r e e r r r e e r r r r r r r r 1 < 1 u p $ $ $ ",
"$ $ $ < , g.>.>.>.>.^ M M M M M M M M M M M M M M M M M M M M M M M M M M M M M M M r r r , , , < < r r r r r r r r r r r r r * < < w w e e e 8 < < , , , , , , , , , , , , , , , , , , , , , , , < 6 6 6 6 7 u r t t u t r r r r r r r r r r < < < r r $ $ $ ",
"$ $ & , < 7.%.%.>.7.^ M M M M M M M M M M M M M M M M M M M M M M M M M M M M M M M r r u ; > < < < r r r r r r u u r r r r r > < < w w e e e 6 < < , , , , ; > > , > > , , , , , , , , , , , , , , 6 6 6 6 6 u u u u u u u u u r r e e e e r < < < u t @ # $ ",
"$ $ $ ` #.#.>.X.Z M M M M M M M M M M M M M M M M M M M M M M M M M M M M M M M M M r r r 3 3 3 < < , , < > , , > , , > , , , , , , , > > , ; ; , , 2 2 ,  .#.#. . .#.` e.F F F F J , , , , , , , , 6 6 2 < < , > > ; ; ; ; ; ; ; ; ; , , ; ; , , > 3 4 # $ $ ",
"$ $ & %.>.>.>.X.M M M M M M M M M M M M M M M M M M M M M M M M M M M M M M M M M M r r r 4 4 3 < < < , , , , , , > > , , > , , , , , , , ; > , , > 2 2 , >.>.>.>.>.>.>.t.J J J J K > , , , , , , , 6 6 2 < , > > > > ; ; ; ; ; ; ; ; ; ; ; ; , , ; 3 3 $ $ $ ",
"$ $ $ >.%.%.%.` M M M M M M M M M M M M M M M M M M M M M M M M M M M M M M M M M M r r r 3 4 3 < < , , , , , , > > , > ; , , , , , , , > ; , , > > 2 2 , >.>.>.>.>.>.>.1.J J J J J > < , , , , , < 6 6 1 < , , > > > ; ; ; ; ; ; ; ; ; ; ; , , , , 3 3 $ $ $ ",
"$ $ & >.>.v M M M M M M M M M M M M M M M M M M M M M M M M M M M M M M M M M M M M r u u ; ; , 1 1 / #.#.#.#. . .` S G J e u * , , < < 2 7.%.%.%.>.%.#.>.M M M M M M M M M M M M M M M I > , , < < 6 6 M  . .#.#.#.#.#.#.#.#. .` ` ` ) A G D e e q ; ; $ $ $ ",
"$ $ $ >.>.m M M M M M M M M M M M M M M M M M M M M M M M M M M M M M M M M M M M M r u u ; ; , 1 2 / #.#.#.#.#. . .G J G u r $ , , < < 7 >.%.>.>.>.>.%.e.M M M M M M M M M M M M M M M J > > , < < 6 6 c ` #.#.#.%.#.#.#.#.#.#. . .`  .A G A e e q * ; $ $ $ ",
"$ $ $ 7.X.c M M M M M M M M M M M M M M M M M M M M M M M M M M M M M M M M M M M M r u u * ; , 6 1 #.#. .X.X.X. .) J J J u u , , < < 2 6 %.%.%.5.7.e.7.z.M M M M M M M M M M M M M C C P > > , , < 8 6 j X.X.X.%.%.-.-.%.-.-.-.X.X.-.X.A A A r e 7 , ; $ $ $ ",
"$ $ & A A M M M M M M M M M M M M M M M M M M M M M M M M M M M M M M M M r y u M m r u r * * r /  . .` ( M M M M M M M M M M s i u , , 1 %.%.B M M M M M M M M M M M M M M M M M M p p p < < , , ; / ( J M M M M M M M M M M M M M M M M M M M M M u i $ $ $ ",
"$ $ $ A G M M M M M M M M M M M M M M M M M M M M M M M M M M M M M M M M u r w M M r r u * * r `  .` ` ) M M M M M M M M M M p p p , , 2 >.#.M M M M M M M M M M M M M M M M M M M i p d < < , ; , ` ` J M M M M M M M M M M M M M M M M M M M M M u i $ $ $ ",
"$ $ & e r c M M M M M M M M M M M M M M M M M M M M M M M M M M M M r r r M M C r r r r u * * w ! ! c c c M M M M M M M M u u e t r , , 2 M c M M M M M M M M M M M M M M M M M M M r r r < > g.N.g.` ` G M M M M M M M M M M M M M M M M M M M M M r r @ $ $ ",
"$ $ $ r r c M M M M M M M M M M M M M M M M M M M M M M M M M M M M u r r M M C u r r t u * * w ~ ^ c M M M M M M M M M M u u r t r , , 1 M M M M M M M M M M M M M M M M M M M M M r y r , > Q `  .` ( A M M M M M M M M M M M M M M M M M M M M M r r @ # $ ",
"$ $ $ r r c M M M M M M M M M M M M M M M M M M M M M M M M M M M M u u y M M Z y t t t u & * w Q Q M M M M M M M M M M M u u t u t , , < M M M M M M M M M M M M M M M M M M M M M t u r , > Q ( ` / / A M M M M M M M M M M M M M M M M M M M M M r r # # $ ",
"$ $ $ r r n M M M M M M M y r w M M M M M M M M M M r u p M M M M M M M M M M C r t u u u * * > s s m M M M M M M M M M M u r u u u , , 1 M M M M M M M M M M M M M M M M M M c r u u u r , > | ^ ^ M M Z M M M M M M M M M M M M M M M M M M t r r r r # # $ ",
"$ $ $ r r n M M M M M M M r r e M M M M M M M M M M e u r M M M M M M M M M M C y u u u u * * 2 p s M M M M M M M M M M M y u u u u , , < M M M M M M M M M M M M M M M M M M f u u u u r , , ) ( / m M M M M M M M M M M M M M M M M M M M M t t r r r # $ $ ",
"$ $ $ r r c M M M M M m m e r e M M M M M M M M M M e r u n n M M M M M M M m M r t u e r ; * 2 s s M M M M M M M M M M M y u u u u , , < n m M M M M M M M M M M M M M M M M f t t u u r , , 9.E Q M M M M M M M M M M M M M M M M M M M M M e u u r r # $ # ",
"# # # r r s s s t t r u u m m M M M M M M M M M M M e r r u u u u u u u u u u u u t > < < , , < r r M M M M M M M M M M M y r t t r , , 1 r r f M M M M M M M M M M M M M A A f u u u u r , , u u r M M M M M M M M M M M M M M M M M M M M M n m c r r # $ $ ",
"# # $ r r s s s r r r u r n M M M M M M M M M M M M e r u u u u u u u u u u u u u u > , < , < 3 r t B M M M M M M M M M M y r r r r , , 1 e e f M M M M M M M M M M M M M A Z a u u u u e , , u r r M M M M M M M M M M M M M M M M M M M M M m m c r r @ # $ ",
"# $ # * ; 1 < 3 r r e * ; r r r r r r r r r r r r r r r t u u u u u u u u u u i ; ; , , , , , , > , u t t u u u u u u u r r u , , < < < , < 2 9 r r t t u u t u u u u u t u t t u u ; ; 2 , , i r r M M M M M M M M M M M M M M M M M M M M M t r r r r @ $ $ ",
"$ $ # > , 3 2 3 r r e < , r r r r r r r r r r r r r r r t t u u u u u u u u y i , , , , , , , , , < r r t t t u u u u u u u r * < < , < , 1 1 8 u u u u u u u u t u u u u u t t r u < < , < < i r r M M M M M M M M M M M M M M M M M M M M M u t u r r @ $ $ ",
"# $ # , ; 3 3 4 e r e , , e r r r r r r r r r r r r r r r r r u u u u r r r r u , , , , , , , , , , u r r r r r u u r r r r u , , < , , , 1 1 9 r u u u r r r r r u u r r r r r r u , < < < < u r r M M M M M M M M M M M M M M M M M M M M M t u u r r @ # $ ",
"$ $ # 9 8 2 3 2 , , , , , ; , , , ; , , , , , , < , , , , , , , , , > , , , , , , , 0 9 9 0 0 2 , , , , , , , < < < , , , , , 0 9 9 9 8 9 , , , , , > , , , , , , , , , , , > > , , , , , , , u r r r u c M M M M M M M M M M M M M M M M M M i p i r r @ $ $ ",
"$ $ & 0 0 3 2 2 , , , , , , , , , , , > > > > , , , , , , , , , , , , , , , , , , , e q q q 0 7 , , , , , , , , , , , , , , , 0 0 0 0 0 9 > , , , , , , , , , , , , , , , , , , , , , , , , , p r r u u l M M M M M M M M M M M M M M M M M M p u i r r # $ $ ",
"$ $ $ 0 9 2 3 3 < , < < < < < < < < , > , ; < < , , > ; ; , , , , , > < < < < < < < q q q q q 6 < < < , , ; , , < < , , , , , 9 9 0 0 0 0 1 < < 1 < < < , > > < > < < < , < , ; , , < < ; , , u e r u r c M M M M M M M M M M M M M M m n M m u p p r r @ $ $ ",
"$ $ $ 1 1 5.%.#.#.#.#.#.#.#.#.#.#.#.#. .#.c x d , , 8 8 8 < < < < < A.#.#.%.>.>.>.>.>.>.>.>.>.>.>.>.>.%.#.G A c l f 6 6 7 < , < < , >.1.>.>.7.>.>.>.>.%.%.B A g.#.#.#.#.#.#. ., < , p u f , > 3 6 6 8 8 q r u c M M M M M M M M M m u t e e e M M M r r @ $ $ ",
"$ $ $ 1 2 %.%.%.%.%.%.%.%.%.%.%.#.#.#.#.#.f l f , < 8 8 8 < < < < , B.>.%.%.%.>.>.>.>.>.>.>.>.>.>.>.>.%.#.A A c f d 6 7 8 , , < < < >.>.>.>.>.>.>.>.>.>.u.A A g.#.#.#.#.#.#.#., 1 , u u f > , 6 6 6 8 8 e r r c M M M M M M M M M M y r e e e c M M r r # $ $ ",
"# # + 2 3 / %.X.#.#.#.#.#.#.#.X.X.X. .) ) h f d 2 , w 8 8 < < : 3 < D.%.X.#.>.#.#.%.#.#.#.#.#.%.#.>.#.#.X.A B l f f 7 6 8 , < 3 < < -.%.%.4.>.>.%.>.%.#.t.N A >. . . .#.#. . ., < 2 r u u , , 0 6 9 3 4 7 r r r r r r t t t r r r e 8 9 8 4 7 r r u r r @ # # ",
"# # $ >.>.#.#.X.M M M M M M M M M M M M M M M M l l < 3 3 < < * %.%.%.%.-.M M M M M M M M M M M M M M M n u y l M M s f f , ; n.%.>.>.>.%.M M M M M M M b ^ ! M M M M M M M M M M M , < < , , r r r , < 7 r r r r r r t t t r r r e < < u u r r t t r r @ # # ",
"# # & %.%.%.%.X.M M M M M M M M M M M M M M M M k l , 3 3 < < = #.#.%.%. .M M M M M M M M M M M M M M M M y u c M M d f f > , V.>.-.>.>.X.M M M M M M M v ! ! c M M M M M M M M b C < < < , , u e r < < 7 r r r r r r r r r r r r r < , s r r r r r r r # $ $ ",
"# # $ %.%.R W Q M M M M M M M M M M M M M M M m d d > 2 , 9 9 6 #.#.( ( ( M M M M M M M M M M M M M M M M p s n M M p p p ; ; V.>.>.u.>.g.M M M M M M M M ! ! c M M M M M M M f n M ; , , , , 7 9 9 , , 6 9 9 9 9 9 8 9 9 9 8 8 8 7 , > 9 9 8 8 8 8 8 8 # $ $ ",
"# # $ >.>.M M M M M M M M M M M M M M M M M M M u i * ; , ! ^ ^ ` #.M M M M M M M M M M M M M M M M M M M M M M M M r r r ; * V.%.>.M M M M M M M M M M M M M M M M M M M M M t r u > > , , , , , , , , , , , , , , ; ; ; ; ; ; ; ; ; ; ; ; ; ; ; ; ; ; $ $ $ ",
"$ $ & #.>.M M M M M M M M M M M M M M M M M M M i i & ; ; ! ^ Q  . .M M M M M M M M M M M M M M M M M M M M M M M M r r u * * V.%.%.M M M M M M M M M M M M M M M M M M M M M r r u ; > , , , < , , > , ; ; ; , , , ; ; * * > * ; ; * * ; > ; * & * ; ; $ $ $ ",
"$ $ & F F M M M M M M M M M M M M M M M M u u u u u # * * M x f ^ ^ M M M M M M M M M M M M M M M M M M M M M M M M r r u * & c.( ^ M M M M M M M M M M M M M M M M M M M M M r r u > , , 8 6 v.| ) ) |  .%.%.%.%.%.%.%.A A A A A A A A D J F s s f , > $ $ $ ",
"$ $ $ J G M M M M M M M M M M M M M M M M u u u u u $ * $ l l f Q W M M M M M M M M M M M M M M M M M M M M M M M M t u u * * c.Q ! M M M M M M M M M M M M M M M M M M M M M t r u > , < 8 8 M.` ` `  . . .O.#.#.#.#. .b V A A A A A V A G G s d l , , $ $ $ ",
"$ $ & J G M M M M M M M M M M M M M M M M r u u u u $ * $ l x f c b M M M M M M M M M M M M M M M M M M M M M M M M u u u * * U b M M M M M M M M M M M M M M M M M M M M M M t r u , , ; 8 8 N.` `  .#. . .#.#.#.#.#.` b V A A A A A V A A G d d k , , $ $ $ ",
"$ $ & M M M M M M M M M M M M M M M M M M u u u u u # * * u r r M M M M M M M M M M M M M M M M M M M M M M M M u i u u u * * P M M M M M M M M M M M M M M M M M M M M M M M r t i * ; O ` O.( ( ` M M M M M M M M M M M M M ^ ^ ^ M M M M M J F J M M # # $ ",
"$ $ & m M M M M M M M M M M M M M M M M M u u u u u # * * u r e M M M M M M M M M M M M M M M M M M M M M M M M u u u u u * * U M M M M M M M M M M M M M M M M M M M M M M M r u i * * +  .` ` ` ) M M M M M M M M M M M M M Q Q ^ M M M M M G G G M M @ # $ ",
"$ $ $ M M M M M M M M M M M M M M M M M M r u r u u # & * u r r M M M M M M M M M M M M M M M M M M M M M M M M u u u u u * * U M M M M M M M M M M M M M M M M M M M M M M M r t u * * + ` ` (  .) M M M M M M M M M M M M M Q ^ ^ M M M M M J A F M M $ $ $ ",
"$ $ & v c M M M M M M M M M M M M M M M M M M n u u # * & u t r M M M M M M M M M M M M M M M M M M M M M M M M M M u u u * * J M M M M M M M M M M M M M M M M M M M M M M M e t u * * +  . .%.M M M M M M M M M M M M M M M M M M M M M M M d d d e r @ $ $ ",
"$ $ & c c M M M M M M M M M M M M M M M M M M M u u # * * r r e M M M M M M M M M M M M M M M M M M M M M M M M M M t u u * * G M M M M M M M M M M M M M M M M M M M M M M M e r u * * O ` ` ` M M M M M M M M M M M M M M M M M M M M M M M s d f r r @ $ $ ",
"$ $ $ s s s s s M M M u p M M M M M M M M r u u t t # * ; 2 < < s p M M M M M M M M M M M M M M p u M M M d s i i u u t r * * u e 0 M M M M M M M M t t p M M M M M f f x s p r t i * * + w 0 M M M M M M M M M M M M M M M M M M M M M M M M d d f r r @ $ $ ",
"$ $ $ p p u y u M M M u r M M M M M M M M r r r r r $ * * , < < u i C M M M M M M M M M M M M M u u M M M p p u u t u u u * * r e e M M M M M M M M r r r M M M M M d f l u u r u u * * $ u u b M M M M M M M M M M M M M M M M M M M M M M M f d d r r @ $ $ ",
"$ $ # p p u y u M M A u r M M M M M M M M e r r r r $ * * < < > u u M M M M M M M M M M M M M M u u B M M p p u r t r u u * ; r e e M M M M M M M M y r u m M M M M s f d u u r t i ; * $ u u b M M M M M M M M M M M M M M M M M M M M M M M f d f r r # $ $ ",
"$ $ $ , ; r r r y y u r t r r r r r r r r r r r ; ; q w 0 , , > r r r r r r r r r r r r r y y r u r y y r r r r r r > ; ; ; * i r r u u u u u u u u r r u < < y y r u r r u r * , ; * ; * u r v M M M M M M M M M M M M M M M 7 8 8 y r d f f d d f r r # $ $ ",
"$ $ $ ; ; e r r r r r r r r r r r r r r r r r e ; ; e 0 0 , , > r r r r r r r r r r r r r r t r r r r r r r r r r r ; ; ; ; ; i r r t u u u u u u r r r r < < r r r r t t r r ; > ; ; ; * r r M M M M M M M M M M M M M M M C 6 8 9 r r f d d d d f r r # $ $ ",
"$ $ $ ; ; r u u u r r r u u u u u u u r r r t r ; ; e 0 0 , > ; t r t t t t u u r u u u u u t u u u u u r u u r r r * ; ; ; ; p r r u u u u u u u r u u u < < i r u u u u r u ; > ; ; ; $ r y C M M M M M M M M M M M M M M n 6 8 8 r u f s s s s s r r # # $ ",
"$ $ # , , ; , , , , , , , , , , , , , , , , , ; > , < < , , , , , , , , , , , , , , , , , , , , , , , , , , , , , , ; ; ; ; > > < < < , , , < < , , , , ; , , , , , , , , , , > > > ; > * 6 7 e r t t r r r t m M M M M w r r ; * , r r r u u u u t r r @ # $ ",
"$ $ $ , , , , , , , , , , , , , , , , , , > > , , , , < < , , , , , , , , , , , , , , , , , , , , > > > > > > > > > ; ; ; ; > , , , , , , , , , , , , , , , , , , > > , , > > ; ; > > , ; 7 4 r t t t r r t t v M M M M q r r ; > , r r r u u u u u r r @ # $ ",
"$ $ $ , , < , > > > > > > > > > ; , , > > < > > , , < 1 < < > > > > ; , , < , > ; , , < < , , , , , * > > > > > > > > > * , , , < , < < ; , > > , > > ; > > > > > > > > > > > > > , , > < 4 6 r r r r r e r r c v M m c 8 r r ; ; ; r r r r r r r r e e $ $ $ ",
"$ $ # ; , u.>.>.>.>.>.>.>.>.7.>.J J J J J #.%.>.>.>.>.>.%.%.%.%.#.#.U U U J F J < < r e e , , , , , ` #. . . . . . . . .! 2 2 < < < 0 0 e %.#.#.#.#.#.%.%.#.#.#.#.%.%.#.#.#. .A A A A A C > ; > > > > > > > > > , > > > > ; ; ; ; ; ; ; ; ; ; ; ; ; ; ; # $ $ ",
"$ $ # ; ; >.>.>.>.>.>.>.>.>.7.>.J J J G G #.%.>.>.>.>.>.%.%.%.%.#.#.U L L F F J < , r e e , , , , > /  . . . . . . . .` ! 1 2 < , , 0 0 w %.#.#.#.#.#.#.#.#.#.#.#.%.%.%.#.#.#.S A A A A A , , > > > > > > , , , , > > > > ; ; ; ; ; ; ; ; ; ; ; ; ; ; ; # $ $ ",
"$ $ $ : , 7.%.7.-.>.>.>.>.-.>.-.G J J G G #.-.%.-.-.-.-.-.X.X.X. .#.U J J J J G > < e e e , , , , * ` ` ` ) | | | | ) ) ! , 2 < , < 9 0 e  . .X.X.#.#.#.#.#.X.#.#.-.-.#.#.X.X.A A A Z A C * * ; ; > > > > , , , > , , ; ; ; ; * : ; ; * * ; ; , * * ; ; # $ $ ",
"$ $ * #.#.( / ! M M M M M M M M M M M M M M M M M M M M M M M M p u u u i M M M M M < < < , , M ^ ^ ^ ! Q M M M M M M M M M M # ; ; ! ( ! ! ! T M M M M M M M M M M M M M M M M M M r u z W Q R R E 4 3 , , , 4 6 4  . . .#.#.#.#.O.`  . .` ( M A J < , $ $ $ ",
"$ $ & #.#.( ( ! M M M M M M M M M M M M M M M M M M M M M M M M u u u u u M M M M M * < < , , M ^ ^ ^ ^ Q M M M M M M M M M M + ; ; ( ( ! ! ( U M M M M M M M M M M M M M M M M M C r u z W E Y R R 3 3 < , , 3 6 8 #.`  .#.#.#.#.#.#.#.#.` ( A A J < < $ $ $ ",
"$ $ & #.#.W Q W M M M M M M M M M M M M M M M M M M M M M M M M M M d u t M M M M M ; , < ; * c ^ Q ^ ! ^ M M M M M M M M M Z $ ; ; ) ! ( X.) Y M M M M M M M M M M M M M M M M M M e r f ^ W E E E < 2 3 , , 3 3 < `  . .5.5.5.5.-.-.-.%.X.X.G A D < , # $ $ ",
"$ $ $  .#.B M M M M M M M M M M M M M M M M M M M M M M M M M M M M p r r M M M r r ; ; ; p p M W ^ M M M M M M M M M M M u u + * * ! ( ( M M M M M M M M M M M M M M M M M M M M M c c v M M M M M M M 9 ; > ` ( ` `  .f M M M M M M M M M M M M M r r # # $ ",
"$ $ & ` ` M M M M M M M M M M M M M M M M M M M M M M M M M M M M M u r r M M M u u ; ; , p p c E E M M M M M M M M M M M u u @ * * ! ! ^ M M M M M M M M M M M M M M M M M M M M M c n v M M M M M M M 9 > >  .` `  .` j M M M M M M M M M M M M M t u # $ $ ",
"$ $ $ A M M M M M M M M M M M M M M M M M M M M M M M M M M M M M M h f c M M M r r ; * * u r s M Z M M M M M M M M M m M e r # $ $ Z M M M M M M M M M M M M M M M M M M M M M M M M M M M M M M A k c 2 * * ! ( ` M M f M M M M M M M M M M i p p r r @ $ $ ",
"$ $ $ A A M M M M M M M M M M M M M M M M M M M M M M M M M M M M M M M M M M M r r $ * * r r p M M M M M M M M M M n n n e r + * * m M M M M M M M M M M M M M M M M M M M M M M M M M M M M M M M r u < * * ! / ` M M M M M M M M M M M M M e u u r r # $ $ ",
"$ $ $ A A M M M M M M M M M M M M M M M M M M M M M M M M M M M M M M M M M M M r r * * * r r d M M M M M M M M M M n n n e e + * * m M M M M M M M M M M M M M M M M M M M M M M M M M M M M M M M r u < & * ( / / M M M M M M M M M M M M M e u u r r @ $ $ ",
"$ $ $ M M M M M M M M M M M M M M M M M M M M M M M M M M M M M M M M M M M M M r r * * * r r e q w M M M M M M M M r e t & ; $ * * c c c M M M M M M M M M M M M M M M M M M M M M M M M M M M M M e e < * * c c c M M M M M M M M M M M M M r u u r r @ $ $ ",
"$ $ $ M M M M M M M M M M M M M M M M M M M M M M M M M M M M M M M M M M M M M r r * * * r r e e w M M M M M M M M e r e , , * * * c c c M M M M M M M M M M M M M M M M M M M M M M M M M M M M M e e , * * n M M M M M M M M M M M M M M M r r r r r # # # ",
"$ $ $ M M M M M M M M M M M M M M M M M M M M M M M M M M M M M M M M M M M M M r r & * * u r e e e M M M M M M M m r r r , > * * * r u t M M M M M M M M M M M M M M M M M M M M M M M M M M M M M e e , * * f x c M M M M M M M M M M M M M r t u r r @ # # ",
"$ $ $ c c M M M M M M M M M M M M M M M M M M M M M M M M M M M M M M M M M M M r r * * ; < < 2 8 7 u u u u u u u r < < < p s # * * r r t M M M M M M M M M M M M M M M M M M M M M M M M M M M u t e w > * * r u u M M M M M M M M M M M M M e u u r r @ $ # ",
"$ $ $ c c M M M M M M M M M M M M M M M M M M M M M M M M M M M M M M M M M M M r r * * ; < < 3 6 8 u u u u u u t t 1 < 2 p i @ * * r r t M M M M M M M M M M M M M M M M M M M M M M M M M M M i u ; ; & * * r u r M M M M M M M M M M M M M t u u r r # # $ ",
"$ $ * c c M M M M M M M M M M M M M M M M M M M M M M M M M M M M M M M M M M M r r ; ; ; < < 3 6 6 u u u u u u u u < < < s p + * * r r r M M b M M M M M M M M M M C M M M M M M M M M M M M M u u ; ; * * * r u u u r M M M M M M M M M M M t t t r r # $ $ ",
"$ $ $ e e u u r M M M M M M M M M M M M M M M M t t B M M M M M M M r r t t u u y r * ; ; < < , ; ; > , , , , , , ; ; > ; < 2 * * * r r r r r u y r M M M M M M M M u i i M M M M M M M Z u y w w e 6 3 ; * * r u u t r Z M M M M M M M M M M t r r r r # $ $ ",
"$ $ # e e u u e M M M M M M M M M M M M M M M m r r C M M M M M M M r r r r r t t u * ; ; < < < , ; ; , , , > > > ; > > ; < 2 * * * r r r r r u r r M M M M M M M M u u i M M M M M M M A u t q w w 4 6 ; * * , < , r u r r r r e r r r e r r t r u ; ; $ $ $ ",
"$ $ $ e e u u r M M M M M M M M M M M M M M M m u r Z M M M M M M M r r r r r r t u * ; ; < < < > > ; ; > , > > ; ; ; ; ; 2 < * * * r r r r u r r t M M M M M M M M u u i M M M M M M M B y t q w w 6 6 ; * * < < < r u t r u u t t t t t r r r t u * ; $ $ $ ",
"$ $ $ ; ; u u u y y u u u u u u y y y u y r r r t t ; < < r y y y y u r r ; ; , < , , , ; #.>.>.>.>.>.>.>.>.>.>.>.>.>.%.u.A F X * ; ; ; ; ; ; 8 t r r u u y y r y r r u r y u u y r r r r r u ; * ; < < ; ; ; < < < r r r r r r r r r r r r e e r r ; ; $ $ $ ",
"$ $ $ ; ; u u r r r r u u u u r r r r t t r r r r r ; < < e r r r r r r r ; ; > , , , , , #.>.>.>.>.>.>.>.>.>.>.>.>.>.>.-.G G X ; ; ; ; ; ; * 8 r r r u u u r r r t t r r r u u t r r r r u u ; ; ; < < ; ; ; , , , ; ; ; ; * * * * * * * * * * * * ; ; $ $ $ ",
"$ $ $ ; ; u r r r r r r r e r r r r r r e e e e e e ; < < r r r r r r r q < , , < < , < , >.%.%.%.%.>.>.>.>.>.>.>.>.%.%.-.G G X ; ; ; ; ; ; ; 8 r r r r r r r r r r r r r r r r r r e r r r r ; * ; < < ; ; ; > ; ; * * * * * * * * * * * * & ; ; ; ; ; $ $ $ ",
"$ $ # 9 9 2 2 2 , ; ; * * * * * * * * * * * * * * * ; ; ; > , > ; ; ; ; ; #.#.%.%.>.#.#.7.m M M M M M M M M M M M M M M M M M M M C , , , 1 2 < , , ; * * * * * * * * * * * * ; ; ; ; * * ; * , , , 6 8 f ^ Q ! ( ^ ( / ( ( ( ^ ( ( ( ( ( ( ! , , , ; ; $ $ $ ",
"$ $ & 9 9 2 2 2 : : : * * * * * * * & * * * * * & * ; * ; , , > , , ; * ;  .#.%.%.>.>.>.#.M M M M M M M M M M M M M M M M M M M M M > , , 2 2 1 , , * ; * * * * * * ; * * * ; ; ; * ; ; * * ; , , , 6 8 M / / / ( / / ) ) ) ) ) ) ) / / / ) | , < < ; ; $ $ $ ",
"$ $ $ 0 9 ; $ # o o o               + o X X X o $ $ * ; ; ; ; ; , , # .   k.k.k.x.k.k.k.x.M M M M M M M M M M M M M M C A M M M M M $ $ # 2 2 1 , , . . o X X X X . # * * * ; ; * * # $     X X # o - - c  .| | X.| | X.X. . . .o.%. .X.X.%.| & & * ; ; # $ $ ",
"$ $ $ < < u.>.>.7.7.>.>.>.>.>.>.>.>.^ G J J J A 7 8 3 3 3 6 7 7 3 3 t.E E M M M M M M M M M M M M M M M M M M M M M u u u M M M M M M M M 3 2 6 8 7 Q E ^ G G G G F 5 6 9 < < 4 4 3 p p i -.%.%.%.#.#.#.U M M M M M M M M M M M M M M M M M M M M G < , $ $ $ ",
"$ $ $ , , >.>.>.>.7.7.>.>.>.>.7.7.>.Q G G G G J 8 8 3 3 3 8 8 7 3 6 v.E W M M M M M M M M M M M M M M M M M M M M M u u u M M M M M M M M 2 2 6 8 7 E E Q A G G G A 4 6 8 < < 6 3 3 p p i %.#.%.%.#.#.#.U M M M M M M M M M M M M M M M M M M M M A , < $ $ $ ",
"# # $ < , e.%.#.Q Q Q ! Q Q Q ! ^ ^ E A G M M M 0 q 6 2 3 6 3 3 f f k.W Q M M M M M M M M M M M M M M M M M M M M M r u u M M M M M w e 0 2 1 e c c E W E B A A A A 6 4 6 < < 2 2 , f f f E E R R R E E U M M M M M M M M M M M M M M M M M M M M A 4 6 $ $ $ ",
"# # & ` #.#.#. .M M M M M M M M M M M M M r r t A B * 1 2 , , # ` ` R W E M M M M M M M M M M M M M M M M M M M M M t t u i p A M M r r r ; ; c #.#.W R E M M M M M M M A > > e.R R ^ ^ X.M M M M M M M M M M M M M M M M M M M M M M M M M M M M M r r @ $ $ ",
"# # $ #.#.#.#.) M M M M M M M M M M M M M e r t Z Z ; 1 2 , , # ` ` E E E M M M M M M M M M M M M M M M M M M M M M r t t i u C M M r r r ; ; M >.#.Y R ^ M M M M M M M H ; ; 9.R W ^ ^ %.M M M M M M M M M M M M M M M M M M M M M M M M M M M M M t t $ $ $ ",
"$ $ * L J M m c M M M M M M M M M M M M M m m M M M l l f , , # ` ` c M A M M M M M M M M M M M M M M M M M M M M M M M M m M M M M r t r $ * t c M M M M M M M M M e r r ; ; X.Y U M M M M M M M M M M M M M M M M M M M M M M M M M M M M M t i p t u @ $ $ ",
"$ $ & J K M c c M M M M M M M M M M M M M M M M M M c c c > , $ / ` c M M M M M M M M M M M M M M M M M M M M M M M M M M M M M M M u u r * * w m M M M M M M M M M u r p ; ; { U Y M M M M M M M M M M M M M M M M M M M M M M M M M M M M M u u i u u @ $ $ ",
"$ $ $ J J c c c M M v M M M M M M M M M M M M M M M c n x , , $ ( / c M M M M M M M M M M M M M M M M M M M M M M M M M M M M M M M u u r & $ e M n M M M M M M M M u r s ; ; [ U U M M M M M M M M M M M M M M M M M M M M M M M M M M M M M u u u r u # $ $ ",
"$ $ $ A M x c c r r M M M M M M M M M M M M M M M M e r r , , * M M M M M M M M M M M M M M M M M M M M M M M M M M M M M M M M M M u u t % * 8 i p M M M M M M M M r r s ; ; J M M M M M M M M M M M M M M M M M M M M M M M M M M M M w u t M M M r u # $ $ ",
"$ $ $ M M x c l r u M M M M M M M M M M M M M M M M w r r > , * M M M M M M M M M M M M M M M M M M M M M M M M M M M M M M M M M M u u r % * 7 p s M M M M M M M M u r u ; ; P M M M M M M M M M M M M M M M M M M M M M M M M M M M M w u t M M M r u # # # ",
"$ $ $ M M x c c u u M M M M M M M M M M M M M M M M w r r > , ; M M M M M M M M M M M M M M M M M M M M M M M M M M M M M M M M M M r r r * * 6 p i M M M M M M M M r r s ; ; J M M M M M M M M M M M M M M M M M M M M M M M M M M M M w u u M M M r r # # # ",
"$ $ $ M M p s s M M M M M M M M M M M M M M M M M M e y r , , * M M M M M M M M M M M M M M M M M M M M M M M M M M M M M M M e u u t t r & * 6 u u M M M M M e u r r r i ; > G M M M M M M M M M M M M M M M M M M M M M M M M M M M M w r e M M M r r # # # ",
"$ $ $ M M s s s M M M M M M M M M M M M M M M M M M e y u , , * M M M M M M M M M M M M M M M M M M M M M M M M M M M M M M M e r t r u r * & 6 u t M M M M M e u u u u p ; , G M M M M M M M M M M M M M M M M M M M M M M M M M M M M w r r M M M r r # # $ ",
"$ $ * C M f d p M M M M M M M M M M M M M M M M C A u u u , , ; C C M Z M M M M M M M M M M M M M M M M M Z Z M M M M M M C A u r u u u u * * 6 u i C Z Z C A r u u u u s ; , J M C M M Z C Z M M M M M M M M M M M M M M M M M M M M M 0 r e M M M r r $ # $ ",
"$ $ $ r r u u r M M M M M M M M M M M M M M M M r u u u r , , > t t t t u M M M M M M M M M M M M M M M M r r c M M M M M r r r r r < , , * * < 3 3 u t r t u u u u u u s > > p t r M M Z u r M M M M M M M M M M M M M M M M M M M M M 0 e e M M M r u $ $ $ ",
"$ $ $ r r r u e M M M M M M M M M M M M M M M M r r u u u , , > r t t u r M m M M M M M M M M M M M M M M r r x M M M M M r r u r r < , < * * < 3 3 r r r u u u r r u u s > > p r e M M Z r r v M M M M M M M M M M M M M M M M M M M M 0 e e v M M r u # $ $ ",
"$ $ $ 7 6 u u u r r r e e m M M M M f e e e e e u u u u r , , ; r t t t u e w e e e e r r M M M M M M M M ; * 7 e e e r r r t $ , , U Y P s s w 2 2 r r u > , > ; ; ; ; ; > > i r t e e e > ; v M M M M M M M M M M M M B u u M M M r e # , ; w r r r u # $ $ ",
"$ $ $ 8 8 u u u u u u r r M M M M M l r r r r u u u t t u , , ; r r t t t u r r u r e e e M M M M M M M M , , 0 r r u u u u u * , , J J A i p w 1 2 r r r < < , , , , , , , , u r t r r u , , b M M M M M M M M M M M M M u u M M M t r * < < u r r r u # # $ ",
"$ $ * 8 8 u u u u u u u r M M M M M f t t r r u u u r r r < , ; r r r t u u u u u u e e e M M M M M M M M , < 0 r r u u u u u & , , J G J i i 0 2 2 r r u < < , , , , , , , , u r r r r p , < M M M M M M M M M M M M M B u u M M M r u * < < r r r u u # $ $ ",
"$ $ $ $ & u r r r r r < , e r r r y e r r , , , < < , < , , , , < < i t u u u u u u t r y y y r r r < < , , , 9 r r r r r , , < , < 3 3 6 0 0 3 , , , , < , , r e r 8 8 8 < < , , < < < ; r r r r r r r r r r r r r r r r r r r r e < < u r u r r r * $ # $ $ ",
"$ $ $ $ $ r r r r r e , , e r r r r r r r > , , , , , , , , , , , , p r t t t t t r r r r r r r r r , , , , , 9 r r r r r < , , , , 4 3 6 0 0 3 , , , , , , , u r e 8 8 0 < , , , , , , ; r r r r r r r r r r r r r r r r r r r r r , , p t t e r u $ $ $ $ $ ",
"$ $ $ $ $ e r r r r e , < e e r e r r r r > , , , , , , , , , , , , s r r r r r r r r r r r r r r e , , , , , 9 r r r r r , , , , , 4 4 6 0 0 3 , , , , , , < u e e 8 9 0 , , , , , , , * r r r r r t r r r r r r r r r r r r r r r , > p r r r r r $ $ $ $ $ ",
"$ $ $ $ $ @ $ & $ & $ $ $ $ & & $ $ $ $ $ $ $ $ $ $ $ $ $ $ $ $ $ $ * $ $ $ $ $ $ $ $ $ $ $ $ $ $ $ # $ $ $ # $ $ $ $ $ $ $ $ $ $ $ $ $ $ $ $ $ $ $ $ $ $ $ $ $ $ $ * $ # $ $ $ # # $ $ $ $ $ $ $ $ $ $ $ $ $ $ $ $ $ $ $ $ $ $ $ & $ $ & $ $ $ * $ $ $ $ $ $ ",
"$ $ $ $ $ $ $ $ $ $ $ $ $ $ $ $ $ $ $ $ $ $ $ $ $ $ $ $ $ $ $ $ $ $ $ $ $ $ $ $ $ $ $ $ $ $ $ $ $ $ $ $ $ $ $ $ $ $ $ $ $ $ $ $ $ $ $ $ $ $ $ $ $ $ $ $ $ $ $ $ $ $ $ $ $ $ $ $ $ $ $ $ $ $ $ $ $ $ $ $ $ $ $ $ $ $ $ $ $ $ $ $ $ $ $ $ $ $ $ $ $ $ $ $ $ $ $ ",
"$ $ $ $ $ $ $ $ $ $ $ $ $ $ $ $ $ $ $ $ $ $ $ $ $ $ $ $ $ $ $ $ $ $ $ $ $ $ $ $ $ $ $ $ $ $ $ $ $ $ $ $ $ $ $ $ $ $ $ $ $ $ $ $ $ $ $ $ $ $ $ $ $ $ $ $ $ $ $ $ $ $ $ $ $ $ $ $ $ $ $ $ $ $ $ $ $ $ $ $ $ $ $ $ $ $ $ $ $ $ $ $ $ $ $ $ $ $ $ $ $ $ $ $ $ $ $ "
};
