/* XPM */
static const char *wall_42_13[] = {
/* columns rows colors chars-per-pixel */
"13 13 93 2 ",
"   c #000001",
".  c #010102",
"X  c #010103",
"o  c #020103",
"O  c #020202",
"+  c #020203",
"@  c #020204",
"#  c #030204",
"$  c #030304",
"%  c #030305",
"&  c #040304",
"*  c #040305",
"=  c #040306",
"-  c #040405",
";  c #050405",
":  c #040406",
">  c #050506",
",  c #050507",
"<  c #060506",
"1  c #070607",
"2  c #070708",
"3  c #080809",
"4  c #09090B",
"5  c #0B0B0C",
"6  c #0C0D0E",
"7  c #0E0E10",
"8  c #131214",
"9  c #131314",
"0  c #131315",
"q  c gray8",
"w  c #141415",
"e  c #151415",
"r  c #141515",
"t  c #151515",
"y  c #141416",
"u  c #151416",
"i  c #141516",
"p  c #151516",
"a  c #151417",
"s  c #151517",
"d  c #161517",
"f  c #151617",
"g  c #161617",
"h  c #181819",
"j  c #1A1A1B",
"k  c #1C1D1D",
"l  c #1C1D1E",
"z  c #202020",
"x  c #222224",
"c  c #242425",
"v  c #242426",
"b  c #252426",
"n  c #242526",
"m  c #252526",
"M  c #242427",
"N  c #252527",
"B  c #262526",
"V  c #262527",
"C  c #252626",
"Z  c #252627",
"A  c gray15",
"S  c #272626",
"D  c #262627",
"F  c #262727",
"G  c #252528",
"H  c #262528",
"J  c #252628",
"K  c #262628",
"L  c #272728",
"P  c #28282A",
"I  c #29292B",
"U  c #2B2B2A",
"Y  c #2E2E2F",
"T  c #383738",
"R  c #38383A",
"E  c gray26",
"W  c #474646",
"Q  c #474746",
"!  c #484847",
"~  c #484848",
"^  c #494948",
"/  c #494849",
"(  c #494949",
")  c #4A4949",
"_  c #4A4A49",
"`  c gray29",
"'  c #4B4B4A",
"]  c #4C4B4B",
"[  c #4D4C4B",
"{  c #4D4D4C",
"}  c #4E4D4D",
"|  c #4E4E4D",
" . c #535353",
/* pixels */
"= ] ' { I {  .: [ { { : @ ",
"' N 6 x y J N j N N N J 0 ",
"3 ' Q N N y y y y y y y : ",
"' N J J y '   ' N   ! '   ",
"y N J y : N y N J @ N N y ",
"I R 0 I R l N T ' @ 0 y y ",
"N J y N N N N N N ' N E Y ",
"=   @     @ @ @ @ 3 y   y ",
"' N N N = N   N N N @ N y ",
"z N N J   9   l J N   N y ",
": ' 5 : N N N 3 5 Q N N 2 ",
"I N N N N N N j y N J N y ",
"  y : : y : : : 7 y y y @ "
};
