/* XPM */
static const char *wall_9[] = {
/* columns rows colors chars-per-pixel */
"9 9 48 1 ",
"  c #0F1014",
". c #101115",
"X c #17181C",
"o c #191A1E",
"O c #1D1E22",
"+ c #1F2024",
"@ c #202125",
"# c #212226",
"$ c #232428",
"% c #25262A",
"& c #2A2B2F",
"* c #343539",
"= c #38393E",
"- c #3B3C41",
"; c #434448",
": c #494A4E",
"> c #4A4B4F",
", c #4B4C50",
"< c #4F5054",
"1 c #515256",
"2 c #525357",
"3 c #535458",
"4 c #545559",
"5 c #56575B",
"6 c #605E5F",
"7 c #6A6C6B",
"8 c #6A6A6C",
"9 c #6A6B6D",
"0 c #6B6D6C",
"q c #6C6C6C",
"w c #6D6D6D",
"e c #6C6E6D",
"r c gray44",
"t c #717276",
"y c #777775",
"u c #787876",
"i c #7D7D7B",
"p c #82817F",
"a c #808281",
"s c #8F8E8C",
"d c #999594",
"f c #9B9595",
"g c #9C9895",
"h c #A09C99",
"j c #A29E9B",
"k c #A39F9C",
"l c #A4A09D",
"z c #A6A29F",
/* pixels */
"k.0l6@0:i",
"%=u5e@ee:",
"700f30100",
"&+@@-@@0<",
"e5eeaeo7y",
"lgp@$jr+O",
"e70* 071,",
"j;setef00",
",::8X%:8:"
};
