/* XPM */
static const char *wall_24[] = {
/* columns rows colors chars-per-pixel */
"24 24 215 2 ",
"   c black",
".  c #010103",
"X  c #020202",
"o  c #05060A",
"O  c #0B0B0B",
"+  c #0C0D11",
"@  c #0D0E10",
"#  c #0F1014",
"$  c #0F1316",
"%  c #101113",
"&  c #131313",
"*  c #121317",
"=  c #131514",
"-  c #131418",
";  c #121619",
":  c #13171A",
">  c #141519",
",  c #151618",
"<  c #161719",
"1  c #15161A",
"2  c #16171B",
"3  c #16171C",
"4  c #14181B",
"5  c #15191C",
"6  c #17181C",
"7  c #161A1D",
"8  c #18191D",
"9  c #191A1E",
"0  c #1A1B1F",
"q  c #181C1F",
"w  c #1C1D1F",
"e  c #1B1C20",
"r  c #1C1D21",
"t  c #1D1E22",
"y  c #1E1F23",
"u  c #1F2022",
"i  c #1F2024",
"p  c #1E2126",
"a  c #1F2427",
"s  c #202125",
"d  c #212224",
"f  c #222325",
"g  c #222126",
"h  c #212226",
"j  c #222327",
"k  c #232428",
"l  c #232429",
"z  c #242529",
"x  c #262628",
"c  c #25262A",
"v  c #26272B",
"b  c #24272C",
"n  c #27282C",
"m  c #28292B",
"M  c #28292D",
"N  c #2B2C2E",
"B  c #2B2C30",
"V  c #2C2D31",
"C  c #2E2E30",
"Z  c #2D2E32",
"A  c #2F3034",
"S  c #303135",
"D  c #313236",
"F  c #323337",
"G  c #373737",
"H  c #343539",
"J  c #35363A",
"K  c #36373B",
"L  c #37383C",
"P  c #363B3E",
"I  c #393939",
"U  c #3A3A3A",
"Y  c #38393D",
"T  c #393A3C",
"R  c #3C3E3D",
"E  c #3E3E3E",
"W  c #3B3C40",
"Q  c #3C3D41",
"!  c #3E3F43",
"~  c #3C3F44",
"^  c #3F4044",
"/  c #444243",
"(  c #404145",
")  c #414244",
"_  c #414246",
"`  c #434544",
"'  c #404447",
"]  c #434448",
"[  c #424649",
"{  c #43474A",
"}  c #444549",
"|  c #45464A",
" . c #46474B",
".. c #46474C",
"X. c #44484B",
"o. c #45494C",
"O. c #464A4D",
"+. c #474B4E",
"@. c #484848",
"#. c #48494D",
"$. c #4A4B4D",
"%. c #494A4E",
"&. c #4A4B4F",
"*. c #484C4F",
"=. c #4C4D4F",
"-. c #494D50",
";. c #4B4C50",
":. c #4A4E51",
">. c #4C4D51",
",. c #4D4E52",
"<. c #4C5051",
"1. c #515151",
"2. c #505153",
"3. c #505155",
"4. c #515256",
"5. c #535458",
"6. c #545559",
"7. c #555658",
"8. c #54585B",
"9. c #57585C",
"0. c #58595D",
"q. c #5A5B5D",
"w. c #595A5E",
"e. c #5B5C5E",
"r. c #5C5D5F",
"t. c #615D5C",
"y. c #575F62",
"u. c #5C5D61",
"i. c #5D5E60",
"p. c #5E5F61",
"a. c #5F6160",
"s. c #5F6062",
"d. c #5D6164",
"f. c gray38",
"g. c #606261",
"h. c #626260",
"j. c #606163",
"k. c #616362",
"l. c #616264",
"z. c #626365",
"x. c #626367",
"c. c #636564",
"v. c #636466",
"b. c #666664",
"n. c #646567",
"m. c #656766",
"M. c #676767",
"N. c #6B6A66",
"B. c #666769",
"V. c DimGray",
"C. c #686A69",
"Z. c #6B6B69",
"A. c #696B6A",
"S. c gray42",
"D. c #6A6C6B",
"F. c #6C6E6B",
"G. c #696A6C",
"H. c #6A6B6D",
"J. c #6B6D6C",
"K. c #6B6C6E",
"L. c #6C6C6C",
"P. c #6D6D6D",
"I. c #6C6E6D",
"U. c #6E6E6C",
"Y. c #6C6D6F",
"T. c #6D6F6E",
"R. c gray43",
"E. c #6F6F6F",
"W. c #6E706F",
"Q. c #6D6E70",
"!. c #6E6F71",
"~. c #6F7072",
"^. c #717171",
"/. c #747474",
"(. c #777777",
"). c gray47",
"_. c #7A7A78",
"`. c #7B7A78",
"'. c #807E81",
"]. c #7F8180",
"[. c #848482",
"{. c #858688",
"}. c #8C8E8D",
"|. c #8F8E8C",
" X c #8F9190",
".X c #919390",
"XX c #939290",
"oX c #969593",
"OX c #969694",
"+X c #999894",
"@X c #999896",
"#X c #9C9895",
"$X c #9C9897",
"%X c #9C9B97",
"&X c #9E9A97",
"*X c #989898",
"=X c #9D9998",
"-X c #9D9C98",
";X c #9E9D99",
":X c #9B9B9D",
">X c #A09C99",
",X c #A19D9A",
"<X c #A09F9A",
"1X c #A29E9B",
"2X c #A39F9C",
"3X c #A29E9D",
"4X c #A1A09C",
"5X c #A1A09E",
"6X c #A4A19C",
"7X c #A4A09D",
"8X c #A5A19E",
"9X c #A6A29F",
"0X c #A2A4A3",
"qX c #B6B5B3",
"wX c #B8B7B5",
/* pixels */
">     + = O b.@.>   & E 1.T h + k.b.^.*Xv.# o 4 ",
"E k.J.E.(.k.E.E.9 6XD.4XE.J.Z <XJ.E.J.G.<./.).6 ",
"G J.J.s.A D.D.0.9 J.E.J.E.z.Z |.E.E.E.E.J.E.| 4 ",
"a y.o.^ h h h h h J.J.E.E.z.Z E.E.E.J.E.J.J.| - ",
"9 0X6X<XOXE.E.E.> -.s.E.6.-.Z *.*.%.>.Q.E.-.Z 9 ",
"> 4XJ.J.J.E.D.D.> [ [ X.L F w x h h N Q ` [ h 4 ",
"T D.J.E.J.E.J.A.> oX%Xu.n 4X].E.E.( Z ;X;X@X( > ",
"q E.E.J.J.J...z.# E.E.d.e J.E.E.A.k %XE.E.E.J.> ",
"9 %.z.D.A.-.-.-.k E.J.5.r 6.A.G.J.n <.J.E.E.A.6 ",
"p h h r k p p h ~ h h h L h h h k h %.A.D.E.E.4 ",
"U k.J.D.r.x 2XJ.J.A.z.h 2XE..XJ.A.h | %.%.x %.> ",
"h J.J.D.>.3.b.E.E.E.J.k k.E.J.E.v.K %X<XN.^.J.9 ",
"h E.E.J.=.( J.J.A.J.D.x J.E.E.J.k.'.J.E.E.E.s.- ",
"> %.%.o.9 b o.%.%.%.%.r *.-.Z o.> ] G.J.E.[ 9.6 ",
"> 6X6X).6X2X@Xu 6 qX=X@.( <X2X2X%Xx p p p r r 6 ",
"U A.D.J.J.D.Q.B.5.A.E.e. XE.E.E.J.A.W.A.t.F.E.> ",
"m E.J.J.J.E.J.0.>.G.D.n 3.E.J.J.E.E.z./ E.E.E.- ",
"M E.A.D.D.E.E.e.h -.%.>.K J.D.E.J.A.x K E.E.Q.> ",
"> %.-.o.%.%.%.p wX6X6X).e L -.*.-.%.h r e 9 9 > ",
"> 6X6X.XZ F {.J.E.E.E.v.E.F [.b.B :X<XE.J.J.J.> ",
"Z A.E.E.J.r b.J.E.E.J.A.| ` E.u.~.A.J.E.J.E.Q.6 ",
"N W.E.J.J.h D.D.J.E.J.J.o.F E.*.0.D.J.E.J.E.8.6 ",
"r >.s.u.%.h *.-.v.D.Q -.|.W K h Q K J.J.W.1.K > ",
"> 4 # 6 - - * 6 9 > - > > - - > > > 6 6 9 > 9 > "
};
