/* XPM */
static const char *wall_42_30[] = {
/* columns rows colors chars-per-pixel */
"30 30 208 2 ",
"   c black",
".  c #000100",
"X  c #000001",
"o  c #010001",
"O  c #010101",
"+  c #020001",
"@  c #010002",
"#  c #010102",
"$  c #010103",
"%  c #020102",
"&  c #020103",
"*  c #010202",
"=  c #010203",
"-  c #020202",
";  c #020203",
":  c #030203",
">  c #020303",
",  c gray1",
"<  c #010104",
"1  c #020104",
"2  c #030104",
"3  c #020204",
"4  c #030204",
"5  c #020304",
"6  c #030304",
"7  c #030205",
"8  c #020305",
"9  c #030305",
"0  c #040304",
"q  c #040305",
"w  c #040404",
"e  c #040405",
"r  c #050405",
"t  c #040406",
"y  c #050406",
"u  c #050506",
"i  c #050507",
"p  c #060507",
"a  c #070507",
"s  c #060607",
"d  c #050508",
"f  c #060608",
"g  c #070608",
"h  c #070709",
"j  c #08080A",
"k  c #09080A",
"l  c #09090B",
"z  c #0A090B",
"x  c #090A0B",
"c  c #0A0A0C",
"v  c #0B0B0C",
"b  c #0B0B0D",
"n  c #0C0B0E",
"m  c #0C0C0D",
"M  c #0C0C0E",
"N  c #0D0D0F",
"B  c #0E0E0F",
"V  c #0D0E10",
"C  c #0E0E10",
"Z  c #0F0E10",
"A  c #0F0F10",
"S  c #111012",
"D  c #111112",
"F  c #111113",
"G  c #121113",
"H  c #131213",
"J  c #111114",
"K  c #121214",
"L  c #131214",
"P  c #131314",
"I  c #121215",
"U  c #131315",
"Y  c #141315",
"T  c #141316",
"R  c #131415",
"E  c #141415",
"W  c #151415",
"Q  c #141515",
"!  c #151515",
"~  c #141416",
"^  c #151416",
"/  c #141516",
"(  c #151516",
")  c #151417",
"_  c #141517",
"`  c #151517",
"'  c #161517",
"]  c #151616",
"[  c #161616",
"{  c #161617",
"}  c #171617",
"|  c #151518",
" . c #161518",
".. c #151618",
"X. c #161618",
"o. c #171618",
"O. c #171718",
"+. c #171819",
"@. c #181819",
"#. c #18181A",
"$. c #19191A",
"%. c #1A1A1B",
"&. c #1A1A1C",
"*. c #1B1B1D",
"=. c #1B1B1E",
"-. c #1C1B1C",
";. c #1C1B1D",
":. c #1C1C1D",
">. c #1D1C1D",
",. c #1C1C1E",
"<. c #1D1D1E",
"1. c #1C1D1F",
"2. c #1D1D1F",
"3. c #1E1E1F",
"4. c #1E1E20",
"5. c #1F1F20",
"6. c #1F1F21",
"7. c #1E2123",
"8. c #202021",
"9. c #212022",
"0. c #212023",
"q. c #222224",
"w. c #232324",
"e. c #232325",
"r. c #242325",
"t. c #242425",
"y. c #252425",
"u. c #252525",
"i. c #242426",
"p. c #252426",
"a. c #242526",
"s. c #252526",
"d. c #242427",
"f. c #252427",
"g. c #242527",
"h. c #252527",
"j. c #262526",
"k. c #262427",
"l. c #262527",
"z. c #252626",
"x. c #252627",
"c. c gray15",
"v. c #262627",
"b. c #272627",
"n. c #262727",
"m. c #272727",
"M. c #252528",
"N. c #262528",
"B. c #252628",
"V. c #262628",
"C. c #272628",
"Z. c #262728",
"A. c #272728",
"S. c #272729",
"D. c #282729",
"F. c #282829",
"G. c #29292B",
"H. c #2A292B",
"J. c #2A2A2B",
"K. c #2A2A2C",
"L. c #2B2B2C",
"P. c #2C2B2C",
"I. c #2C2C2D",
"U. c #2D2C2E",
"Y. c #2C2C2F",
"T. c #2D2D2F",
"R. c #2F2E2E",
"E. c #2E2E2F",
"W. c #323233",
"Q. c #333335",
"!. c #353334",
"~. c #353434",
"^. c #373637",
"/. c #373738",
"(. c #3A383A",
"). c #3A3A3B",
"_. c #3B3A3B",
"`. c #414040",
"'. c #434242",
"]. c #454544",
"[. c #464545",
"{. c #464646",
"}. c #474646",
"|. c #474746",
" X c gray28",
".X c #484746",
"XX c #484747",
"oX c #484847",
"OX c #484947",
"+X c #484848",
"@X c #494848",
"#X c #494948",
"$X c #494849",
"%X c #494949",
"&X c #4A4949",
"*X c #494A48",
"=X c #4A4A48",
"-X c #4A4A49",
";X c #4B4A49",
":X c gray29",
">X c #4B4A4A",
",X c #4B4B4A",
"<X c #4B4B4B",
"1X c #4C4B4B",
"2X c #4E4E4E",
"3X c #4F4E4E",
"4X c #504F4F",
"5X c #535252",
/* pixels */
"; 3 ; 3 ; ; 3 ; 3 ; 3 3 ; 3 ; ; ; ; ; ; ; 3 3 3 ; ; 3 3 3 ; ",
"; :Xh.h.J.3 {.h.h.h.D :X~.h.:Xh.h.5.; .Xh.h.V.h.P P T.O.W.; ",
"; h.h.h.~ ; h.h.h.V.~ 1Xh.h.h.h.h.5.; r.h.h.V.h.h.P V.h.;.; ",
"; N 8.h.P ; i T ~ :.~ e.h.h.h.h.h.:.; h.h.h.h.h.h.h.V.h.~ ; ",
"; 7.P ~ 3 #.b ; ; 3 3 h.h.h.h.h.h.~ 3 h.V.h.h.h.h.h.h.V.~ ; ",
"; 3 q ; b N _._.T.T.3 ;.5.h.h.h.~ O.; ~ h.V.h.~ h.V.V.:.~ ; ",
"; :XT.h.h.h.h.h.h.h.~ 3 ~ P ~ i D 3 ; ; ; ; q l ~ ~ P ~ i ; ",
"; 5Xh.h.V.h.h.V.h.h.~ i ; ; ; 3 ; ; 2X4X~.; ; l ; ; ; ; ; ; ",
"; h.h.h.h.h.h.h.h.h.~ :X!.h.h.~ 1Xh.h.V.h.O.3 {.h.h.h.h.h.; ",
"; V.h.P h.h.~ h.h.~ ~ :.h.h.~ ~ h.h.V.V.h.~ ~ h.h.h.h.h.R ; ",
"; :.~ D.V.h.~ ~ ~ ~ i ~ V.h.~ ~ P h.h.V.P.~ l h.h.h.V.h.h.; ",
"; h ; ; ; 3 3 3 ; 3 N 3 3 3 3 N ; 3 3 ; ; 3 l P h.V.V.h.#.; ",
"; :X:X:XoX5.b 3 :X:X:X:X/.=.3 3 :X1XJ.oX:XP i b h.e.h.~ h.; ",
"; h.h.h.h.h.; {.h.h.h.h.h.h.; 2Xh.h.h.h.h.3 ; 3 3 ; 3 3 3 ; ",
"; V.h.h.h.~ ; J.h.h.h.h.V.h.; _.h.V.h.V.h.; :.{..X{.J.T.5.; ",
"; h.h.h.h.h.; 5.h.h.h.V.h.V.; V.V.h.V.h.V.; :Xh.h.h.h.h.:.3 ",
"; ~ #.h.h.~ ; C h.h.h.~ 5.~ ; P h.5.h.:.+.; :.h.h.h.h.h.:.3 ",
"; 3 3 ; ; ; i ; 3 3 q ; 3 3 3 3 i 3 ; ; 3 3 C P h.h.; ~ ~ ; ",
"; :X:X:XT.:X:X:XQ.3 P i :X:Xi h {.:X:X:X:XJ.; ; ; ; ; ; ; ; ",
"; h.h.h.h.h.h.h.~ ~ 3 '.h.V.~ ; h.V.V.h.V.8.J.J..X:Xh.h.h.; ",
"; h.V.h.h.h.h.h.h.T ; h.h.V.P ; h.V.V.h.h.h.h.~ :Xh.h.h.~ ; ",
"3 h.h.h.h.h.h.h.V.~ ; b ~ P O.; V.h.V.V.V.h.h.; ~ h.V.h.~ ; ",
"3 ~ V.h.h.V.V.V.~ ~ ; ; 3 3 i 3 O.:.h.~ h.V.P b i O.~ ~ ~ 3 ",
"; i ; ; ; ; 3 i ; :X:Xh.h.h.h.r.i 3 ; ; 3 3 3 l oX{.{.{.h 3 ",
"; :X:X:XK.T.h l '.h.h.h.h.h.V.h.h 5.K.n i O.{.{.h.h.h.V.h.; ",
"3 e.h.h.h.V.e.T.h.h.V.V.V.h.h.V.; V.V.~ ; V.h.h.V.h.h.h.~ ; ",
"; 8.e.h.h.h.~ ~ h.V.h.h.h.h.h.V.; :.V.~ 3 h.h.h.h.h.h.:.h.3 ",
"; O.h.V.h.h.O.C ~ V.h.h.:.V.~ O.3 C ~ ~ i V.=.h.h.V.h.=.h.3 ",
"; ~ ~ h.~ ~ ~ C ~ ~ D h.D ~ O.i #.N i i i ~ D h.h.V.V.N ~ 3 ",
"; ; ; 3 3 3 3 3 ; ; ; 3 3 3 3 3 ; 3 3 3 ; ; 3 ; 3 ; 3 3 3 q "
};
