/* XPM */
static const char *wall_36[] = {
/* columns rows colors chars-per-pixel */
"36 36 113 2 ",
"   c #0F1014",
".  c #121317",
"X  c #131519",
"o  c #18171C",
"O  c #16191C",
"+  c #191A1E",
"@  c #1D1E22",
"#  c #1F2024",
"$  c #212226",
"%  c #242529",
"&  c #27282C",
"*  c #2A2A2E",
"=  c #2E302F",
"-  c #2D2E31",
";  c #2E3136",
":  c #323336",
">  c #34353A",
",  c #37383B",
"<  c #38393C",
"1  c #40403E",
"2  c #3C3D41",
"3  c #3E4245",
"4  c #454445",
"5  c #44464A",
"6  c #464A4D",
"7  c #494B4E",
"8  c #4A4D50",
"9  c #4D5154",
"0  c #515256",
"q  c #55565A",
"w  c #57585C",
"e  c #5A5A5D",
"r  c #565E61",
"t  c #5C5E62",
"y  c #5E6161",
"u  c #646465",
"i  c #666867",
"p  c #696967",
"a  c #66676A",
"s  c #676968",
"d  c #6B6D6C",
"f  c #6E706F",
"g  c #6D6E70",
"h  c #6F7374",
"j  c #737373",
"k  c #7B7776",
"l  c #767877",
"z  c #797778",
"x  c #7B7B7B",
"c  c #837F7E",
"v  c #848483",
"b  c #888687",
"n  c #8A8987",
"m  c #868688",
"M  c #908F8D",
"N  c #918F90",
"B  c #939290",
"V  c #959492",
"C  c #979394",
"Z  c #989793",
"A  c #9A9793",
"S  c #999896",
"D  c #9A9997",
"F  c #9C9895",
"G  c #9D9996",
"H  c #9E9A97",
"J  c #9B9996",
"K  c #9D9998",
"L  c #9E9A99",
"P  c #9D9C98",
"I  c #9E9D99",
"U  c #9D9D9B",
"Y  c #9D9B9C",
"T  c #9F9D9E",
"R  c #A09C99",
"E  c #A19D9A",
"W  c #A29E9B",
"Q  c #A19D9C",
"!  c #A39D9D",
"~  c #A39F9C",
"^  c #A39F9C",
"/  c #A3A09B",
"(  c #A1A09E",
")  c #A3A29E",
"_  c #A4A09D",
"`  c #A5A09D",
"'  c #A5A19E",
"]  c #A6A29F",
"[  c #A5A29D",
"{  c #A19FA0",
"}  c #A2A0A1",
"|  c #A3A3A1",
" . c #A4A3A1",
".. c #A7A3A0",
"X. c #A6A2A1",
"o. c #A5A4A0",
"O. c #A6A5A1",
"+. c #A7A6A2",
"@. c #A5A3A4",
"#. c #A7A5A6",
"$. c #A7A3A0",
"%. c #A8A5A0",
"&. c #A9A5A2",
"*. c #A8A7A2",
"=. c #AAA7A2",
"-. c #AAA6A3",
";. c #AAA6A5",
":. c #A9A4A0",
">. c #ABA8A3",
",. c gray66",
"<. c #AFAFAF",
"1. c #B5B4B2",
"2. c #B4B4B4",
/* pixels */
"X X . . X X . . . . . . . X . . . . . X X X X . . . O O O . . . . . X O ",
". * o.] S 7 $ X.%.) X.j j $ %.o.%.j o.x $ - - %.%.%.>.;.o.g j o j j   o ",
". k d d d 7 $ u d d d d 7 1.p d d d d d d 8 , d d d d d d d 7 d d d 3 . ",
". j d d d 6 @ d d d u d 7 x d d d d d d 8 8 : d d d d d d d d d d d 6 . ",
". 5 7 d d 6 # : 6 6 6 w 7 x d d d d d d d 8 : d d d d d d d d d d d 6 . ",
". r t 5 6 $ w < $ $ $ $ $ x d d d d d d 7 8 - d d d d d d d d d d d 6 . ",
"X % % @ @ > > b b b x l $ d 8 d d d d 7 8 8 % 8 d d d d e d d d d 7 6 . ",
"X e ~ d d d i d d d d d 5 & 8 7 6 6 $ 8 $ # $ @ @ @ @ @ : 6 6 7 7 6 0 . ",
". ] s d d d d d d d d d 7 % $ $ # $ $ $ $ & ] ] x - $ $ & # @ @ @ @ & . ",
". x d d d d d d d d d d 8 % W W c 8 $ <.] ] d d d d # % u W W W G j + . ",
". f d d d d d d d d a d 7 1.G d d d 0 ,.d d d d d h % $ x d d d d d 9 . ",
". 4 d d g d d 5 d d d 7 8 t d d d 7 8 d d d d d d 8 $ V d d d d d d 6 . ",
". 9 7 8 d d d 5 8 8 8 8 % 0 d d d 7 7 7 d d d d j 8 $ 8 d d d d d d 5 . ",
". & 5 $ 7 7 7 7 7 8 7 $ $ $ 7 7 8 7 % & 7 8 7 7 7 @ % 7 d d d d d d 6 . ",
". m } { { T u < % % } @.} X.{ j 5 $ $ X.#.} v } U 0 $ : 3 d d d 7 5 5 . ",
". W d d d d d % % ~ x d d d d 8 e # ] d d d x d d + $ 7 > 6 7 6 % 8 7 . ",
". v d d d d d + B G d d d d d d e + ] d d d d d d + $ $ $ $ @ @ @ @ @ . ",
". j d d d d 8 . t d d d d d d d e o d d d d d d d @ , G ) / W d d j # . ",
". d d d d d d . 7 d d d d d d d w + d d d d d d d . K d d d d d d d 5 . ",
". 8 d 7 d d 6 X $ 9 d d d d d 0 7 + 5 d d 7 d e 8 . 7 d d d d d d d 5 . ",
". < 7 7 6 6 6 5 $ 6 6 7 7 7 7 7 $ @ 6 7 7 7 & 6 7 @ 7 d d d d - 7 e 6 . ",
". : 1 6 6 , 4 4 4 * $ $ & $ 6 4 4 $ $ 5 4 4 4 4 4 = & - - < 2 @ > > > . ",
". S d d i d d d d 8 u i % 2.C d d d @ Z d d d d d y N n $ - U ~ U U % . ",
". j d d d d d d d d 0 8 # K d d d 8 + p d d d d d i d d < G K d d d 9 . ",
". d d d d d d d d d d 7 + g d d i 5 + d d d d d d d d d % Z d d d d 6 . ",
". d d d d d d d d d d 7 @ 5 9 8 7 $ + d d d d d d d d 8 # 8 d d d d 6 . ",
". 7 d d d d d f d d 7 8 @ # $ $ @ & + 7 8 d d 7 d d 8 4 @ 8 7 d d d 6 . ",
"X 8 7 8 8 8 7 @ 8 8 & $ # ] ] ] ] j @ @ 7 8 6 8 8 6 7 + @ $ @ @ @ @ + X ",
". & @ + + o + @ $ # f ~ ^ d d d d d d & $ @ + @ @ @ + $ d A S S Z S @ . ",
". b X.] %.j z - : - j d d d d d u d d + ; M j > % q ] ] v d d d d d + X ",
". a d d d d d d $ G i d d d d d d d d + y d d 8 @ p d d d d d d d d 7 . ",
". u 7 d d d d 4 $ d d d d d d d d d d O 8 d d 7 @ d d d d d d d d 7 5 . ",
". w d d d d d 5 $ d d d d d d d d d 7 + 8 d u 8 $ d d d d d d d d 7 6 . ",
". 7 d d d d d 8 $ 7 d d y d d 7 d 7 8 $ - 7 7 8 # d 5 d d d d d d 5 5 . ",
"X : 7 $ 6 6 $ $ % $ 7 7 7 6 $ $ 6 % $ 2 % $ & > $ $ 7 6 6 6 7 7 % 7   X ",
"X X X X X X X . X X . . . . . X . X . . . X X . . . X X X . . X X X X X "
};
