/* XPM */
static const char *wall_155[] = {
/* columns rows colors chars-per-pixel */
"155 155 163 2 ",
"   c #07080B",
".  c #0A0B0C",
"X  c #0D0E12",
"o  c #110F12",
"O  c #0F1014",
"+  c #121317",
"@  c #1A1917",
"#  c #131519",
"$  c #18161A",
"%  c #16181C",
"&  c #191A1E",
"*  c #201E1F",
"=  c #1E201F",
"-  c #1D1E22",
";  c #201F24",
":  c #1F2024",
">  c #212226",
",  c #262827",
"<  c #242529",
"1  c #28272C",
"2  c #27282C",
"3  c #292A2E",
"4  c #2E302F",
"5  c #2D2E32",
"6  c #2F3034",
"7  c #2E3339",
"8  c #313336",
"9  c #363837",
"0  c #34363A",
"q  c #37383C",
"w  c #393A3E",
"e  c #41403E",
"r  c #373C42",
"t  c #3B3D42",
"y  c #413F40",
"u  c #3E4044",
"i  c #3E4349",
"p  c #434346",
"a  c #484647",
"s  c #464847",
"d  c #494846",
"f  c #44464A",
"g  c #464A4D",
"h  c #494B4E",
"j  c #474C50",
"k  c #4B4D51",
"l  c #4E5154",
"z  c #515256",
"x  c #585657",
"c  c #545559",
"v  c #56595C",
"b  c #5A5B5D",
"n  c #605E5C",
"m  c #5F615E",
"M  c #61615F",
"N  c #565E60",
"B  c #5C5E61",
"V  c #615F60",
"C  c #5E6063",
"Z  c #636465",
"A  c #686667",
"S  c #666867",
"D  c #696967",
"F  c #656669",
"G  c #676969",
"H  c #6B6D6C",
"J  c #706F6C",
"K  c #6E706F",
"L  c #71716F",
"P  c #6D6E71",
"I  c #6F7172",
"U  c #737373",
"Y  c #787776",
"T  c #767876",
"R  c #797876",
"E  c #767779",
"W  c #77797A",
"Q  c #7A7B7A",
"!  c #807F7D",
"~  c #7F817E",
"^  c #81817F",
"/  c #7E7F83",
"(  c #858483",
")  c #888685",
"_  c #898886",
"`  c #86878A",
"'  c #898788",
"]  c #8D8C8B",
"[  c #908F8D",
"{  c #92918E",
"}  c #8E8F91",
"|  c #918F90",
" . c #959492",
".. c #999694",
"X. c #9D9996",
"o. c #969799",
"O. c #9E9B99",
"+. c #A29E9B",
"@. c #9FA09B",
"#. c #A6A29F",
"$. c #A4A19E",
"%. c #A6A59F",
"&. c #A4A19E",
"*. c #9E9FA1",
"=. c #A19FA0",
"-. c #A3A3A1",
";. c #A7A3A0",
":. c #A6A2A1",
">. c #A7A3A2",
",. c #A4A3A1",
"<. c #A5A4A0",
"1. c #A6A5A1",
"2. c #A5A4A2",
"3. c #A6A5A3",
"4. c #A7A6A2",
"5. c #A7A6A4",
"6. c #A5A3A2",
"7. c #A8A4A1",
"8. c #A8A5A0",
"9. c #A9A6A1",
"0. c #A9A5A2",
"q. c #A8A4A3",
"w. c #A8A7A2",
"e. c #AAA6A3",
"r. c #AAA7A2",
"t. c #ABA7A4",
"y. c #AAA6A5",
"u. c #A9A5A4",
"i. c #A9A6A3",
"p. c #ABA8A3",
"a. c #AAA9A5",
"s. c #AAA9A7",
"d. c #A9A8A4",
"f. c #ACA8A5",
"g. c #ABA9A5",
"h. c #A9A7A8",
"j. c #ABAAA8",
"k. c #ACABA9",
"l. c #ADACAA",
"z. c #AEADAB",
"x. c #AFAEAA",
"c. c #ADAFAE",
"v. c #ACABAB",
"b. c #B0AFAD",
"n. c #B1AEAE",
"m. c #B1B0AE",
"M. c #B2B1AF",
"N. c #B3B2B1",
"B. c #B4B3B1",
"V. c #B5B4B2",
"C. c #B6B5B3",
"Z. c #B7B6B4",
"A. c #B7B3B2",
"S. c #BAB6B3",
"D. c #B8B7B5",
"F. c #B9B5B2",
"G. c #BAB9B7",
"H. c #BEBAB7",
"J. c #BBBAB8",
"K. c #BCBBB9",
"L. c #BFBBB8",
"P. c #BDBFBC",
"I. c #BDBCBA",
/* pixels */
"# # # # # # # # # # # # # # # # # # # # # # # # # # # # # # # # # # # # # # # # # # # # # # # # # # # # # # # # # # # # # # # # # # # # # # # # # # # # # # # # # # # # # # # # # # # # # # # # # # # # # # # # # # # # # # # # # # # # # # # # # # # # # # # # # # # # # # # # # # # # # # # # # # # # # # # % # # % ",
"# # # # # # # # # # # # # # # # # # # # # # # # # # # # # # # # # # # # # # # # # # # # # # # # # # # # # # # # # # # # # # # # # # # # # # # # # # # # # # # # # # # # # # # # # # # # # # # # # # # # # # # # # % # # # # # # # # # # # # # # # # # # # # # # # # # # # # # # # # # # # # # # # # # # # % % % # # % ",
"# # # # # # # # # # # # # # # # # # # # # # # # # # # # # # # # # # # # # # # # # # # # # # # # # # # # # # # # # # # # # # % # # # # # # # # # # # # # # # # # # # # # # # # # # # # # # # # # # # # # # # # # # # # # # # # # # # # # # # # # # # # # # # # # # # # # # # # # # # # # # # # # # # # # # % % % % % % ",
"# # # # # # 8 N.m.m.m.b.N.V.V.B.V.m.m._ ( ( P k k l : - - c.m.b.V.V.V.V.V.V.Z.-.2.2.a.2.a.2.5.-.U U I U U U U > > > < < < G.V.V.Z.J.G.Z.J.K.I.b.l.m.L U U ^ 2.2.l.H H G U K U > < < 5 6 6 6 6 5 5 t u t P.G.I.l.l.l.l.l.j.a.a.a.a.a.j.l.j.a.2.t.5.5.2.O.O.O.m H H H G H G F Z 1 < < 1 Q W W Q Q W z k z # % % % % % % ",
"# # # # # # , ;.;.#.#.#.#.#.#.;.2.#.#.U R Q G h h k > : > +.#.#.;.;.7.;.;.;.;.;.7.7.;.#.#.#.#.;.L L L U U U U : : > < < > H.7.7.7.7.7.7.7.7.7.7.7.7.G H H Q 7.7.l.L U U Q Q Q < < < 5 5 5 5 5 5 5 t t t $.f.t.t.7.7.t.7.7.7.7.7.7.7.7.7.7.7.7.7.7.2.7.7.7.7.H L U U U U H H H 3 > < > U U U U U U k k k X # # % % % % ",
"# # # # # # 3 7.;.;.;.;.;.#.;.;.2.2.#.U Q Q H h h k > > > +.#.#.#.;.7.;.;.;.7.7.7.7.;.;.;.#.#.7.U L L U U U U > > > < < > H.t.7.7.7.7.7.f.7.f.7.7.7.U H H ^ 7.7.l.L U U Q Q Q < < < 8 6 5 5 5 6 8 t t u p.a.a.7.7.7.t.7.7.7.7.7.7.7.7.7.7.7.7.7.7.7.7.;.;.t.G U U U U U U H K 1 < < > U U U U U U h k l + # # % % % % ",
"# # # # + # 3 #.#.#.2.2.2.#.#.#.#.#.;.U Q Q H h h k > > > X.+.+.;.;.#.#.#.7.7.7.2.$.;.;.;.#.#.;.U U U U H P U > > > > < , F.7.#.7.2.2.7.p.p.p.7.2.7.H U H R 7.2.l.U U U Q Q Q 2 > < 8 5 5 6 6 5 5 t t t 7.7.7.7.p.p.p.p.7.7.7.7.7.7.p.7.7.t.t.7.7.7.7.;.;.#.b U U U U U U H H 1 > < < U U U U U U k k k O % # % % & % ",
"# # # j.+.#.+.+.+.#.H G H H H H H H H U H G H L U U < > > X.X.X. .....n G G S D D D D D G G G Z H H H U f f f > : : +.+.#.#.+.#.@.G G G H G H H H G +.X.+. .H H G H H H H H H Z F G f h h k < > < +.X.+.O.+.+.G H H G G G G G G H H G D D G G G S S S S S S h h h h h k l U U Q W Q R b c c k h h Q R U p h f h # # # ",
"# # # +.#.#.#.+.+.-.H H H H H H H H H G G G H U U U > > > X.O.X. ... .M G G H H H H H H H H H H H H H U f f f : - - $.#.#.#.#.#.+.G G H G G G G G G O.+.+...H H H H H H H H H H H H p h k k > > < X.+.+.+.+.+.G H G H H H H H H H H H H H H H H H H H H G H h h h h h h z U U U U U U v z c h h h Q Q Q t h h l # # # ",
"# # # $.#.#.#.#.#.$.H H H H H H H H H H H H H U U R > > > X.X.O... . .Z G H H H H H H H H H H H H G G I f f f - - - $.#.#.#.#.#.+.H G H H G H H H H +.+.+...H H H H H H H H H H H H p h k k > > < X.+.+.+.+.+.H H H H H H H H H H H H H H H H H H H H H H H h f h k h h z U U U U U U v c c k k h Q Q Q t h h c # # # ",
"# # # ;.#.#.+.$.+.+.G H H H H H H H H H H H U U E U > > <  ...O... . .b H H H H H H H H H H H H H H H I f f f : : ; $.#.#.+.$.+.X.G H H H H H H H H +.O.X.] H H H H H H H H H H H H f k k k > > < X.+.+.X.O.O.G H H H H H H H H H H H H H H H H H H H H H H G G G h h h l U U U R Q U H H H H H G Q Q Q f k h l # # # ",
"# # # 2.#.#.U G H G G H H H H H H H H H H H B l l l > > : z c v H H H H H H H H H H H H H H H H H H H P h h h > : > $.#.#.Z G H G H H H H H H H H H H H H H H H H H H H H H H H H H f k k k - - > O.+.@.H H H H H H H H H H H H H H H H H H H H H H H H H H G G G h h h g H H H H H H H H H H H P c c c f h h k + # # ",
"# # # $.+.+.U G G H H H H H H H H H H H H H C k k l < > - c c z P H H H H H H H H H H H H H H H H H G I h h h > > > $.+.+.Z G H H H H H H H H H H H H H H H H H H H H H H H H H H H f k k k - - > +.+.$.G G H H H H H H H H H H H H H H H H H H H H H H H H H H G h k h h H H H H H H H H H H H H c c c f f f k + + + ",
"# # + $.$.+.U G G H H H H H H H H H H H H H b k k l > : > c z c P H H H H H H H H H H H H H G H H H G U h h h > > > +.+.+.Z G H H H H H H H H H H H H H H H H H H H H H H H H H H H f h k k - - < X.+.O.G G H H H H H H H H H H H H H H H H H H H H H H H H H H H S F Z S H H H H H H H H H K H H c c c h f f k + + + ",
"O O O $.$.$.U G H H H H H H H H H H H H H H B h h k - - > q 8 q H H H H H H H H H H H H G h h h G G G U h h h > > > 2.5.5.Z H H H H H H H H H H H H H H H H H H H H H H H H H g h k k k k k - - >  .X.X.G G H H H H H H H H H H H H H H H H H H H H H H H H H H G G G H H H H H H H H H H H H H H k k k h f f k + + + ",
"# O O +.$.$.U G H H H H H H H H H H H H H H B h h h - - : q w w K H H H H H H H H H H H H h k k H G G U h h k > > : U U U H H H H H H H H H H H H H H H H H H H H H H H H H H h k k h k k k - - > ..X.X.G G G H H H H H H H H H H H H H H H H H H H H H H H H H H H H H H H H H H H H H H H H H H k k k h f f k + # # ",
"# + + +.+.+.U H H H H H H H H H H H H H H H C h h h - - - q w w H H G H H H H H H H H G H k k k H G G I h h h > > > U U U H H H H H H H H H H H H H H H H H H H H H H H H H H f k k h k k k - - > X.X.O.G G H H H H H H H H H H H H H H H H H H H H H H H H H H H H H H H H H H H H H H H H H H H k k k h f h k + + # ",
"# # + +.+.+.U H H H H H H H H H H H H H H H B h h h : - - q w w I H H H H H H G G G G G S k k k H G H I h h h > > > U U U H H H H H H H H H H H H H H H H H H H H H H H H H H f k k k k k k - - > X.X.O.G G G H H H H H H H H H H H H H H H H H H H H H H H H H H H H H H H H H H H H H H H H H H k k k h f f k + + # ",
"O O +  .....h t u p h h f H H H H H H H H H B h h h - - - q w w 5 5 6 h h h h h h f f h f h h f c c c B h h h > > > H H H H H H H H H H H H H H H H H H H H H H H H H H H H H H H H f k k k - - >  ...X.G G H H H H H H H H H H H H H H H H H H H H H H H H H H H H H H H H H H H H H H H H H H H k k k h f f k + + # ",
"+ O +  .....f t p f h h f H H H H H H H H H B h h h - - : q q q 6 8 5 h h h h h h h h h h h h h c c c v h h h > > : H H H H H H H H H H H H H H H H H H H H H H H H H H H H H H H H f k k k : : >  .....H G H H H H H H H H H H H H H H H H H H H H H H H H H H H H H H H H H H H H H H H H H H H k k k f f f h + + # ",
"+ + O  . . .B N B c l f h H H H H H H H H H b f h h - - : q q w 8 8 5 h h h h h h h h h h h h h v c v v h h h > > > H H H H H H H H H H H H H H H H H H H H H H H H H H H H H H H H f k k k : : >  .....H H H H H H H H H H H H H H H H H H H H H H H H H H H H H H H H H H H H H H H H H H H H H k k k f f f k + # # ",
"+ + O =... .C c v c z f h P I K K K K K K K F k h k & & - w w t 8 8 5 p k k k k k l k k k k k k c c c c h h l > > > H H H H H H H H H H H H H H H H H H H H H H H H H H H H H H K I h k k k > > < O... .H H H H H H H H H H H H H H H H H H H H H H H H H H H H H H H H H H H H H H H H H H H H H k k k h f h k + # # ",
"+ # # C B C N N c v C k h f f f h h h h h f u > > - v v c < < < t q w > > > > > > > > > > > > > > > > > > > > > > < H H H H H H H H H H H H H H H H H H H H H H H H H H H H H f h k k k k k > > > I H H H H H H H H H H H H H H H H H H H H H H H H H H H H H H H H H H H H H H H H H H H H H H H k k k h f f k # # # ",
"+ # # B B B N v v N C h h f f f h h h h h h t : > > v c c < < < w q w < > > > > > > > > > > > > > > > : > > < > > < H H H H H H H H H H H H H H H H H H H H H H H H H H H H H f h k k k k k > > < H K H H H H H H H H H H H H H H H H H H H H H H H H H H H H H H H H H H H H H H H H H H H H H H k k k f f f h # # # ",
"+ # O C B B v v v N h f h f f f f h h h h h u > > < v c v 2 < < t q q < > > > < > > > > > > > > > > > > > > < < > > H G G H H H H H H H H H H H H H H H H H H H H H H H H H H f k k k k k k > > > H H H G G G H H H H H H H H H H H H H H H H H H H H H H H H H H H H H H H H H H H H H H H H H H k k k f f f h # # # ",
"+ # # 2 2 1 5 1 1 1 1 1 < : : - - : : : > > < q 8 q t t w ` ^ ~ ( ( ( Q Q Q Q Q Q Q U U U U U U U U U O.> > > > < < c v c k k f k H H H H H H H H H H H H H H H H k k k k k k k k k k k k k > > < k l l k k k U H H H H H H H H H H H H H H H Z k k k H H H H H H H H H H H H H H H H H H I k k g k h h f f f h # # # ",
"# # # 2 < < < < < < < < < : : : : : > > > > < q w w w w q ) ( ( ( ( ( ( ( ( ( ( ( ) U R R Q Q Q Q R R ] > > > > > > c c c h h h g H H H H H H H H H H H H H H H H h h h h h k k k k k k k k > > > h k k k h h I G H H H H H H H H H H H H H H Z j h f H H H H H H H H H H H H H H H H H H I h h h h h h f f f h + # # ",
"# # # 2 < < < < < < < < < : : : : : > > > > 5 q w w w w q ( ( ( ( ( ( ( ( ( ( ( ( ( U R Q Q Q Q Q R Q } > > > < < > c c c k k j l H H H H H H H H H H H H H H H G h h h h h k k k k k k k l > > > h h k k k k I G H H H H H H H H H H H H H H Z k k f H H H H H H H H H H H H H H H H H H H h h h h h h f f f k # # # ",
"# # # 2 < < < < < < 1 1 5 < , , , , , , < < 8 w t w w t w ( ( _ ( ( ( ( ( ( ( ( ( ( R Q Q R R Q Q W Q o.> > > < < : v v v k k k k H H H H H H H H H H H H H H H G h h k h k k k k k k k k l > > > k h k k k h U H H H H H H H H H H H H H H H F k k h P P H H H H H H H H H H P P H H H H P h h h h h h h f f k + + + ",
"# # # 6 1 1 < < > . #.#.+.;.;.=.#.#.#.#.#.;.+.+.#.#.+.+.X.O.X...H H H H H H H H H H H H G O.X...Z G H H K H H > > - v v v k k k h h h f H H H H H H l h k k h k z < : > h k k k k k k k k k > > > h h h h h k k h g g g g g h h h h h h h h h h h h h h h h P H H H H H H H P f h h h h h k h h h 2 1 2 < > - 2 # # + ",
"# # # 5 3 1 < > : . #.#.#.#.#.#.#.#.#.7.;.;.#.+.+.+.+.+.+.X.X.X.G H H H H H H H H H H H H .. . .Z G H G H H H > : : v v c k k k k k h f H H H H H H z k k k h h k < < < k k k k k k k k k k > > < h h h h k k k h h h h h h k k k k k k k k k h h h h h h h G H H H H H H H H h k k k k k k h h h 1 1 5 < < < < # # # ",
"# # # 6 5 1 < > < o +.#.#.#.#.#.#.#.#.;.;.#.#.+.+.+.+.+.+.O.O.X.G H H H H H H H H H H H G  ... .Z G G G H H H > > > c c c k k k k k h f H H H H H H l k k k h k l < < < k k k k k k k k k k > > < k h h h h k k h h h h h k k k h k k k k k k h h h h h h h H H H H H H H H H f k k k k k k h h f 1 1 5 < < < < # # # ",
"# # # < > < x +.#.;.#.#.a.Z G S S Z S S S S S H G G G G G G G G H H H H H H H H H H H H H G G H G G G H f p f > > - - > > h k h k h h h h h h h h h f h h u > < & f p k f f f < < > > > < > > > > > > > > > > > > > > > : : > > > > > : > < > 1 5 8 6 5 6 8 h h h h h h h h h h h h h h h h h h f < < < k h k v # # # ",
"# # # < < > z #.#.#.#.#.$.G H H H H H H H H H H H G G G G G G H H H H H H H H H H H H H H H H H G G G I h h k > > : > < < k h h h h h h h h h h h h h h h f < < > p p f f f f > < < > > > > > > > > > > > > > > > > > > > > > > > > > > > > > 5 8 8 8 8 8 0 h h h h h h h h h h h h h h h h h h f < < < k h h k # # # ",
"# # # < < > x #.#.+.#.#.;.H H H H H H H H H H H H H H H H H H H H H H H H H H H H H H H H H H H H G G U h h k - : > < < < k h h h h h h h h h h h h h h h f < < : p p f f f f > < < > > > > > > > > > > > > > > > > > > > > > > > > > > > > > 5 0 8 8 8 8 8 h h h h h h h h h h h h h h h h h h h < < 2 l k h l # # # ",
"# # # < , < b $.+.+.O.X.O.G H H H H H H H H H H H H H H H H H H H H H H H H H H H H H H H H H H H H H I h h k - - > < < < f f f f f f f f f f f f f f f h t < < > t p p p u p : < < > > > - > < < < < < < < > - - > > - > > > > > > > > > > > 5 8 8 8 8 8 8 f p f f f f p f f f p p f p p p f p f < < 2 h h h l + # # ",
"# # # -.+.+.#.+.+.l.G G H H H H H H H H H H H H H H H H H H H H H H H H H H H H H H H H H H H H H H G U h h h 5 6 6 < < < > > < > : : : > > > > > : : - > > > > > > > > : - - : > > 1 1 1 > #.#.+.+.+.+.#.+.+.R Q Q Q Q Q Q > > > > > > > > > 5 8 8 8 > < < : : : : - - - - - - - - - - - : - - - > > > 1 5 6 8 # # # ",
"# # # -.+.#.#.#.#.l.G G H H H H H H H H H H H H H H H H H H H H H H H H H H H H H H H H H H H H H H G I h h h 6 8 6 < < 2 < > > : : : : > : : : : : : : > > > > > > > > - : > > > : 1 5 1 @ +.#.#.#.#.#.#.;.+.U Q Q Q Q Q Q : > > > > > > > > 1 8 8 8 > < > : : : : : - - - - - - - - - - - - - - > > > 1 5 5 8 # # # ",
"# # # ;.$.+.+.#.+.7.G G H H H H H H H H H H H H H H H H H H H H H H H H H H H H H H H H H H H H H H H U h h h 5 6 6 < 1 < > < > > > : : : : > > : - - > > > > > > > > : - : > > : : 1 1 1 & #.&.#.&.#.#.#.#.#.U Q Q Q Q Q Q : < > > > > > > > 5 8 8 8 > < > : : : : : - - - - - - - - - - - - - - > > > 1 5 5 8 # # # ",
"# # # 2.$.$.Q G G G H H G H H H H H H H H H H H H H H H H H H H H H H H H H H H H H H H H H H H H H H I h k h - - - < 1 1 f.+.+.O.+.+.X.X.X. .R R W h h k p > > < < < - $.#.$.+.+.+.+.+.O.2.G H H H G H H H G G G H G H H H P H H > : > > < < 5 8 8 - 7.X.X.O.+.+.+.+.O.+.X.+.X.X.X.X.X.X.U U R U f f p & - - < # # # ",
"# # # $.#.#.R G G G H H H H H H H H H H H H H H H H H H H H H H H H H H H H H H H H H H H H H H H G G I k h k - - - 2 2 1 F.+.+.+.+.+.O.O.O...U Q Q h h h f > > > < < 1 7.+.+.+.#.#.#.#.+.2.G H H H H H H H H H H H H H H H H H H - : > > < < 5 6 8 > X.O.O.+.+.+.+.+.+.+.+.+.X.+.X.X.X.X.L U U U f f f - - - - # # # ",
"# # # $.#.+.Q G G H H H H H H H H H H H H H H H H H H H H H H H H H H H H H H H H H H H H H H H H G G I k h k - - - 2 1 < f.+.+.+.+.+.+.O.O...R Q Q f k k h > > > < < 1 #.+.#.#.#.#.#.#.#.a.H H H H H H H H H H H H H H H H H H G : : : > < < 1 8 8 % +.+.+.+.+.+.+.+.+.+.+.+.+.+.+.+.X. .L U U U f f f % - - - # # # ",
"# # # U J D Z G G H H H H H H H H H H H H H H H H H H H H H H H H H H H H H H H H H H H H f f h H H G U k k h & & # c.j.a.l.+.X.] Z Z Z Z M Z G G H H H U P z z v > > > ;.+.#.M Z M Z M M K H H H H H H H H H H H H H H H H z z k < < < > > > E b.j.c.Z Z Z Z Z Z Z Z Z Z Z Z Z M M Z D G G H H Z U U G c c c Z # # # ",
"# # # U U U H G H H H H H H H H H H H H H H H H H H H H H H H H H H H H H H H H H H H H H h h k I H G P k k h & & $ X.X.O.X.X.X...G H H H G G G G G G G G P z k c > > : +.+.+.H H H H H H H H H H H H H H H H H H H H H H H z z z < < < > > > Q X...+.H H H H H H H H H H H H H G H H H H H H H H H G G z k l z # # # ",
"# # # U U U K H H H H H H H H H H H H H H H H H H H H H H H H H H H H H H H H H H H H H H k h h H G G I h h h & & # X.O.O.O.X.O.X.H H H H H H H H G G G H F z z c > > > ;.+.O.H H H H H H H H H H H H H H H H H H H H H H H l z z < < < > > < U  .X.O.H H H H H H H H H H H H H H H H H H H H H H H H H l k k z # # # ",
"# # # W W E P H H H H H H H H H H H H H H H H H H H H H H H H H H H H H H H H H H H H P P g g h G P H P h k h & & & X.X.X.O.O.O. .H H H H H H H H H H P P C l z c > > > j.$.$.G H H H H H H H H H H H H H H H H H H H H H H l l l 2 < < . & $ U O.X.O.H H H H H H H H H H H H H H H H H H H H H H H H H c k k z # # # ",
"# # # h h h f H H H H H H H H H H H H H H H H H H H H H H H H H H H H H H H H H H H h h h H H G h h h h k k h & & &  ...{ Z G H H H H H H H H H H H k k k h h h z > > > H H H H H H H H H H H H H H H H H H H H H H H H H H h h k > > : { X.X...X...O.H H H H H H H H H H H H H H H H H H H H H H H H H u h h k + # # ",
"# # # h h h f H H H H H H H H H H H H H H H H H H H H H H H H H H H H H H H H H H H h k h H H H f h h h k k h % & #  . .{ Z H H H H H H H H H H H H k k k k k k z > > > H H H H H H H H H H H H H H H H H H H H H H H H H H h k h > > :  .X.X.X.X. .O.H H H H H H H H H H H H H H H H H H H H H H H H H f h h k + + # ",
"# # # h h h f H H H H H H H H H H H H H H H H H H H H H H H H H H H H H H H H H H H h h k H H H f h h k k k h & & +  .{  .G H H H H H H H H H H H P k k k k k k z > > > H H H H H H H H H H H H H H H H H H H H G G G H H H h k h > > : _ ...... ...X.H H H H H H H H H H H H H H H H H H H H H H Z S H f h h k + + # ",
"# # # h h h p H H H H H H H H H h h h H H H H H H H H H H H H H h k k G H H H H H H H H H H H H f h h k k k h & & % c c c G H H H H H H H H H H H H h h k k k k z > > > H H H H H H H H H H H H H H H H H H H H H H G h k k k k h > > > .. . . .H G H H H H H H H H H H H H H H H H H H H H H H H h h h f f f k + + # ",
"# # # h h h p G H H H H H H H H h h h H G G H H H H H H H H H H h k h G H H H H H H H H H H H H f h k k k k k & & # z z c H H H H H H H H H H H H H h h k k k k z > > > H H H H H H H H H H H H H H H H H H G H H H H h k k k k k > > > ......{ H H H H H H H H H H H H H H H H H H H H H H H H H l h h h h h k # # # ",
"# # # h h f p G H G H H H H G G h h h P H H H H H H H H H H H H f k h F G G H H H H H H H H H H g h h h k h k & & # c z c H H H H H H H H H H H H H h h k k k k z > > > H G H G H H H H H H H H H H H H H H G H H H I h h h k k k > > > o. . . .H H H H H H H H H H H H H H H H H H H H H H H H H k h h h h h k # # + ",
"+ + + h h h z c c c h h h h k l Z F G H G G H H H H H H H H H H h h h h k k k k k k k k k k k k k k h c 2 < < > : : h k h H H H H H H H H H H H H H h h h h h h z > > < h h h H H H H H H H H H H H H H H H H U U U U k k k k k h > > > k k h k H H H H H H H H H H H H H H H H H H H H H H H H H F F F f h h k # + # ",
"+ + + h h h l c c c h h h k k h F G G H G H H H H H H G G H H H k h h k k k k k k k k k k k k k k k h c < < < > < > h h h H H H H H H H H H H H H H k h h h h h z > > < h f h U H H H H H G G G G G G G G H G U U U U h k k k k k < > > k h k l H H H H H H H H H H H H H H H H H H H H H H H H H G G F f h h k + + # ",
"+ + + h h h z v c c h h h h h h F G G G H H H H H H H H H H H H k h h k k k k k k k k k k k k k h k k c < < < > > > k h h H G G H H H H H H H H H H f h k h h h z > > < f f h U H G H H H G G H G H H D D H G I U K U h k k h k k < > > z h h l G H H H H H H H H H H H H H H H H H H H H H H H H G G G f h h l + + # ",
"+ # # > & - < 2 < 1 h h k - & > h h h h h h h h h h h h h h h h h h h h k k k k k k k k k k k k & - - < > > > > > > - - > k h h k k k k k k k k k h h h k t > < 2 < < > < 1 1 h h h h h h k k h k k k k k k k h k h h h k k - - - < > > l h h l H H H H H H H H H H H H H H H H H H H H H H H H H h h h h h h k # # # ",
"# # # : : > 1 1 1 < h h h > < > h h h h h h h h h h h h h h h h h h h h h k k k k k k k k k k h - > > > > > > > > > > > > h h h h h h k k k k k k k k k h h < < < > > > 2 1 < h k k k k k k k k k k h k k k k k k h h h h k < < > > < < l h h l H H H H H H H H H H H H H H H H H H H H H H H H G h h k h h h k + + # ",
"+ # # < > > 1 1 5 < h h k < < > f h h h h h h h h h h h h h h h h h h h h h k k k k k h h h h h - > > > > > > > > > > > < k h h h h h h k k k h h k k h k u > < < > > < 1 2 2 h h k k k k h h h h h h k k k h h h h h h h k > < < < < < k h h z H H H H H H H H H H H H H H H H H H H H H H H H H h k k h h h k + + # ",
"# # # - > - < 5 5 1 p h h > > > f f f h h h f f f f f f h h f h h f f f f f h h f h h f f h h h > > > < - : : > > < > > > h f f f f f f h h h h h h h h k t > < < : > 1 1 1 1 k h h h h h h h f h h h h h h h h h h h h h k < < < < < < z h h k G G G H H H H H H H H H H H H H H H H H H H H H G h k k h h h k + + # ",
"# # # u t r 5 5 1 3 - : > > > > : : > > > > > > > : : : > > > > > > > > > > > > > > > > : > > > > > > - t t t t u p > > > > > > > > > > > > > > > > > > > 1 t t t t t r > > > > > > > > > > > > > > > > > > > > > > > > > > > > > > > > z h h h k k f G G H H H H H H H H H H H H H H H H H H H H k l k h h h k + # # ",
"# # # u t t 5 1 1 5 > > > > > > > > : > > > > > : : : : > > > > > > > > > > > > > > > > > > > > > > > - u u u u t p > > > > > > > > > > > > > > > > > > > 5 t r t t t t > > > > > > > > > > > > > > > > > > > > > > > > > > > > > > > > z h h h k k f G G G H H G H H H H H G G H H H H H H H H H k k l h h h k # # # ",
"# # + p w w 3 5 5 5 - - - - - - - - - - - - > > > > > - - > > > : > > > > > > > > > > - - - - - - - - - t t t t t f : : - - > > : > < > - - > < < < > > > 1 w r t t t r > - > - : : - - - > < < < - > - - - - - - > < > > > > > > > > > k h h f k h f G G G H H G H H H H H H H H H Z H H H H H G z k k h h h k # # # ",
"# # # 1 < < ` 2.;.-.-.-.-.-.-.=.=.=.=.=.-.=.+.O.O.+.F Z Z : > > t w q < < < < < < < 5.-.-.-.-.-.;.2.2.2.-.-.-.-.2.;.2.2.;.-.=.$.-.Q U E B B B 0 8 8 > > > > > > . 2.5.2.2.5.5.5.5.5.2.-.-.h.U U U +.=.+.-.-.=.-.=.O.H < < < z z z > > : 5 5 8 8 q q 8 h h h G G G G H H H H H H H H G h h h f f p P G H f h h k # # # ",
"# # # 1 < 1 ( $.+.+.+.+.+.+.+.+.+.+.+.+.+.+.+.+.+.+.Z B B > < < t q q < < < < < < < +.#.+.+.+.#.#.#.#.#.#.#.#.#.#.#.#.#.#.#.+.&.$.U U U b v v 8 0 q > > > < < < X #.#.#.#.#.#.#.#.#.#.#.+.;.U U U O.+.+.+.+.+.+.+.+.A < 2 1 z k l > : > 6 8 6 0 q q 0 h h h Z H H H H H H H H H H G H k h h f f g H G H f h h k # # # ",
"+ + # 1 < 1 ( +.+.+.+.+.+.+.+.+.+.+.+.+.+.+.+.+.+.+.B B C < < > w q w < < < < < < : &.#.+.+.+.#.#.#.#.#.#.#.#.#.#.#.#.#.#.#.+.+.O.U U U v v v q 0 q - > < < < < % #.#.#.#.#.#.#.#.#.#.#.#.t.U U H O.+.+.+.+.+.+.+.+.V 2 < < k k l > > > q 6 6 0 q q q k h h G H H H H G H H G H H H G h h h f f f G H H f h h l # + + ",
"+ + # @ & & Q +.+.+.;.7.7.7.7.7.7.7.5.5.2.2.2.;.#.2.b Z C - & - p w w 1 < < - @ @ & t.+.O.7.7.p.p.t.t.t.t.t.7.7.7.t.t.p.p.7.7.2.2.U U E v v b 1 < 1 > < < # # #   #.#.7.j.f.7.7.f.f.f.f.p.l.L H L  .X.X.X.X.X.X.X.X.n - % : c c c - > > p w w w > < < h h h h h h h h h h h h h h h h t t t 6 6 6 h h k h h h l + + + ",
"+ + # -.#.#.+.+.+.-.H H H H H H H H H H H H H H H H G G H B B B 1 5 5 2 < < & +.+.+.+.+.$.G H H H H H H H H H H H H H G G H G G G k k h H H F c v v > : - w &.#.+.#.#.#.H H H H H H H H H U  . ...H H H H H H H H G G H G Z > < < > > > h h h p > < - h h h h h h h h h h h h h h h f < < > h k h h h h h h h k + + + ",
"+ + + -.+.+.+.+.+.O.H H H H H H H H H H H H H H H H H H H B B B < 5 5 < < < * +.+.+.+.+.+.H H H H H H H H H H H H H H H H G G G H k k k H G F v v v - - > p #.+.+.#.#.$.H H H H H H H H H U  . . .H H H H H H H H G G H H G < < < > > > k f f p > < - h h h h h h h h h h h h h h h h < < > h h h h h h h h h l # # # ",
"+ + + -.+.+.O.+.+.$.H H H H H H H H H H H H H H H H H H H B B B < 5 1 < , > & O.+.+.;.+.+.H H H H H H H H H H H H H H H H H G H G h k k H H G v c v & - : p #.+.#.+.+.$.H H H H H H H H H K .... .G H H H H H H H H G G H G > < < > > > h f f f > > - h h h h k h h h h h h h h h h f < > - k h h h k k h f h k + # # ",
"+ + + $.#.#.( G H H H H H H H H H H H H H H H H H H H H H l z z : > - (  .{ [ +.+.O.H G H H H H H H H H H H H H H H H H H H H H G H H G G H H h h h & & & w +.#.l.H G H H H H H H H H H H H H H H H H H H H H H H H K h k h - : > > > > > > > > > > > > > > > : > : - - - - - - - - - - - - - - - - - - - - - - # # # ",
"# + + $.+.#.( G H H H H H H H H H H H H H H H H H H H H G k l z - - > (  . . .O.X.O.H H H H H H H H H H H H H H H H H H H H H H H H H H H H G h h h & & & q #.#.l.G H H H H H H H H H H H H H H H H H H H H H H H H I h h h - : > > > > > > > > > > > > > > : > > : - - - - - - - - - - - - - - - - - - - - - & # # # ",
"# # + =.+.+.( H H H H H H H H H H H H H H H G G H H H H H k l z & - - ] .. . .X.O.O.H H H H H H H H H H H H H H H H H H H H H H H H H H H G H h h k & & % q $.+.5.H H H H H H H H H H H H H H H H H H H H H H H H H K h h h - : > > > > > > > < < > > < < < < < < > : > > > : < - < - > > : - : - - - - - - - - # # # ",
"# # # U U U H H H H H H H H H H H H H H H H H H H H k k k k k k # & & B C b b {  . .G G H H H H H H H H H H H H H H H H H H H H H H H H H H G h h k & & % 0 X. .O.G H H H H H H H H H H H H H H H H H H H H H H H H K h h h : > > q q 8 c.....X.X...X...X.O...O.O.O.O.O.J U H H U U U H H H U U U z z c > > : > # # # ",
"# # # E W U I H H H H H H H H H H H H H H H H H H H k k k k k k # & & c B B b  . .{ H H H H H H H H H H H H H H H H H H H H H H H H H H H H G h k h % & & q  .{ O.H H H H H H H H H H H H H H H H H H H H H H H H H I h h h : > < q q q b.X.X.X.X.O.O.+.+.+.O.O.+.+.+.X.J L U U U U U U L L U U U z v v < > : < # # # ",
"# # # W Q U I H H H H H H H H H H H H H H H H H G G k k k k k k # & & z B C b { [ ] G H H H H H H H H H H H H H H H H H H H H H H H H H H G H k k k % & & 0 ] { X.H H H H H H H H H H H H H H H H H H H H H H H H H I h h h > > > q q q B.X.X.X.O.+.+.+.+.+.O.+.+.+.+.X.D L U U U U U U L L U U U z v v & : > < # + # ",
"# # # Q U U I H H H H H H H H H H H H H H H H H G G k k k k k k # & & k v Z B H H H H H H H H H H H H H H H H H H H H H H H H H H H H H H H F k k k % & & , H H H H H H H H H H H H H H H H H H H H H H H H H H H H I h h h > : - 3 8 6 -.X.X.O.X.X.X.O.O.O.O.X.X.X.X.X.Q U U L U H U H U U U U U z v b & @ > - # + + ",
"# # # H G G H H H H H H H H H H H H H H H H H H G G k k k k k k + % & f h h h H H H H H H H H H H H H H H H H H H H H H H H H H H H H H k k k k k k & & & < H H H H H H H H H H H H H H H H H H H H H H H H H H H H H h h k & & & X.O.O.....X.$.G G G H H H H H H G G H H H G  . .{  .H H H H H H Q R Y G G G U + # # ",
"# # # P G G H H H H H H H H H H H H H H H H H G H H k k k k k k + % & p h h f G H H H H H H H H H H H H H H H H H H H H H H H H H H H H k k k k k k & & & , H H H H H H H H H H H H H H H H H H H H H H H H H H H H H h k k & & - X.+.X.X.O.X.O.H G G H H H H H H H H G H H H  . . . .H H H H H G Q U R G H H I + # # ",
"# # # H G H G H H H H H H H H H H H H H H H H G H H z k k k k k # % & p h h h G H H H H H H H H H H H H H H H H H H H H H H H H H H H H z z z k k k & & & , H H H H H H H H H H H H H H H H H H H H H H H H H H H H H h h k & & - O.X.X.X.X.....G G G H H H H H H H H H H H G [ { {  .H H H H H G Q U U G G H U # # # ",
"# # # G S S G H H H H H H H H H H H H H H H H H H H G G G h k k # % & p h h h H H H H H H H H H H H H H H H H H H H H H H H H H H H H H H G H k k k & & & 2 H H H H H H H H H H H H H H H H H H H H H H H H H H H H P h h k & & & X.X.O.+.H H H H H H H H H H H H H H H H H H H H H H H H H H H H c c v f h h k # # # ",
"# # # H Z Z G H H H H H H H H H H H H H H H H H H H H H G h k k # & & p h h f H H H H H H H H H H H H H H H G G G H H H H H H H H H H H H H H k k k & & & 2 H H H H H H H H H H H H H H H H H H H H H H H H H H H H P h h h & & & X.X.O.O.H H H H H H H H H H H H H H H H H H H H H H H H H H H H c v v f h h k # # # ",
"# # # H Z Z G H H H H H H H G H H H H H H H H H H H H H G h k k # & & f h h f H H H H H H H H H H H H H H H G H H H H H H H H H H H H G G H H h k h & & % 2 H H H H H H H H H H H H H G H H H H H H H H H G G H H H H h h k & & & X...X.X.G H H H H H H H H H H H H H H H H H H H H H H H H H H H c v v f h h k # # # ",
"# # # c z l h h h g H H H h h h G H H H H H H H H H f f f h h h # & & < > - - z z k H H H H H H H H H H H G G H H H z h g H H H G k k l h h f k h h & & & - f f p H H H H H H H H H f f h g H H H H H H b c v h k h k h h k & & - v k h I H H H H H H H H H H H H H H H H H H H H H H H H H H H H c v v f h h k # # # ",
"# # # c z z k k k f H H H h k h G H H H H H H H H H k h h h h h % & & - > < < k k l H G H H H G G G G G H H H H H H z k h H H H H z z l k h h k k k % & & 1 f f f H H H H H H H H H p k k f G G H H H H v v v k k k k h k h & & & k k k D H H H H H H H H H H H H H H H H H H H H H H H H H H H H c v v f h h k # # # ",
"# # + c z z k h k f G G H h h h G H H H H H H H G G h h h h h h % & & > < < > k k k H G G G G G G G G G G G G G G H z k k H H H P z z z k h h h k k % % - < f f f H H H H H H H H H f k h f G G H H H H v v v k k k k h h h - & & k k k D H H H H H H H H H H H H H H H H H H H H H H H H H H H H c v c f h h k # # # ",
"# # + c z z k k k h H H I h h h H P K K K H H H H H h h h h f f # - - < < < - k k k U H H H H K K K K I K U U K H P z k h H H H H l l z h h k f f f % - - - f f p H H P I I I H H H g h k h H H I H H I v v v k k k k h k h & - - k k k S H H H H H H H H H H H H H H H H H H E U U U K H H H H P c v v f h h k # # # ",
"# # # - > - w h h h k k h h h h h h h h h h h h h h h h h - - - p p t < > > : h h h h h h h h h h h h h h h h k k h k h h k k h h h h h h h k - - - - - & - h h h k k k k k k k k k k h h k < < < h h h k h h h k h t - > - & - - k k h S H H H H H H H H H H H H H H H H H H f q 0 q k h h v v v v v v f h h k + + # ",
"+ # # - - - q h h h h h h h h h h h h h h h h h h h h h h : - - f t t 2 > > : h h h h h h h h h h h h h h h h h h h h h h h h h h h h h h h h - - - - - - : h h h h k k k k k k k h h h h h < < < f h h h h h h h h p > : - - - - k h h G H G H H H H H H H H H H H H H H G G f q q w h h h v v v v v v h h h k + + + ",
"# # # - - - q k k k k h h k h k h k k h k k k h h h h h h - - - u t t < > : - h h h h h h h k k h h k k k k k k h k k k h k k h k k k h h h h & - - - - - > h h h k k k k k k k k h k k h k < < < h k k k k k k h h p : : - - - - h h k P H H H H H H H G G K H H H H H G G S t q q q h h h c c c c c c h h h k + # # ",
"# # # > > > - : : - - - - - : - - - - - : : : : - - - - - - : > 2 2 2 > > > > & : : : : - - - - - - - - - - - - - - - - - - - - - - - - - - : - - - - - - - > > > : : : : - : : : : : : : : > > > - - - - - - - - - - - : : - - - 8 q 0 h h h h h h h h h k D H H H H H p h h 5 - - > h h h h k k k k h h h h k + # # ",
"# # # < > > > > > > > > > > > > > > > > > > > > > > : : : > > > < < < < > > > > > > > > > > > > > > > > > > > > > > > : : : : : : : : : : : - - - - - - : > > > > > > > > > > > > > > > > > > > > > > : : : > > : : - - - : : > - q 0 6 h h h h h h h h h k D H H H H H u h h 6 - - > h h h k k k k k k h h h k + + # ",
"# # # > > > > > : : : : : : : : : : > > > > > > > > : : : : : : < < < < : < < : : : > > > > > > > > > > > > > > > > > > > : : - - : : : : : - - - - - - : > > > > > > > > : : : : : : : : : : : : : : : : : : : : : : - - : > > > 0 8 8 h k h h h h h h h h S H H H H H p h h 8 - - - h h h h k k k k h h h h k + # # ",
"# # # > : > 0 p p y e e e h h g g d d g 0 9 0 9 9 8 p f f f f f a f f f p p p 8 3 3 > > = , > < > > > - 1 1 5 > > > > > > h g g f f a f f f p p p f > > > < < > - 1 5 < p f f f f a a a f g a a f f f f f f f f p f g 0 0 0 4 4 8 8 1 5 1 5 5 5 5 5 5 5 5 5 0 w w w w t 5 q 0 2 : - - q 0 0 q q q q q q 0 0 q w + + + ",
"# # # > - > Y #.#.#.#.#.#.#.#.#.#.#.#.7.Q Q Q Q Q U X.+.$.#.#.#.#.#.+.+.+.+.+.+.+.+.( ^ ( Q R U % < < - f f f > > > > > > #.+.O.O.O.O.O.O.O.X.X.O. .5 1 1 < < < < t t u O.+.+.+.+.+.+.+.+.+.+.+.+.+.+.+.+.+.+.+.+.+.+.U U U U U H : : - : : : : : : : : : : : > > : : : : - - - - - - - - - - - - - - - - - - - + + # ",
"# # # > : : U $.#.#.#.#.#.#.#.#.#.#.#.#.Q Q Q Q U U O.+.#.#.#.#.#.#.+.+.+.+.+.+.+.+.^ ^ ^ R R U & > > - f f f > > > > > > +.O.O.O.O.O.O.O.O.O.X.X.X.2 1 1 < < < 2 t t t O.+.+.+.+.+.+.+.+.+.+.+.+.+.+.+.+.+.+.+.+.+.#.U U U U U U > > > : : : : : : : : > > > > > : : : : - - - - - - - - - - - - - - - - - - - # # # ",
"# # # > : > L +.;.;.#.#.#.#.#.#.2.#.#.2.U Q Q U U U O.$.#.#.$.#.$.$.$.$.+.+.$.O.+.O.^ Q Q Q Q R & > > & f f f > > > > > > +.X.X.X.X.X.X.X.X.X.X.X. .3 < 1 2 < < : t t p +.O.O.O.O.+.+.$.+.+.+.O.+.+.+.&.$.$.+.+.O.O.$.U U L U U H : : : - > > : : : : : > > > : : > > : - - - - - - - - - - - - - : & & - - - - # # # ",
"# # # 2.....O. . .+.H H G H H H H H H H G G G G G G H H H H H H H H H H H H H b Z b I U E G G S Z Z F Q < < > > > & _ ( ( {  . .] H H U U U U U U U Z Z G Z - - X |  . . . ...Z H H H H H H H H H H H H H H H H H H H G H G h k l ( ) _ ^ ^ ^ Q 5 5 5 > > > 5 5 6 ]  . . . . . . . . . . . . . . .G H Z - < < < # # # ",
"# # # O.+.+.O.....X.G G G G G G G H H H H H H H H H H H H H H H H H H H G G H k k k k k k G H H G G G / < < < < > - ] {  . . .{ { H H H H H H H H H H G G B - - & ...... .....Z H H H H H H H H H H H H H H H H H H H H H G h k h ] [ { _ _ _ ( 5 5 5 > > > 6 8 8 ..O.O.O.+.+.+.+.O.X.O.O.O.O.X.X.H U U - < < 2 # # # ",
"# # # O.+.+.O...X.X.G H H H H H H H H H H H H H H H H H H H H H H H H H H H H h k k k k k G G G G G G W > < < > > > {  . . . .{ ] H H H H H H H H H H H G B - - : ............Z H H H H H H H H H H H H H H H H H H H H H H h k h { ] ] ) _ _ E 1 5 5 : > > 5 8 8 O.X.X.O.+.+.+.+.+.+.+.+.+.O.X.X.H U U & < < 1 # # # ",
"# # # O.+.+.{  .{ [ H H H H H H H H H H H H H H H H H H H H H H H H H H H H H Z F H k k h G G H H G G W > < < - & -  .{ {  . ..._ G H H H H H H H H G G U Z - - & ......O.O.X.Z H H H H H H H H H H H H H H H H H H H H H H f h h  . .] _ _ ] U < 3 5 > > > 5 5 3 O.O.O.O.-.-.-.-.$.$.$.$.+.O.O.O.U U U - < < 1 # # # ",
"# # # O.O.+.U H H H H H H H H H H H H H H H H H H H H H H H H H H H H H H H H H H H h h g G G G k z k B > - - z z z ] { { H H H H H H H H H H H H H k k k f & & +  ...X.H H H H H H H H H H H H H H H H H H H H H H H H H H Z Z F G H H H H H H H H Q - - > X...+.X.X.+.b H H H H H H H H H H H H H H H l h k z + # # ",
"# # # O.X.O.U H H H H H H H H H H H G G H H H H H H H H H H H H H H H H H H H H H H h h h H G H h k k v > > - z z c { [ ] H H H H H H H H H H H H H k k k p & % +  ... .H H H H H H H H H H H H H H H H H H H H H H H H H H Z Z Z H H H H H H H H H W : : > X.X.X.X.X.O.n H H H H H H H H H H H H H H H l h h z # # # ",
"# # # O.X.X.U H H H H H H H H H H H H H H H H H H H H H H H H H H H H H H H H H H H h h h H H H h h k v : - - z z k { [ ] G H H H H H H H H H H H H k h k h & % @ .. .{ H H H H H H H H H H H H H H H H H H H H H H H H H H Z F Z H H H H H H H H K Q - - - X.X.X.X.X...M H H H H H H H H H H H H H H H l h h z # # # ",
"# # # E U H U H H H H H H H H H H H H H H H H H H H H H H H H H H H H H H H H H H H Z G S H H H f h h z & & & k h f Z H H H H H H H H H H H H F Z G f f h f # # & K H H H H H H H H H H H H H H H H H H H H H H H H H H H H H H H H H H H H H F k k l & % & X. . .H G H G H H H H H H H H H H H H v h h h h h k # # # ",
"# # # U U U H H H H H H H H H H H H H H H H H H H H H H H H H H H H H H H H H H H H H H H H H H p h h z & & & h h h F G G H H H H H H H H H G F Z G f h h p % % & G H H H H H H H H H H H H H H H H H H H H H H H H H H H H H H H H H H G G G Z h k k % & &  . . .H G H H H H H H H H H H H H H H b k k h h h k # # # ",
"# # # U U U H H H H H H H H H H H H H H H H H H H H H H H H H H H H H H H H H H H H H H H H H H f h h c & & % h h h H G G H H H H H H H H H H F F F f f f p & & & G G H H H H H H H H H H H H H H H H H H H H H H H H H H H H H H H H H G G G Z j k l % % &  . . .H G H H H H H H H H H H H H H H v k k h h h k # + # ",
"# # # U H H H H H H H H H H H H H H H H H H H H H H H H H H H H H H H H H H H H H H H H H H H H f h h c & & % h h k B Z B H H H H H H H H H H v c v q q t 8 & & # Z S G H H H H H H H H H H H H H H H H H H H H H H H H H H H H H H H H H G G Z h h h % & & ! Q Q S H H H H H H H H H H H H H H H v k k h h h k # # # ",
"# # # P H H H H H H H H H H H H H H H H H H H H G H H H H H H H H H H H H H H H H H H H H H H G f h h c & & % h h h f f p G H G G H H H G G H f h h & - > - & & - Z Z Z H H H H H H H H H H H H H H H H H H H H H H H H H H H H H H H H H H H Z f f h & & % Z G H H H H H H H H H H H H H H H H H z h h h h h k + # # ",
"# # # I H H H H H H H H H H H H H H H H H H H H H H H H H H H H H H H H H H H H H H H H H H H H p h h c & & % h k h f f f H G G G H H H G G G f h h - > > - & & & Z Z Z H H H H H H H H H H H H H H H H H H H H H H H H H H H H H H H H H H H Z f f h & & & Z G G H H H H H H H H H H H H H H H H z h h h h h k + + + ",
"# # # P H H H H H H H H H H H H H H H H H H H H H H H H H H H H H H H H H H H H H H H H H H H H f h h z & & & k k h f f f H H G H H H P U P P h h h : > : - & & & h k k H H H H H H H H H H H H H H H H H H H H H H H H H H H H H H H H G P H Z f f k & & & h l l G H H H H H H H H H H H H H H H z h k h h h l + + O ",
"# # # F Z Z G H H H H H H H H H H H H H H H H H H H H H H H H H H H H H H H H H H H H H H H H H f h h c & - - < < < q q q k k k k k k k k h f < < > z c c k & & # h h k H H H H H H H H H H H H H H H H H H H H H H H H H H H H H H H H H k k k f p h & & & k k k H H H H H H H H H H H H H H H H l k k h h h k # + O ",
"# # # F Z Z G H H H H H H H H H H H H H H H H H H H H H H H H H H H H H H H H H H H H H H H H H f h h c & - - < < < 0 q q k k k k k k k h h k < < < z l l k & & & h h k H H H H H H H H H H H H H H H H H H H H H H H H H H H H H H H H H k l 8 - - - % & & k k k H H H H H H H H H H H H H H H H z k k h h h k + # # ",
"# # # F Z Z G H H H H H H H H H H H H H H H H H H H H H H G H H H H H H H H H H H H H H H H G H f h h c - - - < < < 8 q 0 k k k l l l k h k h < < < c l l k & & & h h k G H H H H H H H H H H H H H H H H H H H H H H H H H H H H H H H H k l > - - - & & & k k k h h h I H H H H H H H H H H H H l k k h h h k + # # ",
"# # # Z G Z H H H H H H H H H H G H G G H H H H H H H H H G H H H H H H H H H H H H G H H H H H f h h c - - - < < < 8 0 8 z k l z z z z z l h < < < v v c h & & & h h h h h h k k h H H H H H H H H H H H H H H H H H H H H H H H H H H U k k 1 > & - & & & k k k k h h H G G H H H H H H H H H H z h h h h h k # # # ",
"# # # f f f j k l G H H H H H H G G G G G H H H H H H H H s k k H H G G H H H H H H k h j j k k k k h c - - & < < < - - : : : : : : : : : - - - - > < < 1 < % & & h h h h h h k h h U H H H H H H H H H h k l H H H H H H H H H H k k j i p p t 5 6 8 & & & h k k k h h I G G G G H H H H H H H H z h h h h f k # # # ",
"# # # f f f h k k G H H H H G G G G G G G G G G G G G G H f h h H H H H H H H H H H k h h h h h h h k c - - - < < < > - - - > > > > : : : - - : : : < < 1 > & & % h h h h h k k h h H H G H H G G G G G h k k H H H H H H H H H H h h h u p p q 5 8 8 & & & 1 < 1 h h k h k k k k k k k k k k h h f h h : - - & # # # ",
"# # # f f f k k k G H H H H H G H H G G H G G G G G H G H f k h H H G H H H H H H G k h h h h h h h k c - - > < < < : : : - - : > > : : - - : - - - 1 1 < < & & % h h h h h k k h h H G G G H G H H H H h k k P G H H H H H H H H h h h u p p w 8 8 8 & & & < < < k h k h h k k h h h h h h h h h h h k - & - - # # # ",
"# # # # & & h k k h k k k k k k k k k k k k k k k k k k k h h k 2 2 2 f k k k k k k k h f > : > < < < - > : & {  .X.O.X.X. .X.X.X.X.O.O.O.O.X.X.X.X.L H U H & - : : : : : > > k h h k k k k k k k k k k k k k k k l l k k k k k k h k k : - & < < < < - - - < < < h k k k k k k h h h h h h h h h h h k : - - - # # # ",
"# # # : - - k k k k h h k k k k k k k k h h h k k h h h h h h h : < < p h h h h h h h h h - - > > > > > > < - +.#.#.#.#.#.#.#.#.#.#.#.#.#.#.#.#.#.#.U U U P & - - - - - - - - k h h h h k k h h h h h h h k h h h k k h h h h h h h h k - - & > < < < - - - > > > - & & & & & % % % % % % % % % & & & # - - & - # # # ",
"# # # - - - l h h h h h h k k k k k h h h h h h h h h h h h h h > < < h h h h h h h h h k : - : > > > > > > > #.#.#.#.#.#.#.#.#.#.#.#.#.#.#.#.#.#.#.U U U G - - - - - - - - - k h h h h k k k h h h h h h h h h h k k h h h h h h h k k - & - > < < < - - - > > > & - - - - & & & & & & & & & & & & & & - - - & # # # ",
"# # # - - - k h h h h h k k h k k k k h h h h h h k k k k k k h - < > f h h h h h h h h h & # # & - & & & & - #.+.+.+.+.+.#.#.#.#.#.#.#.#.#.#.+.#.#.L U U H & - & - - - - - - f f h h h k k k k k h h k h h h h h k h h h h k h h h h h - - - < < < < - - > < < < - - - - - - - - - - - - - - - - - - - - - - - # # # ",
"# # # w w w 1 1 1 1 : - : & & & & & & & & & & & & & & & & & & & - - - - : > : : - - - - - +.+.+.+.#.#.+.+.#.;.G G H H H H G G G G H G G G G G G H H G G H I H H Q > > > 2 1 1 : > > - - & & & & & & & & & & & & & & - & - - - & - - - & > > > 1 8 0 &  . .{  ... . ... ....... . ............... .2 > > - - - - # # # ",
"# # # t w t 1 2 1 1 : - : & & & & & & & & & & & & & & & & & & & - - - - > > > : - - & - - +.+.+.+.+.#.#.#.#.+.H H H H H H H H H H H H H H H H H H H H H H H H H Q > > > 1 1 1 > > > - - - & & & & & & & & & & & & & - - - - & & & - - - > > > 1 q q >  . . .............X.......................O.< > < : - - - # # # ",
"# # # t w w 5 2 1 1 > : : & & & & & & & & & & & & & & & & & & & - & - - > > : : > - & & - X.+.+.+.+.#.#.#.#.O.H H H H H H H H H H H H H H H H H H H H H H H H H Q > > > 1 1 1 > > : & - - - & & & & & & - - & & & - - - - & - - & & - - > > > 3 0 8 > X. .............X.X............. ...........3 < < - - - : # # # ",
"# # # < > > _ t.7.;.7.7.#.7.7.#.#.;.;.;.7.7. .U R R Q Q U 8 0 q 5 5 5 6 6 8 8 6 5 5 _ ] ] H H H H H H H H H G H H H H H H H H H H H H H H H K k k k H H H H H H H H H P 1 1 1 w q q *.] ]  .U U U U R Q 1 0 q < < < < 5 8 5 z z z +.+.#.+.#.+.O.$.O.$.G G H H G H G G H H H H H H H H H H H H H H P H H % > < < # # # ",
"# # # < < < ' #.#.#.#.#.#.#.#.#.#.#.#.#.#.;. .U U Q Q Y U 7 0 q 5 5 5 6 8 q q 5 5 5  .] ] G G H H H G G H H H H H H H H H H H H H H H H H H H k k k H H H H H H H H H H 1 1 1 q q 0 O.] {  .U U U U U R 6 8 0 < < < < 5 6 5 l z z #.+.+.+.+.+.+.+.+.$.H H H H H H H H H H H H H H H H H H H H H H H H H & < > < # # # ",
"# # # < > > ( #.#.#.#.#.;.#.#.#.#.#.#.#.;.#.{ U U U U U Q q q q 1 5 5 8 q q 0 5 5 8 { ] [ G G H H H H H H H H H H H H H H H H H H H H H H H H k k k I H H H H H H H H H 2 1 1 q q 0 O.] ] ..U U U U U U 6 8 0 > < < < 6 5 5 z z z +.+.+.+.+.+.+.+.+.$.H H H H H H H H H H H H H H H H H H H H H H H H H # > < < # # # ",
"# # # > > > ) #.+.X.{ { {  . .{ { {  . . . ._ U U U G H H q p u 6 1 1 8 8 5 5 b Z z  .[ { G G H H H H H H H H H H H H H H H H H H H H H H H H k k k H P H H H H U p g p < < 1 U Z F -.] [  .K U U U U U 8 8 5 : < < : 1 2 2 b b Z { ] ] ] _ _ ] _ ] ] H H H H H H H H H H H H H H H H H H H H H H H H K < 6 8 5 # # # ",
"+ # # $.+.+.O.O.+.+.H H H H H H H H H H H H H H G G k k k U I H > 2 1 > > : + #.X.X.{ | ] H H H H H H H H H H H H H H H H H H H H H H H H H H h k k k l l v H H H j k k > - - 7.+.+.] ] ] _ H H H H H H G G H - - : . ] _ ]  . . .Z G G G G H H H H H H H H H H H H H H H H H H H H H H H H H H H H H H f h h h # # # ",
"# # # O.+.+.+.+.+.O.H H H H H H H H H H H H H H H G h h k I H K < 2 1 > > > + O.X.X.] [ ] H H H H H H H H H H H H H H H H H H H H H H H H H H h h k l k z B H H H h h k - - - c.#.+.) ] ] ) H H H H H H H H G : : :   ] ] [  . ...G G H H H H H H H H H H H H H H H H H H H H H H H H H H H H H H H H H h h h k # # # ",
"# # # $.+.O.+.+.+.X.H H H H H H H H H H H H H H H H h h h U I I > 2 < : > > + O.X.X.] ] ] H H H H H H H H H H H H H H H H H H H H H H H H H H h h h l k k B H H U h h h - - : l.+.+.( _ ] _ H H H H H H H G G < - -   ] ] ]  . . .S H H H H H H H H H H H H H H H H H H H H H H H H H H H H H H H H H H f h k l # # # ",
"# # + Q ! Q G F Z Z H H H H H H H H H H H H H H H H H H G H H H C C B & > > + +.X.X.G G G H H H H H H H H H H H H H H H H H H H H H H H H H H H G G G G G H H H U h k h & & & H F G H H H K H H H H H H l h h < - -   ( ( ] G H H H G H H H H H H H H H H H H H H H H H H H H H H H H H H H H H H k k k k h k l # # # ",
"# # # Q Q ! H Z Z Z H H H H H H H H H H H H H H H H H H H H H H Z Z Z - > > # X.X.X.G G H H H H H H H H H H H H H H H H H H H H H H H H H H H H H G G H H H H H U k k k & & # G G G G H H H H H H H H H f h h - - -   ( ( ( G H H G G H H H H H H H H H H H H H H H H H H H H H H H H H H H H H H l k k k k k l # # # ",
"# # # Q Q Q G Z Z Z H H H H H H H H H H H H H H H H H H H H H H Z Z C > > > + O. . .G H H H H H H H H H H H H H H H H H H H H H H H H H H H H H H H H H H H H H U k k l & % # G G F H H H H H H H H H H h h h - - -   ( ( ( H H H H H H H H H H H H H H H H H H H H H H H H H H H H H H H Z H H H k h h h h k z # # # ",
"# # # U U H Z Z Z B h h f H H H H H H H H H H H H H H H H H H H h h h - > > @  ... .S H H H H H H H H H H H H H H H H H H H H H H H H H H H H H H H H H H H H H U k k l & & % c l l P H H H H H H H H H f h h - - - X U H H H H H H H H H H H H H H H H H H H H H H H H H H H H H H H H H H k k k P H H h h k k # # # ",
"# # # U H H Z Z C v h k f H H H H H H H H H H H H H H H H H H H h h h - : > - H H H H H H H H H H H H H H H H H H H H H H H H H H H H H H H H H H H H H H H H H U k k k & & & c l z P H H H H H H H H H f h h > - - + H H H H H H H H H H H H H H H H H H H H H H H H H H H H H H H H H H H h h k P H H f h k l + + + ",
"# # # U H H Z Z Z B k k f H H H H H H H H H H H H H H H H H H H h h h : : : - H H H H H H H H H H H H H H H H H H H H H H H H H H H H H H H H H H H H H H H H H U k h k & & & c z z H H H H H H H H H H f h h - - - + H H H H H H H H H H H H H H H H H H H H H H H H H H H H H H H H H H H k k l P H H h h h l + # + ",
"# # # P H H Z Z Z B k h f H H H H H H H H H H H H H H H H H H H h h h : > > & H G H H H H H H H H H H H H H H H H H H H H H H H H H H H H H H H H H H H H P H H U h h k & & & z z z I H H H H H H H H H k h h < - - # H H H H H H H H H H H H H H H H H H H H H H H H H H H H H H H H H H H h h l P H H h h h k + + # ",
"# # # P H H c c c b H H H H H H H H H H H H H H H H H H H H H H g k h > > > & H G H H H H H H H H H H H H H H H H H H H H H H H H H H H H H H H H H H H H P k k h h h k & & & k k k K H H H H H G h k h h h h > - : # G G G H H H H H H H H H H H H H H H H H H H H H H H H H H H H H H H G h h h P H H h h h k + + + ",
"# # # P H G c c c v H H H H H H H H H H H H H H H H H H H H H H h k k > > > & G G G G G H H H H H H H H H H H H H H H H H H H H H H H H H H H H H H H H H P h h k h k h & & & k k k K H H H H H G h k k k k k > - > # G G G H G G H H H H H H H H H H H H H H H H H H H H H H H H H H H H H h h h H H H h h h k + + # ",
"# # # P D D c c c b H H H H H H H H H H H H H H H H H H H H G D f k k : > > & G D G H H H G G G H H H H H H H H H H H H H H H H H D G F H H H H H H H D G F h k h k k f & % & k h h H G D D G G G k k k k k k - - : % Z D H H G G G G H K H H H H H H H H H H H H H H H H H H H H H H H H H h h h H H H f h h k + # # ",
"# # # h h h k k k b H H H H H H H H H H H H H H H H H H H f k k k k k > > > : h k k k k k H G G G H H H H H H H H H H H H H H H H h h h H H H H H H f h k k h h k < > > & & & 6 5 5 k k k k k k k k k k k k k - : : # h k k H G G h k h G G H H H H H H H H H H H H H H H H H H H H H H H H f f f H G G p h k k # # # ",
"# # # h h k k k k B H H G G G H H H H H H H H H G G G H H f h k k k k > > > > h h h h h k G G G G G H H H H H H H H H H H H H H I h h f G G G H H H h h h h h h k > > > & - & 6 5 5 k h h h h h k k k k k k k - : : # k k k H G H h h h G G H H H H H H H H H H H H H H H H H H H H H H H H f f h H G G f h k l # # # ",
"# # # k h h h k k B G H H G G G H H H H H H H H G G G G H k h h k k k > > > : h h h h k h G G G G G G H H G G H H H H H H H H H H h h f G G G G H H h h h k h h f < > < & & & 6 5 5 k h h h k k k k h h k k k - : : # k h h H H H f h h S H H H H H H H H H H H H H H H H H H H H G H H H H h f f H G H f h k l # # # ",
"# # # t q q h k k k l k k k k k F H H H H H Z k k k k k k k k k k k k > > > - h h h h h k k k k k k k z f f f H H H H H H H H G F < > - h k k k k l k h h h 1 < 8 U U U h f f 1 5 1 h h h k < < < < > < < > < - : : # h h h k l k < < < Z H H H H H H H H H H H H H H H K k h P H H Z l l h < 1 < h k k h h k z # # # ",
"# # + w q q f k k k k k k k h h H H H H H H Z h h h h h h k k k h h k > > > - h h h h h h k h k k k h h f f f H H G G G G G H H P > > > h h k k k k k k k h > > & Q Q U k z z < 2 1 k f h k < < < > > > > > > > > > # h h h h h h < > > S H H H H H H H H H H H H H H H H k k P H G G h h k < < < k h h h h k z + # # ",
"# # # w q q h k k k k k k k k h H H H H H H v h h h h h k k k k h h k > > > - h h h h h k k k k k k k h f f f H H H H H H H H H U > < > h h k k k k k k k h > > - Q Q Q l l l < 1 1 k f h k < < < > > > > > > > > > # h h h h h h < > > H H H H H H H H H H H H H H H H P k k I H H H h k k < > < k h h h k k z # # # ",
"# # # w q q h k k k k k h f f h Z G G G G G v k h h h h h h f f h f f > > > > f f f k h k k k k k k k h h f f S S G G Z G H G H P > > > h h k k k h k k h t > < % U U E l l k > 1 2 k f f k < < < < < 2 < > > > > > - f f f f f f 5 < < C S S G S S S S S S S S S S S S G k k P G G F f h h - > < k h h h h f k # # # ",
"# # # # # # 8 h h h h h h < < > f h h h h h h h h h : > > > > > > > > > > < > > < > k h h h k k k h h h h h h h h h h h h > > > > > > : h h h h h h < < > > > > > 5 6 8 t t t > < > > > > > > < < f f h r q q > < > > > > > > > > h h h h h h h h h h h h h h h h h h h h h h h h h f < < > h h h h h h O # # # # # # ",
"# # # # # # 8 h h h h h h > > > f h h h h h h h h h > > > > > > > > > > > > > > > > h h h h h h h h h h h h h h h h h h h > > > > > > : h h h h h k > > > > > > > 6 5 6 t t t : > < > > > > > > < f h f q w q > < > > > > > > > < h h h h h h h h h h h h h h h h h h h h h h h h h h > > : k h h f h h X # # # # # # ",
"# # # # # # 6 h h h h h k > > < f f h h h h h h h h : > > > > > > > > > > > > > > > h h h h h h h h h h h h h h h h h h h > > > > > > : h h h h h h > > > > > > > 6 5 6 t t t : > > > > > > > < < h f f q w w - > > > > > > > > > k h h h h h h h h h h h h h h h h h h h h h h h h h > > > h h h h h h X # # # # # # ",
"# # # # # # # # # # # # # % # # # # # # # # # # # # # # & % # # # # # % # % # # # # + # # # # # # # # # # # # # + # # # # # % # # % # X # # # # # # # % # # # # # # # # # # # + # % % # # % # # # + # + + # # # # # # # # # % % % + # # # # # # O O # # # # # # # # # # # # # # # # % # % # # # # # % & # # # # # # # ",
"# # # # # # # # # # # # # # # # # # # # # # # # # # # # # # # # # # # # # # # # # # # # # # # # # # # # # # # # # # # # # # # # # # # # # # # # # # # # # # # # # # # # # # # # # # # # # # # # # # # # # # # # # # # # # # # # # # # # # # # # # # # # # # # # # # # # # # # # # # # # # # # # # # # # # # # # # # # ",
"# # # # # # # # # # # # # # # # # # # # # # # # # # # # # # # # # # # # # # # # # # # # # # # # # # # # # # # # # # # # # # # # # # # # # # # # # # # # # # # # # # # # # # # # # # # # # # # # # # # # # # # # # # # # # # # # # # # # # # # # # # # # # # # # # # # # # # # # # # # # # # # # # # # # # # # # # # # ",
"# # # # # # # # # # # # # # # # # # # # # # # # # # # # # # # # # # # # # # # # # # # # # # # # # # # # # # # # # # # # # # # # # # # # # # # # # # # # # # # # # # # # # # # # # # # # # # # # # # # # # # # # # # # # # # # # # # # # # # # # # # # # # # # # # # # # # # # # # # # # # # # # # # # # # # # # # # # "
};
