/* XPM */
static const char *wall_42_100[] = {
/* columns rows colors chars-per-pixel */
"100 100 157 2 ",
"   c #020204",
".  c #060608",
"X  c #080709",
"o  c #070809",
"O  c #0A0A0C",
"+  c #0F0E10",
"@  c #100F11",
"#  c #141416",
"$  c #161618",
"%  c #181719",
"&  c #171819",
"*  c #1B1B1C",
"=  c #1E1F20",
"-  c #201F21",
";  c #1E2023",
":  c #252626",
">  c #252627",
",  c gray15",
"<  c #262627",
"1  c #272627",
"2  c #262727",
"3  c #272727",
"4  c #252526",
"5  c #252527",
"6  c #252528",
"7  c #262528",
"8  c #252628",
"9  c #262628",
"0  c #272628",
"q  c #272728",
"w  c #272629",
"e  c #272729",
"r  c #262628",
"t  c #282728",
"y  c #282729",
"u  c #282729",
"i  c #272829",
"p  c #292928",
"a  c #282829",
"s  c #292829",
"d  c #28282A",
"f  c #29282A",
"g  c #29292A",
"h  c #29292B",
"j  c #2A292A",
"k  c #2A292B",
"l  c #2A2A2B",
"z  c #2B2A2B",
"x  c #2A2A2C",
"c  c #2B2B2C",
"v  c #2B2A2D",
"b  c #2B2B2D",
"n  c #2C2C2D",
"m  c #2C2D2E",
"M  c #2D2D2E",
"N  c #2D2D2F",
"B  c #2E2D2F",
"V  c #2E2E2F",
"C  c #2A2A2C",
"Z  c #2F2E30",
"A  c #2F2F30",
"S  c #2E2F31",
"D  c #2F2E30",
"F  c #313030",
"G  c #323133",
"H  c #333335",
"J  c #343435",
"K  c #353536",
"L  c #353537",
"P  c #363637",
"I  c #343335",
"U  c #383737",
"Y  c #373738",
"T  c #3F3F3F",
"R  c #3A3A3B",
"E  c #403E3F",
"W  c #40403F",
"Q  c #3E3E40",
"!  c #3F3F40",
"~  c #3F3F41",
"^  c #403F40",
"/  c #403E40",
"(  c #3F4041",
")  c gray25",
"_  c #404041",
"`  c #404141",
"'  c #414141",
"]  c #424141",
"[  c #424241",
"{  c #404042",
"}  c #404142",
"|  c #414142",
" . c #424142",
".. c #434142",
"X. c #414242",
"o. c gray26",
"O. c #434242",
"+. c #424243",
"@. c #434343",
"#. c #444343",
"$. c #454445",
"%. c gray27",
"&. c #464546",
"*. c #474546",
"=. c #464646",
"-. c #464746",
";. c #474746",
":. c gray28",
">. c #454545",
",. c #484747",
"<. c #484747",
"1. c #474847",
"2. c #484847",
"3. c #484847",
"4. c #474748",
"5. c #484748",
"6. c #474848",
"7. c #484848",
"8. c #494848",
"9. c #494948",
"0. c #494949",
"q. c #4A4949",
"w. c #494A49",
"e. c #4A4A49",
"r. c #4B4A49",
"t. c #49494A",
"y. c gray29",
"u. c #4B4A4A",
"i. c #4A4B4A",
"p. c #4B4B4A",
"a. c #4A4A4B",
"s. c #4B4B4B",
"d. c #4C4B4A",
"f. c #4C4B4B",
"g. c #4B4C4B",
"h. c #4C4C4B",
"j. c #4D4C4B",
"k. c #4D4B4C",
"l. c #4B4C4C",
"z. c #4C4C4C",
"x. c #4D4C4C",
"c. c #4D4D4C",
"v. c gray30",
"b. c #4E4D4D",
"n. c #4E4E4C",
"m. c #4E4E4D",
"M. c #4F4D4E",
"N. c #4E4E4E",
"B. c #4F4E4E",
"V. c gray31",
"C. c #4A4A4A",
"Z. c #504F4D",
"A. c #504F4F",
"S. c #4F504F",
"D. c #50504E",
"F. c #50504F",
"G. c #535353",
/* pixels */
"                                                                                                                                                                                                        ",
"                                                                                                                                                                                                        ",
"        z.y.y.y.y.y.y.y.z.N Z # #     y.y.d.y.y.y.y.y.y.y.y.y.a a 8 a           y.y.y.y.z.z.h.y.4 8 z.z.a a N N     o o o o o O O z.z.z.h.y.y.y.z.h.z.z.z.d.y.y.y.y.a a b 4 4       a a a a # #         ",
"        D.y.y.y.d.h.k.z.y.G L # #     y.h.z.z.h.z.h.h.z.z.d.y.a a a b           z.d.h.z.z.z.z.z.4 4 z.Z.a a N Z     o o o X o O # z.z.z.z.k.h.z.z.z.z.z.z.z.h.z.z.%.b b b 4 8       a a a a # #         ",
"    * 4 y.y._ ( _ _ _ _ _ N Z * &     y.y.y.y._ ^ ! _ _ T _ ! a y 4 4     * * * y.z._ _ _ _ _ _ L G %._ a a N b # # O O .     a 4 y.y._ _ _ _ ( _ _ _ _ _ _ _ _ _ + % $ # a a # # # 4 4 4 4 * = o .     ",
"    y.y.y.y.4 4 4 4 8 4 4 4 4 N N     y.2.%._ 4 4 4 4 4 4 4 4 4 4 # #     h.y.y.y.z.4 4 4 4 4 4 y.y.4 4 4 4 4 4 4 4 # #     o 2.y.y.%.4 4 4 4 4 4 4 4 8 8 4 4 4 4 # # # # a b N N N $ * # # L G # #     ",
"    d.y.d.y.4 4 4 4 4 4 4 4 4 N b     %.y.#.%.4 4 4 4 4 4 4 4 4 4 # #     z.d.y.y.z.4 4 4 4 4 4 y.y.4 4 4 4 4 4 4 4 # #     o y.y.y.%.4 4 4 4 4 4 8 4 4 8 3 4 y 4 4 4 # # N a N N b 4 4 4 4 L L # #     ",
"    l.z.4 4 4 4 4 4 4 4 4 8 4 # #     & & 4 4 4 4 8 8 4 4 4 8 4 4 # #     z.z.z.4 4 4 4 4 4 4 8 4 4 4 4 4 4 8 4 4 8 # #     o y.z.4 4 4 4 4 4 4 8 4 8 8 8 4 4 4 4 4 4 # # 4 4 4 4 4 4 4 4 4 * & # #     ",
"    y.y.4 4 4 4 4 4 4 4 4 4 8 # #     * * 4 4 4 4 4 4 4 4 4 4 4 4 # #     z.y.Z.4 4 4 4 4 4 4 4 4 8 4 4 4 4 4 8 4 4 # #     o y.y.4 4 4 4 4 4 4 4 4 8 8 4 4 4 4 4 4 4 # # 4 4 4 8 4 8 4 4 4 * & # #     ",
"    y.y.4 4 4 8 4 4 4 4 4 4 4 # #     O O 4 4 4 4 4 4 4 4 # # 4 4 # #     b b 4 4 4 4 4 4 4 4 4 4 4 4 4 4 4 4 4 # # $ #     o 2.y.4 4 4 4 4 4 4 4 4 8 4 8 4 4 4 4 4 4 4 8 4 4 4 4 4 4 4 4 4 # # # #     ",
"    y.g.4 4 4 4 4 4 4 4 4 4 4 # #     O O 4 4 4 8 8 4 4 4 $ # 4 4 # #     y b c 4 4 4 8 4 8 4 4 4 4 4 4 8 4 4 4 # # # #     o y.y.4 4 4 4 4 4 4 4 8 8 4 8 8 4 4 4 4 4 4 4 4 8 4 4 4 4 4 4 4 # $ # #     ",
"    y.y.4 4 4 4 4 4 4 4 4 8 8 # #     O O = = 4 4 4 4 4 4 # # 4 4 # #     4 a a 4 4 4 4 4 4 4 4 4 4 4 4 4 8 4 8 * * # #     o ,.y.4 4 4 4 4 4 4 4 4 4 4 4 4 4 4 4 4 4 4 4 4 4 4 8 4 4 4 4 4 $ # # #     ",
"    %.y.O O # # 4 4 4 4 4 8 8 # #     O O o . # # # # # # # # * * # #     a 4 4 4 4 4 4 4 4 4 4 4 4 4 4 8 4 4 4 4 8 # #     o %.%.4 4 4 8 4 4 4 4 4 8 4 8 4 4 4 4 4 4 4 4 8 8 8 4 8 4 4 4 4 $ # # #     ",
"    y._ = = & # 4 4 4 4 4 4 8 # #     O O . . # # # # # # # # * * # #     a 4 4 4 4 4 4 4 8 4 4 4 4 4 4 4 4 4 4 4 8 # #     o _ y.4 4 4 4 4 4 4 4 4 4 4 4 4 4 4 4 4 4 4 4 4 8 8 4 4 8 4 4 4 # $ # #     ",
"    ; 4 ; ; ; # # # # # # # #     & $     O O                             a 4 4 4 8 8 8 8 4 4 4 4 4 4 4 4 4 4 4 # # # #       a 8 4 4 4 4 4 4 4 4 4 8 4 4 4 4 4 4 4 4 4 4 4 4 4 4 4 4 4 4 4 # # # #     ",
"    ; ; ; ; # # # # # # # # #     & *     O O                             a 4 4 4 4 8 8 4 4 4 4 4 4 4 4 4 8 8 4 # $ $ #       4 y 4 4 4 4 4 4 4 4 4 8 4 4 4 4 4 4 4 4 4 4 4 4 4 4 4 4 4 4 4 $ # # #     ",
"                              o o O o Y Y Y Y Y Y Y Y N N N N N N         * * * # # 8 4 4 4 4 4 4 4 8 4 # # # # $ # # #       # # # # 4 4 4 4 4 4 4 4 4 4 # # 8 4 4 4 8 4 4 4 8 8 4 8 4 # # # # # #     ",
"                              O o o O Y R Y R R Y R Y N N Z N N Z         = * * # # 4 8 4 8 4 4 4 4 8 4 # # # # # # # #       # # # # 4 4 4 4 8 8 4 4 4 y # # 4 8 4 8 4 4 4 4 8 8 8 8 4 $ # # # # #     ",
"                                  .   Y Y R T T T R R N N N N Z Z         * * * # # a a 4 4 8 4 a a a a # # # # # # # #       # # # # a a a a a a a 8 8 y $ $ a a 4 4 4 4 8 4 a a a a y $ $ $ & # #     ",
"    o o     z.y.y.y.y.y.y.y.2.2.y.y.4.%.%.8 8 4 4 4 4 4 4 %.#.4 4 4 4     * * * # # # # 4 4 4 8 # # # #     # # $ # # #       # # # # # # # # # # # # # # $ # # # 4 4 4 4 8 4 # # # # # # $ o o         ",
"    . o     y.y.z.y.y.y.y.y.y.y.y.y.2.,.y.4 4 4 4 4 4 4 4 #.%.4 4 4 4     * & * # # # # 8 8 4 8 # # # #     # # $ $ # #       # # # # # # # # # # # # # # # # # # 4 4 4 8 4 4 # # # # # # # o o         ",
"        y.y.y.y.4 4 4 4 4 4 4 4 4 4 4 4 4 4 4 4 4 4 4 4 4 4 4 4 4 # #           # # # # # # # # # #     # # # #                                           o o o o # # # # # # # # # # # # #     # #     ",
"        z.y.y.y.4 4 4 4 4 4 4 4 4 8 4 8 4 4 4 4 4 4 4 4 4 4 4 8 8 # #           # # # # # # # # # #     # # # #                                           o o o o # # # # # # # # # # # # #   . # #     ",
"    y.d.y.y.4 4 4 4 4 4 4 4 4 4 4 4 4 4 4 8 4 4 4 4 4 4 4 4 4 4 4 # # o .                                               G.h.y.y.z.y.z.I L L L             o o                                   o o     ",
"    d.y.y.y.4 4 4 4 4 4 4 4 4 4 4 4 4 4 4 4 4 4 4 8 4 4 4 4 4 4 4 # # . o                                               G.y.y.g.y.z.2.L I L Y             o o                                   o o     ",
"    d.h.4 4 4 4 4 4 4 4 4 4 4 4 4 4 4 4 4 4 4 4 4 4 4 8 8 4 4 4 4 # #           y.y.2.y.,.y.b Z # #         y.h.%.y.y.%.4 4 4 4 4 4 4 4 4 4 4 4 4         o o z.y.1.y.2.y.y.y.%.%.%.%.N a a @ +         ",
"    h.y.4 4 4 4 4 4 4 4 4 4 4 4 4 4 4 4 8 4 8 4 8 8 4 4 4 4 4 4 4 # #           y.y.y.2.2.%.N N # #         z.y.y.y.y.y.4 4 4 4 8 4 4 4 4 4 4 4 4         X o %.2.%.y.y.y.y.y.y.2.2.2.N b n @ #         ",
"    N N 4 4 4 4 4 4 4 4 4 4 4 4 8 4 4 8 8 4 4 8 4 8 4 4 4 # # 4 4 # #     y.#.y.y.y.4 i i 4 4 4 4 4 # $     y.y.8 4 8 8 8 4 4 4 4 8 4 8 4 4 4 # #         6.%.4 4 4 8 8 i 8 4 8 8 4 4 4 4 4 4 4 $ #     ",
"    N N 8 4 4 8 4 4 4 4 4 4 4 4 4 4 4 4 4 4 4 4 4 4 4 4 4 # # 4 4 # #     z.y.y.,.d.4 4 4 4 4 4 4 4 & $     z.y.4 4 4 4 4 4 4 4 4 4 4 8 4 8 8 # $         y.%.4 4 4 4 4 4 4 4 4 4 4 4 8 4 4 4 4 # &     ",
"    $ # 4 4 8 8 4 4 8 4 4 4 4 4 4 4 4 8 4 8 4 4 4 4 4 # # a 8 # $ # #     y.y.y.8 4 4 4 4 4 4 4 $ # # #     c 4 4 4 4 4 4 4 4 4 4 4 4 4 4 4 8 # #     1.2.%.,.4 4 4 4 4 4 4 4 4 4 4 4 4 4 4 4 4 # #     ",
"    # # 4 4 8 4 4 4 4 4 8 4 4 4 4 4 4 4 4 4 4 4 4 4 8 # # 4 4 # # # #     y.%.%.4 4 4 4 4 4 4 8 $ # # #     4 4 4 4 4 4 4 4 4 4 4 4 4 8 8 8 8 # #     y.%.%.,.4 4 4 4 4 4 4 4 4 4 8 4 4 4 4 4 4 # #     ",
"    # # 4 4 4 8 4 4 # # # 8 8 4 4 4 4 4 4 # # 4 4 4 4 4 4 4 8 # # # #     & * # 4 4 4 4 4 4 8 4 # # # #     4 4 4 4 4 4 4 8 4 4 8 4 4 4 4 # # # #     #.%.4 4 4 4 4 4 4 4 4 4 4 4 4 4 4 4 4 # # # #     ",
"    # # 4 8 4 8 4 4 # # # 4 4 4 4 8 4 4 8 # # 4 4 4 4 4 8 4 4 # # # $     & * & 4 4 4 4 4 4 4 8 # # # #     4 4 4 4 4 4 4 4 4 8 4 4 4 4 4 # # # #     %.%.4 4 4 8 4 4 4 4 4 4 4 4 4 4 4 4 4 # # # #     ",
"    # # 4 4 4 4 8 4 # # # 8 4 8 4 8 8 4 8 # # 4 8 8 4 4 4 8 8 # # # #     * & & 4 4 4 8 4 8 4 8 # # # #     4 8 4 4 4 4 8 4 8 4 4 8 8 4 8 # # # #     z.y.4 4 8 4 4 8 4 4 8 8 8 4 8 8 4 4 4 # # # #     ",
"    # # * * # # # # 8 8 8 8 8 4 4 8 4 8 4 # # # # # # # # # # $ $         # # # 4 4 8 8 4 8 8 4 # # # #     # # 4 8 4 8 4 8 4 8 8 8 8 b b # # # #     # # 4 8 4 4 8 4 4 8 4 4 4 4 4 8 4 4 8 4 4 # #     ",
"    # # * * # # # # c 8 8 8 8 8 4 8 8 4 8 # # # $ # # # # # $ # #         # # # 4 4 8 8 4 4 8 8 # # # #     # $ 4 8 y a a a y a 8 a a b c # # # #     # # 4 4 4 4 4 4 4 4 4 4 4 4 4 4 8 4 8 8 4 # #     ",
"        . o # #     $ # # # # # # # # # # # # # # # # # # # #                   # # # # # # # # # #         . . # # # # # # # # # # # # # # #         # # 4 4 4 4 4 4 4 4 4 4 4 8 4 4 8 4 4 # # # #     ",
"        o o # #     $ # # # # # # # # # # # # # # # # # # # #                   # # # # # # # # # #         .   # # # # # # # # # # # # # # #         # # 4 4 4 4 4 4 4 4 4 4 8 4 4 4 4 8 4 # # # #     ",
"    + + . .                                                       + + O O                           O O O O                                           # # # # 4 4 4 4 4 4 4 8 4 4 4 4 4 4 4 & & # #     ",
"    O # . .                                                       @ O O O                           O O O O                                           # # # # 4 4 4 4 4 4 4 4 4 4 4 4 4 4 4 $ $ # #     ",
"        h.y.,.y.y.y.y.2.y.y.%.2.y.= *     O O         2.y.y.y.y.y.y.y.y.y.y.y.y.y.y.a y * * o o         y.y.y.y.y.y.y.y.4 a 4 y.y.y.y.,.2.    $ #     o o O O # # 4 4 4 4 4 4 4 4 4 # # # # 4 4 # #     ",
"        2.y.y.y.y.y.y.2.1.y.2.y.y.* -     o O         h.y.y.y.y.y.y.y.y.y.y.y.y.y.h.a a * * O o         y.y.h.y.y.y.y.y.b a a y.y.y.y.%.y.    # $     o o O O # # 4 4 4 4 4 4 4 4 8 # # # # 4 4 # #     ",
"    %.z.y.y.4 4 4 4 8 4 4 4 4 8 4 4 4 * * . .     1.1.y.y.8 8 4 4 4 8 4 4 8 4 4 y 4 # # 4 4 * =     #.y.z.z.4 8 4 4 4 4 @._ @.4 4 4 4 4 4 4 4         # #     # # # # # # # # # # #     # # # # # #     ",
"    h.y.y.y.4 4 4 4 4 4 4 4 4 4 4 4 4 * 4 o       y.y.y.y.8 4 4 4 4 4 4 4 4 4 4 4 8 # $ 4 4 = 4     z.y.z.z.4 4 4 4 4 4 y.#.%.4 4 4 4 4 4 4 a         # #     # # # # # # # # # # #     # # # # # #     ",
"    y.z.4 = 4 4 4 4 4 4 4 4 4 4 4 4 4 # #     D.d.y.,.4 4 4 4 4 4 4 4 4 4 4 4 4 4 4 4 8 4 4 # #     y.z.4 * 4 4 4 4 4 4 4 4 4 4 4 4 4 4 4 # #                                                           ",
"    y.z.4 4 4 4 4 4 4 4 4 4 4 4 4 4 4 $ &     #.%.y.,.4 4 4 4 4 4 4 4 4 4 4 4 4 4 4 4 4 4 4 # #     y.h.4 4 4 4 8 4 4 4 4 4 4 4 4 4 4 4 4 # #                                                           ",
"    %.^ 4 4 4 4 4 4 4 4 4 4 4 4 4 * & # #     _ Y #.%.4 4 4 4 4 4 4 4 4 4 4 4 8 4 4 4 4 4 8 # $     z.%.4 4 4 4 8 4 8 4 4 4 8 8 4 4 4 4 4 # #     .   L G G N L I L L G L 4 = * 4 4 = = 4 ; # #         ",
"    Z G 4 4 4 4 4 4 4 4 4 4 4 4 4 # # # #     4 - _ _ 4 4 4 4 4 4 4 4 4 8 8 4 4 4 4 8 4 8 4 $ $     %.%.4 4 4 4 8 8 4 8 4 4 4 4 8 4 4 4 4 # #     o o ,.2.%.,.1.%.%.,.2.y.4 a a a a a a N N * =         ",
"    G G 4 4 4 4 4 4 4 4 4 4 4 4 4 # # # #     = 4 4 4 4 4 4 4 4 4 4 8 4 8 4 4 4 4 4 4 4 4 4 # $     4 8 4 4 4 4 8 8 4 4 4 8 4 8 8 4 4 4 4 # #     X O y.,.y.y.%.%.y.y.y.%.a N a a b a b N N * *         ",
"    4 4 8 4 4 4 4 4 4 4 4 4 4 4 4 # # # #     # # 4 4 4 4 4 4 4 4 4 4 4 4 4 4 8 4 4 8 4 # # # $     4 4 4 4 4 4 8 4 8 4 8 4 4 4 8 8 8 4 4 # #     ,.y.,.y.4 4 4 4 4 8 4 4 4 4 _ _ _ 4 4 4 4 L L N Z     ",
"    4 4 4 4 4 4 4 8 4 4 4 4 4 4 4 # # # #     # # 4 4 4 4 4 4 4 4 8 8 4 4 4 4 4 8 4 4 4 $ # # #     4 4 4 4 4 8 8 4 4 4 8 4 8 8 4 4 4 8 4 # #     ,.%.y.%.4 4 4 4 8 4 4 8 4 4 %._ _ 4 4 4 4 L L N G     ",
"    4 4 4 4 4 4 4 4 4 4 4 4 4 8 4 4 4 # #     # # 4 4 4 4 4 4 4 4 4 4 4 8 4 4 4 4 4 8 4 4 8 $ $     4 4 4 4 8 4 8 4 4 4 8 4 8 4 4 4 4 4 8 # #     2.%.8 4 4 4 4 4 4 4 4 4 4 8 y 4 4 4 4 4 4 * * # #     ",
"    4 4 8 4 4 4 8 8 8 4 4 4 4 4 4 8 4 # #     # # 4 4 4 4 4 4 4 4 4 4 4 4 8 8 8 4 4 8 8 8 a # $     y 4 4 4 4 8 8 8 8 8 8 4 8 4 8 4 8 8 8 # #     y.%.4 8 4 4 4 4 4 4 4 4 8 8 4 4 4 4 4 8 8 * * # #     ",
"    $ * # # 4 8 # $ 4 4 4 4 4 4 8 # # # #         & $ 4 4 4 4 4 4 4 4 4 4 4 # # 4 4 & & # # # #     # # 4 4 4 4 8 4 # $ 8 4 4 8 4 * * & $ # #     $ # 8 4 4 4 4 4 4 4 4 4 8 4 4 4 4 4 4 4 8 * * # #     ",
"    & & # # 4 4 # # a 4 4 4 4 4 4 # # # #         # $ 4 4 4 4 4 4 4 4 4 4 4 # # 4 a $ & # # # #     # # 4 4 4 8 4 8 # # a 4 4 4 4 * * $ % # #     # $ 4 4 4 8 4 4 4 4 4 4 4 4 4 4 y 4 4 8 4 * * # #     ",
"        # # # # # # # # # # # $ # # #     # #     # # # # # # # # # # $ # # # # # # # # # #         # # $ # # # # # # #       # $ # # # #         # # 4 4 4 4 4 4 4 4 4 4 4 4 O O O # # * * * * # #     ",
"        # # # # # # # # # # # # # # #     O #     # # # # # # # # # # # # # # # # # # # # #         # # # # # # # # # #       # # # # # #         # # 4 4 4 4 4 4 4 4 8 4 4 4 o O O $ # * * * * # #     ",
"                                                                                                                                                  o O # # # # # # 4 4 4 4 # #       # # # # # # # #     ",
"                                                                                                                                                  O o # # # # # # 4 8 4 4 # #       # # # # # # # #     ",
"                                                                                                                                                  O O # # # $ # # 8 a a 8 # #       # # # $ $ # # $     ",
"        z.y.y.y.y.y.y.y.y.Z N N b y.y.y.y.y.y.y.y.y.y.G L b b     # #           y.y.y.y.2.y.y.2.o o     O O %.y.2.y.y.y.y.y.y.y.y.y.y.y.y.a a 8 8                                                       ",
"        d.y.y.y.d.k.k.k.y.N N N N y.y.k.y.y.d.k.y.k.d.L G N b     # #           y.y.y.y.y.y.y.z.o o     + O y.2.2.y.y.y.y.y.y.y.y.y.y.y.y.8 a y a                                                       ",
"    2.y.%.%.8 4 4 4 4 4 4 4 4 4 4 4 4 4 4 4 4 4 4 # # # # 4 4 4 4 .       %._ _ _ %.4 4 4 8 y 8 4 4     #.%.#.%.a 4 8 4 4 4 4 4 4 4 4 4 4 4 4 # # E _ R Y .           %.y.6.1.y.%.%.%.5.y.#.8 i         ",
"    y.y.y.y.4 4 4 4 4 4 4 4 4 4 4 4 4 4 4 4 4 4 4 # # % $ 4 4 4 8         %._ _ %.#.4 4 4 4 8 8 8 4     %.#.%.%.4 4 8 4 8 4 4 4 8 4 4 4 4 4 8 # # _ T T T           . y.%.2.1.y.,.%.,.,.2.y.a i         ",
"    y.y.8 4 4 4 4 4 4 4 4 4 4 4 4 4 4 4 4 4 4 4 4 4 4 # # 4 4 & # .   & & _ _ @.4 4 4 8 4 8 8 y # &     @._ 4 4 4 4 8 4 4 8 4 4 y 8 4 4 4 4 4 = 4 4 4 a 8 a b     h.y.%.2.4 4 8 4 4 4 4 4 4 4 4 # #     ",
"    y.y.4 4 4 4 4 4 4 4 4 4 4 4 4 8 8 4 4 4 4 4 4 4 4 # # 4 4 # &     & * %._ %.4 4 4 4 4 4 8 4 $ #     _ #.4 4 4 4 4 8 4 8 4 8 4 8 8 4 4 4 8 4 4 4 4 8 4 a a     y.y.y.,.4 4 4 4 4 4 4 4 4 4 4 # #     ",
"    b a 4 4 4 4 4 4 4 4 4 4 4 4 4 4 4 4 4 4 4 4 4 4 4 4 4 4 4 # #     $ # 4 b 8 4 4 8 8 8 4 4 4 # #     b 4 4 4 4 8 8 8 8 4 4 4 y 4 4 4 4 4 8 4 4 4 8 8 b # *     y.%.a 8 4 4 4 4 4 4 4 4 4 # $ # #     ",
"    a a 4 4 4 4 4 4 4 4 4 4 4 4 4 8 4 4 4 4 4 4 4 4 4 4 4 4 4 # #     # # y 4 4 4 8 4 8 4 4 4 4 # #     4 4 4 4 8 4 y 8 4 4 8 y 8 4 8 8 8 4 4 4 8 8 4 4 4 # #     2.,.4 4 4 4 4 4 4 4 4 8 4 # # # #     ",
"    a a 4 4 8 8 4 4 4 4 4 4 4 4 4 4 4 4 4 4 4 4 4 4 4 4 4 4 4 # #     # # 8 4 4 4 8 4 8 4 4 4 4 # #     4 8 4 4 8 8 4 4 8 4 4 4 4 4 4 4 8 4 4 8 4 4 8 4 4 # #     y.%.4 4 4 4 4 4 4 4 4 4 4 # # # #     ",
"    4 4 4 4 4 4 4 4 8 4 4 4 8 4 4 4 4 8 8 4 4 4 4 4 4 4 4 4 4 # #     # # # # + 8 4 8 8 8 8 # #         4 = 4 4 4 8 8 8 4 4 4 8 4 8 4 8 4 4 8 4 4 4 8 8 4 # #     4 4 4 4 4 4 4 4 4 8 4 4 4 # # # #     ",
"    4 4 4 4 4 4 4 4 4 4 4 4 4 4 4 4 4 4 4 4 4 4 4 4 4 4 8 4 4 # #     # # # # # 4 8 8 4 8 4 # #         # # 4 4 8 4 8 8 4 4 8 4 8 8 4 8 8 4 8 4 4 4 4 4 4 # #     # % 4 4 4 4 4 4 4 8 8 8 4 # # # #     ",
"    4 4 4 4 4 4 4 4 4 4 4 4 4 4 4 4 4 4 4 8 4 4 8 4 4 4 4 4 4 # #         O O O # # # # # # . . $ #     # # 4 8 8 8 8 4 8 4 4 y 4 4 4 8 4 4 4 4 4 4 4 # #         # # 4 8 4 4 8 4 4 8 4 4 4 # # # #     ",
"    4 4 4 4 4 4 4 4 4 4 4 4 4 4 4 4 4 4 4 4 8 4 8 4 8 8 8 8 4 # #         O + O # # # # # #   . & &     # # 8 8 8 y 4 8 4 8 8 y 8 8 4 4 8 4 8 8 4 8 8 # #         # # # # 4 8 4 4 8 8 4 4 4 # # # #     ",
"    # # # # 4 4 4 4 4 4 4 4 4 4 4 4 4 # # 4 4 4 8 4 4 # # # # # #                                       # # # # # # 4 4 4 8 y 8 8 # # 4 4 8 4 8 4 # # # + O O     # # # # 8 8 4 4 4 4 8 4 4 # # # #     ",
"    # # $ # 8 4 4 4 4 4 4 4 4 4 4 4 4 # # 4 4 8 8 8 4 # # # # # #                                       # # # # # # 4 8 8 4 4 8 a # # 8 4 4 4 4 8 # # O # o o         # # # # # # # # # # # # #         ",
"    # # # $ a 8 8 y 8 8 4 4 4 4 4 8 8 # # 8 y 8 8 8 8 # # $ # # $                                       # $ $ # # # 8 4 8 8 8 8 a # # 8 4 8 8 8 4 # # + O O O         # # # # # # # # # # # # #         ",
"        # # # # # # # # # # # # # # # # #     # # # # # #             y.y.y.y.y.y.y.y.y.h.y.h.y.b b             # # # # # # # # # # # # # # # # # # #                                                   ",
"        # # # # # # # # # # # # # # # # #     # # # # # #             G.d.y.y.y.y.y.y.y.y.h.y.z.b N             # # # # # # # # # # # # # # # # # # #                                                   ",
"    + @                                                   %.2.y.y.y.y.4 4 4 4 4 4 4 4 4 4 4 4 4 4 4 4 4     . .                                           o o %.%.%.%.%.%.%.%.%.%.%.%.,.%.W   .         ",
"    + #                                                   d.y.y.y.y.y.4 4 4 4 4 4 4 4 4 4 4 4 4 4 4 4 4                                                   o O y.%.,.y.y.y.5.5.%.6.1.4.%.%.%.. .         ",
"        y.y.y.y.y.y.y.y.y.y.D.b b N b O O . . o O o o _ _ 4 4 4 4 4 4 4 4 4 4 4 8 8 4 4 4 4 # # 4 4 4 4 8 4 .   o o R R b N b b N O O     O O $ # %.%.%.%.y.%.4 4 4 4 4 4 4 4 4 4 4 4 4 4 4 4 4 .       ",
"        z.y.y.y.y.y.y.y.y.d.y.b N b N O O . o o o o o %._ 4 4 4 4 4 4 4 4 4 4 4 4 4 4 8 4 8 # # 8 4 4 8 4 8   o o o ! T c a c N N O O     O O $ $ y.y.,.y.y.%.4 4 4 4 4 4 4 4 4 4 4 8 4 4 4 4 4 . .     ",
"    y.y.2.y.4 4 4 4 4 4 4 4 4 4 4 # # a a         y.y.#._ 4 4 4 4 4 4 4 4 4 4 4 4 4 4 8 4 8 # # $ # 8 4 # #     ,.y.Y Y 4 4 4 4 4 8 4     T T _ %.4 4 4 4 4 4 4 4 4 4 4 4 4 4 8 4 4 4 4 4 4 4 4 # #     ",
"    y.y.y.y.4 4 4 4 4 4 4 4 4 4 4 # # y b         y.y.#._ 4 4 4 4 4 4 4 4 4 4 4 8 4 4 4 4 4 # # # $ 8 8 # #     z.y.Y Y 4 8 4 8 8 4 a     T _ %.#.4 4 4 8 4 4 4 4 4 4 4 4 4 4 4 4 4 4 4 8 4 4 4 # #     ",
"    L G 4 4 4 4 4 4 4 4 4 4 4 4 4 4 4 8 4 = =     y.y.a 4 4 4 4 4 4 4 4 4 8 4 8 4 4 4 4 4 4 4 4 4 4 4 8 # $     4 4 a 8 y 4 8 3 8 $ #     Y Y 4 4 4 4 4 4 4 4 4 4 4 4 4 4 4 4 4 4 4 4 4 4 4 # $ # $     ",
"    G L 4 4 4 4 4 4 4 4 4 4 4 4 8 4 4 8 8 4 4     y.y.4 4 4 4 4 4 8 4 4 4 4 4 4 4 4 4 4 4 4 4 4 4 8 8 8 # #     4 4 8 8 8 4 8 8 a # #     U Y 4 4 4 4 4 4 4 4 4 4 4 4 4 4 4 4 8 4 8 4 4 4 4 # # # #     ",
"    L L 4 4 8 4 4 4 4 4 4 8 4 4 4 4 4 4 4 4 4     z.%.4 4 4 4 4 4 4 4 4 4 4 4 4 4 4 8 4 8 4 8 4 4 4 8 8 # #     4 4 4 4 8 4 8 8 a # #     Y Y 8 8 4 4 4 4 4 4 4 4 4 8 4 4 4 4 4 4 8 8 4 4 4 # # # $     ",
"    a b 4 4 # # 4 4 4 4 4 4 4 4 8 8 4 4 8 # #     4 4 4 4 4 4 8 4 4 4 4 4 4 4 8 4 4 4 4 4 4 4 4 4 8 4 8 # #     $ & 8 8 4 4 4 8 a # #     y y 4 4 8 4 4 4 4 4 4 8 8 4 4 4 4 8 4 4 4 4 8 # # 8 8 # $     ",
"    a a 4 4 # # 4 4 4 4 4 4 4 8 4 8 4 4 8 # #     4 4 4 4 4 8 8 4 4 4 4 4 4 4 4 8 8 8 4 4 4 4 4 4 4 4 8 # #     $ $ 4 4 8 8 4 8 a # #     8 y 4 4 4 4 4 4 4 4 4 4 8 4 4 4 4 4 4 4 4 4 4 # # 4 8 # #     ",
"    8 y * * 4 4 4 4 4 4 4 4 4 4 4 4 4 4 4 # #     4 4 4 8 4 4 4 4 8 4 8 4 4 4 4 4 8 4 4 4 4 4 4 4 4 $ # # #     # # 4 8 8 8 4 # $ # #     4 4 4 4 4 4 4 4 4 4 4 8 4 4 4 4 4 4 4 4 8 8 4 # # 8 8 # #     ",
"    8 8 * * 8 4 4 4 4 4 4 4 4 4 8 8 8 8 4 # #     4 4 4 4 4 4 4 4 4 4 4 4 4 4 4 4 8 4 4 4 4 8 4 3 4 # # # #     # # 8 8 8 4 4 # $ # #     4 4 8 4 4 8 8 4 4 4 4 4 4 4 4 4 4 8 4 8 4 8 4 # # 4 4 # #     ",
"    # # $ # 4 4 4 4 4 4 4 4 4 4 4 4 4 # # $ #     # # # # 4 4 8 4 4 4 4 4 4 4 4 8 8 # # 8 4 8 8 # # # #         O O $ # # # # # # # #     # # a 4 # # 4 4 4 4 4 4 4 4 4 4 4 4 4 4 4 8 4 # # 4 4 # #     ",
"    # # # # 4 4 4 4 4 4 4 4 4 4 4 4 8 # $ # $     # # # # 4 4 8 4 4 4 4 4 4 4 8 8 8 # # 4 4 4 8 # # # #         O O $ $ $ $ $ # $ # #     # # 8 a # # 4 4 4 4 4 4 4 4 4 4 4 4 4 4 4 4 8 # # 4 4 # #     ",
"    O + # # # # # # 8 4 4 4 4 # # # # # # # #     # # # # $ # $ # # # 8 4 8 8 4 8 8     # # # # # #     Z G % $ o o # # . . .             # # # #     4 4 4 4 4 4 4 4 4 4 # # 8 4 8 # # .   # # # #     ",
"    + + # # # # # # a 4 8 4 8 # # # # # $ $ $     # # # # # # $ $ # # 4 8 8 4 8 4 a     # # $ # # $     G G $ & O o # #   .               # # # #     4 4 4 4 4 4 4 4 4 4 # # 8 4 a # $   . # # # #     ",
"        # # # # . . $ # # # # # # . . . . . .     . . $ # # $ # $ $ # $ # # # % X X     # # $ # X . . . O O @ +       .       # # + +     . .     # # $ # # # # # # # # # # # $ $ # .   # # # #         ",
"        # # # #     $ # # # # # #           . . . .   # # # # # # # $ # # # # $         # # # #         O O + O             . # # # +           . # $ # # # # # # # # # # # # # # #     # # # #         ",
"        # # # #     # # # # # # #           .         # # # # # $ # # # $ # # #         # # # #         o o O +               # # # +             # & $ # # # # # # # # # # # # # #     # # # #         ",
"                                                                                                                                                                                                        ",
"                                                                                                                                                                                                        "
};
