/* XPM */
static const char *wall_42_9[] = {
/* columns rows colors chars-per-pixel */
"9 9 49 1 ",
"  c #010101",
". c #020203",
"X c #020204",
"o c #030204",
"O c #020304",
"+ c #030304",
"@ c #040205",
"# c #040305",
"$ c #040406",
"% c #050507",
"& c #070608",
"* c #070708",
"= c #0A0B0C",
"- c #0C0B0D",
"; c #0D0D0E",
": c #131315",
"> c #141415",
", c #141416",
"< c #141417",
"1 c #151517",
"2 c #151617",
"3 c #161618",
"4 c #18181A",
"5 c #1C1C1D",
"6 c #242425",
"7 c #252526",
"8 c #252427",
"9 c #252527",
"0 c #262527",
"q c #252626",
"w c #252627",
"e c gray15",
"r c #262627",
"t c #262727",
"y c #262628",
"u c #272728",
"i c #272729",
"p c #2C2C2E",
"a c #343335",
"s c #353536",
"d c #444444",
"f c #454444",
"g c #474746",
"h c #494948",
"j c #494949",
"k c #4A4948",
"l c #4A4A49",
"z c gray29",
"x c #4B4A4A",
/* pixels */
"z$qzqXq>s",
"#=p5qXqq>",
"qqqg4q>qq",
"*X.#-XXq4",
"q3qqqy.qa",
"zzsX$zy.X",
"qqq;.yy>>",
"z:gqqqgqq",
">>>q$*>q>"
};
