/* XPM */
static const char *wall_22[] = {
/* columns rows colors chars-per-pixel */
"22 22 181 2 ",
"   c #111518",
".  c #131418",
"X  c #121619",
"o  c #13171A",
"O  c #141519",
"+  c #15161A",
"@  c #16171B",
"#  c #14181B",
"$  c #18191D",
"%  c #191A1E",
"&  c #191A1F",
"*  c #1A1B1F",
"=  c #1B1C1E",
"-  c #1B1C20",
";  c #1C1D21",
":  c #1D1E20",
">  c #1E1F21",
",  c #1D1E22",
"<  c #1E1F23",
"1  c #1E1F24",
"2  c #201F24",
"3  c #1F2024",
"4  c #202221",
"5  c #202125",
"6  c #202126",
"7  c #212226",
"8  c #212227",
"9  c #222327",
"0  c #242527",
"q  c #222328",
"w  c #232428",
"e  c #22252A",
"r  c #242529",
"t  c #272729",
"y  c #25262A",
"u  c #26272B",
"i  c #28292D",
"p  c #2C2E2D",
"a  c #2C2D31",
"s  c #2D2E32",
"d  c #2F3034",
"f  c #35363A",
"g  c #37383D",
"h  c #3A3D42",
"j  c #3C3D41",
"k  c #3D3E42",
"l  c #3E3F43",
"z  c #3E3F44",
"x  c #3C4043",
"c  c #3E4243",
"v  c #404145",
"b  c #414246",
"n  c #424347",
"m  c #414548",
"M  c #434448",
"N  c #44454A",
"B  c #45464A",
"V  c #44484B",
"C  c #45494C",
"Z  c #47484C",
"A  c #47484D",
"S  c #464A4D",
"D  c #474B4E",
"F  c #48494D",
"G  c #48494E",
"H  c #494A4E",
"J  c #4A4B4F",
"K  c #484C4F",
"L  c #484B50",
"P  c #494D50",
"I  c #4B4C50",
"U  c #4A4E51",
"Y  c #4B4F52",
"T  c #4C4D51",
"R  c #4C4D52",
"E  c #4D4E52",
"W  c #4E4F53",
"Q  c #4C5053",
"!  c #4D5154",
"~  c #4F5054",
"^  c #4E5255",
"/  c #505155",
"(  c #515256",
")  c #525357",
"_  c #545559",
"`  c #56575B",
"'  c #5C5E5D",
"]  c #5C5D5F",
"[  c #5B5C60",
"{  c #5C6063",
"}  c #5F6064",
"|  c #636466",
" . c #646665",
".. c #646567",
"X. c #666867",
"o. c #636468",
"O. c #626669",
"+. c #67686A",
"@. c #686A69",
"#. c #6B6B69",
"$. c #68696B",
"%. c #696B6A",
"&. c #6A6A6A",
"*. c gray42",
"=. c #6B6D6A",
"-. c #6A6C6B",
";. c #6D6D6B",
":. c #696A6C",
">. c #6A6B6D",
",. c #6B6D6C",
"<. c #6C6C6C",
"1. c #6D6D6D",
"2. c #6D6F6C",
"3. c #6C6E6D",
"4. c #6C6C6E",
"5. c #6C6D6F",
"6. c #6D6F6E",
"7. c #72736E",
"8. c #6D6E70",
"9. c #6E6F71",
"0. c #717370",
"q. c #717372",
"w. c #727272",
"e. c gray45",
"r. c #737476",
"t. c #747474",
"y. c gray46",
"u. c #777777",
"i. c #767779",
"p. c #797979",
"a. c #797A7E",
"s. c #7D7D7F",
"d. c #7E7E7E",
"f. c #898989",
"g. c #8A8889",
"h. c #8F8B8A",
"j. c #8D8D8D",
"k. c #908F8D",
"l. c #91918F",
"z. c #979390",
"x. c #949492",
"c. c #959492",
"v. c #959595",
"b. c #999594",
"n. c #989795",
"m. c #9B9796",
"M. c #999997",
"N. c #9D9996",
"B. c #999798",
"V. c #9B9B99",
"C. c #9C9B99",
"Z. c #9F9B98",
"A. c #9D9C9A",
"S. c #A09B98",
"D. c #A09C99",
"F. c #A19E99",
"G. c #A29F9A",
"H. c #A29E9B",
"J. c #A09F9D",
"K. c #A39F9C",
"L. c #A3A09B",
"P. c #A1A09E",
"I. c #A4A09D",
"U. c #A5A09D",
"Y. c #A5A29D",
"T. c #A6A39E",
"R. c #A6A29F",
"E. c #A7A49F",
"W. c #A3A2A0",
"Q. c #A4A3A1",
"!. c #A7A3A0",
"~. c #A5A4A2",
"^. c #AAA9A7",
"/. c #ABAAA8",
"(. c #ACAAAB",
"). c #ADACAA",
"_. c #AEADAB",
"`. c #B1B0AE",
"'. c #B2B1AF",
"]. c #B8B7B5",
"[. c #BBBAB8",
/* pixels */
"O `.`.W ).).~.q.u ].`.%.u d [.^./.Z.%.e a.# ",
"Q.%.,.s.(.,.3.B I.-.%.3.3.3 ~.3.3.-.F u.-.~ ",
"J.,.,.F g %.U Z q.3.,.3.U < %.3.3.3.,.3.;.U ",
"{ V Z 9 e q 9 9 +.,.3.3.U 9 %.3.3.3.3.,.%.K ",
"s I.I.L.V.,.v.3._ K %.< U 9 U U F F ;.W F u ",
"~.-.,.,.,.3.3.F i < * 9 = I.Q.s.9 0 = = 9 d ",
"F 3.,.,.-.,.3.F n.-.>.9 ,.,.3.3.f.3.3.3.3.Q ",
"F K X.-.-.U U u U ,.8.u -.-.-.U < 3.3.3.,.W ",
"x 3 3 9 9 9 9 z 9 9 9 h 9 9 9 9 < ..,.3.-.U ",
"W.%.%.-.} l.%.%.%.W [ J.3.c.3.>.* Z Z Z Z U ",
"i.,.,.-.~ f.,.3.3.,.~ %.3.3.,.W u F.F.q.u.e ",
">.3.3.-.~ | 3.3.,.-.W ,.3.3.-.W n.3.3.3.3.U ",
"< U F K < b Z F K F - Z W e K < 8.%.3.f _ W ",
"9 E.I.u.I.F.p.Z 9 N.M.l F.F.F.7.9 3 2 < 1 < ",
"A.,.,.,.,.-.-.3 k.3.8.c.3.3.3.>.3.< Z.3.,.( ",
"8.,.,.-.,.,.-.* B 3.U M ,.,.,.,.-.* ,.3.3.Q ",
"V ,.-.%.L 3.Z < 3 3 < Z F %.U ,.M * F L F < ",
"l 3 * * * 3 S.I.3.3.3.4 9 * * * 9 z.n.n.B.3 ",
"P.-.,.-.q.j.-.3.3.,.K F F.,.%.h.,.,.3.3.3.~ ",
"r.U 3.,.3.] ,.3.3.3.3.U ( 3.F 3.3.3.3.3.U ( ",
"b ..-.| U l o.x -.l o.p s b b K ] ,.,.-.l ( ",
"O . . O . . . . O O O * O O O O O . O O O O "
};
