/* XPM */
static const char *wall_42_32[] = {
/* columns rows colors chars-per-pixel */
"32 32 196 2 ",
"   c black",
".  c #000001",
"X  c #010001",
"o  c #010101",
"O  c #000002",
"+  c #010002",
"@  c #000102",
"#  c #010102",
"$  c #010103",
"%  c #020002",
"&  c #020102",
"*  c #020103",
"=  c #010202",
"-  c #010203",
";  c #020202",
":  c #020203",
">  c #030203",
",  c #020303",
"<  c gray1",
"1  c #010104",
"2  c #020104",
"3  c #030104",
"4  c #020204",
"5  c #030204",
"6  c #020304",
"7  c #030304",
"8  c #020205",
"9  c #030205",
"0  c #030305",
"q  c #040205",
"w  c #040305",
"e  c #030404",
"r  c #030406",
"t  c #040405",
"y  c #040406",
"u  c #050406",
"i  c #050506",
"p  c #050507",
"a  c #060507",
"s  c #060607",
"d  c #060608",
"f  c #070708",
"g  c #070709",
"h  c #080709",
"j  c #08070A",
"k  c gray3",
"l  c #08080A",
"z  c #09080B",
"x  c #0A090B",
"c  c #0B0A0B",
"v  c #0A0B0C",
"b  c #0B0B0D",
"n  c #0C0C0E",
"m  c #0D0D0E",
"M  c #0D0D0F",
"N  c #0D0D10",
"B  c #0F0F11",
"V  c #111113",
"C  c #121113",
"Z  c #121213",
"A  c #131314",
"S  c #131315",
"D  c #131316",
"F  c #141314",
"G  c #141315",
"H  c #131414",
"J  c #141415",
"K  c #151415",
"L  c #141515",
"P  c #151515",
"I  c #141416",
"U  c #151416",
"Y  c #151516",
"T  c #141417",
"R  c #151417",
"E  c #151517",
"W  c #161516",
"Q  c #161517",
"!  c #161616",
"~  c #161617",
"^  c gray9",
"/  c #151518",
"(  c #161518",
")  c #161618",
"_  c #171618",
"`  c #171718",
"'  c #181819",
"]  c #1A191A",
"[  c #1A1A1C",
"{  c #1B1A1C",
"}  c #1B1B1C",
"|  c #1C1C1D",
" . c #1C1C1E",
".. c #1D1C1E",
"X. c #1D1D1E",
"o. c #1D1D1F",
"O. c #1D1E1F",
"+. c #1E1E20",
"@. c #1F1F21",
"#. c #201F21",
"$. c #1D2023",
"%. c #202022",
"&. c #232324",
"*. c #222225",
"=. c #232325",
"-. c #232326",
";. c #242325",
":. c #242326",
">. c #232424",
",. c #242425",
"<. c #242426",
"1. c #252426",
"2. c #242526",
"3. c #252526",
"4. c #242427",
"5. c #252427",
"6. c #242527",
"7. c #252527",
"8. c #262426",
"9. c #262526",
"0. c #262427",
"q. c #262527",
"w. c #252626",
"e. c #252627",
"r. c gray15",
"t. c #262627",
"y. c #272627",
"u. c #262727",
"i. c #272727",
"p. c #252528",
"a. c #262528",
"s. c #252628",
"d. c #262628",
"f. c #272628",
"g. c #262728",
"h. c #272728",
"j. c #272729",
"k. c #282729",
"l. c #28272A",
"z. c #2A2A2B",
"x. c #2B2A2B",
"c. c #2B2A2C",
"v. c #2B2B2C",
"b. c #2C2B2D",
"n. c #2C2C2D",
"m. c #2C2C2E",
"M. c #2E2E2F",
"N. c #2E2E30",
"B. c #2F2E30",
"V. c #2F2F30",
"C. c #323233",
"Z. c #353536",
"A. c #363537",
"S. c #383737",
"D. c #39393A",
"F. c #3A393A",
"G. c #3A3A3B",
"H. c #3D3B3C",
"J. c gray25",
"K. c #414040",
"L. c #434242",
"P. c #444343",
"I. c #444444",
"U. c #464646",
"Y. c #474646",
"T. c #464746",
"R. c #474746",
"E. c gray28",
"W. c #484646",
"Q. c #484746",
"!. c #484847",
"~. c #484848",
"^. c #494848",
"/. c #484948",
"(. c #494948",
"). c #494949",
"_. c #4A4948",
"`. c #4B4948",
"'. c #4A4949",
"]. c #494A49",
"[. c #4A4A49",
"{. c #4B4A49",
"}. c #4B4B49",
"|. c #4A494A",
" X c gray29",
".X c #4B4A4A",
"XX c #4B4B4A",
"oX c #4B4B4B",
"OX c #4C4B4B",
"+X c #4C4C4B",
"@X c #4C4C4C",
"#X c #4D4D4C",
"$X c gray30",
"%X c #4E4D4D",
"&X c #4E4E4E",
"*X c #4E4F4F",
/* pixels */
": : 1 1 1 : : : : : 1 1 : 1 1 1 1 1 : : : : : 1 1 : 1 1 1 : 1 : ",
": ).,.,.,.1 ).>.,.&.,.1 *X,.&.*X&.,.,.1 *X,.,.,.,.:.J c.V.Z C.: ",
": &.,.,.d.1 { ,.,.,.,.r ).,.h.,.,.,.,.: ).,.,.,.,.,.,.,.d.,.{ : ",
": ,.,.,.,.: n ,.,.J ,.1 z.,.,.,.,.d.J : ).,.,.d.d.,.,.,.d.,.J : ",
": $.S J S ' y : 1 1 1 1 ,.d.d.,.,.d.J : z.,.,.,.,.,.,.,.,.,.` : ",
": 1 w : : v G.G.G.V.b.r | ,.,.,.,.J J 1 J ,.,.,.,.,.,.,.y.J ` : ",
": 1 ).).).).R.,.,.R.&.1 { J ,.J J J J : J J J J J J ,.d.J J l : ",
"1 ).,.,.,.,.,.,.,.,.,.j w : : : r 1 1 ).*XZ.Z.1 1 1 : 1 : : y : ",
"1 ,.,.d.,.d.,.,.,.,.d.1 y ).).S 1 ).).,.,.,.,.: w R.!.).).c.B : ",
"1 ,.d.d.,.,.,.,.,.,.J : !.,.,.` J d.,.,.,.d.d.: ).,.,.,.,.,.,.: ",
": ,.h.I d.,.,.,.,.d.J : ' d.d.J J ,.,.,.k.d.J : R.,.d.,.,.,.J : ",
": l J J J J J J J J 1 w y J J J y y J J J J J y J ,.,.,.d.d.J : ",
": g : : : 1 1 1 1 1 : n 1 : 1 1 n 1 1 : : : 1 1 S ,.,.,.,.,.' : ",
": ).*X*X+X%.: y : *X*X*X*Xz.| 1 : *X*X,.).).: 1 v S J J I v J : ",
": ,.,.,.,.,.` P.!.,.,.,.,.,.,.: *X,.,.,.,.,.J 1 : : 1 : 1 : : 1 ",
"1 ,.,.,.,.J J #.:.,.,.,.,.,.,.: :.,.,.,.,.,.J l W.R.).z.c.m.+.: ",
"1 ,.,.,.,.d.J J ,.,.,.d.,.d.,.: d.,.d.,.,.,.J ).,.,.,.d.d.,.| 1 ",
": J ,.,.,.J J y ` ,.,.,.J ' J : J ,.,.,.d.` J J ,.,.,.,.d.d.| 1 ",
": 1 : : w 1 : 1 1 : 1 1 1 1 1 1 1 w w 1 1 : 1 v I S ,.H : S J 1 ",
"1 ).).+XB.OX).).*Xm.: 1 1 ).).l g R.).).).).k.: : : 1 : : : : 1 ",
"1 *X,.d.,.,.,.,.| ,.,.1 L.,.d.,.: R.d.d.d.,.d.L.L.1 g ).R.).d.: ",
"1 ,.,.,.,.,.,.,.,.,.S J ,.,.,.Z : ,.d.,.,.,.d.d.:.: ).,.,.,.J 1 ",
"1 ,.,.d.,.,.,.,.,.d.I J J ,.,.y 1 d.d.,.,.,.d.,.:.: ,.,.,.d.J : ",
": S d.d.,.,.Z ,.,.Z J y : : : y : J J d.d.,.d.S n : J ,.,.d.J 1 ",
": J J J J J J J J 1 1 ).).).OXm.: 1 J J J J J S : 1 1 : : : : w ",
"1 y 1 : : : : 1 w ).).,.,.d.d.d.,.g 1 : : 1 : : 1 R.).).R.R.y : ",
"1 !.,.,.,.J d.1 ).,.,.,.,.,.d.` ,.1 ).,.,.: H.,.,.,.,.,.,.d.,.: ",
": :.,.,.,.d.k.y R.,.,.d.,.,.,.,.d.: ,.,.k.: S.,.,.,.d.d.,.,.J 1 ",
"1 { ,.,.,.d.d.y ,.,.d.,.,.,.,.,.` : J ,.` 1 ,.d.,.,.,.,.,.J ,.1 ",
"1 ` ,.,.,.,.J y J ,.,.,.d.J ,.` J : l J J y J J ,.,.d.d.d.Z d.: ",
"1 J J | | n n g n J ` +.+.y J B y J j g n y n n | | | ` | B J : ",
": 1 1 : 1 1 < 1 : 1 1 1 1 1 : 1 1 : w : : : 1 1 1 1 1 : : 1 w 1 "
};
