/* XPM */
static const char *wall_42_11[] = {
/* columns rows colors chars-per-pixel */
"11 11 73 1 ",
"  c #000001",
". c #010001",
"X c #010101",
"o c #010102",
"O c #020203",
"+ c #030203",
"@ c gray1",
"# c #030204",
"$ c #030304",
"% c #030305",
"& c #040304",
"* c #040305",
"= c #040405",
"- c #040406",
"; c #050406",
": c #040407",
"> c #060507",
", c #070507",
"< c #060607",
"1 c #060707",
"2 c #060608",
"3 c #070608",
"4 c #070708",
"5 c #09090B",
"6 c #0B0B0C",
"7 c #0C0C0D",
"8 c #121214",
"9 c #131314",
"0 c #131315",
"q c #141316",
"w c #141415",
"e c #151515",
"r c #141416",
"t c #151416",
"y c #141516",
"u c #151516",
"i c #151517",
"p c #161517",
"a c #151617",
"s c #161617",
"d c #171719",
"f c #1C1E20",
"g c #232324",
"h c #232325",
"j c #242425",
"k c #242426",
"l c #242526",
"z c #252526",
"x c #252527",
"c c #262527",
"v c #252626",
"b c #252627",
"n c gray15",
"m c #262627",
"M c #252528",
"N c #262628",
"B c #272628",
"V c #262728",
"C c #272728",
"Z c #282829",
"A c #2A2A2C",
"S c #313133",
"D c #373637",
"F c #484646",
"G c #494748",
"H c #484848",
"J c #494948",
"K c #4A4949",
"L c #4A4A49",
"P c #4B4A49",
"I c #4A4B4A",
"U c #4B4B4C",
"Y c #4C4C4C",
/* pixels */
"JNJlYl8llAS",
"fl1dllyllly",
"JllNq$$*584",
"NlyylyllZly",
"UG7JJ$JF6ll",
"NlOlNlNNlND",
"1O1O*$$Oy8y",
"lll8NONlyly",
"yy1*JOyy1O$",
"glglllNOlly",
"yy1y4411yyy"
};
