/* XPM */
static const char *wall_19[] = {
/* columns rows colors chars-per-pixel */
"19 19 121 2 ",
"   c #090909",
".  c #08090B",
"X  c #0F1014",
"o  c #111111",
"O  c #13171A",
"+  c #141519",
"@  c #16171B",
"#  c #18191D",
"$  c #1A1B1F",
"%  c #1D1D1F",
"&  c #1B1C20",
"*  c #1C1D21",
"=  c #1D1E22",
"-  c #1E1F23",
";  c #1F2024",
":  c #202125",
">  c #212224",
",  c #212226",
"<  c #222327",
"1  c #232426",
"2  c gray15",
"3  c #232428",
"4  c #25262A",
"5  c #26272B",
"6  c #2B2C30",
"7  c #2E2F33",
"8  c #323337",
"9  c #323338",
"0  c #343539",
"q  c #3A3B3F",
"w  c #393C41",
"e  c #3C3D41",
"r  c #3C3D42",
"t  c #3F4042",
"y  c #3F4045",
"u  c #444547",
"i  c #434448",
"p  c #43474A",
"a  c #45464B",
"s  c #44484B",
"d  c #45494C",
"f  c #47484C",
"g  c #464A4D",
"h  c #474B4E",
"j  c #48494D",
"k  c #494A4E",
"l  c #4A4B4F",
"z  c #484C4D",
"x  c #484C4F",
"c  c #484B50",
"v  c #4A4B50",
"b  c #494D50",
"n  c #4B4C50",
"m  c #4A4E51",
"M  c #4C4D51",
"N  c #4D4E52",
"B  c #4E4F53",
"V  c #4F5052",
"C  c #4D5154",
"Z  c #505155",
"A  c #545559",
"S  c #555658",
"D  c #57585A",
"F  c #57585C",
"G  c #5A5C5B",
"H  c #636466",
"J  c #646567",
"K  c #686A69",
"L  c #696B6A",
"P  c gray42",
"I  c #6B6D6A",
"U  c #6A6C6B",
"Y  c #6E6D6B",
"T  c #6C6E6B",
"R  c #696A6C",
"E  c #6B6B6D",
"W  c #6B6D6C",
"Q  c #6B6C6E",
"!  c #6C6C6C",
"~  c #6D6D6D",
"^  c #6C6E6D",
"/  c #6E6F71",
"(  c gray44",
")  c #717171",
"_  c gray45",
"`  c #747472",
"'  c #717274",
"]  c gray46",
"[  c #777777",
"{  c #797977",
"}  c gray47",
"|  c gray48",
" . c #808281",
".. c #868684",
"X. c #878785",
"o. c #8C8C8A",
"O. c #949391",
"+. c #959492",
"@. c #969593",
"#. c #9B9A96",
"$. c #9C9897",
"%. c #9E9A97",
"&. c #9D9998",
"*. c #9F9B98",
"=. c #A09C99",
"-. c #A19D9A",
";. c #A29E9B",
":. c #A39F9C",
">. c #A4A19C",
",. c #A4A09D",
"<. c #A5A19E",
"1. c #A6A39E",
"2. c #A6A29F",
"3. c #A3A2A0",
"4. c #A7A3A0",
"5. c #A5A4A0",
"6. c #A7A7A5",
"7. c #A9A5A2",
"8. c #AAA6A3",
"9. c #ABA7A4",
"0. c #B7B7B7",
/* pixels */
"+ 2.{ , 4.2._ % 8.6.| 7 9.8.8.Y W [ + ",
":.^ ^ - W W j 5.^ W ^ ; U ^ ^ U ^ ^ g ",
"@.g W ; j j j ^ W ^ ^ , W ^ ^ ^ ^ ^ g ",
"5 o   2 X.[ , F ^ W b , x ' / Y Y g j ",
":.U ^ W ^ ^ j 5 ; , - 3.2.1 , ; - - 7 ",
"_ ^ W W W R j *.W Z -.W ^ x , W ^ ^ C ",
"j g L U b b 5 u W x s U U b g ^ ^ W j ",
"w , , , , , y , , r , , , , j U L W j ",
"2.W U R @.^ W U U 0.^ W W - , , - - - ",
"L ^ ^ b g ^ ^ ^ B  .^ W W $ $.W ^ ^ ^ ",
"S F S j , V V g j B D t B & U ^ W G g ",
"- 2.| 2.:.X.a R *.5 -.:.-._ ; ; - - - ",
"$.W U ^ U j ; o.^ X ^ ^ ^ J ^ #.^ W B ",
"H ^ U U U U $ 9 j + W W W W b B ^ ^ g ",
"- b v j v B , 2.2.  & b b g $ , - - & ",
", 4.4.| 0 O.^ ^ U ^ 6 ` 8 B :.^ W W 3 ",
"_ b ^ W , W ^ ^ ^ U $ ^ j ^ ^ ^ ^ b b ",
"j L W W , i U U L j $ b b R U W W i b ",
"O j g , , x j g j , r , q , j x j j + "
};
