/* XPM */
static const char *wall_42_73[] = {
/* columns rows colors chars-per-pixel */
"73 73 154 2 ",
"   c #020203",
".  c #070608",
"X  c #080709",
"o  c #07090A",
"O  c #0A0A0C",
"+  c #10100F",
"@  c #0F0F10",
"#  c #100F11",
"$  c #0F1011",
"%  c #141416",
"&  c #161618",
"*  c #18171A",
"=  c #171819",
"-  c #1B1B1C",
";  c #1E1F21",
":  c #201F22",
">  c #1E2023",
",  c #242326",
"<  c #242325",
"1  c #232426",
"2  c #242425",
"3  c #242525",
"4  c #252525",
"5  c #242426",
"6  c #252426",
"7  c #242526",
"8  c #252526",
"9  c #242427",
"0  c #252427",
"q  c #242527",
"w  c #252527",
"e  c #262526",
"r  c #262527",
"t  c #272527",
"y  c #252626",
"u  c #252627",
"i  c gray15",
"p  c #262627",
"a  c #262727",
"s  c #272727",
"d  c #252527",
"f  c #252528",
"g  c #262528",
"h  c #252628",
"j  c #262628",
"k  c #272628",
"l  c #262728",
"z  c #272728",
"x  c #272729",
"c  c #262628",
"v  c #282729",
"b  c #28272A",
"n  c #282729",
"m  c #282829",
"M  c #28282A",
"N  c #29282A",
"B  c #29292A",
"V  c #29292B",
"C  c #292A2A",
"Z  c #2A2A2B",
"A  c #2A2A2C",
"S  c #2B2A2C",
"D  c #2B2B2C",
"F  c #2B2B2D",
"G  c #2C2B2C",
"H  c #2C2C2D",
"J  c #2C2D2D",
"K  c #2C2C2E",
"L  c #2D2D2E",
"P  c #2D2D2F",
"I  c #2E2D2F",
"U  c #2A2A2B",
"Y  c #2E2E30",
"T  c #2F2E30",
"R  c #2F2F30",
"E  c #2F2F30",
"W  c #313032",
"Q  c #313133",
"!  c #343334",
"~  c #343435",
"^  c #343436",
"/  c #353536",
"(  c #343437",
")  c #363637",
"_  c #333334",
"`  c #353738",
"'  c #373739",
"]  c #383839",
"[  c #39393A",
"{  c #39393B",
"}  c #3A3A3A",
"|  c #3B3B3C",
" . c #3D3D3E",
".. c #3C3C3D",
"X. c #403F3F",
"o. c #413F41",
"O. c #414242",
"+. c gray26",
"@. c #434343",
"#. c gray27",
"$. c #464645",
"%. c #464646",
"&. c #474746",
"*. c gray28",
"=. c #454545",
"-. c #484747",
";. c #474847",
":. c #474847",
">. c #484847",
",. c #494847",
"<. c #484847",
"1. c #474848",
"2. c #474848",
"3. c #484848",
"4. c #494848",
"5. c #494948",
"6. c #494949",
"7. c #4A4848",
"8. c #4A4949",
"9. c #4A4A49",
"0. c #4B4A49",
"q. c gray29",
"w. c #4B4A4A",
"e. c #4A4B4A",
"r. c #4B4B4A",
"t. c #4A4A4B",
"y. c #4B4A4B",
"u. c #4B4B4B",
"i. c #4C4A4A",
"p. c #4C4B4A",
"a. c #4C4B4B",
"s. c #4D4B4B",
"d. c #4B4C4B",
"f. c #4C4C4B",
"g. c #4C4D4B",
"h. c #4D4D4B",
"j. c #4B4B4C",
"k. c #4C4B4C",
"l. c #4C4C4C",
"z. c #4D4C4C",
"x. c #4D4D4C",
"c. c #4C4D4D",
"v. c gray30",
"b. c #4E4D4C",
"n. c #4E4D4D",
"m. c #4D4E4D",
"M. c #4E4E4D",
"N. c #4D4D4E",
"B. c #4E4D4E",
"V. c #4E4E4E",
"C. c #4F4E4E",
"Z. c #4A4A49",
"A. c #504F4F",
"S. c #505050",
/* pixels */
"                                                                                                                                                  ",
"                                                                                X                                   O X                           ",
"      a.9.9.9.a.f.W / %     k.l.l.l.a.a.l.a.9.Z Z Z       l.a.l.l.l.l.2 9.A.Z Z Y     X X X O l.l.l.l.f.f.l.l.f.l.l.a.#.G G 2 2   Z Z D % %       ",
"    l.9.1.2 2 2 2 2 g Z     9.#.#.2 2 2 2 2 2 g % %   9.a.9.: 2 2 2 2 9.< 2 2 2 g 2 g %     9.>.9.2 2 2 2 2 2 2 2 2 2 % % % D D K D * % ' W %     ",
"    9.9.O.2 g 2 2 2 2 K     9.#.#.2 2 2 2 2 2 2 % %   9.9.d.< 2 g g g 9.g 2 2 2 2 2 Z %     9.9.#.2 2 2 2 g g 2 2 2 g % % % K D K D = % W ^ %     ",
"    l.< 2 2 g 2 2 2 2 %     - 2 2 2 g 2 2 2 2 2 % %   9.j.1 2 2 g g g 2 2 2 2 2 2 2 v %     9.2 2 2 g 2 g g g g 2 2 2 2 2 % 2 2 g 2 2 2 = = %     ",
"    f.2 2 2 2 2 2 2 2 %     * 2 2 g g g g 2 2 2 % %   l.l.< 2 2 g g 2 2 2 2 2 2 2 2 v %     >., 2 2 2 2 g g Z 2 2 2 2 2 2 2 2 2 g 2 2 2 = = %     ",
"    9.2 2 2 2 2 2 g 2 %     O 2 2 g g g g % % 2 % %   v D 2 2 2 g 2 g 2 2 2 2 2 2 % % %     ;.2 2 2 2 2 g g g 2 2 g 2 2 2 2 g g 2 2 2 2 % % %     ",
"    #.O % % 2 2 2 2 g %     O . . % % % % % % - % %   , 2 2 2 2 2 2 2 2 2 2 g 2 2 2 g %     #.2 2 2 g 2 2 2 2 g 2 2 2 g 2 g 2 2 g 2 2 2 % % %     ",
"    #.= = % 2 2 2 2 2 %     O . . % % % % % % - % %   2 2 2 2 g 2 2 2 2 2 2 2 g 2 2 Z %     #.2 g 2 2 2 2 g 2 g 2 2 g g g 2 2 g 2 2 g 2 % * %     ",
"    < > > % % % % % %   = *   O O                     , 2 2 2 2 g g 2 2 2 2 g 2 2 * % %     v 2 g g g 2 2 2 2 2 2 2 g g 2 2 2 2 2 2 g g % % %     ",
"    > > ; % % % % % %   * -   O O                     < 2 2 2 2 2 2 2 2 2 g 2 2 g % % %     2 2 2 2 g 2 2 2 2 2 2 2 g 2 2 2 2 2 2 g 2 2 % * %     ",
"                      O O O [ [ | [ [ [ K Y Y K       - - % 2 g g g 2 2 g 2 % % * % * %     % % % g 2 2 g g 2 g % % 2 2 2 g g 2 v g Z % % % %     ",
"                            [ |  . .| | Y K Y Y       - - % D Z g m g Z Z Z * * % * % %     % % % Z Z Z Z Z v Z * % Z 2 g 2 g 2 Z Z g % % = %     ",
"    .   O 9.9.9.9.9.9.9.9.9.#.g 2 2 2 2 2 O.#.2 2 2   - - % % % 2 g 2 % % %     % * % %     % % % % % % % % % % % % % 2 2 v g g % % % %   X       ",
"      9.9.9.2 2 2 2 g 2 2 2 2 2 2 2 2 2 2 2 2 2 % %       % % % % % % %     # % %                               X X X % % % % % % % % %     %     ",
"      9.9.9.2 2 2 2 g 2 2 2 2 g 2 2 2 2 g 2 2 2 % %       % % % % % % %     % % %                               X O X % % % % % % % % %     %     ",
"    9.a.O.2 2 2 g g g 2 g g g 2 2 2 2 g 2 g 2 2 % % X                                   f.f.f.l.l./ / /         X .                         X     ",
"    f.2 2 2 2 2 2 2 2 g g 2 g 2 g g 2 2 g 2 g 2 % %       9.9.9.>.K K %         l.#.9.#.2 2 g 2 2 2 2 2 <       X X 9.9.#.9.9.9.#.*.9.D % @       ",
"    9.2 2 2 2 2 2 2 2 2 g 2 2 2 g g g 2 g g g g % %       9.9.9.>., K %         9.9.9.9.2 2 g g 2 g 2 2 g       . X >.>.9.9.9.9.9.9.>.G % %       ",
"    K g g 2 2 2 2 2 2 g 2 2 2 2 2 g 2 2 2 % % 2 % %   9.9.>.; g 2 2 2 2 * %     a.2 2 2 2 2 2 g 2 2 g g *       #.9.2 2 2 2 2 2 2 2 2 2 2 2 %     ",
"    % 2 2 g 2 2 2 g 2 2 2 2 2 2 2 g 2 2 % Z g * % %   #.>.g < 2 2 2 2 * % %     2 2 2 2 2 2 2 2 2 g g g %     =.#.9.g g 2 2 2 2 2 2 2 2 2 2 %     ",
"    % 2 g 2 g g m g g g g 2 g 2 g 2 2 2 % 2 g % % %   #.=.2 2 2 2 2 2 % % %     2 2 2 2 2 2 2 2 2 g g Z %     #.#.>.2 g 2 2 2 2 g 2 2 2 2 2 %     ",
"    % g 2 2 g g % g g m 2 g 2 % * 2 2 2 g 2 g % % %   = - 2 2 g g 2 g % * %     2 2 2 2 g 2 g 2 g g % % %     #.2 2 g 2 2 2 2 2 2 2 2 2 % % %     ",
"    % 2 g 2 g Z % g 2 2 2 g 2 % % g 2 2 g g g % * %   - = 2 g 2 2 2 2 % * %     g 2 2 2 2 2 g g g g % % %     #.2 2 g g g g g 2 g g g 2 % % %     ",
"    % - = % % % v g g 2 g g 2 % * * * % * * * %       % % 2 2 g 2 2 g % % %     % 2 2 g g 2 g g g D % % %     % 2 2 g g g 2 g g g g g 2 g 2 %     ",
"      o X %     % % % % % % % % % % * % % % %             % % % % % % %           % % * % % % % % % % %       % 2 2 2 2 2 2 2 2 2 g 2 2 * % %     ",
"      X X %     % % % % % % % % % % % % % % %             % % % % % % %           % % % * % % % % % % %       % 2 2 2 2 2 2 2 g 2 2 g 2 * % %     ",
"    $                                           @ @ @                   O O O O                               % % % 2 2 2 g 2 2 2 2 2 2 = * %     ",
"      a.9.9.9.9.9.9.9.9.; -   O X       9.k.9.9.9.9.9.9.9.9.< g - . X       l.9.9.9.9.9.v Z 9.9.9.9.    %     X O O % 2 2 2 2 2 2 % % % Z 2 %     ",
"      9.9.9.9.9.9.;.9.9.; <   X O       9.9.9.9.9.9.9.9.9.9.2 Z - o X       9.l.9.9.9.9.Z Z 9.9.9.>.    %     X O O % 2 < < 2 < 2 % % % < 2 %     ",
"    9.9.#.2 2 2 2 2 2 2 2 2 - .     9.9.9., 2 2 2 2 g 2 2 2 % % 2 - <   j.9.l.S.2 2 2 2 #.#.2 2 2 2 2 2       %     % % % % % % %     % % % %     ",
"    l.< < 2 2 2 2 2 2 2 2 2 *     j.9.#.; 2 g g g g 2 2 2 2 v m 2 % %   9.l.< < g 2 2 2 < < 2 2 2 2 % %                                           ",
"    9.2 2 2 2 2 2 2 2 2 2 2 *     #.>.#.2 2 2 g 2 g 2 2 2 2 2 2 2 % %   9.l.2 2 g 2 g g 2 2 2 g 2 2 % %                                           ",
"    W 2 2 2 2 2 2 g 2 2 % % %     ; O.O.2 2 g g 2 2 2 g g 2 2 2 2 % %   #.#.2 2 2 g 2 2 2 g 2 g 2 2 % %   . X 9.#.>.>.;.>.9.Z Z Z G D K - -       ",
"    W g 2 g 2 2 g 2 2 2 % % %     < < 2 2 2 2 2 g 2 Z 2 2 2 2 g g % %   < 2 2 2 2 g 2 2 2 g 2 g 2 2 % %       >.l.9.9.9.9.>.D K Z K D K - -       ",
"    2 2 g 2 g 2 g g 2 g % % %     % 2 2 2 2 2 2 2 g 2 2 g 2 2 g % * *   2 2 2 2 2 2 g g g Z g 2 2 2 % %   9.#.>.1 g 2 2 g 2 2 g O.2 2 2 / / Y     ",
"    < 2 g g g 2 g g g g 2 2 %     % 2 2 2 2 2 2 2 2 2 2 2 2 2 g 2 % %   2 2 2 g 2 2 2 2 2 v g g 2 2 % %   >.>.2 2 g g 2 2 2 2 g 2 g 2 2 - - %     ",
"    < 2 2 2 2 2 2 2 2 g 2 2 %     % 2 2 2 2 g g g g 2 2 g 2 2 g 2 % *   2 2 2 2 g g 2 2 2 g g 2 2 2 % %   9.#.2 g 2 2 g g 2 2 g 2 2 2 2 - - %     ",
"    = % * 2 % % 2 2 2 2 % % %       % * 2 2 2 g g g g 2 % 2 % = % % *   % % 2 2 g g Z % 2 g g - - * % %   % % 2 g 2 2 2 2 2 2 2 2 2 2 g - - %     ",
"      % % % % % % % % % % %   % %   % % % % % % % % % % % % % % %       % % % % % % % %     % % % %       % % 2 g 2 2 2 2 2 2 2 O % % - - - %     ",
"      % % % % % % % % % % %   O %   % % % % % % % % % % % % % % %       % % % % % * % %     % % % %       % % 2 2 2 2 2 2 2 2 2 O % % - - - %     ",
"                                                                                                          O O % % % % 2 g g % %   % % % % % %     ",
"      % % + % % % X X X % % % % % % + % X X O     .       % % % % % %           % % % % % % % % % % X X X X O % % % # - - ; # %   @ @ # % % %     ",
"      9.9.9.9.l.a.Y E K 9.9.9.9.9.9.9.l./ G K   % %       9.9.9.9.9.>.X     @ o >.9.9.9.9.9.9.9.9.9.Z g g                                         ",
"    9.#. .2 2 2 2 2 2 2 < 2 2 2 2 2 < % % 2 2 <       o.O.@.< 2 2 2 v 2     @.#.#.v 2 2 2 2 2 2 2 2 2 2 %  .O.[           9.>.9.>.#.#.9.< v       ",
"    9.9.o.2 2 2 g 2 2 g 2 2 2 2 2 2 < % * 2 2 g       @.O.O.< 2 g 2 2 2     #.=.#.2 2 2 g 2 2 2 2 2 2 g % O.X. ..       . #.9.>.;.#.>.9.2 g       ",
"    9.2 2 2 2 2 g 2 2 2 2 2 2 2 2 2 2 2 % 2 2 %     -  .O.2 2 2 2 2 g *     #.#.2 2 g 2 g 2 2 2 2 2 2 2 < 2 2 2 Z Z   >.9.>.2 2 2 2 2 2 2 2 %     ",
"    g 2 2 g g 2 2 2 2 g 2 2 2 g g 2 g g < 2 2 %     * 2 g 2 2 g g < < %     Z Z 2 g g m 2 2 g g 2 g g g 2 2 2 g % -   9.#.g < 2 2 2 2 2 % * %     ",
"    Z 2 g g g 2 2 2 2 2 g g g g g g 2 2 2 2 2 %     % g 2 2 2 2 2 2 < %     2 g g g m 2 g 2 g g 2 g 2 g 2 2 2 2 % %   9.#.2 2 2 2 2 2 2 % % %     ",
"    2 2 2 2 g 2 g 2 2 2 2 2 g g g g 2 2 2 2 2 %     % % % 2 g 2 2 % %       < < 2 2 g g g g 2 2 2 2 2 Z 2 g g 2 % %   2 2 2 2 2 g 2 2 2 % % %     ",
"    2 2 2 2 2 2 2 2 2 2 2 2 2 g g g g 2 2 2 2 %     % % % 2 g 2 g % %       % % 2 2 2 2 2 g 2 g 2 g g g 2 2 g 2 % %   % * 2 2 2 2 2 g g * % %     ",
"    < 2 2 2 2 2 2 2 2 2 2 2 2 2 2 g 2 2 2 2 g %       O O % % % % . . *     % % Z g 2 g g 2 2 v 2 g g g g g g %       % % 2 2 2 2 2 g 2 % % %     ",
"    % % = 2 2 2 2 2 2 2 2 2 * 2 2 2 g 2 * * = %                       .     % % % % % g 2 2 g * = 2 g g g * % @ X .   % * % g 2 2 g 2 2 % % %     ",
"    % % * 2 g 2 2 2 2 2 g g % 2 2 2 g 2 % % % %                             % % % % % 2 2 2 2 % % 2 2 2 2 % % @ O O       % % % % % % % % %       ",
"      % % % % % % % % % % % %     % % % %           >.9.9.9.9.9.f.9.9.Z           * % * % % % % % % % % % % %             * * = * * * * * *       ",
"      % % % % % % % % % % % %     % % % %           f.9.9.9.9.9.a.l.f.D           % % * % % % % % % % % % % %                                     ",
"    %   .                                 #.9.9.9.9.2 2 2 2 2 2 2 2 2 2 2 1                                     X X #.*.>.#.#.#.1.>.#.#.          ",
"      9.9.9.#.9.9.9.l.Z D D O . . X X X O.g 2 2 g 2 2 2 2 2 g 2 2 % % 2 2 2 2 g   X    .D Z Z O O   X O % #.#.#.#.#.2 2 2 2 2 2 g g g g < < .     ",
"      9.9.9.9.9.9.9.9.K K K O . X X X X O.2 2 2 2 2 2 2 2 2 g g 2 % % g 2 g 2 Z . X . | K K K O O   O O * 9.>.>.9.#.2 2 2 2 2 2 2 g g 2 2 2 .     ",
"    9.>.#.2 2 2 2 2 2 2 % % Z       9.9.O.2 g 2 2 2 2 2 g g g g 2 % % * 2 g % =   9.l.[ g g 2 2 2    . .#.2 2 2 2 2 2 2 2 2 2 g 2 g 2 g g 2 %     ",
"    9.l.O.2 2 2 2 2 2 2 % % Z       9.9.O.2 g g 2 2 2 2 2 2 g g 2 % % % g 2 % =   A.l.' 2 2 g v 2    . .#.2 2 2 2 2 g 2 2 2 g g 2 2 2 2 2 2 %     ",
"    / , g g g 2 2 g 2 2 2 2 2 < 2   9.>.2 2 g g g g 2 2 2 2 2 2 g 2 2 2 2 g % *   2 2 g 2 2 g % %   ' [ g 2 2 g 2 2 2 2 2 g g g 2 g g 2 % % %     ",
"    D < < % g 2 g g 2 g 2 g 2 % %   g g 2 2 2 g g 2 2 2 2 2 2 2 g 2 2 g g g % *   = * g 2 g g * %   g Z g g 2 g 2 g 2 2 2 g g g 2 g 2 % Z g %     ",
"    Z < ; % 2 2 2 2 g 2 g g 2 % %   2 2 2 2 2 g g 2 2 2 2 2 2 2 2 g 2 g 2 g % *   = * g g 2 Z % %   g v g 2 2 2 g g 2 g 2 2 2 g 2 g 2 % Z 2 %     ",
"    s = - 2 2 2 2 2 2 2 m v 2 % %   2 2 2 2 2 g 2 2 2 2 g v 2 2 g 2 g 2 * % % %   % % g g 2 % * %   2 2 g g 2 2 g 2 g g 2 2 2 2 g g g % Z 2 %     ",
"    % = = 2 2 2 2 2 2 2 g g * % %   % * % 2 2 2 2 g g g g g % % g 2 2 % * %       O O % % % * * %   % % 2 % % 2 2 2 2 2 2 2 2 2 g g g % Z 2 %     ",
"    % % = 2 2 2 g 2 2 2 g Z % % %   % % * 2 2 2 2 2 g g 2 g $ % 2 2 v % % %       X X % % * % * %   % % g % % 2 2 2 2 2 2 2 2 2 2 g s % Z 2 %     ",
"    O % % % % % 2 g g % % % % % %   % * % % % % % % 2 2 2 g     % * % %     W W = X . %             % % % .   2 2 2 2 2 2 2 % % 2 % %   * % %     ",
"    @ % % % * * g g g % % % * % %   * = % * % * % % 2 2 2 g     % % % *   . Y [ = X . % .           % % %     2 2 2 2 2 2 2 % % g % %   = % %     ",
"      % % % .   % % % %     .         . % % % % % % % % %       % % %       O O @           % $ O     . . % % % % * % % % % % % % .   % % %       ",
"                                                                                                                                                  ",
"                                                                                                                                                  "
};
