/* XPM */
static const char *wall_42_127[] = {
/* columns rows colors chars-per-pixel */
"127 127 159 2 ",
"   c #030204",
".  c #060608",
"X  c #080709",
"o  c #070809",
"O  c #0B0A0C",
"+  c #10100F",
"@  c #0F0E10",
"#  c #100F11",
"$  c #0F1011",
"%  c #141416",
"&  c #161618",
"*  c #181719",
"=  c #171819",
"-  c #1B1B1C",
";  c #21201F",
":  c #1E1F21",
">  c #201F22",
",  c #1E2123",
"<  c #252527",
"1  c #262628",
"2  c #262628",
"3  c #282729",
"4  c #282729",
"5  c #272828",
"6  c #272829",
"7  c #272829",
"8  c #282829",
"9  c #28282A",
"0  c #29282A",
"q  c #29292A",
"w  c #29292B",
"e  c #2A292A",
"r  c #2A292B",
"t  c #2A2A2A",
"y  c #2A2A2B",
"u  c #2B2A2B",
"i  c gray17",
"p  c #2A2A2C",
"a  c #2B2A2C",
"s  c #2A2B2C",
"d  c #2B2B2C",
"f  c #2B2B2D",
"g  c #2C2B2E",
"h  c #2C2C2C",
"j  c #2C2C2D",
"k  c #2C2D2D",
"l  c #2D2D2D",
"z  c #2C2C2E",
"x  c #2D2D2E",
"c  c #2E2D2F",
"v  c #2E2E2F",
"b  c #2B2A2C",
"n  c #2E2E30",
"m  c #2F2E30",
"M  c #2F2F31",
"N  c #2F2F30",
"B  c #302F30",
"V  c #2F3031",
"C  c #303031",
"Z  c #313132",
"A  c #313133",
"S  c #323133",
"D  c #333335",
"F  c #343435",
"G  c #343436",
"H  c #353537",
"J  c #363536",
"K  c #333334",
"L  c #383737",
"P  c #383937",
"I  c #373738",
"U  c #373738",
"Y  c #38373A",
"T  c #383738",
"R  c #3B3B3A",
"E  c #3D3D3C",
"W  c gray24",
"Q  c #3E3E3D",
"!  c #3B3B3B",
"~  c #403F3F",
"^  c #41403F",
"/  c #3F3F40",
"(  c #413F40",
")  c #444343",
"_  c #454443",
"`  c #454444",
"'  c #454445",
"]  c gray27",
"[  c #464545",
"{  c #474645",
"}  c #464646",
"|  c #474746",
" . c gray28",
".. c #454444",
"X. c #484746",
"o. c #494747",
"O. c #484747",
"+. c #474847",
"@. c #484847",
"#. c #494847",
"$. c #484947",
"%. c #484847",
"&. c #474748",
"*. c #484748",
"=. c #484748",
"-. c #484848",
";. c #494848",
":. c #494948",
">. c #494949",
",. c #4A4949",
"<. c #4B4949",
"1. c #4A4A48",
"2. c #4A4A49",
"3. c #4B4A49",
"4. c #4B4B49",
"5. c #49494A",
"6. c #4A494A",
"7. c #494A4A",
"8. c gray29",
"9. c #4B4A4A",
"0. c #4A4B4A",
"q. c #4B4B4A",
"w. c #4B4A4B",
"e. c #4A4B4B",
"r. c #4B4B4B",
"t. c #4C4A4A",
"y. c #4C4B4A",
"u. c #4C4B4B",
"i. c #4B4C4B",
"p. c #4C4C4B",
"a. c #4D4C4B",
"s. c #4C4D4B",
"d. c #4C4B4C",
"f. c #4B4C4C",
"g. c #4C4C4C",
"h. c #4D4C4C",
"j. c #4D4D4C",
"k. c gray30",
"l. c #4D4D4D",
"z. c #4E4D4D",
"x. c #4E4D4C",
"c. c #4D4E4D",
"v. c #4E4E4D",
"b. c #4F4E4C",
"n. c #4D4D4E",
"m. c #4D4E4E",
"M. c #4E4E4E",
"N. c gray31",
"B. c #4F4F4E",
"V. c #4A4A4A",
"C. c #504F4F",
"Z. c #504F4F",
"A. c #4F504F",
"S. c #50504F",
"D. c #51514F",
"F. c #4F4F50",
"G. c gray32",
"H. c #545553",
"J. c #535353",
/* pixels */
"                                                                                                                                                                                                                                                              ",
"                                                                                                                                                                                                                                                              ",
"                                                                                                                                                                                                                                                              ",
"          g.g.8.8.8.8.8.y.8.d.8.z m 8 % %       y.8.g.g.8.8.p.8.8.8.8.8.8.8.8.S.8 8 8 5 f           8.8.8.8.g.g.g.g.g.g.8.1 1 8.g.g.8 8 8 z z <     O O O . X O O O p.g.g.g.p.g.8.8.p.g.g.g.g.g.g.g.p.y.8.8.8.g.8 8 f f 1 < <       8 8 8 8 8 % % %           ",
"          G.8.8.8.y.8.p.g.g.g.8.Z Z z % %       8.8.g.g.g.g.g.g.p.y.g.g.8.y.f.g.8 8 8 8 3           g.d.y.g.g.g.g.g.g.g.g.< < g.S.C.1 8 f m B <     O O O O o O O @ g.g.g.g.g.g.p.g.d.p.g.g.g.g.g.g.g.g.g.p.g.8.f f z f 1 1 1       8 8 f 8 f % % %           ",
"        O 8.8.8.p.8.8.8.8.p.8.8.Z Z 8 % %       8.8.g.p.g.p.8.8.8.8.8.8.8.8.8.g.8 8 8 < 8         O 8.p.y.8.8.g.p.p.8.8.g.f 1 H.8.g.8 f f m m <   O O X O o . O % % g.p.g.g.8.8.8.8.8.8.8.p.y.8.8.8.8.8.8.8.8.g.8 8 1 8 8 8 1       8 8 8 8 8 & & -           ",
"      8.8.8.8.g.< < < < < < < < < < 5 f f       8.*.] ] ] < < < < < < < < < < < < < % % %     % 8.8.8.d.g.< < < < < < < < 8.8.< 1 < < < < < < < < < % % %     Q ] 8.o.$.8.< < < < < < < < < 1 < < < < < < < < & % % % % : f z z f z - & % % % J J J % %       ",
"      y.8.8.p.8.< < < < < < < < < < 1 z f       o.8.] ] ] < < < < < < < < < < < < < % % %     % y.8.8.8.g.< < < < < < < < 8.i.< < < < < < < < < < < % % %     Q 8.$.8.8.] < < < < < < < 1 < < 1 1 < 1 < < < < & % % % % < f f z z z - - % % % I J J % %       ",
"      8.8.8.p.8.< < < 1 < < < < < < 1 8 f       ) 8._ ] ] < < < < < < < < < < < < < % % %     % p.y.g.8.g.< < < < < < < 1 8.$.5 < < < < < < < < < < % % %     Q 8.8.8.8.] < < < < < < < < < < < 1 < 1 < < 1 < < < < % % < f f z z z < < < < < K J I % %       ",
"      y.g.< < < < < < 1 < < < < < < < % %       - - < < < < < < < < < < < < < 1 < < % % %     % g.g.< < < < < < < < < 1 < < < < < < < < < < 1 < < 1 % % %     R 8.8.< < < < < < < < < < < < < 1 1 1 < 1 < < < < < < % % % < < < 1 1 < < < < < - - - % %       ",
"      8.d.< < < < < < < < < < < < < < % %       - - < < < < < < < < < < < < < < 1 < % % %     % g.8.< < < < < < < < < < < < < < < < < < 1 < < < < < % % %     Q 8.8.< < < < < < < 1 < < < 1 < < < < < < < < < < < < % % % < < < < < < < 1 < < - - - % %       ",
"      8.8.< < < < < < < < < < < < < < % %       - & < < < < < < < 1 < < < < < < 1 < % % %     % 8.g.< < < < 1 < 1 < < < < < < < < 1 < < < 1 < < < < % % %     Q 8.o.< < < < < < < 1 < < < 1 1 1 < < < 1 < < < < < < < < < < < 1 < < < < < < < - - - % %       ",
"      8.8.< < < < < < < < < < < < < : % %       O O < < < < < < < < < < < % % % < < % % %       8 z < < < < < < < < 1 < < < < < < < < < < < < < % % % % %     Q $.8.< < < < < < < < < < < < 1 1 1 < < < < < < < < < < < < < < < < < < < < < < % % % % %       ",
"      8.p.< < 1 < < 1 < < < < < < < : % %       O O < < < 1 < < 1 < < < < % % % < < % % %       8 8 1 < < < < < < < < < < < < < < < 1 < < < < < % % % % %     Q o.8.< < < < < < < < < < < < < 1 < < < < < < < < < < < < < < < < 1 < 1 < < < < % % % % %       ",
"      8.8.8 8 8 1 3 < < < < < < < < < % %       O O 8 3 1 1 1 1 1 1 < 1 1 % % % 8 1 % % %       8 f < < < < < < < < < < < < < < < < < < 1 < 1 < % % % % %     Q ] 8.< < < < < < < < < < < 1 < < < < < < < < < < < < < < < < < < 1 < < < < < < % & % % %       ",
"      ] 8.@ O % % % % < < < < < < < , % %       O O O . . % % % % % % % % % % % - - % % %     % < < < < < < 1 < 1 < < < < < < < < < < 1 1 1 1 1 < < % % %     E ] ] < < < < < 1 < < < < < 1 < 1 < < < < < < < < < < < 1 < 1 < 1 1 1 1 < < < < % % % % %       ",
"      ] ] O % % % % % < < < < < < < < % %       O O X . . % % % % % % % % % % % - - % % %     % < < < < < < < < < < < < < < < < < < < < 1 1 < < 1 1 % % %     ! ] ] < < 1 < < < < < < < < < < < < < < < < < < 1 < 1 < < < < < 1 < < 1 < < < < % % % % %       ",
"      8.~ : : : - % % < < < 1 1 1 < < % %       O O O . . % % % % % % % % % % % - - & % %     @ < < < < < 1 1 < < < < < < < < < < < < < < 1 < < < < % % %     R ) ] < < < < < < < < < < < < 1 < 1 < < < < < < < < < < < < < < < < 1 < < < < < % % % % %       ",
"      < < , : , < % % % % % % % % % %     - - &     O O O                                     % < < < < 1 1 < < < < < < < < < < < < < < < < < < % & % % %     : 1 1 1 < < < 1 < < < < < < < < 1 < < < < < < 1 < < < < < < < < < < 1 < 1 1 < < % % % % %       ",
"      < < , , : < % % % % % % % % % $     * - -     O O O                                     % < < < < < 1 < < < < < < < < < < < < < < < < < < % % % % %     < 1 < < < < < < < < < < < < < < < < < < < < < < < < < < < < < < < < < < < 1 < 1 & % % % %       ",
"      < < , , , @ O % @ % % % % % % O     - - -     O O                                       % 1 < < < < 1 1 < 1 < < < < < 1 < < < 1 1 1 1 1 < % % % % %     < 1 8 1 1 5 < < < < < < < < < 1 < < < 1 1 < 1 < < < < < < < < < < 1 < 1 1 1 1 1 % % % % %       ",
"                                      O O O O O R R R R R R R R R R z z z z m m z z           O - - % % % < 1 < 1 < < < < 1 < 1 < < % % % % % % % % & % %     % % % % % % 1 1 < < < < 1 1 1 < < 1 1 % % - < < < < < < < < < < 1 1 < < 1 % % % % % % % %       ",
"                                      O O O O O R R ! ! R ! R ! R R f z z m z m z z           O - - % % % < 1 1 < < < < < < < < < < % % % % % % % & & % %     % % % % % & 1 1 < < 1 1 1 1 1 < 1 < 1 % % & < < < < 1 < < < < 1 1 1 1 1 1 % % & % % % % %       ",
"      . X       P R E E R R R R R P R R R R R R ] ) 8 f z f f f 8 f 1 8 8 / Q ) 1 8 - % -     O - - % % % - - < 1 < < 1 1 - - - - - .   O % % % & % % % %     % % % % % % - - - - - - - - - - - - - % & % - - < < 1 < < < < < - - - - - % % % O O O O O       ",
"      . .       8.8.8.8.8.8.8.$.8.8.8.8.8.8.$.+.] ] 8 < < < < < < < < < < ] ) ] < < < < <     O - - % % % % % - < 1 1 < < % % % % %       % % % % % % & %     % % % % % % % % % % % % % % % % % % % % % % % % < 1 < < < < < 1 % % % % % % & % O O O   .       ",
"      X X     . 8.8.8.p.8.8.8.8.8.8.8.$.8.8.8.$.+.] < < < < < < < < < < < ) ] 8.< < < 1 <     O - - % % % % % : < < < < 3 % % % % %       % % % % % % % %     % % % % % % % % % % % % % % % % % % % % % % % % < < 1 < 1 < < < % % % % % % % % O O O           ",
"          g.8.g.8.8.g.< < < < < < < < < < < < < < < < < < < < < < < < < < < < < < < % % %           % % % % % % % % % % % % %       % @ % % % @                                                     O O O O O % % % % % % % % % % % % % % % %       % %       ",
"          8.8.8.8.8.8.< < < < < < < < < < < < < < < < < < < < < < < < < < < < < < < % % %           % % % % % % % % % % % % %       % % % % % O                                                     O O O O O % % % % % % % % % % % % % % % % .     % %       ",
"          A.8.8.8.r.8.< < < < < < < < < < < < < < < < < < < < < < < < < < < < < < < % % %           % % % % % % % % % % % % %       % % % % % O                                                     O O O O O % % % % % % % % % % % % % % % %       & &       ",
"      8.g.8.8.g.< < < < < < < < < < < < < < < < < < < < < < < < < 1 < < 1 < < < < < % % % O O .                                                           8.y.8.8.y.8.$.p.J J J J J                 O O                                             O O       ",
"      8.8.8.d.8.< < < < < < < < < < < < < < < < < < < < < 1 < < < < < 1 < < < < < < % % % O O .                                                           8.y.p.8.i.y.g.g.Z J J J J                 O O .                                           O O       ",
"      p.8.p.g.8.< < < < < < 1 1 1 < < < 1 < < < < < < < 1 < < < < < < < < < < < < < % % % X . .                                                       . O 8.8.g.p.y.y.p.] J D J J J                 O O                                             O O       ",
"      8.g.< < < < < < < < < < < < < < < 1 1 < < < < < < < < 1 < < 1 < < < < < < < < % % %           y.8.8.8.8.8.8.] Z z Z % %             8.8.$.8.8.8.] 8.< < < < < < < < < < < < < < < 8           O o - 8.8.] $.] 8.8.8.8.8.$.o.] ] $.f 8 8 # + @           ",
"      p.g.< < < < < < < < < < < < < 1 < 1 1 < < 1 < < < < < < < 1 < < < < < < < < < % % %         . $.8.8.8.8.*.o.8.8 z z % %             8.8.8.8.8.8.8.8.< < < < < < < < < < 1 < < < < 1           X O - 8.o.8.$.8.8.8.8.8.8.8.8.8.o.8.f f f $ @ %           ",
"      S.8.< < < < 1 < < < < < < < < < 1 < < < < < < 1 < 1 1 < < < < < < < 1 1 1 < < % % %           ] 8.8.p.8.8.8.o.f z z % %             8.8.p.p.8.8.8.8.< < < < < < < < < < < 1 1 8 < f               % 8.8.8.8.8.8.g.p.g.p.p.8.8.8.8.z f 8 % % O           ",
"      z z < < < < < < < < < < < < < < < 1 < < < < < < < < < < < < < < < < % % % < < % % %     % 8.o.8.o.] < < < < < < < < < < - & %       8.y.Q < < < < < < < < < < < < < < 1 1 < < % % &           ] ] Q < < < < < < < < < < < < < < < < 1 < < < < % %       ",
"      z z 1 1 < < < < < < < 1 < < < < < < < < < < < < 1 1 < < < < < < < < % % % < < % % %     - 8.8.o.8.8.< < < < < < < 1 < < - % &       p.8.! < < < < < < < < < < < < < < 1 1 < 1 % % &           8.] ! < < < < < < < < < < < < < 1 < < < < < < < & &       ",
"      % % < 1 1 1 < 1 < < < 1 < 1 1 < < < < < < < < < < < < < < < < % % % 1 < < % % % % %     % 8.o.< < < < < < < < < < < & & % % %       1 < < < < < < < < < < < < < < < < < < 1 1 % % %     ] ] o.] 8.Q < < < < < < < < < < < < < < < < < < < < < % %       ",
"      % % < < < < 1 < < < < 1 1 < < < < < < < < 1 < < < < < < < < < % % % < < 1 % % % % %     % ] ] < < < < < < < < < < < % & % % %       < < < < < < < < < < < < < 1 < < < < < 1 < % % %     ] ] 8.o.] Q < < < < < < < < < < < < < < < < < < < < < % %       ",
"      % % < < 1 < 1 < < 1 < < 1 1 < < < < < < < < < < < < < < < < < % % % < < 1 % % % % %     % ] ] 1 < < < < 1 < < 1 < 1 % % % % %       < < < < < < < < < < < < < < < < < 1 < < < % % &     ] ] ] ] 8.Q < < 1 < 1 < < < < < < < < < < < < < < < < % %       ",
"      % % < 1 < < 1 1 1 < % % % 1 < < 1 < < < < < 1 % % % < < < < < < < < < < 1 % % % % %       - - < < < < < < < < < 1 1 % % % % %       < < < < < < < < < < < < < 1 < < < 1 % % % % % %     $._ +.< < < < < < < < < < < < < < < < < < < < < % % % % %       ",
"      % % < 1 < < < 1 < 1 % % % < < 1 1 < < 1 < < 1 % % % < < < < < < 1 < 1 < 1 % % % % %       - - < < < < < < < 1 1 < 1 % % % % %       < 1 < < < < < < < < < < 1 1 < 1 < 1 % % % % % &     8.] ] < < < < 1 < < < < 1 < < < < < < < < < < < % % % % %       ",
"      % % < < 1 < < < < 3 % % % 1 < < < < < < < 1 1 % % % < < < < < < < < < < 1 % % % % %     o - - < < 1 < 1 < 1 < < < 1 % % % % %       < < < < < < < < 1 < < < 3 1 1 1 < 1 % % % % % &     p.) o.< < < < < < < < < < 1 < < < < < < < 1 < < % % % % %       ",
"      % % - - - % % % % % < < < 1 1 1 < < < 1 < 1 1 % % % % % % % % % % % % % % & %           o % % < < 1 1 1 1 < < 1 < 1 % % % % %       % % - < < 1 < 1 1 1 1 1 1 1 1 1 f 8 % % % % % %     % % % < < 1 < < < < < < < < < 1 < 1 < 1 1 1 1 < < < < % %       ",
"      % % - - - % % % % % < 1 1 1 1 3 1 < < < < < < % % % % & % % % % % % % % % % &           O % % 1 1 < 1 1 < < 1 < < 1 % % % & &       % % - < < < 1 < 1 < < < < 1 8 < f f & % % % % &     & % % < < < < < < < < < < < < < 1 1 1 1 < < 1 1 1 1 < % %       ",
"          X X O % % %     & % % % % % % % % % % % % & % % & % % % % % % & % % &                     % % % % % % % % % % % % %               . O % % % % % % % % % % % % % % % % % %           % % % < < < < < < < < < < < < < 1 < < < 1 1 < < % % % % %       ",
"          . X O % % %     % % % % % % % % % % % % % % % % % % % % % % % % % % %                     % % % % % % % % % % % % %               . O % % % % % % % % % % % % % % % % % %           % % % < < < < < < < < < < < < < 1 < 1 < < < < 1 % % % % %       ",
"          O X O % % %     % % % % % % % % % % % % % % % % % % % % % % % % % % &                     % % % % % % % % % % % % %                 O % % % % % % % % % % % % % % % % % %           % % % < < < < < < < < < < < < < 1 < 1 1 < 1 < < % % % % %       ",
"      % O O . .                                                                     @ O O O O O                               O O O O O O                                                     % % % % % - < < < < < < < < < < 1 < 1 1 1 < < < & - = % %       ",
"      O % . .                                                                       % # O O O O                               O O O O O O                                                     % % % % % & < < < < < < < < < < < < < < < < < < - & - % %       ",
"      O @ .   .                                                                     % @ @ O @ O                               O O O O O O                                                     % % % % % % < < < < < 1 < < < < < < < < < < < < - & & % %       ",
"          g.8.] &.8.$.$.8.8.o.o.$.*.] *.8.: - -     O O O           G.8.8.8.8.8.8.8.8.8.8.8.8.8.8.8.8.8.8.8 1 < - - O O O           8.8.$.8.8.r.8.8.8.8.$.3 8 ) 8.8.8.8.8.] ]       % % -     O X O O O O % % < < < < < < < < < < < % % $ % % < < < % %       ",
"          8.8.8.8.8.8.$.8.8.8.8.+.*.8.8.8.: - -     O O O           H.8.8.8.8.8.8.8.8.8.8.8.8.8.8.8.8.8.8.8 8 1 - - O O O           8.8.8.8.8.8.y.8.8.8.8.f 8 ) 8.8.8.8.8.8.o.      % % -     O O O O O @ % % < < < < < < < < < < < % % % % % < < < % %       ",
"          p.8.8.8.8.8.8.8.$.8.$.8.8.$.$.] < < :     O O O           H.8.8.8.8.8.8.8.8.8.8.8.8.8.8.8.8.g.8.8 1 < - - O O O           g.p.8.8.8.8.8.8.8.i.] 3 8 ) 8.8.8.8.8.] $.      % * -     O O . . . O % % % % % % % % % % % % % O @ O O O % % % % %       ",
"      8.y.8.8.8.< < < < < < < < < < < 1 < < 1 < : :   . .       8.8.8.8.$.< < < < < < < < < < < < < < < < % % - < < - : <     8.8.8.8.p.g.< < < < < < < 8 ) ) Z < < < < < < < 1 < <           % % %     . % % % % % % % % % % % % %     % % % % % % % %       ",
"      8.8.8.8.*.< < < < < < 1 < < < < 1 < < < < - : . X .       y.8.$.8.8.< < < < < < < < < < < < < < < 1 % % : < < < < <     8.y.8.g.g.8.< 1 < < < < < < ) ) z < < < < < < < < < 8           % % %       % % % % % % % % % % % % %     % % % % % % % %       ",
"      8.8.D Z Z < < < < < < < < < < < < < < < < - -       J Z K 8.8.Z Z Z < < < < < < 1 < < < < < < < < < : < < < < - - -     8.y.y.D Z J < < < < < < < < V Z 8 < < < < < < < & - -           O O o       X X O O O .     o O O O .     O X o O X O O O       ",
"      8.8.< < < < < < < < < < < < < < < < < < < & %       ) ] ] ] $.: < < < < < < < < < < < < < < < < < < < < < < < % % %     8.8.g.< < < < < < < < < < < < < < < < < < < < < % % %                                                                           ",
"      8.8.< < < < < < < < < < 1 < < < < < < 1 < & &       ] ) ) 8.] < < < < < < < < < < < < < < < < < < < < < < < < % % %     8.8.8.< < < < < < < 1 < < < < < < < < 1 < < < < % % %                                                                           ",
"      Z m < < < < < < < < < < < < < < < < % % % % &       < < - ) ] < < < < < < < < < < 1 < < < < 1 < < < < 1 < < 1 % % %     ] ] ) < < < < 1 < < < < < 1 < < < < < < < < < < % % %       O o +.8.] ] ] $.] ] o.o.] $.o.z 8 8 8 8 8 8 8 z z f - - :           ",
"      Z Z < < < < < < < < < < < < 1 < < < % % % % %       < : < ) ) < < < < < < < < < < < 1 < 1 < < < < < < < < < < % % %     +.) ] < < < < < 1 1 1 < 1 1 1 1 1 1 < < < < < < % % %       X O C.$.$.$.8.$.$.o.] $.8.8.] 3 8 f f 8 8 8 8 z z f - - <           ",
"      Z Z < < < < < < < < < < < < < < < < % % % & %       > < < < < < < < < < < < < < < < < 1 < 1 1 < < < < < < < < % % %     - < < < < < < < 1 1 < 1 < < 1 < < < < 1 < < < < % % %       O O g.$.] 8.] o.] o.$.8.8.o.] f z f 8 8 f 8 8 z z z : - -           ",
"      < < 1 < 1 < < < < < < 1 < < 1 < < < % % % & %       % % % < < < < < < < < < < < 1 < 1 < < 1 < < < 1 < 1 : % & % % %     < < < < < < < < 1 1 < 1 < 1 < 1 < 1 1 1 < < < 1 % % %       ] 8.] ] 8.< < < < < < < < < 1 < < < ) ) ) < < < < < J D J z z       ",
"      < < < 1 < < < < < < < 1 < 1 < < < 1 % % % % %       % % % < < < < < < < < < < < < 1 < < < < 1 < < < < 1 , % & % % &     < < < < < < < < < < 1 1 1 < 1 < < 1 < < < < < 1 % % %       8.] $.8.8.< < < < < < < 1 < < < < 1 ) ) ) < < < < < D J I m z       ",
"      < < < < < < < < 1 < < < < 1 < < < < % % % % %       % % % < < < < < < < < < < < 1 < 1 < < < < 1 < < 1 1 , % % % % &     < < < < 1 < 1 1 < < 1 1 < 1 1 < 1 < < < 1 1 < < % % %       $.+.] g.] < < < < 1 < 1 < < < 1 1 1 ) ) ) < < < < < J K I z Z       ",
"      < < < < < < < < 1 1 < < 1 1 < < < 1 < 1 < % %       % % % < < < < < < < < < < < < < < < < < < 1 < < 1 1 1 < 1 % % &     < < 1 1 < < < < < 1 < < 1 1 < < < 1 1 < < 1 < 1 % % %       $.] r.< < < < < < < < < < < < < < < 1 1 < < < < < 1 - - - % %       ",
"      < < < 1 < < < < 1 < < < < < < < < < 1 1 < % %       % % % < < < < < < < < < < < < < 1 < < 1 1 < < < < < < 1 1 % % %     < 1 < < < 1 < < < 1 < < < 1 1 1 < < < 1 1 1 < < % % %       8.o.) < < < < < < < 1 < < < < < 1 1 < 1 1 1 1 < 1 1 - - - % %       ",
"      - - % % % < 1 < % % < < < < < < < < % % % % %           . & % 8 < < < < < < < < < < < < < % % < 1 < - & % % % % % %     % % % < < < < 1 1 1 1 % % % < < < < < - - - - - % % %       % O < 1 < < < < < < < < < 1 1 1 < < < < < < < < < 1 - - - % %       ",
"      & - % % % < 1 < % % < < < < < < < < % % % % %             % & 8 < < < 1 < < < < < < < < < % % < < 1 & - & % % % % %     % % % < < < < < 1 1 < % % % < < 1 1 < - - - - & % % %       % % < < 1 < < < < < < < 1 < < < < < < < < < 1 < < < - - - % %       ",
"      - - % % % < < 1 % % < < < < < < < < % % % % %             % & 1 < < < < < < < < < < < < < % % 1 < 8 - - & % % % % %     % % % 1 < < < < < < < % % & < < 1 < 1 - : - & = % % %       % % < < < < < < < < < < 1 < < < < < < 1 8 < 3 < 1 < - - - % %       ",
"          % % % % % % % % % % % % % % % % % % %     $ % @       % % % % % % % % % % % % % % % % % % % % % % % % % %           % & % % % % % % % % % % % %     O % % % % % % %             % % < < < < < < < < < 1 1 < < < < < O O O % % - - - - - - % %       ",
"          % % % % % % % % % % % % % % % % % % %     % @ @       % % % % % % % % % % % % % % % % % % % % % % % % % %           % % % % % % % % % % % % % %     @ % % % % % % %             % % 1 < < < < < < < < 1 < 1 < < < 1 O O O % % - - - - - - % %       ",
"          % % % % % % % % % % % % % % % % % % %     O @ %       % % % % % % % % % % % % % % % % % % % % % % % % % %           % % % % % % % % % % % % % %     % % % % % % % %             % % < < < < < < < < < 1 < 1 < < < < O O O % % - - - - - - % %       ",
"                                                                                                                                                                                          O O % % % % % % % % < < < < < % % %       % % % % % % % % % %       ",
"                                                                                                                                                                                          O O % % % % % % % % < < 1 < < % % %       % % % % % % % % % %       ",
"                                                                                                                                                                                          O O % % % % % % % % < < < < < % % %       % % % % % % % % % %       ",
"          d.g.8.8.8.8.8.8.8.8.8.Z z m z m $.8.8.8.8.8.8.8.8.8.8.8.8.J K J z f z     % % %           8.y.8.8.8.8.8.8.8.8.] O O       O O O 8.8.$.$.8.8.8.8.8.8.8.8.8.8.8.8.p.8.< 1 8 5 < f                                                                     ",
"          g.8.8.8.8.8.y.8.8.8.8.m z z m f 8.8.8.8.8.8.8.8.8.r.i.8.8.J J J z z Z     % % %           ] 8.8.8.8.8.8.8.8.] 8.O O     . @ @ O ] $.8.8.8.8.8.8.8.8.8.8.8.8.8.8.8.8.3 8 1 < 1 m                                                                     ",
"          g.8.8.8.y.g.g.g.g.g.p.m z z z z y.8.d.g.g.g.g.g.g.g.g.F.g.m Z J f f Z     % % %           8.$.8.8.8.8.8.8.8.8.8.  . .   . O O @ $.] 8.8.8.8.8.8.8.8.8.d.8.8.y.8.8.y.< 1 8 5 3 z                                                                     ",
"      $.8.o.] 8.< < < < < < < < < < < < < < < < < < < < < < < < % % % % & < < < < < .         & ) ) ) ) ) < < < < < < < < < <       ) ] ] ) _ Q < < < < < < < < < < < < < < < < < < % % O ~ ) Q R Q                 ] 8.o.o.*.8.] +.o.o.8.$.] < 8 f           ",
"      8.8.o.8.+.< < < < < < < < < < < < < < < < < < < < < < < < % % - & % < < < < <           % ) ) ) ) ) 1 < < < 1 < < < < <       ] ] ] ] ] R < < < < < < < < < 1 < < < < < < < < % % O ) Q ! Q Q               O $.] o.8.8.8.] ] ] *.$.8.8.8 8 8           ",
"      8.8.p.8.8.< < < < < < < < < < < < < < < < < < < < < < < < 8 8 % & & < < < < <           % ) ) ) ) ] < < < < 1 < 1 < < 3       ] _ ] &.] ! < < < < < < < 1 1 1 < < < 1 < < < 1 % % O ) Q Q / )     .       O   ] o.8.f.8.8.8.8.8.8.8.8.8.8 8 8           ",
"      8.8.< < < < < 1 < < < < < < < < < < 1 < < < < < < < < < < < < % % % < < 1 % &       - - < ) ) < < < < < < < 1 < 8 1 % &       Q ] ] < < < < 1 < < 1 1 < 1 1 < < 1 < < 1 < 1 < < < < < < 1 1 < 8 8 -     8.*.8.] 8.3 < < < < < < < < < < 1 < 1 % %       ",
"      8.8.< < < < < < < < < < < < < < < < < 1 < < < < < < < < < < < % % % < < 1 % &       - - < ) ^ 3 1 < < < < < < < 1 < & %       ] _ ) < < < < 1 1 < 1 < < < < 1 1 1 < < 1 < < < < < < < < 1 < < 8 8 <     8.8.$.8.] < < < < < < < < < < < < < 1 % %       ",
"      z 8 < < < < < < < < < < < < < < < < < < < < < < < < < < < < < < < < < < < % %       % % % 8 1 < < < < < < < 1 < < < % %       f < 1 < < < 1 1 1 1 1 < < < < 1 1 1 < < 1 < < 1 < < < < < 5 1 8 % % %     8.$.] 8 < < < < < < < < < < < < % % & % %       ",
"      8 8 < < < 1 < < < < < < < < < < < < < < 1 < < < < < < < < < < < < < < < < % %       % % - < < < 1 < < < < 1 1 < < < % %       < 8 < < < 1 1 < 1 < < 1 1 1 < < < 1 1 1 1 1 < < 1 1 < 1 < < < < % % O     o.o.$.< < < < < < < < < < < 1 < % % % % %       ",
"      8 8 < < 1 < < < < < < < < < < < < < < < 1 < < < < < < < < < < < < < < 1 < % %       % % - < < 1 1 < < 1 1 1 < < < < % %       < < < < 1 1 1 1 < 1 < < < < 1 1 < 1 < < 1 < 1 1 < 1 1 < < < < < % % O     8.o.o.< < < < < < < < < < < 1 < % % % % %       ",
"      < < < < 1 < 1 1 < < < < < < < < < < < 1 < < < < < < < < < < < < < < < < < % %       % % % % % < < < < 1 < < < % % %           : < < < 1 < < 1 1 1 < 1 1 < < < < < 1 1 < < 1 1 1 1 < < < < < < % % O     < < < < < < < < < < < < < < < < % % % % %       ",
"      < < < < < < < < < < < < < < < < < < < < < < 1 1 1 < < < < < < < < 1 < < < % %       % % % % % < 1 1 < 1 < < 1 % % %           : < < < < 1 < < 1 1 < < 1 1 < < < < < 1 1 1 < 1 < < 1 < < 1 < < % % O     < < < < < < < < 1 < < < 1 < < < % % % % %       ",
"      < < < < < < < < < < < < < < < < < < < < < < < 1 < < < < 1 < < < 1 < < < < % %       % & % % % < 1 < < < < < < % % %           % % % 1 < 1 1 1 1 1 1 1 < < < < < < < 1 < < 1 < 1 < 1 1 1 < < < % % O     - : - < 1 < < < < < < < < 1 1 1 % % % % %       ",
"      < < < < < < < < < < < < < < < < < < < < < < < < < < 1 1 < < < < 1 1 < 1 1 % %         . O O O % % % % % % % % . O   - &       % % % < 1 < 1 < < 1 1 1 < 1 1 1 1 < < < < < < 1 < < < 1 < < % % O O O     % % % < 1 < 1 < 1 < 1 1 1 < < < % % % % %       ",
"      < < < < < < < < < < < < < < < < < < < < 1 < < < < < 1 1 1 < < < < 1 < < 1 % %           . O O % % % % % % % % .   O & -       % % % 1 3 1 1 1 1 < 1 < 1 < < 1 1 < 1 < < 1 < < < 1 < < 5 < % %           % % % 1 1 1 < < < < < 1 < < < < % % % % %       ",
"      < < < < < < < < < < < < < < < < 1 < < < < < < < < < < < < 1 < < < < < < 1 % %           . O O % % % % % % % %     . - &       % % % 1 1 1 1 1 < < < < 1 1 < 1 1 1 1 1 < 1 < < 1 < 1 1 < 8 % %           % % % % % < < < < 1 < < < 1 < < % % % % %       ",
"      % % % % % < < < < < < < < < < < < < < < < % % < < < 1 1 < < 1 % % % % % % % %                                                 % % % % % % % % < 1 < 1 1 1 < 1 % % % < < 1 < 1 1 1 8 % % @ @ @ O O .     % & % % % < 1 < < < < < 1 1 1 < % % % % %       ",
"      % # % % % < < 1 < < < < < < < < < < < < < % % < < 1 < 1 < < < % % % % % % % %                                                 % % % % % % % % 1 < < < < < 1 < % % % 1 < < < < 1 1 8 % % @ O @ O O O           % % % % % % % % % % % % % % % %           ",
"      % # % % % < < < < < < < < < < < < < < < < % % 1 < < < < 1 < 1 % % % % % % % %                                                 % % % % % % % % < < < < < < < 1 % % % < < < 1 < < < 1 % % @ O O O O .           & & % % % % % % % % % % % % % &           ",
"          % % % % % % % % % % % % % % % % % % % % %       % % % % % % % %                 8.] 8.$.8.$.$.8.8.8.8.i.8.8.8.y.8 f                 O % & & % % % % % % % % % % % % % % % % % % % %                       & & & % % % % % % % % % % & % &           ",
"          % % % % % % % % % % % % % % % % % % % % %       % % % % % % % %                 8.y.8.8.8.8.8.8.8.8.8.y.y.p.g.8.z f                 O & % % & % % % % % % % % % % % % % % % % % % %                                                                 ",
"          % % % % % % % % % % % % % % % % % % % % %       % % % % % % % %                 g.8.8.8.8.8.8.8.8.8.8.8.p.8.8.8.f z                 O % % % % % % % % % % % % % % % % % % % % % % %                                                                 ",
"      % %                                                                 8.o.8.8.8.o.*.y.< < < < < < < < < < < < < < 1 < < < < < <                                                                 O O % ] ] ] ] ] ] ] ] ] ] ] ] ] ] ] ] ] )                 ",
"      % %                                                                 8.$.8.8.8.8.8.o.< < < < < < < < < < < < < < < < < < < < <       . .                                                       O O - ] o.] 8.o.] $.o.o.] $.] ] ] $.] ] ] . .             ",
"      @ @ & = % % % % % + % % % + + % O O O O O                     % O O ] ) ) ) ) ) ) ) < < < < < < < < 1 < < 1 < < < < < < < < < O O O           % % O O O O O O                       % % % % % & - ; ) ) Q ) ) ) ) ) ) ) ) ) ) ) ) ) ) ) O O O           ",
"          g.8.8.8.8.8.8.$.8.8.8.8.8._ f f z z f O O . . . O O O O O 8.) ) < < < < < < < < < < < < < < < < < < 1 < < % & % < < < < < 1 < 8 .   . O O ! ! / z z f f z O O O     O O O & & O ] ] ] ] 8.o.] Q < < < < < < < < < < < < < < < < < < < < < . .       ",
"          g.8.8.8.8.8.8.8.8.8.8.8.p.Q f z f z z O O . X o O O O X X G.) ) < < < < < < < < < < < < < < < < < < < < 1 % % & 1 < < < < < < 8   . . O O / Q Q f f j z f O O O     O O O * % % 8.$.o.$.$.8.] ! < < 1 < < < < < < < < < < < 1 < < < < < 1   .       ",
"      G.J.8.o.8.< > < < > < : : < : < < < % % % f z             g.H.) ) _ < < < < < < < < < < < < < < < < 1 < < < < % % % % % < < < % % %     < G.G.I R R 8 < < < 1 8 z 1     ] ] ] o.] G.< < < : < < < < < 1 < < < < < < < < < < < < 1 1 < < < < 1 % &       ",
"      8.8.*.$.8.< < < < < < < < < < < < < % % & 8 3             8.8.) ) ) < 1 < 1 < < < < < < < < < < < < 1 1 < < < % % % % & < < 1 % % %     < 8.8.R R I 1 1 1 < < < 1 <     ) ! Q ] ) 8.< < < 1 < < < < < 1 1 < < < < < < < < < < < 1 1 1 < < < 1 % %       ",
"      p.$.8.8.] < < < < < < < < < < < < < % % % 8 8 .           8.$.) ) ) < < < < < < < < < < < < < 1 < < < 1 1 < < % % % % % < 1 1 % % %     < g.8.I R R < < < < < 5 < 1     ) Q Q ) ] ] < < < < < < < < < < < 1 < < < < < 1 < < < < < < < < < 1 1 % %       ",
"      J K 1 < < < < < < < < < < < < < < 1 < < < 1 1 < < >       $.8.< < < < < < < < < < < 1 < 1 < < < < < < < < 1 < < < < < < < 1 1 % & %     % < < 8 1 1 1 < 1 1 1 % % %     ) R R < < 1 < < < < < < < < < < < < < < < 1 < 1 1 < < 1 < < < 1 % % % % %       ",
"      J I < < < < < < < < < < < < < < < < < < < < 1 < < <       8.8.< < < < < < < < < < < < < < < < < < < < < < < < 1 < < < < < 1 1 % % %     % < 1 1 1 1 1 < < < 1 % % %     Q T R < < < < < < < < < < < < < < < < < < < < < < < 1 1 1 < < < % % % % %       ",
"      J D < < < < < < < < < < < < < < < 1 < < < 1 1 < < <       8.] < < < < < < < < < < < < < < < 1 < < < < < < < < < 1 < 1 1 < 1 1 % & %     % < < 1 1 < 1 1 1 1 3 % % %     Q R L < 1 < < < < < < < < < < < < < < < < < < < < < 1 < < 1 < < % % % % %       ",
"      8 f < < < % % & < < < < < < < < < < < 1 1 1 1 % % &       1 < < < < < < 1 < < < < < < < < < < < 1 < < < < < < 1 < < < < 1 1 < % & %     O = - < < 1 < 1 1 1 3 % & %     8 1 8 1 < < 1 < < < < < < < < 1 < < < < < < < < 1 < < 1 < % % % 1 3 3 % &       ",
"      8 8 < < < % % % < < < < < < 1 1 < < < 1 < 1 1 % % &       < 1 < < < < < < 1 1 < < < < 1 < < < < < < < < < < < < 1 < < 1 1 < 1 % % %     O - - 1 1 1 < 1 1 1 3 % % %     8 1 5 1 1 < < < < < < < < < < < < < < < < < < < < < < 1 1 % % % 1 1 3 % %       ",
"      8 8 < < < % % % < < < < < < < < 1 < < < < < 1 % % %       < < < < < < < 1 < < 1 < < 1 < < < < < 1 < < < < < < < < < < < < < 1 % % %     O - - < < 1 1 < < 1 1 % % %     3 1 1 < 1 < < < < < < < < < < < 1 < < < < < < < < < < < 1 % % % 1 1 1 % %       ",
"      8 5 - - - < < < < < < < < < < < < < 1 < < < < % % %       < < < < < < < 1 1 1 < < < < 1 < < 1 < < < < < 1 1 < < < < < < % % % % % %     O % % < 1 < < < - % & & % %     1 < < < < < < < < < < < < < < < < 1 < < < < < 1 < < < 1 < % % % 1 < 1 % %       ",
"      1 1 - - - < < < < < < < < < < < < < 1 < 1 < 1 % % &       < < < < 1 < < < < 1 < < < < < < < < < 1 < 1 1 < 1 < < < 1 < 1 & % % % % %     O % % < < 1 < 1 - % & % & &     1 < < < < < < < < < < < < < < < < 1 < < < < < < < < < 1 1 % % % 1 1 1 % %       ",
"      - - - - - < < < < < < < < < < < < < < < 1 - - % % &       - - - - - < < < < < < < < < < < < < < 1 < - - < 1 1 < 1 1 - - % % & O O O     O @ % - - - - - * % % % % %     - - - < < < : - < < < < < < < < < < < < < < < < < < 1 < 1 % % % < 1 1 % %       ",
"      % % % & % < < < 1 < < < < < < < < < < < < % % % & &       % % % % & < < < < < 1 < < < < < < 1 1 1 1 % % - 1 < 1 < 1 % % % % %             O O % % % % & % % & % & %     % % & 3 < 8 & % < < < < < < < < < < 1 < < < < < < < < < 1 O % % < < 1 % %       ",
"      % % % % % < < < < 1 < < 1 1 < < < < 1 < 1 % % % % &       % % % % % < < < < < < < < < < < < < 1 1 1 % % - < < < 1 3 % % % % %             O O % % % % % & & & & % %     & % % < 8 8 % % < < < < < < < < < < < < 1 < < < < < < < 1 @ % % < < < % %       ",
"      O @ % % % % % % % % < < < 1 < < % % % % % & % & % %       % % % % & % % & % % % % % < < < < < 1 1 <     O % % % % & & %       Z Z Z - % % O O % % %   . .               % % % % % &     < < < < < < < < 1 < < < < & % & < < < % %     . % % % % %       ",
"      @ @ % % % % % % % % < 1 < < < < % % % % % % % % % %       % % % % % % % % % % % % % < < < < < 1 < 1     O % % & % & & &       Z Z z & - % O O % % %                     % % % % % %     < < < < < < < < < < < < < & % % < < < % %       % % % % %       ",
"      @ @ % % % % % % % % < 1 1 1 1 < % % % % & & & & % %       % % % % % % % % % % % % % < < 1 1 1 1 < 1     O & & & % % & %     . Z B Z - - % O O % % % . .                 % % % % % -     1 < < < < < < < < < < < < & % % < 1 1 % %     . % % % % %       ",
"          % % % % % %     % % % % % % % %     . . . . .   .   .     - % % % % % % % % % % & % % % %           O % % % % %         . O O O @ O O               % % % @ @ @   . . . . . .   % % % % % % % % % % % % % % % % % % % % % .   & % % % % %           ",
"          % % % % % %     % % % % % % % %             .   .     . . - % % % % % % % % % % % % % % %           O % % % % %         . O O O O @ O               % % % @ @ @                 % % % % % % % % % % % % % % % % % % % % %     & % % % % %           ",
"          % % % % % %     % % % % % % % %                       .   - % % % % % % % % % % % % % % %           O % % % % %           O O O O O O               % % % @ # @                 % % % % % % % % % % % % % % % % % % % % %     & % % % % %           ",
"                                                                                                                                                                                                                                                              ",
"                                                                                                                                                                                                                                                              ",
"                                                                                                                                                                                                                                                              "
};
