/* XPM */
static const char *wall_13[] = {
/* columns rows colors chars-per-pixel */
"13 13 82 1 ",
"  c #0B0C10",
". c #0D0E12",
"X c #16191E",
"o c #18191D",
"O c #191A1E",
"+ c #1B1C20",
"@ c #1C1D21",
"# c #1D1E22",
"$ c #1E1F23",
"% c #1F2024",
"& c #202125",
"* c #212226",
"= c #222327",
"- c #232428",
"; c #242529",
": c #26272B",
"> c #2A2B2F",
", c #2F3034",
"< c #313236",
"1 c #373634",
"2 c #3C3837",
"3 c #333438",
"4 c #35363B",
"5 c #37383D",
"6 c #38393D",
"7 c #43474A",
"8 c #444549",
"9 c #44484B",
"0 c #45494C",
"q c #47484C",
"w c #464A4D",
"e c #474B4E",
"r c #48494D",
"t c #494A4E",
"y c #4A4B4F",
"u c #484C4F",
"i c #494D50",
"p c #4B4C50",
"a c #4A4E51",
"s c #4C4D51",
"d c #4F5054",
"f c #505251",
"g c #505155",
"h c #606163",
"j c #676966",
"k c #666A6B",
"l c #686A69",
"z c #696B6A",
"x c #6A6A6A",
"c c gray42",
"v c #6A6C6B",
"b c #696A6C",
"n c #6B6D6C",
"m c #6C6C6C",
"M c #6D6D6D",
"N c #6C6E6D",
"B c #6D6E70",
"V c #717171",
"C c #808281",
"Z c #939290",
"A c #969593",
"S c #9D9996",
"D c #9E9A97",
"F c #9D9C98",
"G c #9F9E9A",
"H c #9D9B9C",
"J c #9F9E9C",
"K c #A19D9A",
"L c #A09F9B",
"P c #A09F9D",
"I c #A39F9C",
"U c #A09E9F",
"Y c #A2A19D",
"T c #A2A19F",
"R c #A6A29F",
"E c #A5A4A0",
"W c #A9A4A0",
"Q c #AAA5A1",
"! c #A9A6A1",
"~ c #A9A5A2",
"^ c #AAA6A3",
"/ c #B4B5AF",
/* pixels */
"XRUWVW/=WWW;o",
"Tn6krNNfzNNN7",
">RSnniiiiiii-",
"UnnniF%TN#FL#",
"rzvi;nrvz=nNw",
"1H>2Jb8UE#www",
"zNsnNNCNNAvZz",
"%=%;==-;=,u+w",
"Lznj%n NNn=nw",
"hzzN+r.dNzoNw",
";R3;NNN4<SNn=",
"BNnvNNvgrNNN9",
"ow==r===5wwro"
};
