/* XPM */
static const char *wall_34[] = {
/* columns rows colors chars-per-pixel */
"34 34 235 2 ",
"   c #121315",
".  c #121317",
"X  c #101417",
"o  c #131416",
"O  c #171715",
"+  c #111518",
"@  c #131418",
"#  c #131718",
"$  c #121619",
"%  c #12151A",
"&  c #13171A",
"*  c #13161B",
"=  c #141519",
"-  c #161719",
";  c #15161A",
":  c #16171B",
">  c #14181B",
",  c #17181C",
"<  c #18191D",
"1  c #191A1C",
"2  c #1A1B1D",
"3  c #191A1E",
"4  c #1A1B1F",
"5  c #1B1C1E",
"6  c #1C1D1F",
"7  c #1B1C20",
"8  c #1C1D21",
"9  c #1E1F21",
"0  c #1F1F21",
"q  c #1E1D22",
"w  c #1D1E22",
"e  c #1E1F23",
"r  c #1F2022",
"t  c #1F2024",
"y  c #212025",
"u  c #202125",
"i  c #222325",
"p  c #202126",
"a  c #212226",
"s  c #222327",
"d  c #242527",
"f  c #232428",
"g  c #242529",
"h  c #25262A",
"j  c #26272B",
"k  c #27282C",
"l  c #28292D",
"z  c #292A2E",
"x  c #2A2B2F",
"c  c #2B2C30",
"v  c #2C2D31",
"b  c #2D2E32",
"n  c #2E2F33",
"m  c #2F3034",
"M  c #303135",
"N  c #313236",
"B  c #323337",
"V  c #303539",
"C  c #333438",
"Z  c #36373B",
"A  c #37383C",
"S  c #38393D",
"D  c #3A3A3C",
"F  c #3A3B3F",
"G  c #373C42",
"H  c #3B3E43",
"J  c #3D3E42",
"K  c #3F4044",
"L  c #424347",
"P  c #414548",
"I  c #414449",
"U  c #434449",
"Y  c #434748",
"T  c #43474A",
"R  c #444549",
"E  c #45464A",
"W  c #45464B",
"Q  c #44474C",
"!  c #44484B",
"~  c #464A4D",
"^  c #46494E",
"/  c #474B4E",
"(  c #48494D",
")  c #494A4C",
"_  c #4A4B4D",
"`  c #48494E",
"'  c #494A4E",
"]  c #494A4F",
"[  c #4A4B4F",
"{  c #484C4F",
"}  c #4B4C4E",
"|  c #4C4D4F",
" . c #474C50",
".. c #484B50",
"X. c #4A4B50",
"o. c #494D50",
"O. c #494C51",
"+. c #4B4C50",
"@. c #4B4C51",
"#. c #4A4E51",
"$. c #4B4F52",
"%. c #4B4E53",
"&. c #4A4F53",
"*. c #4C4D51",
"=. c #4C4D52",
"-. c #4D4E52",
";. c #4D4E53",
":. c #4E4F53",
">. c #4C5053",
",. c #4F5054",
"<. c #4E5255",
"1. c #4F5356",
"2. c #505155",
"3. c #515256",
"4. c #515257",
"5. c #535456",
"6. c #545557",
"7. c #53575A",
"8. c #53565B",
"9. c #55565A",
"0. c #57585C",
"q. c #58595D",
"w. c #595A5C",
"e. c #5C5D5F",
"r. c #5B5C60",
"t. c #5F6362",
"y. c #5C6165",
"u. c #606163",
"i. c #626463",
"p. c #636564",
"a. c #636466",
"s. c #646567",
"d. c #656766",
"f. c #656668",
"g. c #666769",
"h. c #676968",
"j. c #67686A",
"k. c #666A6B",
"l. c DimGray",
"z. c #686A69",
"x. c #6B6B69",
"c. c #68696B",
"v. c #69696B",
"b. c #696B6A",
"n. c gray42",
"m. c #6A6C69",
"M. c #6A6C6B",
"N. c #696A6C",
"B. c #6A6B6D",
"V. c #686C6D",
"C. c #6B6D6C",
"Z. c #6B6C6E",
"A. c #6C6C6C",
"S. c #6D6D6D",
"D. c #6C6E6D",
"F. c #6C6D6F",
"G. c #6D6F6E",
"H. c gray43",
"J. c #706F6D",
"K. c #6B6F70",
"L. c #6C6D71",
"P. c #6D6E70",
"I. c gray44",
"U. c #717171",
"Y. c #707173",
"T. c gray45",
"R. c #727471",
"E. c gray46",
"W. c #757776",
"Q. c #767779",
"!. c #777978",
"~. c gray47",
"^. c #797979",
"/. c #7B7B7B",
"(. c #7D7978",
"). c #7F7B7A",
"_. c #797A7C",
"`. c #7D7B7C",
"'. c #7E7E7E",
"]. c #82817F",
"[. c #858084",
"{. c #898886",
"}. c #8B898A",
"|. c #8C8B89",
" X c #8E8D8B",
".X c #8D8D8D",
"XX c #8E8C8D",
"oX c #8C8C8E",
"OX c #939393",
"+X c #979392",
"@X c #949492",
"#X c #959492",
"$X c #979694",
"%X c #989793",
"&X c #9B9794",
"*X c #9A9695",
"=X c #9A9994",
"-X c #9D9996",
";X c #9C9897",
":X c #9E9A97",
">X c #9D9998",
",X c #9F9B98",
"<X c #9F9B9A",
"1X c #9C9C9A",
"2X c #9D9D9B",
"3X c #9F9E9A",
"4X c #A09C99",
"5X c #A19D9A",
"6X c #A29E9B",
"7X c #A39F9C",
"8X c #A29E9D",
"9X c #A19D9E",
"0X c #A39F9E",
"qX c #A49F9C",
"wX c #A4A09D",
"eX c #A5A19E",
"rX c #A4A39F",
"tX c #A6A29F",
"yX c #A5A1A0",
"uX c #A4A3A1",
"iX c #A7A3A0",
"pX c #A5A4A0",
"aX c #A7A6A2",
"sX c #A7A6A4",
"dX c #A8A3A0",
"fX c #A9A4A1",
"gX c #A9A5A2",
"hX c #A8A7A3",
"jX c #A8A9A4",
"kX c #AAA9A5",
"lX c #ABAAA6",
"zX c #ACABA7",
"xX c #B4B0AD",
"cX c #B8B4B1",
"vX c #B9B5B2",
/* pixels */
"= = + + + = + + + + + + = + + + + + + = = = + + + + + + + + + + = > ",
"+ 3XpXrX^.` rXrXkXfXuXD.s vXpXfXJ.pX^.6 m S fXzXkXzXkXkXw.D.Q.W.} , ",
"+ b.C.D.C.#.2.M.C.D.C.` t t.M.D.b.D.D.D.=.5XM.D.D.D.M.M.` D.D.C.8.  ",
"X b.C.C.D.` S b.M.b.#.~ s C.D.D.C.D.D.=.=.;XM.D.D.D.D.D.C.D.D.D.#.  ",
"  8.Q M.C.~ A m ` ~ ` ` s D.D.D.D.D.D.D.=.&XC.D.D.D.D.D.D.D.D.D.#.  ",
"+ y.K A S s s B < w < s f 6.M.D.D.D.P.#.=.Y.D.D.C.D.D.D.D.D.D.P.` = ",
"+ f dXdXfX7X3Xb.M.D.OXM.s #.#.D.#.#.` #.=.` #. .#.#.` =.D.P.#.~ c + ",
"= 7XrXC.D.C.C.D.M.C.M.` t #.~ } ~ s U g s s s s s s B B } ~ ` ~ g + ",
"+ sXM.C.D.D.C.C.D.D.C.` B w 6 r w s = 5 O rXrX'.d s B w 5 6 5 5 t = ",
"X b.D.C.D.D.C.C.C.C.=.#.< ,Xb.b.b.=.,XC.C.C.D.D.2.s &XM.C.C.D.D.b.+ ",
"+ K.D.D.M.M.C.C.D.#.D.#.< d.C.D.=.#.b.C.D.C.C.b.#.`.%XC.D.D.D.C.b.  ",
"  9.} } b.M.M.` #.#.#.k t M.D.M.` ` ` M.M.M.M.} #.t C.D.D.D.D.C.g.+ ",
"+ x ` = ~ ~ ` } #.#.#.s s #.} #.#.g k #.#.} #.~ g t M.C.D.D.C.C.#.+ ",
"+ k w w w s s s s w w H H w s s s G s t s s w s s 7 #.b.C.M.b.D.=.+ ",
"+ &Xj.N.j.C.e.b oX7Xb.N.b.g.=.a.s uXb.b.J.M.C.C.x 7 s } ~ ~ 7 #.#.  ",
"X M.C.C.M.M.>.t ;XD.D.D.C.C.C.b.< rXD.D.C.C.C.~ t s s s w w w w w + ",
"+ j.D.C.D.b.#.< b.C.D.D.D.D.D.P., D.D.D.D.D.C.~ s s 3X7X,XR.Y.Y.r.+ ",
"+ C.D.D.D.M.#.< d.C.C.D.D.C.C.N.< D.D.D.D.D.C.~ < ;XM.D.D.C.D.D.0.+ ",
"+ =.b.` C.b.~ < W b.b.b.b.D.2.} , W D.C.U M.w.} < D.C.D.D.D.D.C.0.+ ",
"+ #.2.=.,.#.w U W #.=.=.,.=.=.` 7 #.,.2.2.#.>.w 7 #.` ` D.| #.=.,.  ",
"+ 7XrXrX^.^.rX7X7X].^.W s rX,X,Xx f =X5X7X5X5XY.Y.t t t t w w w w + ",
"+ &XM.M.M.C.C.M.D.=.b.f s @XM.D.M.w $XC.C.D.D.C.#.{.b s 5X5X5X;XY.+ ",
"+ b.C.C.M.D.C.C.M.` C.t ,.b.D.D.` < C.D.D.D.D.D.g.D.C.w ;XD.D.C.D.+ ",
"+ C.D.C.C.M.C.D.C.M.P.< ` b.D.b.w < N.D.C.C.C.D.D.D.! , D.D.D.D.`   ",
"+ M.D.M.M.M.M.C.C.M.N.< g =.#.#.,.< D.M.C.D.D.C.C.j.w < C.D.D.D.#.  ",
"+ =.C.M.M.b.#.b.D.` ~ w g w s t x < ` } b.D.#.C.C.U B < ` #...` #.+ ",
"= x w < < = = 7 t < xXvXi.a.M.a.j.!.k s < < < < < w B [.(.(.(.(.s = ",
"+ uXrXrXrX^.C b m oXC.D.C.D.D.N.D.D.c Z @XW.C b 2.7X5XD.C.C.C.C.C.+ ",
"+ 5XC.C.D.b.C.k oX XC.D.C.D.C.C.=.C.w qX}.C.b.|.+XC.C.D.D.D.D.D.D.+ ",
"+ u.` D.D.C.C.` _.C.C.D.C.D.D.C.M.M.< ,.D.D.` Y.C.D.D.D.D.D.D.#.D.+ ",
"+ 5.C.D.D.C.C.` e.M.M.C.C.D.D.C.C.#.< #.D.#.` b.M.C.D.D.D.D.D.` C.  ",
"+ ` M.C.C.b.} #.J #.b.M.M.M.` b.` ` w b ` #.#.#.M.i.C.C.D.D.M.U M.+ ",
"= W ` s ` ~ g f x ` #.~ =.g s ` x f H f s L A s f ` ......~ w ` ` + ",
"= = = = = = = + = + + = + + = + = + + + + + + + = = = = + = = = = = "
};
