/* XPM */
static const char *wall_42_31[] = {
/* columns rows colors chars-per-pixel */
"31 31 208 2 ",
"   c black",
".  c #000001",
"X  c #010001",
"o  c #010101",
"O  c #020001",
"+  c #020101",
"@  c #010002",
"#  c #010102",
"$  c #010103",
"%  c #020102",
"&  c #020103",
"*  c #010202",
"=  c #010203",
"-  c #020202",
";  c #020203",
":  c #030203",
">  c #020303",
",  c gray1",
"<  c #010104",
"1  c #020104",
"2  c #030104",
"3  c #010204",
"4  c #020204",
"5  c #030204",
"6  c #020304",
"7  c #030304",
"8  c #030205",
"9  c #020305",
"0  c #030305",
"q  c #030306",
"w  c #040304",
"e  c #040305",
"r  c #050306",
"t  c #030404",
"y  c #040404",
"u  c #040405",
"i  c #040406",
"p  c #050406",
"a  c #050506",
"s  c #050407",
"d  c #050507",
"f  c #060507",
"g  c #060607",
"h  c #070607",
"j  c #060608",
"k  c #070709",
"l  c #080709",
"z  c #08080A",
"x  c #0A090A",
"c  c #0A0A0B",
"v  c #0A0A0C",
"b  c #0B0B0C",
"n  c #0B0B0D",
"m  c #0C0C0D",
"M  c #0F0F10",
"N  c #111012",
"B  c #101112",
"V  c #111112",
"C  c #111113",
"Z  c #121113",
"A  c #111114",
"S  c #121214",
"D  c #131314",
"F  c #131315",
"G  c #131316",
"H  c #141315",
"J  c #151315",
"K  c #131415",
"L  c #141415",
"P  c #151415",
"I  c #141515",
"U  c #151515",
"Y  c #141416",
"T  c #151416",
"R  c #141516",
"E  c #151516",
"W  c #141417",
"Q  c #141517",
"!  c #151517",
"~  c #161516",
"^  c #161517",
"/  c #151616",
"(  c #151617",
")  c #161616",
"_  c #161617",
"`  c #151618",
"'  c #161618",
"]  c #171618",
"[  c #171718",
"{  c #161719",
"}  c #171719",
"|  c #171818",
" . c #191919",
".. c #19191A",
"X. c #1A1A1B",
"o. c #1B1B1C",
"O. c #1B1B1D",
"+. c #1D1C1D",
"@. c #1D1D1E",
"#. c #1C1D1F",
"$. c #1D1D1F",
"%. c #1F1F20",
"&. c #1F1F21",
"*. c #201F21",
"=. c #1D2023",
"-. c #202021",
";. c #202022",
":. c #212123",
">. c #212223",
",. c #222223",
"<. c #222224",
"1. c #232224",
"2. c #232324",
"3. c #222225",
"4. c #232325",
"5. c #242425",
"6. c #252525",
"7. c #242426",
"8. c #252426",
"9. c #242526",
"0. c #252526",
"q. c #242427",
"w. c #252427",
"e. c #242527",
"r. c #252527",
"t. c #262526",
"y. c #262527",
"u. c #252626",
"i. c #252627",
"p. c gray15",
"a. c #262627",
"s. c #272627",
"d. c #252528",
"f. c #262528",
"g. c #252628",
"h. c #262628",
"j. c #272628",
"k. c #262728",
"l. c #272728",
"z. c #272629",
"x. c #272729",
"c. c #282729",
"v. c #2A2A29",
"b. c #28282A",
"n. c #2A292B",
"m. c #2A2A2B",
"M. c #2A2A2C",
"N. c #2B2B2D",
"B. c #2C2C2E",
"V. c #2E2E2F",
"C. c #2F2E30",
"Z. c #2F2F31",
"A. c #303031",
"S. c #313133",
"D. c #353436",
"F. c #363537",
"G. c #373737",
"H. c #39383A",
"J. c #3A3A3A",
"K. c #3A3A3B",
"L. c #3B3B3C",
"P. c #414140",
"I. c #424141",
"U. c #434242",
"Y. c #434343",
"T. c #444342",
"R. c #444443",
"E. c #454543",
"W. c #454544",
"Q. c #454445",
"!. c gray27",
"~. c #464545",
"^. c #454645",
"/. c #464645",
"(. c #454546",
"). c #464646",
"_. c #474646",
"`. c #464746",
"'. c #474746",
"]. c #464647",
"[. c #474647",
"{. c #464747",
"}. c gray28",
"|. c #484746",
" X c #484747",
".X c #494747",
"XX c #474846",
"oX c #474847",
"OX c #484846",
"+X c #484847",
"@X c #494947",
"#X c #484848",
"$X c #494848",
"%X c #494948",
"&X c #494949",
"*X c #4A4948",
"=X c #4A4A49",
"-X c #4A494A",
";X c #494A4A",
":X c gray29",
">X c #4B4A4A",
",X c #4B4B4A",
"<X c #4B4C4B",
"1X c #4C4C4B",
"2X c #4C4C4C",
"3X c #4D4D4C",
"4X c gray30",
"5X c #585958",
/* pixels */
"; ; 3 ; 3 ; ; ; ; ; 3 ; 3 3 ; ; ; 3 ; ; ; ; 3 ; 3 3 3 3 3 3 ; ",
"; =X0.0.h.3 ~.0.0.0.R ; =X0.h.<.0.0.R ~.=X0.0.h.0.R *.B.R A.; ",
"3 0.0.0.-.3 h.0.0.0.R 3 0.0.0.0.0.0.[ ~.0.0.0.h.0.0.R 0.0...; ",
"; 0.0.0.-.; c.0.0.R R 3 0.0.0.0.0.R R |.0.0.0.h.0.0.0.0.0.R ; ",
"; =.D K C ..m 3 ; 3 3 e 0.h.0.0.0.R R 0.0.0.0.0.0.0.0.0.0.R ; ",
"; u 3 ; u n L.K.B.C.u u R h.0.0.R R R R R 0.h.0.D 0.0.0.R [ ; ",
"; ~.3X0.0.0.0.0.0.h.R 3 R R R u M u 3 3 3 3 3 3 x D D D R u ; ",
"3 1X0.0.0.0.0.0.0.h.R l 3 ; ; ; 3 ; u 1X1XG.3 3 k 3 ; ; ; 3 ; ",
"; 0.0.0.0.0.0.0.0.D R ; =X0.0...3 <.<.0.0.h.R ; =X<.<.0.h.0.; ",
"; 0.h.0.h.0.0.0.D h.R ; 0.0.0.R ; 0.0.0.0.h.D |.=X0.0.0.0.0.; ",
"; o.R 0.0.0.D R R R u e 0.h.h.R e 0.h.h.h.R K R 0.0.0.0.0.0.; ",
"; x R R R R R R R R 3 3 R R R u e H R R R R e R 0.0.0.h.0.R ; ",
"; =X~.~.~.$.m 3 ~.=X~.~.~.h.x u =X=XXX~.~.3 H x n 0.0.0.D 0.3 ",
"; =X0.0.0.0.u 3 +X0.0.0.0.[ -.<X3X0.0.h.0.0.e R 3 R D D R R ; ",
"; 0.0.0.0.R ; -.0.0.0.0.0.0.R ~.0.h.0.0.0.D 3 =X=X|.M.v.M.o.; ",
"3 0.0.0.0.R ; R 0.0.0.h.h.0.R 0.0.0.h.h.h.H ; +X0.0.0.P.0.G.3 ",
"; R 0.0.0.R ; 3 0.0.0.0.h.[ R C 0.0.R h.$.R ; 0.0.0.0.0.0.$.; ",
"3 R R R R D C 3 R R D R R R ; H R R R D R 3 ; 0.0.0.0.m o.$.3 ",
"; |.P.~.v.E.~.E.B.v.C t +XE.~.u m E.+XT.~.<.h.3 ; u 3 ; ; 3 3 ",
"; +X0.0.0.0.0.0.| 0.u 3 P.0.0.; ~.0.0.0.0.0.C K.u u XX~.=Xv.3 ",
"3 0.0.0.0.0.0.0.R h.3 [ 0.0.0.; P.h.h.0.h.0.<.h.C.=X0.0.0.0.; ",
"; 0.0.0.0.0.0.0.0.0.; R 0.0.D ; %.0.h.h.0.0.h.h.D 0.0.0.0.R 3 ",
"; 0.0.0.0.0.0.0.0.0.; u D D u ; R h.0.h.h.h.h.D 3 R 0.0.h.R 3 ",
"; R R R R R e R R 3 3 |.=X=X=X; 3 R R R R R R ; u u R R R R 3 ",
"; u ; ; ; ; 3 u ; =X=X0.0.0.0.0.u 3 3 ; ; ; ; u k |.~.~.~.k 3 ",
"; =X-.%.<.D e 3 P.0.0.0.0.0.R 0.R 5XK.0.v.~.3X%.-.0.0.0.h.0.; ",
"3 0.0.0.0.0.<.3 0.0.0.0.0.0.0.0.R 0.h.0.R G.0.0.0.0.0.0.0.R ; ",
"; -.R 0.0.0.R e 0.0.0.0.h.0.0.0.R ..h.0.R 0.h.0.0.0.0.0.R h.; ",
"; [ h.0.0.0.R u R 0.0.0.h.R h.R u n [ R R R h.0.0.0.0.0.C h.; ",
"3 R R h.-.R R u R R D h.h.u R u A.x R u u R R 0.h.0.[ c.u R ; ",
"; ; ; 3 3 ; ; 3 3 3 ; ; 3 3 ; 3 3 ; ; 3 ; 3 3 ; 3 ; 3 3 3 3 e "
};
