/* XPM */
static const char *wall_42_82[] = {
/* columns rows colors chars-per-pixel */
"82 82 163 2 ",
"   c #020204",
".  c #060608",
"X  c #080709",
"o  c #07080A",
"O  c #0B0A0C",
"+  c #0E0E10",
"@  c #100E10",
"#  c #141416",
"$  c #161618",
"%  c #181719",
"&  c #171818",
"*  c #1B1B1C",
"=  c #1F1E21",
"-  c #201E22",
";  c #1E2123",
":  c #262526",
">  c #262427",
",  c #262527",
"<  c #262426",
"1  c #252626",
"2  c #252627",
"3  c gray15",
"4  c #262627",
"5  c #272627",
"6  c #252526",
"7  c #252527",
"8  c #252528",
"9  c #262528",
"0  c #252628",
"q  c #262628",
"w  c #272628",
"e  c #262728",
"r  c #272728",
"t  c #272729",
"y  c #262628",
"u  c #282729",
"i  c #292729",
"p  c #282729",
"a  c #272829",
"s  c #282829",
"d  c #28282A",
"f  c #29282A",
"g  c #29292A",
"h  c #29292B",
"j  c #2A292B",
"k  c #292A2B",
"l  c #2A2A2B",
"z  c #2A2A2C",
"x  c #2B2A2C",
"c  c #2B2B2C",
"v  c #2B2B2D",
"b  c #2C2B2D",
"n  c #2B2C2C",
"m  c #2C2C2D",
"M  c #2D2C2D",
"N  c #2C2D2D",
"B  c #2D2D2D",
"V  c #2C2C2E",
"C  c #2D2C2E",
"Z  c #2C2D2E",
"A  c #2D2D2E",
"S  c #2D2D2F",
"D  c #2E2E2F",
"F  c #2A2A2B",
"G  c #30302F",
"H  c #2E2E30",
"J  c #2F2E30",
"K  c #2F2F30",
"L  c #2F2F31",
"P  c #302F31",
"I  c #313132",
"U  c #323133",
"Y  c #323233",
"T  c #333335",
"R  c #353536",
"E  c #353537",
"W  c #333434",
"Q  c #363638",
"!  c #373738",
"~  c #373739",
"^  c #373738",
"/  c #383738",
"(  c #383839",
")  c #38383A",
"_  c #39393A",
"`  c #38383B",
"'  c #3A3A3B",
"]  c #3B3A3B",
"[  c #3C3C3C",
"{  c #41403F",
"}  c #434241",
"|  c #434242",
" . c #444343",
".. c #454444",
"X. c gray27",
"o. c #464545",
"O. c #474645",
"+. c #464547",
"@. c #454646",
"#. c #464646",
"$. c #474746",
"%. c #464747",
"&. c gray28",
"*. c #454545",
"=. c #484747",
"-. c #484747",
";. c #474847",
":. c #484847",
">. c #494847",
",. c #484947",
"<. c #484847",
"1. c #474748",
"2. c #494748",
"3. c #484748",
"4. c #474848",
"5. c #484848",
"6. c #494848",
"7. c #494948",
"8. c #494949",
"9. c #4A4948",
"0. c #4A4949",
"q. c #494A49",
"w. c #4A4A48",
"e. c #4A4A49",
"r. c #4B4A49",
"t. c #4A4B49",
"y. c gray29",
"u. c #4B4A4A",
"i. c #4B4B4A",
"p. c #4B4A4B",
"a. c #4A4B4B",
"s. c #4B4B4B",
"d. c #4C4A49",
"f. c #4C4B4A",
"g. c #4C4B4B",
"h. c #4B4C4A",
"j. c #4B4C4B",
"k. c #4C4C4A",
"l. c #4C4C4B",
"z. c #4D4C4B",
"x. c #4C4D4B",
"c. c #4C4C4C",
"v. c #4D4C4C",
"b. c #4C4D4C",
"n. c #4D4D4C",
"m. c #4C4C4D",
"M. c gray30",
"N. c #4E4D4D",
"B. c #4E4E4C",
"V. c #4E4E4D",
"C. c #4F4E4D",
"Z. c #4E4E4E",
"A. c #4F4E4E",
"S. c #4F4F4E",
"D. c gray31",
"F. c #4A4A49",
"G. c #504F4F",
"H. c #50504F",
"J. c #535352",
"K. c #545353",
"L. c gray33",
"P. c #545455",
"I. c #525252",
/* pixels */
"                                                                                                                                                                    ",
"                                                                                                                                                                    ",
"      P.g.s.h.l.h.l.S I # #   s.s.l.g.l.g.g.l.l.s.A.u s s       K.s.A.A.A.A.A.8 6 A.l.s S S     o o o O O A.l.A.A.g.A.l.A.A.l.A.l.h.s.s b c 6 8   S s c c # #       ",
"      A.s.A.l.A.A.l.I I # #   s.s.g.A.A.s.A.l.l.s.A.s s s       P.l.l.A.A.A.l.u 6 A.J.c H H     o o o O + A.A.A.A.A.l.l.A.A.A.A.l.g.g.S c c s 8   s s c c # $       ",
"    s.s.s.6 6 6 6 6 6 6 c S   s.=.#.} 6 6 6 6 6 6 6 6 # #     l.s.A.6 6 6 6 6 s.s.6 6 6 6 6 6 6 # #   =.>.s.#.6 6 6 6 6 6 6 6 6 6 6 8 # # # s c S S % # # E T #     ",
"    s.s.s.6 6 6 6 6 6 6 c S   #.s.} #.6 6 6 6 6 6 6 6 # #     s.A.s.6 6 6 6 6 g.s.6 6 6 6 6 6 8 # $   s.s.s.#.6 6 6 6 6 6 8 8 8 8 6 6 < # # c c S 6 6 6 6 E ) #     ",
"    s.6 6 6 6 6 6 6 6 8 # #   % % 6 6 6 6 8 8 6 6 6 6 # #     A.- 6 6 6 8 6 6 6 6 6 6 6 6 6 6 6 # #   #.s.6 6 6 8 6 6 6 6 8 6 6 6 6 6 6 # # 6 6 8 6 6 6 6 % % #     ",
"    h.6 6 6 6 < 6 6 6 6 # #   * % 6 6 6 6 6 6 6 6 6 6 # #     s.- 6 6 6 8 8 6 6 6 6 6 6 6 6 8 8 # $   #.#.6 6 6 6 6 8 6 6 8 6 8 6 6 6 6 6 6 6 6 6 6 6 6 6 $ $ #     ",
"    s.6 6 6 8 6 6 6 6 6 # #   O O 6 6 6 6 6 6 6 # # 6 # #     n 6 6 6 6 6 6 6 6 6 6 6 6 6 6 # # # $   #.>.6 6 6 6 6 6 8 8 6 8 6 6 6 6 6 6 6 6 6 6 6 6 6 6 # # #     ",
"    #.o + # # 6 6 6 6 8 # #   O O   . # # # # # # # * # #     6 6 6 6 6 6 6 6 6 6 6 6 6 8 6 8 6 # #   #.#.6 6 6 6 6 6 6 8 8 6 6 6 6 6 6 6 6 8 6 6 6 6 6 6 $ # #     ",
"    #.o O # # 6 6 6 6 6 # #   O O . . # # # # # # # * # #     6 6 6 6 6 6 6 8 6 6 6 6 6 8 8 8 8 # $   #.#.6 6 6 6 6 6 6 8 8 6 6 6 6 6 6 6 6 6 6 6 6 8 6 6 # # #     ",
"    % ; ; ; # # # # # #     *     O O                         8 6 6 6 8 6 6 6 6 6 6 6 8 6 6 # # # $   6 6 6 8 6 6 6 6 6 6 8 6 6 6 6 6 8 6 6 6 6 6 6 6 6 6 # # #     ",
"    6 ; ; ; # # # # # #     %     o O                         8 6 6 8 6 8 6 6 6 6 6 6 8 8 6 # # # #   8 8 8 6 6 6 6 6 6 6 6 6 6 6 6 8 6 6 6 6 6 6 6 6 6 6 # # #     ",
"                        O O O E ~ ~ ~ ) ) ) S S S S S         * # # 6 6 6 6 6 6 6 6 6 # # # # # # $   # # # # 6 6 6 6 6 8 6 6 # # 6 6 6 8 6 6 6 6 6 8 # # # # #     ",
"                        O O O ) ) ) ) ) ) ) S S P H S         % # # 6 6 8 6 6 6 8 8 8 # # # # # # $   # # # # 8 8 8 6 8 6 6 8 # # 6 6 8 8 8 6 6 8 8 6 # # # # #     ",
"    X     2.s.s.s.s.s.s.s.>.#.#.#.6 6 6 6 6 6 6 #. .6 6 6     * # # # # 6 8 6 # # # #   $ # $ # # #   # # # # # # # # # # # # # # # # 6 8 6 6 6 # # # # # o o       ",
"    o     s.s.l.s.s.s.s.>.s.s.>.#.6 6 6 6 6 6 6  .#.6 6 8     % # # # # 6 6 8 # # # #   $ # # $ # $   # # # # # # # # # # # # # # # # 6 6 8 6 6 # # # # # o o       ",
"      A.s.s.s.6 6 6 6 6 6 6 6 6 6 6 6 6 6 6 6 6 6 6 6 # #       # # # # # # # # #     + # #                                   o o o o # # # # # # # # # # . X #     ",
"      J.s.s.>.6 6 6 6 6 6 6 6 6 6 6 6 6 6 6 6 6 6 8 6 # #       # # # # # # # # #     # # #                                   o O o O # # # # # # # # # #     #     ",
"    s.s.A.< 6 6 6 6 6 6 6 6 6 6 6 6 6 8 6 6 6 6 6 6 6 # # o o                                       s.s.A.s.A.W E E           o X                             o     ",
"    s.G.A.6 6 6 6 8 6 6 6 6 6 6 6 6 8 6 8 6 8 6 6 6 6 # # o o                                       A.J.G.J.A.~ E E           o o                             o     ",
"    l.6 6 6 6 6 6 6 6 8 6 8 6 6 6 6 6 8 6 6 6 6 6 6 6 # #       J.s.s.s.>.#.S # #       J.s.s.s.2.h.6 6 6 6 6 6 6 6 6 6       o o =.2.>.s.s.s.s.s.s.s.s c + O       ",
"    I 6 6 6 6 6 6 6 6 6 6 8 6 8 6 8 6 6 6 6 6 6 # # 6 # #     #.g.s.8 8 a 8 6 6 6 # $   H.s.s 6 8 8 6 6 6 6 6 6 6 6 $ #       4.} 6 6 8 8 u 6 u 8 8 6 6 6 6 6 $     ",
"    S 6 8 6 6 6 6 6 6 6 6 6 6 6 6 6 8 6 8 6 6 6 # # 6 # #     s.>.s.6 6 6 6 6 6 6 $ $   L.s.6 6 8 6 6 6 6 6 6 8 8 8 $ #       s.#.6 6 6 6 6 6 6 6 6 6 6 8 6 6 $     ",
"    # 8 8 8 6 6 6 u 6 6 6 6 6 6 6 6 6 8 6 6 # # 6 6 # # #     =.= 6 6 6 6 6 6 $ $ # #   s 6 6 6 6 8 6 6 6 6 6 6 6 6 # #   6 #.=.2.6 6 6 6 6 6 6 6 6 8 6 6 6 6 #     ",
"    # 8 8 6 6 6 6 r 8 8 6 6 6 6 6 6 6 8 6 8 # # 6 8 # # #     #.< 6 6 6 6 6 6 $ # # #   a 6 6 6 6 6 6 6 6 8 8 6 6 s # #   < #.#.=.6 6 6 6 6 6 6 6 6 6 6 6 6 6 #     ",
"    # 8 8 6 8 6 8 # 6 6 6 6 6 8 6 # # 6 6 8 6 6 6 6 # # #     * 6 8 6 6 8 6 8 # # # #   s 6 6 6 6 8 6 8 8 8 6 6 # # # #   # #.6 6 6 6 6 6 6 6 6 6 6 6 6 6 # # #     ",
"    # s 6 8 6 6 s # 6 8 8 6 8 8 6 # # 8 6 8 6 6 8 s # $ #     % 6 6 8 6 6 6 6 # # # #   s 8 6 8 6 u 8 6 8 8 8 8 # # # #   % #.6 6 6 8 6 6 6 6 6 8 8 6 6 6 # # #     ",
"    # % * # # # # 8 8 6 8 6 6 6 6 # # # # # $ # # # #         # 8 8 8 8 6 8 8 # # # #   % # 8 6 6 6 8 6 6 8 8 c $ # # #   O # 6 6 6 6 6 6 6 6 6 6 6 8 6 6 6 6 #     ",
"      o o # #     # # # # # # # # # # # # # # # # #             # # # # # # # # #         . # # # # # # # # # # # #       o # 6 6 6 6 6 6 6 6 6 8 6 6 8 6 # # #     ",
"      o o # #     # # # # # # # # # # # # # # # # $             $ # # # # # # # #       . . # # # # # # # # # # # #       O # 8 6 8 6 6 6 6 6 8 6 6 6 6 6 # # #     ",
"    O X .                                             O + O +                     O O O                                   O # # # 6 6 6 6 6 6 8 8 8 6 6 6 $ $ #     ",
"    +   .                                             + O + +                     O O O                                   o # # # 6 6 6 6 6 6 6 6 6 6 6 6 % % #     ",
"      J.s.=.s.s.s.>.=.s.s.s.*     O O       s.s.s.s.s.s.s.s.s.s.s.s.s s = * o         s.s.s.s.s.s.s.s s.s.s.s.#.    # #     o O o # # 6 6 6 6 6 6 # # # # 6 6 #     ",
"      J.s.s.s.s.s.s.#.s.s.>.6     O O       s.s.s.s.s.s.s.s.s.s.s.A.s s * = o         s.s.s.s.s.s.>.s s.s.s.s.=.    # #     o O O # # # # # # # # O O O X # # #     ",
"    s.s.s.6 6 6 6 6 6 6 6 6 8 = = .     G s.s.s.6 6 6 6 6 6 6 6 6 6 # # 6 6 6     g.s.A.6 6 6 6 6 6 } u 6 6 6 6 6 6       o #     # # # # # # # #     # # # # #     ",
"    s.= = 6 6 6 6 6 6 6 6 6 8 # $     A.s.>.6 6 6 6 6 6 6 6 6 6 6 8 8 8 6 6 #     s.A.= 8 6 6 6 8 6 6 6 6 6 6 6 # #                                                 ",
"    s.6 6 6 6 6 6 6 6 6 6 6 6 # #     #.>.#.6 6 6 6 6 6 6 6 6 8 6 6 6 6 6 6 #     s.s.6 6 6 6 8 6 6 6 6 6 6 6 6 # #                                                 ",
"    S 6 6 6 6 6 6 6 6 6 6 6 # # $     6 I  .6 6 6 6 6 6 8 6 6 6 6 6 6 6 6 6 #     s. .6 6 8 6 u 6 6 6 6 6 8 6 6 # #     o # s.#.>.#.>.=.=.=.s s s s s c b % =       ",
"    H 6 8 6 6 6 6 8 6 6 6 6 # # $     6 I [ 6 6 6 6 6 6 6 6 8 6 6 6 6 8 6 8 #     } #.6 8 6 6 8 6 6 6 6 6 6 6 6 # #     o * ;.>.=.#.=.>.s.#.s c s s s H S * *       ",
"    6 6 6 6 6 6 6 8 6 8 6 6 # # #     # 6 6 6 6 6 6 6 6 6 8 6 6 8 8 6 8 # $ #     6 8 6 8 6 6 6 6 8 8 6 8 6 8 8 # #     ;.;.>.6 6 6 6 6 6 8 6 6 } 6 6 6 6 E E S     ",
"    6 6 6 6 6 8 6 6 6 6 6 6 # # #     # = 6 6 6 6 6 6 6 6 6 8 6 8 6 8 6 $ # #     a 6 6 6 8 6 6 6 6 8 6 8 8 8 6 # #     =.#.s.6 6 6 8 6 6 6 6 8 } 6 6 6 6 E ) S     ",
"    6 6 6 6 6 8 6 6 6 6 6 8 8 # #     # = 6 6 6 6 6 6 8 6 6 8 8 8 6 6 6 8 6 #     8 8 8 6 6 6 6 6 8 6 6 8 8 8 6 # #     =.#.6 6 6 6 8 6 8 8 8 6 6 6 8 6 6 * * #     ",
"    * % % 6 6 % % 6 6 6 6 6 % # #       % % 8 6 8 6 6 6 6 6 6 % 8 6 * * % % #     % $ 8 6 8 8 8 * % 6 8 6 = = * # #     * c 6 6 6 6 6 6 8 8 6 8 6 6 6 6 8 * * #     ",
"    $ $ # 6 6 # # 6 6 6 6 6 # # #       + $ 6 6 6 8 6 6 6 6 6 # 8 6 & % # # #     # # 6 6 8 6 8 # # 6 6 6 * * $ # #     # * 6 6 6 6 6 8 6 6 6 6 6 6 6 8 8 * % #     ",
"      $ # # # # # # # # # # #     # #   O # # # # # # # # # # # # # # # # $       # # # # # # # # &   # # # # #         # * 6 6 6 6 8 6 6 8 6 6 O # # % * % * #     ",
"      # # # # # # # # # # # #     O #   O # # # # # # # # # # # # # # # # #       # # # # # # # # $   # # # # #         # * 6 6 6 6 6 6 8 6 6 8 O # # * * * * #     ",
"                                                                                                                        O + # # # # # 6 6 6 # #   $ # # # # # #     ",
"                                                                                                                        o # # # # # # 6 6 6 # #   # # # # # # #     ",
"      J.s.s.s.s.s.s.[ S S S s.s.s.s.s.s.s.s.E E n c   # #       L.s.s.s.s.s.s.X o .   O s.s.=.s.s.>.>.s.s.s.s.s.6 s 8 6                                             ",
"      J.s.s.s.s.s.h.[ S S S s.s.s.s.s.s.s.A.E I S S   # #       K.s.s.s.s.s.s.o o   . O A.=.s.s.s.s.s.s.s.s.s.s.u a 8 u                                             ",
"    s.#.#.8 6 6 6 6 6 6 6 6 6 6 6 6 6 6 6 # $ # 6 6 6 .       } } #.6 6 6 6 6 8 6     #. .#.6 6 8 6 6 6 6 6 6 6 6 6 # # } [ ) .         #.s.=.>.s.=.>.s.#.8 s       ",
"    s.s.s.6 6 6 6 6 6 6 6 6 6 6 6 6 6 6 6 # $ $ 6 6 6         } } } 6 6 6 6 6 6 8     #. .#.6 8 6 6 8 6 8 6 6 6 6 8 # # } [ [   .     o >.#.s.s.>.#.=.s.s.8 8       ",
"    s.6 6 6 6 6 6 6 6 6 6 6 6 6 6 6 6 6 6 6 # # 6 6 %     % % { 6 6 6 6 6 6 8 $ #     #.6 6 6 8 6 6 8 6 8 8 8 6 6 6 6 6 6 s 8 s c     s.>.#.6 6 6 6 6 6 6 6 6 #     ",
"    s 6 6 6 6 6 6 6 6 6 6 6 6 6 6 6 6 6 6 6 6 6 6 6 #     # # c 6 6 6 6 8 8 6 # #     6 8 6 6 8 8 8 6 8 6 6 6 8 8 8 6 6 8 6 s # %     #.s 6 6 6 6 6 6 6 6 # $ #     ",
"    c 6 6 6 8 6 6 6 6 6 6 6 8 6 6 6 6 6 6 6 6 6 6 6 #     # # 6 6 6 8 6 6 6 < # #     6 8 6 8 8 6 8 8 8 8 8 6 8 6 6 6 8 6 6 6 # #     #.6 6 6 6 6 6 6 6 6 # # #     ",
"    6 6 6 8 6 6 6 6 6 6 6 6 6 8 6 6 6 8 6 6 6 6 8 8 #     # # # 8 6 8 8 6 8 #         6 6 8 6 8 u 8 8 6 8 6 6 6 6 6 6 8 8 8 u # #     6 6 6 6 6 6 6 6 6 6 # # #     ",
"    6 6 6 6 6 6 6 6 6 6 6 6 6 6 6 6 8 6 6 6 6 8 6 8 #     # # # 8 8 8 6 6 6 #         6 8 6 6 6 r 8 6 6 6 8 6 8 8 8 6 6 8 6 6 # #     6 6 6 6 8 6 6 8 6 6 # # #     ",
"    6 6 6 6 6 6 6 6 6 6 6 6 6 6 6 6 6 8 8 6 6 6 6 6 #       . O # # # # # # . % $     # 6 8 8 6 6 s 6 8 6 6 6 8 6 8 6 6 6 6 #         # 6 6 6 6 8 8 8 6 6 # # #     ",
"    6 6 6 8 6 6 6 6 6 6 6 6 6 6 6 6 8 6 6 8 8 8 6 8 #         O # # # # # #   % %     # s 8 8 6 r 8 6 6 8 8 6 6 8 8 6 6 8 8 #         # # # 6 6 6 8 6 6 6 # # #     ",
"    # # # 6 6 6 6 6 6 6 6 6 6 # # 6 6 8 6 8 # # # # #                                 # # # # # u 6 6 6 6 # # 6 8 6 6 8 # # @ O O     $ # # 8 6 8 6 6 8 8 # # #     ",
"    # $ # 8 6 8 6 6 6 6 6 6 8 # # 8 6 8 8 8 # # # # #                                 # # # # # 6 6 6 6 8 # # 6 6 8 6 6 # # + O O       # # # # # # # # # # #       ",
"      # # # # # # # # # # # # # #     # # # # #           s.s.>.s.s.s.s.g.s.s.S b           # # $ $ # # # # # # # # # # # O                                         ",
"      & # # # # # # # # # # # # #     # # # # #           A.s.s.s.s.g.s.s.l.s.s S           # # # # # # # # # # # # # # # O                                         ",
"    #                                           >.s.s.=.s.6 6 6 6 6 6 6 6 6 6 6 6 6 <     .                                   o o #.#.#.#.#.#.#.#.=.#.#.#.  .       ",
"    #                                           A.h.s.s.>.6 6 6 6 6 8 6 6 6 6 6 6 6 6                                           . #.#.s.s.s.s.s.s.s.s.#.#.          ",
"      P.s.s.s.s.s.s.s.s.n n s o O   . o o o  .} 6 6 6 6 6 6 6 6 6 6 6 6 6 8 $ 6 6 6 8 6   . o o [ } S b c O O   O O $ $ 1.#.=.s.#.6 6 6 6 6 6 6 6 6 6 6 6 6 6 .     ",
"     .s.s.u 8 8 8 8 u 8 6 6 # 6 s       S s. . .6 6 6 6 6 6 6 6 6 6 6 6 6 8 # # $ 6 6 $     s. .) [ 6 6 6 6 6   [ [ }  .8 8 6 u 8 6 6 6 6 6 6 6 6 6 6 6 6 6 8 #     ",
"    s.s.s.6 6 6 6 6 6 6 6 6 # 8 s       G s. .} 6 6 6 6 6 6 6 6 6 6 6 6 6 8 # $ $ 8 8 #     A.s.) ) 8 8 8 8 s   [ [ #. .6 6 6 6 6 6 6 6 6 6 6 8 6 6 8 6 8 6 8 #     ",
"    T 6 6 6 6 6 6 6 6 6 8 6 6 6 8 6 =   S s.6 6 6 6 6 6 6 8 6 6 6 6 6 6 6 6 6 6 6 6 6 $     6 6 u 8 6 6 8 # #   [ / 6 6 6 6 6 6 6 6 6 6 6 6 8 8 6 8 6 8 8 # # #     ",
"    E 6 6 6 6 6 6 6 6 6 6 6 8 6 6 6 6   I >.6 8 6 6 6 6 6 6 6 6 6 6 6 6 6 6 6 6 8 8 8 #     6 6 u 6 6 6 8 # #   ~ / 8 6 6 6 6 6 6 6 6 8 6 6 6 6 r 8 6 6 6 # # #     ",
"    s 6 6 # # 6 6 6 6 6 6 6 6 6 8 # #   $ 6 6 6 6 6 8 6 6 6 6 6 6 6 6 6 8 6 6 6 8 8 6 #     % % 6 6 6 6 8 # #   8 u 6 6 8 6 6 6 6 6 6 6 6 6 6 6 8 6 6 # # 8 8 #     ",
"    s 6 6 # # 6 6 6 8 6 6 6 6 6 8 # #   # 6 6 8 8 6 6 8 8 6 6 6 6 8 8 6 6 6 6 6 6 6 8 #     % % 6 6 6 u s # #   8 8 6 6 8 6 6 6 6 6 8 6 6 6 6 6 6 6 8 # # 8 8 #     ",
"    8 % % 6 6 6 6 6 6 6 8 8 8 6 6 # #   $ 6 6 6 6 8 8 6 6 6 6 6 6 8 6 6 8 6 6 6 6 # # #     # $ 6 6 8 % $ # $   6 6 6 6 6 6 6 6 6 6 6 6 6 6 6 6 6 6 6 # # 8 6 #     ",
"    s % * 8 6 8 6 6 6 6 6 8 8 a s # $   % 8 u s 6 6 6 6 6 6 6 6 6 a s s 6 6 8 s s # $ $     $ $ 8 s a # # $ #   s 8 6 6 s 6 6 6 6 6 8 6 6 6 6 6 6 6 8 # # 8 8 #     ",
"    $ # $ 6 6 8 6 6 6 6 6 6 8 # # # #   + # $ # 6 6 6 6 6 6 6 8 6 s # # 6 6 8 # # # #       O O $ # # # $ # #   # # 8 8 # % 6 6 6 6 6 6 6 6 6 6 6 6 6 # # 6 6 #     ",
"    + # # $ # # # 6 6 8 # # # # $ # #   O # # $ $ $ # # # 6 8 6 8 6     $ % $ # # . o H # # o o # $             # # # #   # 6 6 6 6 6 6 6 6 $ $ 6 # # . . $ # #     ",
"    + # # # # # # 6 6 6 # # # # # # #   + # # # $ # $ # # 6 6 8 6 r     # # $ # $     I # % o o # #             # # # #   # 6 6 8 6 6 6 6 6 # # 6 # #     # # #     ",
"      # # # #     # # # # #         .   .   $ # # # # $ $ # # #         # # #       . O + O           # # + + .       . $ # # # # # # # # # # # #     # # # #       ",
"      # # # #     # # # # #           .     # # # # # # # # # #         # # #         o O O           # # + +           $ # # # # # # # # # # # #     # # # #       ",
"                                                                                                                                                                    ",
"                                                                                                                                                                    "
};
