/* XPM */
static const char *wall_71[] = {
/* columns rows colors chars-per-pixel */
"71 71 143 2 ",
"   c #020202",
".  c #040508",
"X  c #070908",
"o  c #0B0B0C",
"O  c #0C0D11",
"+  c #0F1014",
"@  c #111316",
"#  c #131519",
"$  c #16191C",
"%  c #191A1E",
"&  c #1D1E22",
"*  c #201F24",
"=  c #1F2024",
"-  c #212226",
";  c #242529",
":  c #28272C",
">  c #27282C",
",  c #292A2E",
"<  c #2C2E32",
"1  c #2F3034",
"2  c #2E3339",
"3  c #333336",
"4  c #34363A",
"5  c #37383C",
"6  c #3A3B3D",
"7  c #3C3E42",
"8  c #3F4145",
"9  c #414246",
"0  c #45464A",
"q  c #464A4D",
"w  c #494B4E",
"e  c #474C50",
"r  c #4B4D51",
"t  c #4E5154",
"y  c #515256",
"u  c #55565A",
"i  c #56595C",
"p  c #5A5B5D",
"a  c #565E61",
"s  c #5D5E61",
"d  c #5F6062",
"f  c #636465",
"g  c #666967",
"h  c #696967",
"j  c #656669",
"k  c #69676A",
"l  c #676969",
"z  c #6B6D6C",
"x  c #6E706F",
"c  c #71716F",
"v  c #6D6E71",
"b  c #6F7170",
"n  c #747673",
"m  c #737375",
"M  c #747474",
"N  c gray46",
"B  c #747675",
"V  c #767674",
"C  c #767676",
"Z  c #737373",
"A  c #787876",
"S  c #797977",
"D  c #767679",
"F  c #777978",
"G  c #797979",
"H  c #7A7A78",
"J  c gray48",
"K  c #7C7C7C",
"L  c #7E7E7C",
"P  c #7B7B7A",
"I  c #807E7F",
"U  c #7E807D",
"Y  c #81817F",
"T  c #84807F",
"R  c #868581",
"E  c #858583",
"W  c #868583",
"Q  c #828385",
"!  c #878684",
"~  c #848483",
"^  c #888687",
"/  c #898886",
"(  c #8D8D8B",
")  c #908F8D",
"_  c #92918F",
"`  c #92908E",
"'  c #939391",
"]  c #959492",
"[  c #969593",
"{  c #969492",
"}  c #989493",
"|  c #989793",
" . c #999594",
".. c #989795",
"X. c #9B9794",
"o. c #989697",
"O. c #999694",
"+. c #9A9997",
"@. c #9A9B96",
"#. c #9D9996",
"$. c #9E9A97",
"%. c #9C9996",
"&. c #979998",
"*. c #9A9A9A",
"=. c #9B9B9B",
"-. c #9F9B98",
";. c #9E9A99",
":. c #9C9C9A",
">. c #9E9D9B",
",. c #9B9D9C",
"<. c #9E9B99",
"1. c #A09C99",
"2. c #A19D9A",
"3. c #A29E9B",
"4. c #A09F9D",
"5. c #A39F9C",
"6. c #A59F9F",
"7. c #A29E9A",
"8. c #A4A09D",
"9. c #A6A19D",
"0. c #A5A19E",
"q. c #A6A19E",
"w. c #A6A29F",
"e. c #A7A29F",
"r. c #A5A19D",
"t. c #A39FA0",
"y. c #A6A0A0",
"u. c #A7A3A0",
"i. c #A5A4A4",
"p. c #A8A4A1",
"a. c #A9A5A2",
"s. c #AAA6A3",
"d. c #A9A5A4",
"f. c #ABA7A4",
"g. c #A8A7A5",
"h. c #A6A8A7",
"j. c #A9A8A6",
"k. c #AEAEAC",
"l. c #ADACAA",
"z. c #B0AFAD",
"x. c #B2B2AF",
"c. c #B1AFB0",
"v. c #B4B2B0",
/* pixels */
"# # # # # # # # # # # # # # # # # # # # # # # # # # # # # # # # # # # # # # # # # # # # # # # # # # # # # # # # # # # # # # # # # # # # $ $ # ",
"# # #             . O O #   . o o o z g g g w w 0 % % % o o o % - 5 6 y z s Z B & - - - , , @ g f g g g g Z Z Z :.:.z l j p $ @ o o O @ # $ $ ",
"# # # p.u.u.u.u.8.H r w - 3.8.p.u.p.p.u.u.8.Z c m - - ; d.p.p.d.p.p.z Y p.c B K - 3 < 1 8 7 d.p.d.p.p.p.p.p.p.p.u.d.Z Z Z z ; ; B B g r # $ $ ",
"# 6 8.3.z h h h h h B Z - $.;.[ z z z z z z z z 9 - o 5.8.>.h l h h ;._ h z h h z 0 r ; 3.3.;.h z z z z z z z z h g q q e Z A n y q Q H r % # ",
"# 6 8.8.h z z z z z B B - @.>.[ h z z z z z z h 0 & o 8.8.5.h z z z 3...z z z z z 9 r - $.3.3.z z z z z z z z z z z j w r Z B B s y R K q $ # ",
"# 5 5.h z z z z z z r t - y y z z z z z z z z h w - o 8.z z z z z z z z z z z z z 0 r & ;.5.h z z z z z z z z z z z h e w z z z z z s u 0 # @ ",
"@ 5 5.h z z z z z z e r & s u z z z z z h z h h w - o 8.z z z z z z z z z z z z g w r & $.;.h z z z z z z z z z z z h h z z z z z z s y 0 # @ ",
"@ 4 5.z z z z z z z w w & 5 5 h z z z h v r h h w - @ Z z z z z z z z z z z z z r w r & $.;.h z z z z z z z z z z z z z z z z z z z s r 0 $ # ",
"+ 3 ..8 w w z z z z q q & 4 7 1 q w q q w q u i w - # z z z z z z z z z z z z z z 0 r & ....h z z z z z z z z z z z z z z z z z z z s r 0 # # ",
"@ 3 [ i t q z z z z 0 q & 4 5 3 w w q q w w u i w - % z z z z z z z z z z z z z z 0 r = | | z z z z z z z z z z z z z z z z z z z z p r 0 $ # ",
"# = s i a q 0 q q q - = i ; ; 6 - - - - - - - = - - = z z z z z z z z z z z z z w r r - z z z z z z z z z z z z z z z z z z z z z z s r 0 # # ",
"# , u r 1 < & & & = 4 1 r , , 6 - - - - - - - - - ; % g 0 r z z z z z z z f f f r r r - f f p g z z z z z z z s z z z z z z z z z d u w 0 # # ",
"# $ ; ; ; ; = = - - 4 6 6 R R R R R ! A H H H H - ; # u r r z z z z z z z w w r r r r - r r r l z z z z z z z r h z z z z z z z z q w w 0 # # ",
"# % , ; k.6.u.8.8.8.3.8.5.,.' z z z z h z @.h z z - # i r w q z z z w r r - 0 r r r r - r w w e q q q q q q r w q w z z z z 0 q w q 9 , - % # ",
"# & , - h.8.e.8.8.8.8.8.8.-.:.z z z z z x &.l z z - + u r r w h h h r w r ; w w w w r - w w w w w w w w r r w w w w h z z z w r r w q < - @ # ",
"# $ - 8.5.8.z z z z z z z z z z z z z z z z z h w - = ; r q q q w q q 0 ; 9 0 0 ; - - - - - - - - - - - - - - 3 3 3 w w w q q w w q 9 ; r $ # ",
"# 6 3.5.z z z z z z z z z z z z z z z z z z z h w < < ; - ; - = - = - - - - = & - , , 3.3.;.$.L A A ; - - - - 3 - ; = & & & & & = & & - < % # ",
"# 6 5.8.f z z z z z z z z z z z z z z z z z z z w < 1 , - - - = - = - - - - & - = , , 5.8.8.8.H K K - - - - ; 3 - - = = & & & & & & - - < % # ",
"# 4 8.h h z z z z z z z z z z z z z z z z z z h w & & , 3.3.3.;.T A w 0 - ; k.5.8.8.3.z z z z z z z z z = - ; 3 3.;.3.3.3.3.;.$.;.B 6 0 & # # ",
"# , c h z z z z z z z z z z z z z z z z l w z l r % o [ 3.@.h h h h z v t - h.8.z h z z z z z z z z t y ; - & | z z z z z z z z z z z l y $ # ",
"# , B z z z z z z z z z z z z z z z z z l w l h w % . ;.$.:.z z z z h j y - h.5.z z z z z z z z z z q y ; - - $.z z z z z z z z z z z z r $ # ",
"# % w z z z z z z z z z z z z z z z z w w z w w r % X [ h z z z z z r w w - v z z z z z z z z z z z q e - ;.$...z z z z z z z z z z z z q # # ",
"# & w z z z z 0 w z z z z z z r z z z x z z q w r % . y z z z z z z w r r - z z z z z z z z z z z r e e - | @.h z z z z z z z z z z z r q # @ ",
"# & q h z z z q w z z z z z z r z z z z z z w r r % O y z z z z z z w r r - z z z z z z z z z z z r r r - | @.z z z z z z z z z z z z q q $ # ",
"@ % w u w q r j h h z z h z z w r r r r r r r w ; - $ q z z z z z z w w w - w 0 z z z h h h h B b r r e - q q z z z z z z z z z z z h l q $ @ ",
"# # - < r q & r w q q q w w w w r r r r r r - - - - - & q w r r r r w 6 - ; ; , w w w r r r r w w r ; - - q q z z z z z z z z z z z z w q $ # ",
"# % = , w 0 - w w w w w w w w w w r r w w w - - - - - - w w w r r w w 8 ; - , , w r r w w r w w w w ; ; ; q w h z z z z z z z z z z z r q $ # ",
"# = 7 < & - - = - - - = = - - - - - - - = - - - 7 7 0 - - - - - - - - , 7 7 - - - - - - - - - - - - - - - w w r g z h z z z z z z z z r q # # ",
"# & 3 k f f g g g g p f 7 - - , - - - p g g g g D D ! h h f w 7 3 ; - ; < D f z z h g w g g g h s - 4 4 - 7 9 0 w w z z z z z z i i u v w $ # ",
"@ % , 3.5.5.3.5.3.3.3.3.s - & 5 ; ; ; 8.3.8.8.8.8.8.8.8.8.;.Z i 0 3 - ; - 8.8.8.8.8.8.Z $.3.3.3.3.; w t - 3 3 4 r q z z z z z Z w 0 8 z q % @ ",
"@ 6 8.3.h z z z z z z z h s s < ; > 5.5.;.z z z z z z h z l r z p i = 6 8.8.h z z z z [ z z z z h h ; ; - 0 q ; q q q q w w q w ; q q w q $ @ ",
"@ 5 5.d.g z z z z z z z z s s < % @ 3.u.>.z z z z z z z z d r h f i & 7 8.8.h z z z z :.h z z z l v ; ; - w 0 - w r r r r r w r - r r t w & # ",
"@ 4 8.h z z z z z z z z z r y & ' { $.z z z z z z z z z z z z z i q % 5 8.h z z z z z z z z z z z w - - - - - - - - - & & & & & & & & & & # # ",
"# - B z z z z z z z z z r r r % f s { h z z z z z z z z z z z z u r % 5 | h z z z z z z z z z z z q - - 4 | $.$.$.1.3.3.$.b Z Z Z B B u - $ # ",
"# , F z z z z z z z z h r r r % f j x z z z z z z z z z z z z v i r $ ; z z z z z z z z z z z z z q ; = 6 :.$.>.5.t.8.5...Z h h Z B H u % o @ ",
"# - h z z z z z z z h z r r r % r q z z z z z z z z z z z z z r r r % ; z z z z z z z z z z z z z r % % 1.;.@.h z z z z z z ` ' z z z A z # # ",
"# - g z z z z z z z z z h w t % r w z z z z z z z z z z z z z z i r % > z z z z z z z z z z z z z w % % $.h z z z z z z z z z z z z z i q # # ",
"# - f z z z z z z z z z z w r % w q z z z z z z h z z z z z z z u r % > z z z z z h z z z z z z z q % % | g z z z z z z z z z z z z z i q # # ",
"# & y r v h r z z z z h w q w % - ; r z z z h h z z h r z z y r w r % , 0 z z z z 0 w h z z i y r r % % w z z z z z z z z z z z z z z i q # # ",
"# # & w w r q q w q q q w & & 9 - - w w q q q q q e w q e w w w , & & & w r r r r e q - 0 w w w w - % & r z z z z z z z z z 4 3 q u i i q $ # ",
"# # & r r w w r r r w q q & & 7 - - w w w r w r r r r r r r r w ; & & - q r r r r r w ; r r r r e = & & q z z z z h z z h l 4 3 r u u u q # # ",
"# $ - - - - - - - - - - = - - ; - - - - - - - - - - - = = = = = = & & - - - - - - - - - - = = - & & = & 3 w w q q e z z v w & & w r r r q # @ ",
"# # = x.v.x.l.x.v.R ~ U k.x.k.z.l.k.v.@.@.( - ; w - - - j.h.d.d.d.h., ; - 9 h.j.l.l.l.l.h.l.l.h.j.P K U & - - - - - - = - & = = & & % & & O # ",
"# $ = 5.8.8.8.8.8.H B B 8.r.8.8.8.3.>.~ I H ; ; 0 - = = $.-.$.$.$.$., ; ; 7 h.5.3.3.3.3.3.8.8.3.;.Z Z B = - = = = - = * & & & & & & & & & # # ",
"# 4 3...h h h h z z z z z z z z h z r r y h h z ; - o _ { ( z z z z h s & ..| | z z z z z z z z z z r w ) / ) < - - 1 ;.;.3.3.;.;.;.>.Z ; % # ",
"# 4 3.>.g z z z z z z z z z z z z z r r y h z h ; ; @ _ ( / z z z z f f & | @.[ z z z z z z z z z z w r ( ! ( 4 ; - 3 >.;.$.$.$.@.@.| x , # # ",
"# 4 ;.z z z z z h z z z z z z z z z z w 0 h r r - y 9 ) z z z z z z r 9 % | g z z z z z z z z z z z g g z z z z & - $.$.3.z z z z z z z w # # ",
"# , Z z z z z z z z z z z z z z z z z z z z q q % w 6 z z z z z l j 0 9 $ z z z z z z z z z z z z z z z z z z r $ % | z z z z z z z z r q # # ",
"# > Z z z z z z z z z z z z z z z z z z z z w w % w 8 h z z z z g f 0 6 % h z z z z z z z z z z z z z z z h z w % % [ z z z z z z z z r q # # ",
"# > z z z z z z z z z z z z z z z z z z z z w w % w w 0 z h z h p q - & % f h z z z z z z z z z z z z z z z z 0 % % z z z z z z z z z w w # @ ",
"# > g z z z z z z z z z z z z z z z z z z z q w & - ; 3 t w r r 4 - i y % w z z z z z z z z z z z z z z z w y 8 $ % r z z z z z z z v r q $ @ ",
"# ; f z z z z z z z z z z h z z z z z z z h q w & ; - 4 r r t w 3 ; t r % w z z z z z z z z z z z z z z z w t & % % r w w z z z z z z r q # # ",
"# % 0 r z z z h h h z z z 0 q h z z z w e r e w & ; ; = & - = - & - ; ; % w w q w m z z z z r z z z z z r 8 9 1 % % r w w h h z z z z q q # # ",
"# & 0 r v z h z z z z z h r w h z z z r w w w w % - ; & & & & & & % : > % w w r w v h z z z r Z z z z z r 9 8 3 % % ; r r r r q w w w w % # # ",
"# # & r w w r r w w w w w w w ; q w w w q & - - - 5.8.8.8.8.8.8.8.8.B z & & & % w w r w q w w w r w w w r % & ; & & - & & & % % % % % % & # # ",
"# # 6 , & & % % % % % % % % $ & - - & & - 3.3.3.3.l z z h h h h h z h z b - , , - & % % % % % & % % % & & - - 3 ) { { ` { { { { { { :.- & # # ",
"# & 6 , & = % % % % % % % % % & - = - % ; 3.6.8.8.z z z z z z z z z z z z - , , - % & % % % & % & & & % & - - 3 { ......$...........i.; & # # ",
"# % ; 8.8.8.8.8.8.8.B H H 2 4 < 3 4 < _ / h z h z z z z z z z z f r z z z z - , 5 >._ B B A 3 , - 1 r y 5.5.3.3.z z z z z z z z z z z z ; # # ",
"# 9 c.3.h h h h z z h h w m D ; - - i.( ( z z z z z z z z z z z f r t i z r & & >.^ ( h z z v - - >.| [ h h h h z z z z z z z z z z z z w # # ",
"# 4 3.3.z z z z z z z h w Z Z , - = $.) ( z z z z z z z z z z z f w r s z q & & 8.R ( z z z z = = ( { ..h z z z z z z z z z z z z z z z w # # ",
"# , K g z z z z z z z z z z z f = - $.h z z z z z z z z z z z z z z h z z r # % g z z z z z w & % R z z h z z z z z z z z z z z z z z r r $ # ",
"# > Z f y w z z z z z z z z z u - = { z z z z z z z z z z z z z z z z z z r $ $ i z z z z z q & & A z z z z z z z z z z z z z z z w 0 Z w # # ",
"# , z f w r z z z z z z z z z w = - z z z z z z z z z z z z z z z z z z z r $ % y v z z z z w & = z z z z z z z z z z z z z z z z r r z w $ @ ",
"# , z u h z z z z z z z z z z w - - h z z z z z z z z z z z z z z z z v r w % % r x z z q w w & & h z z z z z z z z z z z z z z z w q z w $ @ ",
"# , g u h z z z z z z z z z l r - - l l h h z z z z z z z z l z z z h f r 0 # % r z h h w r r - = g z h l z z z z z z z z z z z z w 0 z w # # ",
"# & r r h h h z z z z h z 0 r r - - w w r h h z z z z z z v w h h z w w w - & % < r w w r r r = & r z z w h z z z z z z z z z z z 0 9 h w # # ",
"# & 4 r r w w z z z q w w r r r - - q w w w w w 0 z z z z z ; w w w w q ; H r r , w q , ; ; ; & - q w 0 ; z z z z z z z h r h Z w ; - w w # # ",
"# = 6 r r r r z z z w q r r r r - = w w r r r r 0 z z z z D - w r r r 7 ; B i t , t w ; - - = - - w r w - z z z z z z z z r z v r ; , w r # # ",
"# # # w q r - w q q q q - - - - - - - w w w w w w w q w - - - w q q - - - 1 7 7 - - - - 0 0 6 ; - - - ; w q q q q q q q w w w t - r q q # # # ",
"# # # $ $ # # # $ $ $ % # # # # # # # % $ $ % $ # % % # # # # % # $ @ # # # # # # # # # $ # $ # # # # # % % $ $ $ $ % % % # % # # % % # # # # ",
"# # # # # # # # # # # # # # # # # # # # # # # # # # # # # # # # # # # # # # # # # # # # # # # # # # # # # # # # # # # # # # # # # # # # # # # "
};
