/* XPM */
static const char *wall_16[] = {
/* columns rows colors chars-per-pixel */
"16 16 97 2 ",
"   c #141519",
".  c #15161A",
"X  c #16171B",
"o  c #18191D",
"O  c #191A1E",
"+  c #1A1B1F",
"@  c #1A1E1F",
"#  c #1A1B20",
"$  c #1B1C20",
"%  c #1D1E22",
"&  c #1D2122",
"*  c #1C2023",
"=  c #1F2024",
"-  c #1E2225",
";  c #202125",
":  c #212226",
">  c #222327",
",  c #212528",
"<  c #232428",
"1  c #25262A",
"2  c #2E2F33",
"3  c #323337",
"4  c #36373B",
"5  c #37383C",
"6  c #36393E",
"7  c #38393E",
"8  c #3A3B3F",
"9  c #424348",
"0  c #43474A",
"q  c #45464A",
"w  c #46474B",
"e  c #45494C",
"r  c #47484C",
"t  c #464A4D",
"y  c #474B4E",
"u  c #48494D",
"i  c #494A4E",
"p  c #4A4B4F",
"a  c #484C4F",
"s  c #4C4D4F",
"d  c #494D50",
"f  c #484D51",
"g  c #4B4C50",
"h  c #4A4E51",
"j  c #494E52",
"k  c #4C4D51",
"l  c #4E4F51",
"z  c #4E4F53",
"x  c #4C5053",
"c  c #515256",
"v  c #56575B",
"b  c #5C5D5F",
"n  c #595E61",
"m  c #636466",
"M  c #676966",
"N  c #696967",
"B  c #696B6A",
"V  c #6A6A6A",
"C  c gray42",
"Z  c #6B6D6A",
"A  c #6A6C6B",
"S  c #6A6B6D",
"D  c #6B6D6C",
"F  c #6C6C6C",
"G  c #6D6D6D",
"H  c #6C6E6D",
"J  c #6C6D6F",
"K  c #71716F",
"L  c #717171",
"P  c #727272",
"I  c gray45",
"U  c #727473",
"Y  c #777777",
"T  c #787876",
"R  c #898989",
"E  c #969291",
"W  c #979694",
"Q  c #989493",
"!  c #9B9796",
"~  c #999896",
"^  c #9E9A97",
"/  c #9F9A97",
"(  c #9B9A98",
")  c #9E9A99",
"_  c #A29D9A",
"`  c #A19D9C",
"'  c #A09F9D",
"]  c #A39F9C",
"[  c #A49F9C",
"{  c #A3A09B",
"}  c #A4A09D",
"|  c #A5A29D",
" . c #A6A29F",
".. c #A8A4A1",
"X. c #A9A5A2",
"o. c #AAA6A3",
"O. c #ADA9A6",
/* pixels */
"   .i .. .L ....K 2 O.....L L   ",
"] D i D S i A D F j C F F C F q ",
"n q : 6 : : C F D j C D A F F 0 ",
"< F D F D i t t 9 : : : 3 a i i ",
"L D F D A j ^ C : D F c ! F F x ",
"i j A i j 1 A A : A A j D F F t ",
"1 _ ^ 6 [ { [ 3  .[ _ l 4 A a i ",
"T D A + D F F a F D D : ( ] U : ",
"v l D + D A D a D s b + D D F t ",
": & = < : % @ & : = & : i A t q ",
"^ A D A i : D F W F F m F ) F a ",
"m A A D A + l 1 i D F D % D F t ",
"8 + + $ #  .F D : + + + 3 E Q % ",
"] D D : R F F q t Y F ~ D F F a ",
"M F D j A A D D j N j C F F F i ",
"  : t : t i : t 2 : 8 : t i :   "
};
