/* XPM */
static const char *wall_73[] = {
/* columns rows colors chars-per-pixel */
"73 73 136 2 ",
"   c #030406",
".  c #060709",
"X  c #07080A",
"o  c #090A0C",
"O  c #0D0E11",
"+  c #0F1215",
"@  c #111316",
"#  c #131519",
"$  c #16181C",
"%  c #191A1E",
"&  c #1E201F",
"*  c #1D1E22",
"=  c #1F2024",
"-  c #212226",
";  c #242529",
":  c #27282C",
">  c #292A2E",
",  c #2D2E32",
"<  c #2F3034",
"1  c #313236",
"2  c #343539",
"3  c #37383D",
"4  c #393A3D",
"5  c #3C3D42",
"6  c #3E4044",
"7  c #424346",
"8  c #44464A",
"9  c #464A4D",
"0  c #494B4E",
"q  c #474C50",
"w  c #4B4D51",
"e  c #4E5054",
"r  c #515256",
"t  c #565857",
"y  c #555659",
"u  c #56595C",
"i  c #5A5B5D",
"p  c #605E5F",
"a  c #60605E",
"s  c #555D60",
"d  c #5C5E61",
"f  c #5F6061",
"g  c #636465",
"h  c #6A6766",
"j  c #666867",
"k  c #696967",
"l  c #656669",
"z  c #676969",
"x  c #6B6D6C",
"c  c #706C6B",
"v  c #6E706F",
"b  c #71716F",
"n  c #6D6F71",
"m  c #6F7072",
"M  c #717274",
"N  c #747474",
"B  c gray46",
"V  c #767674",
"C  c #777674",
"Z  c #767676",
"A  c #777777",
"S  c #737373",
"D  c #787775",
"F  c #797977",
"G  c #797876",
"H  c #777978",
"J  c #77797A",
"K  c #797979",
"L  c #787A79",
"P  c #7B7B79",
"I  c gray48",
"U  c #7D7D7B",
"Y  c #7C7C7C",
"T  c #7B7B7A",
"R  c #837F7C",
"E  c #81817F",
"W  c #7D7E80",
"Q  c #818183",
"!  c #858583",
"~  c #868583",
"^  c #878785",
"/  c #848583",
"(  c #888785",
")  c #898886",
"_  c #898987",
"`  c #888886",
"'  c #8C8987",
"]  c #878889",
"[  c #8E8D8B",
"{  c #8C8C8B",
"}  c #908F8D",
"|  c #92918F",
" . c #92918F",
".. c #959492",
"X. c #979692",
"o. c #979694",
"O. c #959492",
"+. c #999594",
"@. c #9A9695",
"#. c #9A9795",
"$. c #9D9996",
"%. c #9C9897",
"&. c #9E9A97",
"*. c #9C9996",
"=. c #9F9B98",
"-. c #9E9D99",
";. c #9F9E9A",
":. c #9E9E9C",
">. c #9E9B99",
",. c #A19D9A",
"<. c #A29E9B",
"1. c #A39F9C",
"2. c #A09E9F",
"3. c #A39F9E",
"4. c #A29E9B",
"5. c #A1A09C",
"6. c #A4A09D",
"7. c #A5A09D",
"8. c #A5A19E",
"9. c #A6A29F",
"0. c #A5A19E",
"q. c #A39FA0",
"w. c #A7A3A0",
"e. c #A3A2A1",
"r. c #A8A5A0",
"t. c #A8A4A1",
"y. c #A9A5A2",
"u. c #AAA6A3",
"i. c #ABA7A4",
"p. c #AAAAA8",
"a. c #AEAEAD",
"s. c #B2B1AF",
"d. c #B4B4B2",
"f. c #B9B9B7",
"g. c #B9B7B8",
"h. c #B9B9B8",
/* pixels */
"# # # # # # # # # # # # # # # # # # # # # # # # # # # # # # # # # # # # # # # # # # # # # # # # # # # # # # # # # # # # # # # # # # # # # # $ $ # ",
"# # # * % % * % * * % % @ @ % # # # . . o . X o o X # # # $ # $ + @ o o @   @ # % # @ # # @ @ @ # X . o o o o . . o % O # @ # @ # # $ % % $ # $ $ ",
"# # # t.w.w.6.w.6.P Q 0 - - 6.w.w.w.t.t.w.6.t.b S S - ; - i.t.t.i.t.t.x p.t.b A Y - ; , , 1 5 t.t.t.t.t.t.t.t.t.t.t.r.c S A x v - A A A 0 e # $ $ ",
"#   6.<.R k x x x x x S ; - &.+.[ z k k k k x x 9 8 = 1.6.6.a k k k x &.i x x x x l x 0 ; * &.5.:.k z k k x k z j j j 0 9 9 S S H H y q Y S 9 @ # ",
"# X 6.6.U x x x x x k S - ; =.o.| x x x x x x x 8 8 * -.6.6.i k x x x <.p x x x x x k w - * <.<.1.x x x x x x x x x x 7 0 0 S S A A r 0 T U 9 @ # ",
"# . 6.x x x x x x x n w - = u k x x x x x x x x w 0 - -.6.x x x x x x x x x x x x x z w * * <.k x x x x x x x x x x x k k 0 k x x x x x u y 9 @ # ",
"# . 1.k x x x x x x n w - - y x x x x x x x x x 0 0 - -.1.k x x x x x x x x x x x x l w * * <.k x x x x x x x x x x x x x k x x x x x x y y 8 + @ ",
"@   1.x x x x x x x n 0 * * 4 k x x x x x w 0 k 9 0 - n S x x x x x x x x x x x x w w w * * &.k x x x x x x x x x x x x x x x x x x x x w w 8 + # ",
"@   o.4 7 8 x x x x n 9 * * 4 > : 8 8 7 8 9 0 y 0 0 - x x x x x x x x x x x x x x x x w * * &.k x x x x x x x x x x x x x x x x x x x x w w 8 + # ",
"@   o.q w 8 x x x x x 9 * = 3 1 < 0 0 9 0 0 9 y 0 0 - x x x x x x x x x x x x x x x z w = * +.k x x x x x x x x x x x x x x x x x x x x w w 8 + # ",
"@ O s s s q 8 9 9 9 0 - y y ; 3 3 - - - - - - - = - - x x x x x x x x x x x x x x 0 w w - = x x x x x x x x x x x x x x x x x x x x x x w w 8 + # ",
"# O s u e 8 8 8 9 9 w - u u ; 3 3 - - - - - - - - - ; x k k x x x x x x x x x x x w w w - - x k x x x x x x x x x x x x x x x x x x x x w w 8 + # ",
"# @ ; ; ; ; * = - - * 4 4 3 ~ ~ ~ ~ ~ ( F P P F - - - y y 0 n x x x x x x x 9 0 0 w w w - * w w 0 x x x x x x x 0 0 x x x x x x x x x 9 0 0 8 @ # ",
"# + ; ; % O X . . X . - - ; ` ` ~ / / ` P A A P ; - ; u u w m x x x x x x x w w w w w w - = 0 w 0 x n S M S n n w w n x x x x x M x x 9 0 w 8 # # ",
"# O > - 4 6.6.6.6.w.6.1.1.<.&.x x x x x x X.X.k k x - u y w w 0 x x x w w 0 ; ; w w w w - = 9 9 w 0 0 w w w w w 9 0 0 x x x x n w w w 0 : , ; @ # ",
"# @ ; <.6.6.k x x x x x x x x x x x x x x x x k 0 0 - - ; 9 9 9 0 9 0 9 % ; 7 8 8 ; ; - - - - - - - - - - - - - 1 1 1 9 9 w 9 0 0 0 0 9 - ; 0 @ # ",
"# @ ; 5.1.w.x x x x x x x x x x x x x x x x x x 0 w * ; ; 9 9 0 w w 0 9 = ; 7 7 8 ; - - * * = = - - - - - - - - 1 1 1 0 w w w w 0 0 0 9 ; : 0 + # ",
"#   6.6.[ k x x x x x x x x x x x x x x x x x x w 0 < ; ; - = - - = - - - - - - * - = > 6.6.6.6.5.U U Y - - - - 1 1 ; = = * * * * * * * - - , @ # ",
"# . 6.x x x x x x x x x x x x x x x x x x x x x w w * ; > -.-.=.#.S Y 8 - - ; ; 1.:.-.+.k k z k k k k k x % - ; 1 1 -.=.-.-.=.%.+.+.o.B 0 6 * @ # ",
"#   1.k x x x x x x x x x x x x x x x x x x x k w w * : ; <.<.<.=.x P w # - ; > 1.6.6.6.x x x x x x x x x - - ; < 1 =.<.<.<.<.<.=.=.:.S 8 8 * # # ",
"# o S x x x x x x x x x x x x x x x x x x w 0 k w w % #.&.&.i x x x k k y e - ; 1.x x x x x x x x x x x r ; ; - -.=.x x x x x x x x x x x k e + # ",
"# O d x x x x x x x x x x x x x x x x x y g f u 0 w % o.#./ j x x x x d w w - - / x x x x x x x x x x x q ; = x +.+.x x x x x x x x x x x x 0 @ # ",
"# O 0 x x x x x x x x x x x x x x x x x w k n 0 0 w $ O.| x x x x x x w w w - - x x x x x x x x x x k x w - = &.&.#.x x x x x x x x x x x k 9 @ @ ",
"# O 0 x x x x x 0 x x x x x x 0 8 x x x x x n 0 w w % r y x x x x x x 0 w w - - x x x x x x x x x x 0 w w - - X.k x x x x x x x x x x x g 0 9 @ @ ",
"# O 9 x n x x M 8 x x x x x x 0 0 n n n x n n 0 y w % u y x x x x x x 0 w w - - x x x x x x x x k x 9 0 w - ; :.x x x x x x x x x x x x l 9 9 @ # ",
"@ O 0 y r 0 w 8 k k x x x k x 0 w w w w w w w w ; ; - w 0 x x x x x x 0 0 0 - > 8 x k x k k k k k S 0 w w = - 0 k x x x x x x x x x x x z l 9 @ @ ",
"# @ - , 1 0 - - 0 9 9 9 0 0 0 0 0 w w w w w 9 - ; - - * - 0 0 w w w w 0 ; ; ; - ; 0 w 0 w w w w w 0 0 9 ; - ; 9 x x x x x x x x x x x x u w 9 @ # ",
"# @ = , < 0 - - 0 0 0 0 0 0 9 0 0 0 0 0 0 0 w - ; - ; - - 0 0 0 w w 0 0 - ; - > > w 0 w w 0 w 0 0 0 0 8 ; ; ; 0 x x x x x x x x x x x x y w 9 + # ",
"# o 5 > > - - - = - - = = - - - - - - - - - - - 6 6 6 - - - - - - - - - 5 5 5 4 - - - - - - - - - - - - - - - 9 w 0 k x x x x k x x x x u e 9 @ # ",
"# O ; -.<.<.=.=.=.=.=.=.g s - 4 3 ; ; ; =.=.<.1.<.-.<.<.1.=.h x u ; 1 - ; - 5.<.1.1.1.=.k x =.=.=.#.; ; e - = 1 3 3 9 x k x x x x 9 0 8 i k 0 + # ",
"@ + > <.1.1.1.1.<.<.<.<.d f - 3 4 ; ; - 1.1.6.6.6.6.6.6.6.6.g S u > 2 - ; - 6.6.6.6.6.6.S x <.<.<.<.: > w = ; < 3 4 0 k x k z x z 8 w 8 d x 9 @ @ ",
"@ . 6.<.U k k k x x k x k x d , , ; r.1.<.k x k k k k k k k 7 w x r u = d.6.6.-.x x x x X.-.x x k k x x ; - - 0 - - 9 9 9 0 0 9 9 - - 0 9 0 9 @ @ ",
"@   1.h k x x x x x x x x x r - % -.<.<.b x x x x x x x x k g n k 0 0 % f.6.' / x x x x S A x x x x 0 0 - - ; * - - * % * # # # % - * # @ # # # # ",
"@   6.k x x x x x x x x x k r * = O.&.&.x x x x x x x x x x x x x 8 w % g.6.k x x x x x x x x x x x 9 9 = - - - - - - - - * * * * * * * * * * # # ",
"# . A x x x x x x x x x w w w % $ d X.| x x x x x x x x x x x x x 7 w % a.X.x x x x x x x x x x x x 9 9 - 3 2 &.&.=.<.<.<.<.b S S S b A w u - @ # ",
"# o H x x x x x x x x k w w w % % g l x x x x x x x x x x x x x n 0 w $ W x x x x x x x x x x x x x 9 9 - 1 3 &.e.e.1.q.1.<.x A x S S A r y & $ @ ",
"# o k x x x x x x x x x w w w $ # 9 x x x x x x x x x x x x x x w w w % Q x x x x x x x x x x x x x 9 9 % &.&.&.x k x x x k x k O.x x x P F x O # ",
"# X g x x x x x x x x x k k w % # 0 x x x x x x x x x x x x x x x 7 w % P x x x x x x x x x x x x x 9 0 % #.=.x x x x x x x k x x x x x y u 9 @ # ",
"# o g x x x x x x x x x x x w % $ 0 n x x x x x x k x k x x x x k 7 w % A x x x x x k x x x x x x x 9 9 % -.+.x x x x x x x x x x x x x y u 9 @ # ",
"# O r w r x q 8 x x x x w 9 9 % % ; w e x x k k k x x x 0 x 8 r w 0 0 % 9 8 x x x x x 0 k x x u u w 0 9 % w w x x x x x x x x x x x x x r u 9 @ # ",
"# o 0 w 0 w 0 e 0 0 0 0 9 0 * 7 5 - 8 0 0 0 0 0 0 9 0 0 9 w 8 0 0 @ $ * e 0 w 0 w 0 w w * - 0 e 9 0 % = * w 0 x x x x x x x x x 3 w 0 y y u 9 @ # ",
"# # * 0 0 0 0 0 0 0 9 0 9 0 * 5 5 - w 9 0 9 0 0 0 0 w 0 0 0 0 0 0 + * * r 9 w w w w 0 0 ; - 9 0 0 0 - * * 0 w k z k k x x x x k 2 0 w y y y 9 @ # ",
"# # - - - - - - - - - - = = - ; ; - - - - - - - - - - - = = = = = = * * - - - - - - - - - - - = - = * = - 1 1 0 0 9 0 x x x 9 w * 0 0 w w w 9 + @ ",
"# # - @ @ @ o @ @ @ # @ O O O @ @ @ @ @ # $ $ - % * - - - o + + @ O O * ; - = @ @ @ @ O @ O @ O O @ # @ # 4 2 w w w w j x n w w * w w w r w w # # ",
"# # = 5.6.6.6.6.6.P P A =.6.6.6.1.1.<.<.E F A - 8 8 - - - =.=.=.=.=.#.> ; - 5 7 <.<.<.<.<.<.<.1.<.<.S S S - = = = = - - - = * * * * * * * * * # # ",
"# X 5.+.P k k k k k x x k x k k k k g 0 r k x x : = - o.X.O.i k x k x x @ * =.o.+.x k k x k k k k k k z 9 [ O.[ < , - , , 5.:.1.1.1.-.5.x S ; @ # ",
"#   <.+.P x x x x x x x x x x x x x g w w k k k - ; - O.O.O.f x x x x x O * +.o.+.x x x x x x x x x x x w | [ ` > , - 1 1 &.<.<.<.<.<.&.k S ; @ # ",
"# . <.x x x x x x x x x x x x x x x x x 9 k x w - * r [ | x x x x x x w O % X.X.x x x x x x x x x x x x g x x k x x = &.&.=.k x x x x x x x 0 + # ",
"#   O.x x x x x x x x x x x x x x x x x 8 x x 0 - * w ] / x x x x k k 9 @ $ / T x x x x x x x x x x x x j x x x n M % -.&.O.x x x x x x m n 0 @ # ",
"# X S x x x x x x x x x x x x x x x x x x x x 0 % % 0 k k x x x x g g 8 O % k x x x x x x x x x x x x x x x x k 9 0 $ +.+.x x x x x x x n w 9 @ # ",
"# o x x x x x x x x x k x x x x x x x x x x k 0 * % 0 7 7 x k x k 8 9 * % % g l x x x x x x x x x x x x x x x x 8 9 % g x x x x x x x x n 0 0 @ # ",
"# X x x x x x x x x x x x x x x x x x x x x x 0 % % w 8 8 x g x x 5 0 - % % w r x x x x x x x x x x x x x x x k 8 8 % r y x x x x x x x m w 9 + @ ",
"# o g x x x x x x x x x x x x x x x x x x x x 0 * * ; 2 3 w w e 0 = ; e + % 0 w x x x x x x x x x x x x x x x e * * % w w x x x x x x x n w 9 @ # ",
"# X y x x x x k k x x x x x l x x x x x g g l 0 * * ; : ; 1 1 2 2 @ - 5 . % 0 9 0 0 0 x x x x x x x x x x l l w = % % 0 w 0 k k x x x x x 0 9 @ # ",
"# + 8 w M x x x k x k k x x 0 k x x x k w 9 9 0 * * ; = = * - = * = * > % % 0 0 0 0 0 k x k x 0 w x x x x w 9 7 1 1 % ; ; w q w q q q 0 0 w * # # ",
"# @ * w w q w w w q q w 9 0 0 - - q q q 0 * - ; - * 1.6.6.6.6.6.6.6.6.S X * * * * 0 0 w q 9 q 0 0 w w 9 9 0 w % ; ; * ; ; e e e w w w w w w * # # ",
"# # * 0 0 0 0 0 w 0 9 0 0 0 0 ; ; 0 0 0 w ; - ; ; - 1.1.1.6.6.6.6.6.<.S X * * * * 9 0 w w 0 9 9 9 w 0 0 0 0 w % ; ; * - - * % * * % * * * * * # # ",
"# o 5 : : * % % % % % % % % % * * - = * * 1.<.1.6.6.x x x x x x x x x x x x - - > - = * % % % % % % * * * * % - 1 3 +.+.+.+.+.+.+.+.+.+.X ; * @ # ",
"# O ; g.f.f.f.g.f.f.g.' ' ] 1 , , 1 , , :.k k k x k x x x x x x x t w x x x A d > 3 < e.] ] ] 3 1 ; , 1 u d.d.d.s.a.k k k x x x x k k x x m ; @ # ",
"# @ - 6.6.6.6.6.6.w.w.A A F 3 > , 3 , 1 [ k x x x x x x x x x x x 0 w x x x x g , 3 * [ S A A < 1 ; < , r <.1.1.<.&.x x x x x x x x x x x x - @ # ",
"#   ,.=.F x x x x x x k q w S : > = 6.&. .x x x x x x x x x x x x 8 w e x x q 0 * =.3.{ x x x k x = ' [ O.k k k x x x x x x x x x x x x x x 0 @ # ",
"#   %.<.D x x x x x x x w 0 m : ; - <.&.' x x x x x x x x x x x x 8 w e S x 9 7 = -.-.[ x x x x n * [ } O.x x x x x x x x x x x x x x x n x 0 @ # ",
"# o Y g l x x x x x x x x x x g l - -.&.x x x x x x x x x x x x x x x x x x w w $ z k x x x x 8 0 * / ~ x x x x x x x x x x x x x x x x l w 0 @ # ",
"# o x g w w x x x x x x x x x 0 8 - x k x x x x x x x x x x x x x x x x x x w w % e r x x x x 9 0 * x x x x x x x x x x x x x x x x x w m x 0 @ # ",
"# . x g w w x x x x x x x x x 0 9 = x x x x x x x x x x x x x x x x x x x x 0 w % r e x x x x 8 0 * x x x x x x x x x x x x x x x x x w m x 9 @ # ",
"# o x y k x x x x x x x x x x 0 0 - x x x x x x x x x x x x x x x x x x 8 w 0 8 % w 9 x x x w 0 w = k k x x x x x x x x x x x x x x x 0 m x 0 @ @ ",
"# O 8 w x x x x x x x x x x 0 w 0 - w 0 0 k k x x x x x x x 8 8 x x x 0 0 w * ; % < , 0 w 0 w w 8 = 9 0 k w 9 x x x x x x x x x x x x 8 n x 0 + # ",
"# O w w n x k x x x x k k x w w 0 - 0 0 q k k k x x x x x x 6 0 x k x 0 0 0 - - % , > 0 0 w w w 0 = 0 0 k 0 0 x x x x x x x x x x x x 8 x k 0 + # ",
"# O 3 w w w w 8 x x x 0 0 0 w 0 0 - 0 9 0 w w w 8 8 x k k x # - 0 w w w % - P M r > ; 9 ; ; - - - - 9 0 9 - * x x x x x x x 9 w x 0 w ; r 0 0 @ # ",
"# O 3 w w w 8 7 k z x 0 0 0 8 8 0 - 9 8 0 w w w 9 8 j z z k + - 0 w w w * ; b J w > : 8 ; ; ; - * - 8 8 8 , > j j j j j j j w q z 8 8 - e 0 8 O # ",
"# # # 0 9 9 - = 9 9 9 9 - - - - - - - - 9 0 0 0 0 0 0 9 0 - - - 0 9 0 - - - < , 5 - - - - - 9 3 4 - - - - 0 9 9 9 9 9 9 9 0 0 0 0 > - w 8 9 # # # ",
"# # # + + + # # + @ # # # # @ # # # @ @ @ + @ # # @ @ @ @ # @ @ @ @ # # @ @ @ # # @ # @ # # @ # # # # @ # @ @ @ @ @ @ # # @ @ @ @ # # # @ # # # # ",
"# # # # # # # # # # # # # # # # # # # # # # # # # # # # # # # # # # # # # # # # # # # # # # # # # # # # # # # # # # # # # # # # # # # # # # # # # "
};
