/* XPM */
static const char *wall_30[] = {
/* columns rows colors chars-per-pixel */
"30 30 214 2 ",
"   c #121317",
".  c #101417",
"X  c #141517",
"o  c #111518",
"O  c #131418",
"+  c #121619",
"@  c #13171A",
"#  c #13161B",
"$  c #141519",
"%  c #15161A",
"&  c #15161B",
"*  c #16171B",
"=  c #14181B",
"-  c #18191D",
";  c #191A1E",
":  c #191A1F",
">  c #1A1B1F",
",  c #1B1C1E",
"<  c #1C1D1F",
"1  c #1B1C20",
"2  c #1C1D21",
"3  c #1D1E20",
"4  c #1E1F21",
"5  c #1D1E22",
"6  c #1E1F23",
"7  c #1F2024",
"8  c #212025",
"9  c #202125",
"0  c #222325",
"q  c #212226",
"w  c #222327",
"e  c #232426",
"r  c #232428",
"t  c #222629",
"y  c #242529",
"u  c #25262A",
"i  c #26272B",
"p  c #27282C",
"a  c #28282A",
"s  c #28292D",
"d  c #292A2E",
"f  c #2A2B2F",
"g  c #2B2C30",
"h  c #2F3034",
"j  c #2F3035",
"k  c #2F3237",
"l  c #313236",
"z  c #323337",
"x  c #333438",
"c  c #343539",
"v  c #36373B",
"b  c #393A3C",
"n  c #38393E",
"m  c #3A3B3F",
"M  c #393C41",
"N  c #3D3E42",
"B  c #3E3F43",
"V  c #3C3F44",
"C  c #3F4044",
"Z  c #3F4045",
"A  c #3E4245",
"S  c #414548",
"D  c #414449",
"F  c #45464A",
"G  c #45464B",
"H  c #46474B",
"J  c #44474C",
"K  c #46474C",
"L  c #44484B",
"P  c #45494C",
"I  c #45484D",
"U  c #44494D",
"Y  c #47484C",
"T  c #464A4D",
"R  c #464B4E",
"E  c #474B4E",
"W  c #474A4F",
"Q  c #474C4F",
"!  c #48494D",
"~  c #48494E",
"^  c #494A4E",
"/  c #4A4B4F",
"(  c #484C4F",
")  c #4C4D4F",
"_  c #484B50",
"`  c #4A4B50",
"'  c #484B52",
"]  c #494D50",
"[  c #494C51",
"{  c #4B4C50",
"}  c #4A4E51",
"|  c #4B4F52",
" . c #4C4D51",
".. c #4D4E50",
"X. c #4D4E52",
"o. c #4F5054",
"O. c #4E5255",
"+. c #505155",
"@. c #515254",
"#. c #515256",
"$. c #505455",
"%. c #535554",
"&. c #535456",
"*. c #575556",
"=. c #545559",
"-. c #55565A",
";. c #56575B",
":. c #575958",
">. c #57585C",
",. c #545C5F",
"<. c #58595B",
"1. c #58595D",
"2. c #5C5D5F",
"3. c #5F6062",
"4. c #606163",
"5. c #636162",
"6. c #626463",
"7. c #616264",
"8. c #626365",
"9. c #636466",
"0. c #646567",
"q. c #696866",
"w. c #696967",
"e. c #676968",
"r. c #67686A",
"t. c DimGray",
"y. c #696B68",
"u. c #686A69",
"i. c #6A6A68",
"p. c #6B6B69",
"a. c #68686A",
"s. c #68696B",
"d. c #696B6A",
"f. c #6A6A6A",
"g. c gray42",
"h. c #686C6B",
"j. c #6B6D6A",
"k. c #6A6C6B",
"l. c #6C6C6A",
"z. c #6D6D6B",
"x. c #6E6D6B",
"c. c #6C6E6B",
"v. c #696A6C",
"b. c #6A6A6C",
"n. c #6A6B6D",
"m. c #6B6B6D",
"M. c #696D6C",
"N. c #686C6D",
"B. c #6B6D6C",
"V. c #6B6C6E",
"C. c #6C6C6C",
"Z. c #6D6D6D",
"A. c #6C6E6D",
"S. c #6E6E6C",
"D. c #6C6D6F",
"F. c #71716F",
"G. c #6C6D71",
"H. c #6D6E70",
"J. c #717171",
"K. c #707271",
"L. c #727272",
"P. c #727471",
"I. c #757573",
"U. c #767573",
"Y. c #747474",
"T. c gray46",
"R. c #757776",
"E. c #777777",
"W. c #787876",
"Q. c gray47",
"!. c #797979",
"~. c #7C7A7B",
"^. c gray49",
"/. c #807F7D",
"(. c #848381",
"). c #878684",
"_. c #8B8B8B",
"`. c #928E8D",
"'. c #91908E",
"]. c #979392",
"[. c #979692",
"{. c #999594",
"}. c #9A9695",
"|. c #9B9796",
" X c #9D9797",
".X c #9B9A96",
"XX c #9C9897",
"oX c #9C9B97",
"OX c #9E9A97",
"+X c #9B9A98",
"@X c #9D9998",
"#X c #9E9D98",
"$X c #9E9D9B",
"%X c #9F9E9A",
"&X c #A09C99",
"*X c #A19E99",
"=X c #A19D9A",
"-X c #A09C9B",
";X c #A09F9B",
":X c #A29E9B",
">X c #A39F9C",
",X c #A39F9E",
"<X c #A3A09B",
"1X c #A1A09C",
"2X c #A2A19D",
"3X c #A4A09D",
"4X c #A5A29D",
"5X c #A5A19E",
"6X c #A4A39F",
"7X c #A7A29E",
"8X c #A6A29F",
"9X c #A7A49F",
"0X c #A5A4A2",
"qX c #A8A3A0",
/* pixels */
"$ o o o $ o o o o $ o $ o o o o $ $ $ $ o o o o o o $ @ $ = ",
"o ,XC.g.P.8 ].g.k.B.D &Xl.m.&XC.k.#.8 OXg.m.k.g.P _ R.{ W.$ ",
". g.B.B.X.8 B.B.B.k.^ ,XB.C.B.C.C.X.6 g.C.C.C.B.B.P C.C.;.  ",
". m B.B.P 6 p L L ;.^ B.C.C.C.C.C.#.6 g.C.C.C.B.C.B.C.C.{   ",
"o ,.L P 8 ;.v 8 8 8 8 k.B.C.C.C.B.{ 8 B.C.B.C.B.C.C.B.C.{ o ",
"$ y 8 8 m m (.).Q.Q.8 >.0.C.G.B.{ { 8 { g.g.g.{ C.C.B.^ ^ o ",
"o 6X5.l.l.g.B.k.B.g.{ y P Q ^ r G r 8 8 8 8 8 z Q Q ^ ^ y o ",
"o 0Xk.C.C.C.B.C.C.k.{ s 6 7 , 8 < e 6X6X^.8 8 z < < , 1 8 $ ",
"o k.B.B.C.B.k.B.k.r.{ OXC.B.g.o.&XB.B.C.C.#.8 }.B.C.C.C.B.o ",
"o C.B.^ B.B.X.C.B.P { &.B.C.P { B.C.C.C.C.{ *.k.C.C.C.C.P   ",
"  >.{ g.B.g.^ { { { y P B.k.K ^ K g.k.k.J.{ 6 B.C.C.C.C.r.  ",
"o g 8 8 8 8 8 8 7 8 V 8 8 8 8 M 8 8 8 8 8 8 6 X.k.B.C.k.o.o ",
"o &X,X&X&X3.v r ,X6X6X6XF.1.8 r 6X6XJ.&X$XX.8 v r.r.g.^ r.o ",
". g.B.k.k.g.7 }.B.C.B.B.k.k.- 9XC.C.B.B.B.7 8 8 8 7 6 6 1 o ",
"o B.C.B.k.{ - T.B.C.C.C.C.g.$ l.C.C.C.C.k.8 a &X&X&XJ.U.>.o ",
"o B.C.C.B.g.- 0.C.B.C.B.B.k.= C.C.B.C.B.k.- OXk.C.C.C.C.>.o ",
"o { #.k.g.^ - A w.w.w.{ :.^ 1 G l.&.g.<.#.1 B.C.C.B.l.g.>.o ",
"o 8 8 8 8 7 y 8 8 8 8 7 7 7 6 8 8 8 8 7 7 8 P P k.l.6 ^ {   ",
"o <X6X6XT.6X2X$X/.8 G 8 .X+Xy r @X&X$X2X$XJ.8 7 7 8 6 6 < o ",
"o B.k.k.B.C.k.k.^ X.6 '.k.C.^ - B.C.C.C.B.6.C.B. X&XC.C.B.  ",
"o C.C.B.B.B.C.k.k.^ - g.B.k.K - B.C.B.B.C.C.k.( [.C.C.C.{ o ",
"o B.C.k.k.k.B.B.k.P 1 v { ( o.- B.B.C.C.B.B.r.6 { k.C.C.{   ",
"o { C.g.g.g.m.C.( ( 6 7 8 6 s - ^ 3.g.( k.B.D z y ( _ _ { o ",
"$ s - - - - 6 7 - ,XqXB.g.g.g.G.s 6 - - 1 - 6 x }.}.}.}.8 $ ",
"o 6X6X6XU.~.s k `.B.B.C.C.B.k.C.s #.T.k r &.&X&XC.C.C.C.C.$ ",
"X 9.B.C.B.B.3._.C.B.C.C.C.B.m.B.- m.C.G < B.k.B.C.C.C.C.{ o ",
"o 5.C.C.C.B.^ 2.B.B.C.C.C.B.B.k.- 7.C.G 7 C.C.C.C.C.C.;.B.  ",
"o X.C.B.B.B.{ A { g.k.k.) k.^ ^ - N { { 8 k.7.C.B.B.C.;.g.o ",
"$ { { C.^ { ^ N ^ { G g.s ^ { 8 o.A y 8 7 ^ >.k.k.B.B.k ^ o ",
"$ $ $ $ $ $ o $ o o o o $ o $ o o $ $ $ o $ $ $ @ @ $ $ $ $ "
};
